P3
400 225
255
215 232 255
215 232 255
215 232 255
215 232 255
215 232 255
215 232 255
215 232 255
215 232 255
215 232 255
215 232 255
215 232 255
215 232 255
215 232 255
215 232 255
215 232 255
215 232 255
215 232 255
215 232 255
215 232 255
215 232 255
215 232 255
215 232 255
215 232 255
215 232 255
215 232 255
215 232 255
215 232 255
215 232 255
215 232 255
215 232 255
215 232 255
215 232 255
215 232 255
215 232 255
215 232 255
215 232 255
215 232 255
215 232 255
215 232 255
215 232 255
215 232 255
215 232 255
215 232 255
215 232 255
215 232 255
215 232 255
215 232 255
215 232 255
215 232 255
215 232 255
215 232 255
215 232 255
215 232 255
215 232 255
215 232 255
215 232 255
215 232 255
215 232 255
215 232 255
215 232 255
215 232 255
215 232 255
215 232 255
215 232 255
215 232 255
215 232 255
215 232 255
215 232 255
215 232 255
215 232 255
215 232 255
215 232 255
215 232 255
215 232 255
215 232 255
215 232 255
215 232 255
215 232 255
215 232 255
215 232 255
215 232 255
215 232 255
215 232 255
215 232 255
215 232 255
215 232 255
215 232 255
215 232 255
215 232 255
215 232 255
215 232 255
215 232 255
215 232 255
215 232 255
215 232 255
215 232 255
215 232 255
215 232 255
215 232 255
215 232 255
215 232 255
215 232 255
215 232 255
215 232 255
215 232 255
215 232 255
215 232 255
215 232 255
215 232 255
215 232 255
215 232 255
215 232 255
215 232 255
215 232 255
215 232 255
215 232 255
215 232 255
215 232 255
215 232 255
215 232 255
215 232 255
215 232 255
215 232 255
215 232 255
215 232 255
215 232 255
215 232 255
215 232 255
215 232 255
215 232 255
215 232 255
215 232 255
215 232 255
215 232 255
215 232 255
215 232 255
215 232 255
215 232 255
215 232 255
215 232 255
215 232 255
215 232 255
215 232 255
215 232 255
215 232 255
215 232 255
215 232 255
215 232 255
215 232 255
215 232 255
215 232 255
215 232 255
215 232 255
215 232 255
215 232 255
215 232 255
215 232 255
215 232 255
215 232 255
215 232 255
215 232 255
215 232 255
215 232 255
215 232 255
215 232 255
215 232 255
215 232 255
215 232 255
215 232 255
215 232 255
215 232 255
215 232 255
215 232 255
215 232 255
215 232 255
215 232 255
215 232 255
215 232 255
215 232 255
215 232 255
215 232 255
215 232 255
215 232 255
215 232 255
215 232 255
215 232 255
215 232 255
215 232 255
215 232 255
215 232 255
215 232 255
215 232 255
215 232 255
215 232 255
215 232 255
215 232 255
215 232 255
215 232 255
215 232 255
215 232 255
215 232 255
215 232 255
215 232 255
215 232 255
215 232 255
215 232 255
215 232 255
215 232 255
215 232 255
215 232 255
215 232 255
215 232 255
215 232 255
215 232 255
215 232 255
215 232 255
215 232 255
215 232 255
215 232 255
215 232 255
215 232 255
215 232 255
215 232 255
215 232 255
215 232 255
215 232 255
215 232 255
215 232 255
215 232 255
215 232 255
215 232 255
215 232 255
215 232 255
215 232 255
215 232 255
215 232 255
215 232 255
215 232 255
215 232 255
215 232 255
215 232 255
215 232 255
215 232 255
215 232 255
215 232 255
215 232 255
215 232 255
215 232 255
215 232 255
215 232 255
215 232 255
215 232 255
215 232 255
215 232 255
215 232 255
215 232 255
215 232 255
215 232 255
215 232 255
215 232 255
215 232 255
215 232 255
215 232 255
215 232 255
215 232 255
215 232 255
215 232 255
215 232 255
215 232 255
215 232 255
215 232 255
215 232 255
215 232 255
215 232 255
215 232 255
215 232 255
215 232 255
215 232 255
215 232 255
215 232 255
215 232 255
215 232 255
215 232 255
215 232 255
215 232 255
215 232 255
215 232 255
215 232 255
215 232 255
215 232 255
215 232 255
215 232 255
215 232 255
215 232 255
215 232 255
215 232 255
215 232 255
215 232 255
215 232 255
215 232 255
215 232 255
215 232 255
215 232 255
215 232 255
215 232 255
215 232 255
215 232 255
215 232 255
215 232 255
215 232 255
215 232 255
215 232 255
215 232 255
215 232 255
215 232 255
215 232 255
215 232 255
215 232 255
215 232 255
215 232 255
215 232 255
215 232 255
215 232 255
215 232 255
215 232 255
215 232 255
215 232 255
215 232 255
215 232 255
215 232 255
215 232 255
215 232 255
215 232 255
215 232 255
215 232 255
215 232 255
215 232 255
215 232 255
215 232 255
215 232 255
215 232 255
215 232 255
215 232 255
215 232 255
215 232 255
215 232 255
215 232 255
215 232 255
215 232 255
215 232 255
215 232 255
215 232 255
215 232 255
215 232 255
215 232 255
215 232 255
215 232 255
215 232 255
215 232 255
215 232 255
215 232 255
215 232 255
215 232 255
215 232 255
215 232 255
215 232 255
215 232 255
215 232 255
215 232 255
215 232 255
215 232 255
215 232 255
215 232 255
215 232 255
215 232 255
215 232 255
215 232 255
215 232 255
215 232 255
215 232 255
215 232 255
215 232 255
215 232 255
215 232 255
215 232 255
215 232 255
215 232 255
215 232 255
215 232 255
215 232 255
215 232 255
215 232 255
215 232 255
215 232 255
215 232 255
215 232 255
215 232 255
215 232 255
215 232 255
215 232 255
215 232 255
215 232 255
215 232 255
215 232 255
215 232 255
215 232 255
215 232 255
215 232 255
215 232 255
215 232 255
215 232 255
215 232 255
215 232 255
215 232 255
215 232 255
215 232 255
215 232 255
215 232 255
215 232 255
215 232 255
215 232 255
215 232 255
215 232 255
215 232 255
215 232 255
215 232 255
215 232 255
215 232 255
215 232 255
215 232 255
215 232 255
215 232 255
215 232 255
215 232 255
215 232 255
215 232 255
215 232 255
215 232 255
215 232 255
215 232 255
215 232 255
215 232 255
215 232 255
215 232 255
215 232 255
215 232 255
215 232 255
215 232 255
215 232 255
215 232 255
215 232 255
215 232 255
215 232 255
215 232 255
215 232 255
215 232 255
215 232 255
215 232 255
215 232 255
215 232 255
215 232 255
215 232 255
215 232 255
215 232 255
215 232 255
215 232 255
215 232 255
215 232 255
215 232 255
215 232 255
215 232 255
215 232 255
215 232 255
215 232 255
215 232 255
215 232 255
215 232 255
215 232 255
215 232 255
215 232 255
215 232 255
215 232 255
215 232 255
215 232 255
215 232 255
215 232 255
215 232 255
215 232 255
215 232 255
215 232 255
215 232 255
215 232 255
215 232 255
215 232 255
215 232 255
215 232 255
215 232 255
215 232 255
215 232 255
215 232 255
215 232 255
215 232 255
215 232 255
215 232 255
215 232 255
215 232 255
215 232 255
215 232 255
215 232 255
215 232 255
215 232 255
215 232 255
215 232 255
215 232 255
215 232 255
215 232 255
215 232 255
215 232 255
215 232 255
215 232 255
215 232 255
215 232 255
215 232 255
215 232 255
215 232 255
215 232 255
215 232 255
215 232 255
215 232 255
215 232 255
215 232 255
215 232 255
215 232 255
215 232 255
215 232 255
215 232 255
215 232 255
215 232 255
215 232 255
215 232 255
215 232 255
215 232 255
215 232 255
215 232 255
215 232 255
215 232 255
215 232 255
215 232 255
215 232 255
215 232 255
215 232 255
215 232 255
215 232 255
215 232 255
215 232 255
215 232 255
215 232 255
215 232 255
215 232 255
215 232 255
215 232 255
215 232 255
215 232 255
215 232 255
215 232 255
215 232 255
215 232 255
215 232 255
215 232 255
215 232 255
215 232 255
215 232 255
215 232 255
215 232 255
215 232 255
215 232 255
215 232 255
215 232 255
215 232 255
215 232 255
215 232 255
215 232 255
215 232 255
215 232 255
215 232 255
215 232 255
215 232 255
215 232 255
215 232 255
215 232 255
215 232 255
215 232 255
215 232 255
215 232 255
215 232 255
215 232 255
215 232 255
215 232 255
215 232 255
215 232 255
215 232 255
215 232 255
215 232 255
215 232 255
215 232 255
215 232 255
215 232 255
215 232 255
215 232 255
215 232 255
215 232 255
215 232 255
215 232 255
215 232 255
215 232 255
215 232 255
215 232 255
215 232 255
215 232 255
215 232 255
215 232 255
215 232 255
215 232 255
215 232 255
215 232 255
215 232 255
215 232 255
215 232 255
215 232 255
215 232 255
215 232 255
215 232 255
215 232 255
215 232 255
215 232 255
215 232 255
215 232 255
215 232 255
215 232 255
215 232 255
215 232 255
215 232 255
215 232 255
215 232 255
215 232 255
215 232 255
215 232 255
215 232 255
215 232 255
215 232 255
215 232 255
215 232 255
215 232 255
215 232 255
215 232 255
215 232 255
215 232 255
215 232 255
215 232 255
215 232 255
215 232 255
215 232 255
215 232 255
215 232 255
215 232 255
215 232 255
215 232 255
215 232 255
215 232 255
215 232 255
215 232 255
215 232 255
215 232 255
215 232 255
215 232 255
215 232 255
215 232 255
215 232 255
215 232 255
215 232 255
215 232 255
215 232 255
215 232 255
215 232 255
215 232 255
215 232 255
215 232 255
215 232 255
215 232 255
215 232 255
215 232 255
215 232 255
215 232 255
215 232 255
215 232 255
215 232 255
215 232 255
215 232 255
215 232 255
215 232 255
215 232 255
215 232 255
215 232 255
215 232 255
215 232 255
215 232 255
215 232 255
215 232 255
215 232 255
215 232 255
215 232 255
215 232 255
215 232 255
215 232 255
215 232 255
215 232 255
215 232 255
215 232 255
215 232 255
215 232 255
215 232 255
215 232 255
215 232 255
215 232 255
215 232 255
215 232 255
215 232 255
215 232 255
215 232 255
215 232 255
215 232 255
215 232 255
215 232 255
215 232 255
215 232 255
215 232 255
215 232 255
215 232 255
215 232 255
215 232 255
215 232 255
215 232 255
215 232 255
215 232 255
215 232 255
215 232 255
215 232 255
215 232 255
215 232 255
215 232 255
215 232 255
215 232 255
215 232 255
215 232 255
215 232 255
215 232 255
215 232 255
215 232 255
215 232 255
215 232 255
215 232 255
215 232 255
215 232 255
215 232 255
215 232 255
215 232 255
215 232 255
215 232 255
215 232 255
215 232 255
215 232 255
215 232 255
215 232 255
215 232 255
215 232 255
215 232 255
215 232 255
215 232 255
215 232 255
215 232 255
215 232 255
215 232 255
215 232 255
215 232 255
215 232 255
215 232 255
215 232 255
215 232 255
215 232 255
215 232 255
215 232 255
215 232 255
215 232 255
215 232 255
215 232 255
215 232 255
215 232 255
215 232 255
215 232 255
215 232 255
215 232 255
215 232 255
215 232 255
215 232 255
215 232 255
215 232 255
215 232 255
215 232 255
215 232 255
215 232 255
215 232 255
215 232 255
215 232 255
215 232 255
215 232 255
215 232 255
215 232 255
215 232 255
215 232 255
215 232 255
215 232 255
215 232 255
215 232 255
215 232 255
215 232 255
215 232 255
215 232 255
215 232 255
215 232 255
215 232 255
215 232 255
215 232 255
215 232 255
215 232 255
215 232 255
215 232 255
215 232 255
215 232 255
215 232 255
215 232 255
215 232 255
215 232 255
215 232 255
215 232 255
215 232 255
215 232 255
215 232 255
215 232 255
215 232 255
215 232 255
215 232 255
215 232 255
215 232 255
215 232 255
215 232 255
215 232 255
215 232 255
215 232 255
215 232 255
215 232 255
215 232 255
215 232 255
215 232 255
215 232 255
215 232 255
215 232 255
215 232 255
215 232 255
215 232 255
215 232 255
215 232 255
215 232 255
215 232 255
215 232 255
215 232 255
215 232 255
215 232 255
215 232 255
215 232 255
215 232 255
215 232 255
215 232 255
215 232 255
215 232 255
215 232 255
215 232 255
215 232 255
215 232 255
215 232 255
215 232 255
215 232 255
215 232 255
215 232 255
215 232 255
215 232 255
215 232 255
215 232 255
215 232 255
215 232 255
215 232 255
215 232 255
215 232 255
215 232 255
215 232 255
215 232 255
215 232 255
215 232 255
215 232 255
215 232 255
215 232 255
215 232 255
215 232 255
215 232 255
215 232 255
215 232 255
215 232 255
215 232 255
215 232 255
215 232 255
215 232 255
215 232 255
215 232 255
215 232 255
215 232 255
215 232 255
215 232 255
215 232 255
215 232 255
215 232 255
215 232 255
215 232 255
215 232 255
215 232 255
215 232 255
215 232 255
215 232 255
215 232 255
215 232 255
215 232 255
215 232 255
215 232 255
215 232 255
215 232 255
215 232 255
215 232 255
215 232 255
215 232 255
215 232 255
215 232 255
215 232 255
215 232 255
215 232 255
215 232 255
215 232 255
215 232 255
215 232 255
215 232 255
215 232 255
215 232 255
215 232 255
215 232 255
215 232 255
215 232 255
215 232 255
215 232 255
215 232 255
215 232 255
215 232 255
215 232 255
215 232 255
215 232 255
215 232 255
215 232 255
215 232 255
215 232 255
215 232 255
215 232 255
215 232 255
215 232 255
215 232 255
215 232 255
215 232 255
215 232 255
215 232 255
215 232 255
215 232 255
215 232 255
215 232 255
215 232 255
215 232 255
215 232 255
215 232 255
215 232 255
215 232 255
215 232 255
215 232 255
215 232 255
215 232 255
215 232 255
215 232 255
215 232 255
215 232 255
215 232 255
215 232 255
215 232 255
215 232 255
215 232 255
215 232 255
215 232 255
215 232 255
215 232 255
215 232 255
215 232 255
215 232 255
215 232 255
215 232 255
215 232 255
215 232 255
215 232 255
215 232 255
215 232 255
215 232 255
215 232 255
215 232 255
215 232 255
215 232 255
215 232 255
215 232 255
215 232 255
215 232 255
215 232 255
215 232 255
215 232 255
215 232 255
215 232 255
215 232 255
215 232 255
215 232 255
215 232 255
215 232 255
215 232 255
215 232 255
215 232 255
215 232 255
215 232 255
215 232 255
215 232 255
215 232 255
215 232 255
215 232 255
215 232 255
215 232 255
215 232 255
215 232 255
215 232 255
215 232 255
215 232 255
215 232 255
215 232 255
215 232 255
215 232 255
215 232 255
215 232 255
215 232 255
215 232 255
215 232 255
215 232 255
215 232 255
215 232 255
215 232 255
215 232 255
215 232 255
215 232 255
215 232 255
215 232 255
215 232 255
215 232 255
215 232 255
215 232 255
215 232 255
215 232 255
215 232 255
215 232 255
215 232 255
215 232 255
215 232 255
215 232 255
215 232 255
215 232 255
215 232 255
215 232 255
215 232 255
215 232 255
215 232 255
215 232 255
215 232 255
215 232 255
215 232 255
215 232 255
215 232 255
215 232 255
215 232 255
215 232 255
215 232 255
215 232 255
215 232 255
215 232 255
215 232 255
215 232 255
215 232 255
215 232 255
215 232 255
215 232 255
215 232 255
215 232 255
215 232 255
215 232 255
215 232 255
215 232 255
215 232 255
215 232 255
215 232 255
215 232 255
215 232 255
215 232 255
215 232 255
215 232 255
215 232 255
215 232 255
215 232 255
215 232 255
215 232 255
215 232 255
215 232 255
215 232 255
215 232 255
215 232 255
215 232 255
215 232 255
215 232 255
215 232 255
215 232 255
215 232 255
215 232 255
215 232 255
215 232 255
215 232 255
215 232 255
215 232 255
215 232 255
215 232 255
215 232 255
215 232 255
215 232 255
215 232 255
215 232 255
215 232 255
215 232 255
215 232 255
215 232 255
215 232 255
215 232 255
215 232 255
215 232 255
215 232 255
215 232 255
215 232 255
215 232 255
215 232 255
215 232 255
215 232 255
215 232 255
215 232 255
215 232 255
215 232 255
215 232 255
215 232 255
215 232 255
215 232 255
215 232 255
215 232 255
215 232 255
215 232 255
215 232 255
215 232 255
215 232 255
215 232 255
215 232 255
215 232 255
215 232 255
215 232 255
215 232 255
215 232 255
215 232 255
215 232 255
215 232 255
215 232 255
215 232 255
215 232 255
215 232 255
215 232 255
215 232 255
215 232 255
215 232 255
215 232 255
215 232 255
215 232 255
215 232 255
215 232 255
215 232 255
215 232 255
215 232 255
215 232 255
215 232 255
215 232 255
215 232 255
215 232 255
215 232 255
215 232 255
215 232 255
215 232 255
215 232 255
215 232 255
215 232 255
215 232 255
215 232 255
215 232 255
215 232 255
215 232 255
215 232 255
215 232 255
215 232 255
215 232 255
215 232 255
215 232 255
215 232 255
215 232 255
215 232 255
215 232 255
215 232 255
215 232 255
215 232 255
215 232 255
215 232 255
215 232 255
215 232 255
215 232 255
215 232 255
215 232 255
215 232 255
215 232 255
215 232 255
215 232 255
215 232 255
215 232 255
215 232 255
215 232 255
215 232 255
215 232 255
215 232 255
215 232 255
215 232 255
215 232 255
215 232 255
215 232 255
215 232 255
215 232 255
215 232 255
215 232 255
215 232 255
215 232 255
215 232 255
215 232 255
215 232 255
215 232 255
215 232 255
215 232 255
215 232 255
215 232 255
215 232 255
215 232 255
215 232 255
215 232 255
215 232 255
215 232 255
215 232 255
215 232 255
215 232 255
215 232 255
215 232 255
215 232 255
215 232 255
215 232 255
215 232 255
215 232 255
215 232 255
215 232 255
215 232 255
215 232 255
215 232 255
215 232 255
215 232 255
215 232 255
215 232 255
215 232 255
215 232 255
215 232 255
215 232 255
215 232 255
215 232 255
215 232 255
215 232 255
215 232 255
215 232 255
215 232 255
215 232 255
215 232 255
215 232 255
215 232 255
215 232 255
215 232 255
215 232 255
215 232 255
215 232 255
215 232 255
215 232 255
215 232 255
215 232 255
215 232 255
215 232 255
215 232 255
215 232 255
215 232 255
215 232 255
215 232 255
215 232 255
215 232 255
215 232 255
215 232 255
215 232 255
215 232 255
215 232 255
215 232 255
215 232 255
215 232 255
215 232 255
215 232 255
215 232 255
215 232 255
215 232 255
215 232 255
215 232 255
215 232 255
215 232 255
215 232 255
215 232 255
215 232 255
215 232 255
215 232 255
215 232 255
215 232 255
215 232 255
215 232 255
215 232 255
215 232 255
215 232 255
215 232 255
215 232 255
215 232 255
215 232 255
215 232 255
215 232 255
215 232 255
215 232 255
215 232 255
215 232 255
215 232 255
215 232 255
215 232 255
215 232 255
215 232 255
215 232 255
215 232 255
215 232 255
215 232 255
215 232 255
215 232 255
215 232 255
215 232 255
215 232 255
215 232 255
215 232 255
215 232 255
215 232 255
215 232 255
215 232 255
215 232 255
215 232 255
215 232 255
215 232 255
215 232 255
215 232 255
215 232 255
215 232 255
215 232 255
215 232 255
215 232 255
215 232 255
215 232 255
215 232 255
215 232 255
215 232 255
215 232 255
215 232 255
215 232 255
215 232 255
215 232 255
215 232 255
215 232 255
215 232 255
215 232 255
215 232 255
215 232 255
215 232 255
215 232 255
215 232 255
215 232 255
215 232 255
215 232 255
215 232 255
215 232 255
215 232 255
215 232 255
215 232 255
215 232 255
215 232 255
215 232 255
215 232 255
215 232 255
215 232 255
215 232 255
215 232 255
215 232 255
215 232 255
215 232 255
215 232 255
215 232 255
215 232 255
215 232 255
215 232 255
215 232 255
215 232 255
215 232 255
215 232 255
215 232 255
215 232 255
215 232 255
215 232 255
215 232 255
215 232 255
215 232 255
215 232 255
215 232 255
215 232 255
215 232 255
215 232 255
215 232 255
215 232 255
215 232 255
215 232 255
215 232 255
215 232 255
215 232 255
215 232 255
215 232 255
215 232 255
215 232 255
215 232 255
215 232 255
215 232 255
215 232 255
215 232 255
215 232 255
215 232 255
215 232 255
215 232 255
215 232 255
215 232 255
215 232 255
215 232 255
215 232 255
215 232 255
215 232 255
215 232 255
215 232 255
215 232 255
215 232 255
215 232 255
215 232 255
215 232 255
215 232 255
215 232 255
215 232 255
215 232 255
215 232 255
215 232 255
215 232 255
215 232 255
215 232 255
215 232 255
215 232 255
215 232 255
215 232 255
215 232 255
215 232 255
215 232 255
215 232 255
215 232 255
215 232 255
215 232 255
215 232 255
215 232 255
215 232 255
215 232 255
215 232 255
215 232 255
215 232 255
215 232 255
215 232 255
215 232 255
215 232 255
215 232 255
215 232 255
215 232 255
215 232 255
215 232 255
215 232 255
215 232 255
215 232 255
215 232 255
215 232 255
215 232 255
215 232 255
215 232 255
215 232 255
215 232 255
215 232 255
215 232 255
215 232 255
215 232 255
215 232 255
215 232 255
215 232 255
215 232 255
215 232 255
215 232 255
215 232 255
215 232 255
215 232 255
215 232 255
215 232 255
215 232 255
215 232 255
215 232 255
215 232 255
215 232 255
215 232 255
215 232 255
215 232 255
215 232 255
215 232 255
215 232 255
215 232 255
215 232 255
215 232 255
215 232 255
215 232 255
215 232 255
215 232 255
215 232 255
215 232 255
215 232 255
215 232 255
215 232 255
215 232 255
215 232 255
215 232 255
215 232 255
215 232 255
215 232 255
215 232 255
215 232 255
215 232 255
215 232 255
215 232 255
215 232 255
215 232 255
215 232 255
215 232 255
215 232 255
215 232 255
215 232 255
215 232 255
215 232 255
215 232 255
215 232 255
215 232 255
215 232 255
215 232 255
215 232 255
215 232 255
215 232 255
215 232 255
215 232 255
215 232 255
215 232 255
215 232 255
215 232 255
215 232 255
215 232 255
215 232 255
215 232 255
215 232 255
215 232 255
215 232 255
215 232 255
215 232 255
215 232 255
215 232 255
215 232 255
215 232 255
215 232 255
215 232 255
215 232 255
215 232 255
215 232 255
215 232 255
215 232 255
215 232 255
215 232 255
215 232 255
215 232 255
215 232 255
215 232 255
215 232 255
215 232 255
215 232 255
215 232 255
215 232 255
215 232 255
215 232 255
215 232 255
215 232 255
215 232 255
215 232 255
215 232 255
215 232 255
215 232 255
215 232 255
215 232 255
215 232 255
215 232 255
215 232 255
215 232 255
215 232 255
215 232 255
215 232 255
215 232 255
215 232 255
215 232 255
215 232 255
215 232 255
215 232 255
215 232 255
215 232 255
215 232 255
215 232 255
215 232 255
215 232 255
215 232 255
215 232 255
215 232 255
215 232 255
215 232 255
215 232 255
215 232 255
215 232 255
215 232 255
215 232 255
215 232 255
215 232 255
215 232 255
215 232 255
215 232 255
215 232 255
215 232 255
215 232 255
215 232 255
215 232 255
215 232 255
215 232 255
215 232 255
215 232 255
215 232 255
215 232 255
215 232 255
215 232 255
215 232 255
215 232 255
215 232 255
215 232 255
215 232 255
215 232 255
215 232 255
215 232 255
215 232 255
215 232 255
215 232 255
215 232 255
215 232 255
215 232 255
215 232 255
215 232 255
215 232 255
215 232 255
215 232 255
215 232 255
215 232 255
215 232 255
215 232 255
215 232 255
215 232 255
215 232 255
215 232 255
215 232 255
215 232 255
215 232 255
215 232 255
215 232 255
215 232 255
215 232 255
215 232 255
215 232 255
215 232 255
215 232 255
215 232 255
215 232 255
215 232 255
215 232 255
215 232 255
215 232 255
215 232 255
215 232 255
215 232 255
215 232 255
215 232 255
215 232 255
215 232 255
215 232 255
215 232 255
215 232 255
215 232 255
215 232 255
215 232 255
215 232 255
215 232 255
215 232 255
215 232 255
215 232 255
215 232 255
215 232 255
215 232 255
215 232 255
215 232 255
215 232 255
215 232 255
215 232 255
215 232 255
215 232 255
215 232 255
215 232 255
215 232 255
215 232 255
215 232 255
215 232 255
215 232 255
215 232 255
215 232 255
215 232 255
215 232 255
215 232 255
215 232 255
213 230 253
207 224 248
207 224 248
193 211 237
190 207 232
196 214 239
188 206 233
183 201 227
189 206 231
201 219 245
195 214 238
202 221 245
206 225 251
204 221 246
197 213 238
211 229 252
215 232 255
215 232 255
215 232 255
215 232 255
215 232 255
215 232 255
215 232 255
215 232 255
215 232 255
215 232 255
215 232 255
215 232 255
215 232 255
215 232 255
215 232 255
215 232 255
215 232 255
215 232 255
215 232 255
215 232 255
215 232 255
215 232 255
215 232 255
215 232 255
215 232 255
215 232 255
215 232 255
215 232 255
215 232 255
215 232 255
215 232 255
215 232 255
215 232 255
215 232 255
215 232 255
215 232 255
215 232 255
215 232 255
215 232 255
215 232 255
215 232 255
215 232 255
215 232 255
215 232 255
215 232 255
215 232 255
215 232 255
215 232 255
215 232 255
215 232 255
215 232 255
215 232 255
215 232 255
215 232 255
215 232 255
215 232 255
215 232 255
215 232 255
215 232 255
215 232 255
215 232 255
215 232 255
215 232 255
215 232 255
215 232 255
215 232 255
215 232 255
215 232 255
215 232 255
215 232 255
215 232 255
215 232 255
215 232 255
215 232 255
215 232 255
215 232 255
215 232 255
215 232 255
215 232 255
215 232 255
215 232 255
215 232 255
215 232 255
215 232 255
215 232 255
215 232 255
215 232 255
215 232 255
215 232 255
215 232 255
215 232 255
215 232 255
215 232 255
215 232 255
215 232 255
215 232 255
215 232 255
215 232 255
215 232 255
215 232 255
215 232 255
215 232 255
215 232 255
215 232 255
215 232 255
215 232 255
215 232 255
215 232 255
215 232 255
215 232 255
215 232 255
215 232 255
215 232 255
215 232 255
215 232 255
215 232 255
215 232 255
215 232 255
215 232 255
215 232 255
215 232 255
215 232 255
215 232 255
215 232 255
215 232 255
215 232 255
215 232 255
215 232 255
215 232 255
215 232 255
215 232 255
215 232 255
215 232 255
215 232 255
215 232 255
215 232 255
215 232 255
215 232 255
215 232 255
215 232 255
215 232 255
215 232 255
215 232 255
215 232 255
215 232 255
215 232 255
215 232 255
215 232 255
215 232 255
215 232 255
215 232 255
215 232 255
215 232 255
215 232 255
215 232 255
215 232 255
215 232 255
215 232 255
215 232 255
215 232 255
215 232 255
215 232 255
215 232 255
215 232 255
215 232 255
215 232 255
215 232 255
215 232 255
215 232 255
215 232 255
215 232 255
215 232 255
215 232 255
215 232 255
215 232 255
215 232 255
215 232 255
215 232 255
215 232 255
215 232 255
215 232 255
215 232 255
215 232 255
215 232 255
215 232 255
215 232 255
215 232 255
215 232 255
215 232 255
215 232 255
215 232 255
215 232 255
215 232 255
215 232 255
215 232 255
215 232 255
215 232 255
215 232 255
215 232 255
215 232 255
215 232 255
215 232 255
215 232 255
215 232 255
215 232 255
215 232 255
215 232 255
215 232 255
215 232 255
215 232 255
215 232 255
215 232 255
215 232 255
215 232 255
215 232 255
215 232 255
215 232 255
215 232 255
215 232 255
215 232 255
215 232 255
215 232 255
215 232 255
215 232 255
215 232 255
215 232 255
215 232 255
215 232 255
215 232 255
215 232 255
215 232 255
215 232 255
215 232 255
215 232 255
215 232 255
215 232 255
215 232 255
215 232 255
215 232 255
215 232 255
215 232 255
215 232 255
215 232 255
215 232 255
215 232 255
215 232 255
215 232 255
215 232 255
215 232 255
215 232 255
215 232 255
215 232 255
215 232 255
215 232 255
215 232 255
215 232 255
215 232 255
215 232 255
215 232 255
215 232 255
215 232 255
215 232 255
215 232 255
215 232 255
215 232 255
215 232 255
215 232 255
215 232 255
215 232 255
215 232 255
215 232 255
215 232 255
215 232 255
215 232 255
215 232 255
215 232 255
215 232 255
215 232 255
215 232 255
215 232 255
215 232 255
215 232 255
215 232 255
215 232 255
215 232 255
215 232 255
215 232 255
215 232 255
215 232 255
215 232 255
215 232 255
215 232 255
215 232 255
215 232 255
215 232 255
215 232 255
215 232 255
215 232 255
215 232 255
215 232 255
215 232 255
215 232 255
215 232 255
215 232 255
215 232 255
215 232 255
215 232 255
215 232 255
215 232 255
215 232 255
215 232 255
215 232 255
215 232 255
215 232 255
215 232 255
215 232 255
215 232 255
215 232 255
215 232 255
215 232 255
215 232 255
215 232 255
215 232 255
215 232 255
215 232 255
215 232 255
215 232 255
215 232 255
215 232 255
215 232 255
215 232 255
215 232 255
215 232 255
215 232 255
215 232 255
215 232 255
215 232 255
215 232 255
215 232 255
215 232 255
215 232 255
215 232 255
215 232 255
215 232 255
215 232 255
215 232 255
215 232 255
215 232 255
215 232 255
215 232 255
215 232 255
215 232 255
215 232 255
215 232 255
215 232 255
215 232 255
215 232 255
215 232 255
215 232 255
215 232 255
215 232 255
215 232 255
215 232 255
215 232 255
215 232 255
215 232 255
215 232 255
215 232 255
215 232 255
215 232 255
215 232 255
215 232 255
215 232 255
215 232 255
215 232 255
214 231 254
192 209 234
177 194 220
165 183 210
147 165 193
151 172 204
120 141 176
106 128 166
113 139 179
56 82 132
77 105 151
133 159 194
135 163 197
74 100 142
128 152 183
108 133 171
104 129 166
116 142 178
144 170 200
101 123 156
95 115 141
112 136 167
82 105 137
66 88 127
57 77 123
71 92 135
86 104 142
116 132 163
148 164 192
152 168 196
173 189 215
186 204 231
208 227 251
215 232 255
215 232 255
215 232 255
215 232 255
215 232 255
215 232 255
215 232 255
215 232 255
215 232 255
215 232 255
215 232 255
215 232 255
215 232 255
215 232 255
215 232 255
215 232 255
215 232 255
215 232 255
215 232 255
215 232 255
215 232 255
215 232 255
215 232 255
215 232 255
215 232 255
215 232 255
215 232 255
215 232 255
215 232 255
215 232 255
215 232 255
215 232 255
215 232 255
215 232 255
215 232 255
215 232 255
215 232 255
215 232 255
215 232 255
215 232 255
215 232 255
215 232 255
215 232 255
215 232 255
215 232 255
215 232 255
215 232 255
215 232 255
215 232 255
215 232 255
215 232 255
215 232 255
215 232 255
215 232 255
215 232 255
215 232 255
215 232 255
215 232 255
215 232 255
215 232 255
215 232 255
215 232 255
215 232 255
215 232 255
215 232 255
215 232 255
215 232 255
215 232 255
215 232 255
215 232 255
215 232 255
215 232 255
215 232 255
215 232 255
215 232 255
215 232 255
215 232 255
215 232 255
215 232 255
215 232 255
215 232 255
215 232 255
215 232 255
215 232 255
215 232 255
215 232 255
215 232 255
215 232 255
215 232 255
215 232 255
215 232 255
215 232 255
215 232 255
215 232 255
215 232 255
215 232 255
215 232 255
215 232 255
215 232 255
215 232 255
215 232 255
215 232 255
215 232 255
215 232 255
215 232 255
215 232 255
215 232 255
215 232 255
215 232 255
215 232 255
215 232 255
215 232 255
215 232 255
215 232 255
215 232 255
215 232 255
215 232 255
215 232 255
215 232 255
215 232 255
215 232 255
215 232 255
215 232 255
215 232 255
215 232 255
215 232 255
215 232 255
215 232 255
215 232 255
215 232 255
215 232 255
215 232 255
215 232 255
215 232 255
215 232 255
215 232 255
215 232 255
215 232 255
215 232 255
215 232 255
215 232 255
215 232 255
215 232 255
215 232 255
215 232 255
215 232 255
215 232 255
215 232 255
215 232 255
215 232 255
215 232 255
215 232 255
215 232 255
215 232 255
215 232 255
215 232 255
215 232 255
215 232 255
215 232 255
215 232 255
215 232 255
215 232 255
215 232 255
215 232 255
215 232 255
215 232 255
215 232 255
215 232 255
215 232 255
215 232 255
215 232 255
215 232 255
215 232 255
215 232 255
215 232 255
215 232 255
215 232 255
215 232 255
215 232 255
215 232 255
215 232 255
215 232 255
215 232 255
215 232 255
215 232 255
215 232 255
215 232 255
215 232 255
215 232 255
215 232 255
215 232 255
215 232 255
215 232 255
215 232 255
215 232 255
215 232 255
215 232 255
215 232 255
215 232 255
215 232 255
215 232 255
215 232 255
215 232 255
215 232 255
215 232 255
215 232 255
215 232 255
215 232 255
215 232 255
215 232 255
215 232 255
215 232 255
215 232 255
215 232 255
215 232 255
215 232 255
215 232 255
215 232 255
215 232 255
215 232 255
215 232 255
215 232 255
215 232 255
215 232 255
215 232 255
215 232 255
215 232 255
215 232 255
215 232 255
215 232 255
215 232 255
215 232 255
215 232 255
215 232 255
215 232 255
215 232 255
215 232 255
215 232 255
215 232 255
215 232 255
215 232 255
215 232 255
215 232 255
215 232 255
215 232 255
215 232 255
215 232 255
215 232 255
215 232 255
215 232 255
215 232 255
215 232 255
215 232 255
215 232 255
215 232 255
215 232 255
215 232 255
215 232 255
215 232 255
215 232 255
215 232 255
215 232 255
215 232 255
215 232 255
215 232 255
215 232 255
215 232 255
215 232 255
215 232 255
215 232 255
215 232 255
215 232 255
215 232 255
215 232 255
215 232 255
215 232 255
215 232 255
215 232 255
215 232 255
215 232 255
215 232 255
215 232 255
215 232 255
215 232 255
215 232 255
215 232 255
215 232 255
215 232 255
215 232 255
215 232 255
215 232 255
215 232 255
215 232 255
215 232 255
215 232 255
215 232 255
215 232 255
215 232 255
215 232 255
215 232 255
215 232 255
215 232 255
215 232 255
215 232 255
215 232 255
215 232 255
215 232 255
215 232 255
215 232 255
215 232 255
215 232 255
215 232 255
215 232 255
215 232 255
215 232 255
215 232 255
215 232 255
215 232 255
215 232 255
215 232 255
215 232 255
215 232 255
215 232 255
215 232 255
215 232 255
215 232 255
215 232 255
215 232 255
215 232 255
215 232 255
215 232 255
215 232 255
215 232 255
215 232 255
215 232 255
215 232 255
215 232 255
215 232 255
215 232 255
215 232 255
215 232 255
215 232 255
215 232 255
215 232 255
215 232 255
215 232 255
215 232 255
215 232 255
215 232 255
215 232 255
215 232 255
215 232 255
215 232 255
215 232 255
215 232 255
215 232 255
215 232 255
215 232 255
215 232 255
215 232 255
215 232 255
213 230 253
198 214 237
179 194 218
137 151 176
134 148 174
99 116 143
89 109 134
113 136 158
130 151 176
138 160 182
140 165 189
143 167 188
132 157 183
148 175 199
100 127 161
50 77 123
28 61 121
110 137 176
94 120 159
130 157 190
130 155 180
82 103 135
44 70 115
75 99 142
111 136 174
104 128 166
99 121 141
99 115 127
91 107 118
93 113 131
82 101 118
109 129 150
94 113 137
112 133 163
93 111 140
76 95 129
50 71 112
10 39 93
19 44 96
76 95 134
113 130 166
160 180 210
180 200 226
207 227 254
212 231 255
215 232 255
215 232 255
215 232 255
215 232 255
215 232 255
215 232 255
215 232 255
215 232 255
215 232 255
215 232 255
215 232 255
215 232 255
215 232 255
215 232 255
215 232 255
215 232 255
215 232 255
215 232 255
215 232 255
215 232 255
215 232 255
215 232 255
215 232 255
215 232 255
215 232 255
215 232 255
215 232 255
215 232 255
215 232 255
215 232 255
215 232 255
215 232 255
215 232 255
215 232 255
215 232 255
215 232 255
215 232 255
215 232 255
215 232 255
215 232 255
215 232 255
215 232 255
215 232 255
215 232 255
215 232 255
215 232 255
215 232 255
215 232 255
215 232 255
215 232 255
215 232 255
215 232 255
215 232 255
215 232 255
215 232 255
215 232 255
215 232 255
215 232 255
215 232 255
215 232 255
215 232 255
215 232 255
215 232 255
215 232 255
215 232 255
215 232 255
215 232 255
215 232 255
215 232 255
215 232 255
215 232 255
215 232 255
215 232 255
215 232 255
215 232 255
215 232 255
215 232 255
215 232 255
215 232 255
215 232 255
215 232 255
215 232 255
215 232 255
215 232 255
215 232 255
215 232 255
215 232 255
215 232 255
215 232 255
215 232 255
215 232 255
215 232 255
215 232 255
215 232 255
215 232 255
215 232 255
215 232 255
215 232 255
215 232 255
215 232 255
215 232 255
215 232 255
215 232 255
215 232 255
215 232 255
215 232 255
215 232 255
215 232 255
215 232 255
215 232 255
215 232 255
215 232 255
215 232 255
215 232 255
215 232 255
215 232 255
215 232 255
215 232 255
215 232 255
215 232 255
215 232 255
215 232 255
215 232 255
215 232 255
215 232 255
215 232 255
215 232 255
215 232 255
215 232 255
215 232 255
215 232 255
215 232 255
215 232 255
215 232 255
215 232 255
215 232 255
215 232 255
215 232 255
215 232 255
215 232 255
215 232 255
215 232 255
215 232 255
215 232 255
215 232 255
215 232 255
215 232 255
215 232 255
215 232 255
215 232 255
215 232 255
215 232 255
215 232 255
215 232 255
215 232 255
215 232 255
215 232 255
215 232 255
215 232 255
215 232 255
215 232 255
215 232 255
215 232 255
215 232 255
215 232 255
215 232 255
215 232 255
215 232 255
215 232 255
215 232 255
215 232 255
215 232 255
215 232 255
215 232 255
215 232 255
215 232 255
215 232 255
215 232 255
215 232 255
215 232 255
215 232 255
215 232 255
215 232 255
215 232 255
215 232 255
215 232 255
215 232 255
215 232 255
215 232 255
215 232 255
215 232 255
215 232 255
215 232 255
215 232 255
215 232 255
215 232 255
215 232 255
215 232 255
215 232 255
215 232 255
215 232 255
215 232 255
215 232 255
215 232 255
215 232 255
215 232 255
215 232 255
215 232 255
215 232 255
215 232 255
215 232 255
215 232 255
215 232 255
215 232 255
215 232 255
215 232 255
215 232 255
215 232 255
215 232 255
215 232 255
215 232 255
215 232 255
215 232 255
215 232 255
215 232 255
215 232 255
215 232 255
215 232 255
215 232 255
215 232 255
215 232 255
215 232 255
215 232 255
215 232 255
215 232 255
215 232 255
215 232 255
215 232 255
215 232 255
215 232 255
215 232 255
215 232 255
215 232 255
215 232 255
215 232 255
215 232 255
215 232 255
215 232 255
215 232 255
215 232 255
215 232 255
215 232 255
215 232 255
215 232 255
215 232 255
215 232 255
215 232 255
215 232 255
215 232 255
215 232 255
215 232 255
215 232 255
215 232 255
215 232 255
215 232 255
215 232 255
215 232 255
215 232 255
215 232 255
215 232 255
215 232 255
215 232 255
215 232 255
215 232 255
215 232 255
215 232 255
215 232 255
215 232 255
215 232 255
215 232 255
215 232 255
215 232 255
215 232 255
215 232 255
215 232 255
215 232 255
215 232 255
215 232 255
215 232 255
215 232 255
215 232 255
215 232 255
215 232 255
215 232 255
215 232 255
215 232 255
215 232 255
215 232 255
215 232 255
215 232 255
215 232 255
215 232 255
215 232 255
215 232 255
215 232 255
215 232 255
215 232 255
215 232 255
215 232 255
215 232 255
215 232 255
215 232 255
215 232 255
215 232 255
215 232 255
215 232 255
215 232 255
215 232 255
215 232 255
215 232 255
215 232 255
215 232 255
215 232 255
215 232 255
215 232 255
215 232 255
215 232 255
215 232 255
215 232 255
215 232 255
215 232 255
215 232 255
215 232 255
215 232 255
215 232 255
215 232 255
215 232 255
215 232 255
215 232 255
215 232 255
215 232 255
215 232 255
215 232 255
215 232 255
215 232 255
215 232 255
215 232 255
215 232 255
215 232 255
215 232 255
215 232 255
212 229 252
195 211 235
165 180 206
127 141 167
50 67 105
20 48 99
45 65 100
43 62 98
32 52 91
86 112 145
100 119 149
104 124 146
86 104 118
73 90 109
51 66 71
44 55 61
50 62 71
57 75 94
74 97 128
64 84 113
63 80 94
99 118 129
92 111 132
102 124 147
122 139 154
141 157 179
130 150 164
134 154 170
87 107 133
54 75 106
95 112 130
91 100 111
73 86 96
42 67 114
31 58 110
28 59 109
54 80 114
75 96 116
44 57 66
51 63 70
85 95 104
99 116 134
75 95 125
61 82 124
14 42 95
8 40 98
9 43 102
54 74 120
99 119 155
145 167 196
186 208 237
202 225 253
210 229 255
215 232 255
215 232 255
215 232 255
215 232 255
215 232 255
215 232 255
215 232 255
215 232 255
215 232 255
215 232 255
215 232 255
215 232 255
215 232 255
215 232 255
215 232 255
215 232 255
215 232 255
215 232 255
215 232 255
215 232 255
215 232 255
215 232 255
215 232 255
215 232 255
215 232 255
215 232 255
215 232 255
215 232 255
215 232 255
215 232 255
215 232 255
215 232 255
215 232 255
215 232 255
215 232 255
215 232 255
215 232 255
215 232 255
215 232 255
215 232 255
215 232 255
215 232 255
215 232 255
215 232 255
215 232 255
215 232 255
215 232 255
215 232 255
215 232 255
215 232 255
215 232 255
215 232 255
215 232 255
215 232 255
215 232 255
215 232 255
215 232 255
215 232 255
215 232 255
215 232 255
215 232 255
215 232 255
215 232 255
215 232 255
215 232 255
215 232 255
215 232 255
215 232 255
215 232 255
215 232 255
215 232 255
215 232 255
215 232 255
215 232 255
215 232 255
215 232 255
215 232 255
215 232 255
215 232 255
215 232 255
215 232 255
215 232 255
215 232 255
215 232 255
215 232 255
215 232 255
215 232 255
215 232 255
215 232 255
215 232 255
215 232 255
215 232 255
215 232 255
215 232 255
215 232 255
215 232 255
215 232 255
215 232 255
215 232 255
215 232 255
215 232 255
215 232 255
215 232 255
215 232 255
215 232 255
215 232 255
215 232 255
215 232 255
215 232 255
215 232 255
215 232 255
215 232 255
215 232 255
215 232 255
215 232 255
215 232 255
215 232 255
215 232 255
215 232 255
215 232 255
215 232 255
215 232 255
215 232 255
215 232 255
215 232 255
215 232 255
215 232 255
215 232 255
215 232 255
215 232 255
215 232 255
215 232 255
215 232 255
215 232 255
215 232 255
215 232 255
215 232 255
215 232 255
215 232 255
215 232 255
215 232 255
215 232 255
215 232 255
215 232 255
215 232 255
215 232 255
215 232 255
215 232 255
215 232 255
215 232 255
215 232 255
215 232 255
215 232 255
215 232 255
215 232 255
215 232 255
215 232 255
215 232 255
215 232 255
215 232 255
215 232 255
215 232 255
215 232 255
215 232 255
215 232 255
215 232 255
215 232 255
215 232 255
215 232 255
215 232 255
215 232 255
215 232 255
215 232 255
215 232 255
215 232 255
215 232 255
215 232 255
215 232 255
215 232 255
215 232 255
215 232 255
215 232 255
215 232 255
215 232 255
215 232 255
215 232 255
215 232 255
215 232 255
215 232 255
215 232 255
215 232 255
215 232 255
215 232 255
215 232 255
215 232 255
215 232 255
215 232 255
215 232 255
215 232 255
215 232 255
215 232 255
215 232 255
215 232 255
215 232 255
215 232 255
215 232 255
215 232 255
215 232 255
215 232 255
215 232 255
215 232 255
215 232 255
215 232 255
215 232 255
215 232 255
215 232 255
215 232 255
215 232 255
215 232 255
215 232 255
215 232 255
215 232 255
215 232 255
215 232 255
215 232 255
215 232 255
215 232 255
215 232 255
215 232 255
215 232 255
215 232 255
215 232 255
215 232 255
215 232 255
215 232 255
215 232 255
215 232 255
215 232 255
215 232 255
215 232 255
215 232 255
215 232 255
215 232 255
215 232 255
215 232 255
215 232 255
215 232 255
215 232 255
215 232 255
215 232 255
215 232 255
215 232 255
215 232 255
215 232 255
215 232 255
215 232 255
215 232 255
215 232 255
215 232 255
215 232 255
215 232 255
215 232 255
215 232 255
215 232 255
215 232 255
215 232 255
215 232 255
215 232 255
215 232 255
215 232 255
215 232 255
215 232 255
215 232 255
215 232 255
215 232 255
215 232 255
215 232 255
215 232 255
215 232 255
215 232 255
215 232 255
215 232 255
215 232 255
215 232 255
215 232 255
215 232 255
215 232 255
215 232 255
215 232 255
215 232 255
215 232 255
215 232 255
215 232 255
215 232 255
215 232 255
215 232 255
215 232 255
215 232 255
215 232 255
215 232 255
215 232 255
215 232 255
215 232 255
215 232 255
215 232 255
215 232 255
215 232 255
215 232 255
215 232 255
215 232 255
215 232 255
215 232 255
215 232 255
215 232 255
215 232 255
215 232 255
215 232 255
215 232 255
215 232 255
215 232 255
215 232 255
215 232 255
215 232 255
215 232 255
215 232 255
215 232 255
215 232 255
215 232 255
215 232 255
215 232 255
215 232 255
215 232 255
215 232 255
215 232 255
215 232 255
215 232 255
215 232 255
215 232 255
215 232 255
215 232 255
215 232 255
215 232 255
215 232 255
213 230 253
205 222 246
151 165 187
114 126 145
50 61 81
17 33 53
21 27 20
27 31 22
35 38 24
42 40 27
36 36 22
33 34 18
32 33 23
34 39 36
37 38 33
51 54 47
45 49 43
37 40 35
47 50 42
55 57 53
79 86 84
86 97 95
104 115 122
81 89 93
84 92 89
90 100 102
125 142 155
128 144 159
106 118 131
105 117 125
126 142 158
87 103 116
52 60 57
32 39 54
112 139 167
81 98 115
63 81 117
18 48 98
12 51 113
12 50 113
12 49 107
21 48 98
19 48 98
22 50 81
55 63 63
103 115 120
36 40 30
70 79 82
107 122 141
105 121 144
71 83 109
60 80 113
34 63 117
13 45 111
37 61 116
51 73 113
130 150 173
175 201 229
197 222 253
206 227 255
212 230 255
215 232 255
215 232 255
215 232 255
215 232 255
215 232 255
215 232 255
215 232 255
215 232 255
215 232 255
215 232 255
215 232 255
215 232 255
215 232 255
215 232 255
215 232 255
215 232 255
215 232 255
215 232 255
215 232 255
215 232 255
215 232 255
215 232 255
215 232 255
215 232 255
215 232 255
215 232 255
215 232 255
215 232 255
215 232 255
215 232 255
215 232 255
215 232 255
215 232 255
215 232 255
215 232 255
215 232 255
215 232 255
215 232 255
215 232 255
215 232 255
215 232 255
215 232 255
215 232 255
215 232 255
215 232 255
215 232 255
215 232 255
215 232 255
215 232 255
215 232 255
215 232 255
215 232 255
215 232 255
215 232 255
215 232 255
215 232 255
215 232 255
215 232 255
215 232 255
215 232 255
215 232 255
215 232 255
215 232 255
215 232 255
215 232 255
215 232 255
215 232 255
215 232 255
215 232 255
215 232 255
215 232 255
215 232 255
215 232 255
215 232 255
215 232 255
215 232 255
215 232 255
215 232 255
215 232 255
215 232 255
215 232 255
215 232 255
215 232 255
215 232 255
215 232 255
215 232 255
215 232 255
215 232 255
215 232 255
215 232 255
215 232 255
215 232 255
215 232 255
215 232 255
215 232 255
215 232 255
215 232 255
215 232 255
215 232 255
215 232 255
215 232 255
215 232 255
215 232 255
215 232 255
215 232 255
215 232 255
215 232 255
215 232 255
215 232 255
215 232 255
215 232 255
215 232 255
215 232 255
215 232 255
215 232 255
215 232 255
215 232 255
215 232 255
215 232 255
215 232 255
215 232 255
215 232 255
215 232 255
215 232 255
215 232 255
215 232 255
215 232 255
215 232 255
215 232 255
215 232 255
215 232 255
215 232 255
215 232 255
215 232 255
215 232 255
215 232 255
215 232 255
215 232 255
215 232 255
215 232 255
215 232 255
215 232 255
215 232 255
215 232 255
215 232 255
215 232 255
215 232 255
215 232 255
215 232 255
215 232 255
215 232 255
215 232 255
215 232 255
215 232 255
215 232 255
215 232 255
215 232 255
215 232 255
215 232 255
215 232 255
215 232 255
215 232 255
215 232 255
215 232 255
215 232 255
215 232 255
215 232 255
215 232 255
215 232 255
215 232 255
216 232 255
215 232 255
215 232 255
215 232 255
215 232 255
215 232 255
215 232 255
215 232 255
215 232 255
215 232 255
215 232 255
215 232 255
215 232 255
215 232 255
215 232 255
215 232 255
215 232 255
215 232 255
215 232 255
215 232 255
215 232 255
215 232 255
215 232 255
215 232 255
215 232 255
215 232 255
215 232 255
215 232 255
215 232 255
215 232 255
215 232 255
215 232 255
215 232 255
215 232 255
215 232 255
215 232 255
215 232 255
215 232 255
215 232 255
215 232 255
215 232 255
215 232 255
215 232 255
215 232 255
215 232 255
215 232 255
215 232 255
215 232 255
215 232 255
215 232 255
215 232 255
215 232 255
215 232 255
215 232 255
215 232 255
215 232 255
215 232 255
215 232 255
215 232 255
215 232 255
215 232 255
215 232 255
215 232 255
215 232 255
215 232 255
215 232 255
215 232 255
215 232 255
215 232 255
215 232 255
215 232 255
215 232 255
215 232 255
215 232 255
215 232 255
215 232 255
215 232 255
215 232 255
215 232 255
215 232 255
215 232 255
215 232 255
215 232 255
215 232 255
215 232 255
215 232 255
215 232 255
215 232 255
215 232 255
215 232 255
215 232 255
215 232 255
215 232 255
215 232 255
215 232 255
215 232 255
215 232 255
215 232 255
215 232 255
215 232 255
215 232 255
215 232 255
215 232 255
215 232 255
215 232 255
215 232 255
215 232 255
215 232 255
215 232 255
215 232 255
215 232 255
215 232 255
215 232 255
215 232 255
215 232 255
215 232 255
215 232 255
215 232 255
215 232 255
215 232 255
215 232 255
215 232 255
215 232 255
215 232 255
215 232 255
215 232 255
215 232 255
215 232 255
215 232 255
215 232 255
215 232 255
215 232 255
215 232 255
215 232 255
215 232 255
215 232 255
215 232 255
215 232 255
215 232 255
215 232 255
215 232 255
215 232 255
215 232 255
215 232 255
215 232 255
215 232 255
215 232 255
215 232 255
215 232 255
215 232 255
215 232 255
215 232 255
215 232 255
215 232 255
215 232 255
215 232 255
215 232 255
215 232 255
215 232 255
215 232 255
215 232 255
215 232 255
215 232 255
215 232 255
215 232 255
215 232 255
214 231 254
193 209 229
123 133 145
74 82 88
24 31 20
21 28 10
20 27 4
21 26 10
15 19 7
13 17 8
12 17 8
11 16 9
17 22 6
21 24 7
22 24 8
27 28 15
43 45 38
39 41 35
47 48 42
43 42 34
36 35 20
36 37 20
38 37 21
37 36 27
37 37 26
61 64 61
56 59 58
66 70 69
68 73 73
57 62 60
40 40 29
33 33 22
36 35 24
29 38 40
25 46 82
24 46 90
27 57 104
92 112 144
143 166 195
76 92 124
63 81 114
69 95 136
38 65 122
15 51 114
24 46 81
29 43 72
23 44 80
43 59 88
93 107 122
49 56 56
69 74 74
61 66 63
43 49 52
46 59 81
83 105 130
50 74 111
13 48 112
11 48 110
13 48 112
13 48 112
27 46 82
105 123 143
167 189 215
193 219 251
196 222 254
201 225 254
209 229 255
214 231 255
215 232 255
215 232 255
215 232 255
215 232 255
215 232 255
215 232 255
215 232 255
215 232 255
215 232 255
215 232 255
215 232 255
215 232 255
215 232 255
215 232 255
215 232 255
215 232 255
215 232 255
215 232 255
215 232 255
215 232 255
215 232 255
215 232 255
215 232 255
215 232 255
215 232 255
215 232 255
215 232 255
215 232 255
215 232 255
215 232 255
215 232 255
215 232 255
215 232 255
215 232 255
215 232 255
215 232 255
215 232 255
215 232 255
215 232 255
215 232 255
215 232 255
215 232 255
215 232 255
215 232 255
215 232 255
215 232 255
215 232 255
215 232 255
215 232 255
215 232 255
215 232 255
215 232 255
215 232 255
215 232 255
215 232 255
215 232 255
215 232 255
215 232 255
215 232 255
215 232 255
215 232 255
215 232 255
215 232 255
215 232 255
215 232 255
215 232 255
215 232 255
215 232 255
215 232 255
215 232 255
215 232 255
215 232 255
215 232 255
215 232 255
215 232 255
215 232 255
215 232 255
215 232 255
215 232 255
215 232 255
215 232 255
215 232 255
215 232 255
215 232 255
215 232 255
215 232 255
215 232 255
215 232 255
215 232 255
215 232 255
215 232 255
215 232 255
215 232 255
215 232 255
215 232 255
215 232 255
215 232 255
215 232 255
215 232 255
215 232 255
215 232 255
215 232 255
215 232 255
215 232 255
215 232 255
215 232 255
215 232 255
215 232 255
215 232 255
215 232 255
215 232 255
215 232 255
215 232 255
215 232 255
215 232 255
215 232 255
215 232 255
215 232 255
215 232 255
215 232 255
215 232 255
215 232 255
215 232 255
215 232 255
215 232 255
215 232 255
215 232 255
215 232 255
215 232 255
215 232 255
215 232 255
215 232 255
215 232 255
215 232 255
215 232 255
215 232 255
215 232 255
215 232 255
215 232 255
215 232 255
215 232 255
215 232 255
215 232 255
215 232 255
215 232 255
215 232 255
215 232 255
215 232 255
215 232 255
215 232 255
215 232 255
215 232 255
215 232 255
215 232 255
215 232 255
215 232 255
215 232 255
215 232 255
215 232 255
215 232 255
215 232 255
215 232 255
215 232 255
215 232 255
215 232 255
215 232 255
216 232 255
216 232 255
216 232 255
216 232 255
216 232 255
216 232 255
216 232 255
216 232 255
216 232 255
216 232 255
216 232 255
216 232 255
216 232 255
216 232 255
216 232 255
216 232 255
216 232 255
216 232 255
216 232 255
216 232 255
216 232 255
216 232 255
216 232 255
216 232 255
215 232 255
215 232 255
215 232 255
215 232 255
215 232 255
215 232 255
215 232 255
215 232 255
215 232 255
215 232 255
215 232 255
215 232 255
215 232 255
215 232 255
215 232 255
215 232 255
215 232 255
215 232 255
215 232 255
215 232 255
215 232 255
215 232 255
215 232 255
215 232 255
215 232 255
215 232 255
215 232 255
215 232 255
215 232 255
215 232 255
215 232 255
215 232 255
215 232 255
215 232 255
215 232 255
215 232 255
215 232 255
215 232 255
215 232 255
215 232 255
215 232 255
215 232 255
215 232 255
215 232 255
215 232 255
215 232 255
215 232 255
215 232 255
215 232 255
215 232 255
215 232 255
215 232 255
215 232 255
215 232 255
215 232 255
215 232 255
215 232 255
215 232 255
215 232 255
215 232 255
215 232 255
215 232 255
215 232 255
215 232 255
215 232 255
215 232 255
215 232 255
215 232 255
215 232 255
215 232 255
215 232 255
215 232 255
215 232 255
215 232 255
215 232 255
215 232 255
215 232 255
215 232 255
215 232 255
215 232 255
215 232 255
215 232 255
215 232 255
215 232 255
215 232 255
215 232 255
215 232 255
215 232 255
215 232 255
215 232 255
215 232 255
215 232 255
215 232 255
215 232 255
215 232 255
215 232 255
215 232 255
215 232 255
215 232 255
215 232 255
215 232 255
215 232 255
215 232 255
215 232 255
215 232 255
215 232 255
215 232 255
215 232 255
215 232 255
215 232 255
215 232 255
215 232 255
215 232 255
215 232 255
215 232 255
215 232 255
215 232 255
215 232 255
215 232 255
215 232 255
215 232 255
215 232 255
215 232 255
215 232 255
215 232 255
215 232 255
215 232 255
215 232 255
215 232 255
215 232 255
215 232 255
215 232 255
215 232 255
215 232 255
215 232 255
215 232 255
215 232 255
215 232 255
215 232 255
210 226 249
173 186 204
133 143 156
56 62 62
27 33 21
40 47 38
42 47 37
43 48 36
24 28 9
22 28 7
22 28 12
19 25 8
19 23 7
21 26 10
19 25 9
20 26 6
22 27 8
22 26 10
19 23 8
20 24 9
25 27 14
28 29 13
32 32 17
32 32 16
30 31 16
33 33 20
26 27 18
22 23 9
28 30 16
27 28 17
27 29 16
34 36 26
32 32 19
25 31 33
20 40 73
23 48 94
16 50 116
13 51 120
12 51 118
12 52 116
14 52 117
24 56 114
19 50 106
80 114 154
38 69 114
13 50 106
69 101 150
25 54 104
42 62 95
70 89 125
49 74 125
33 57 104
25 49 94
50 71 105
81 95 108
84 95 110
91 106 124
103 120 140
71 90 117
18 50 105
12 50 116
12 48 113
11 44 108
9 44 105
11 46 106
46 68 114
96 113 134
149 172 197
192 217 248
193 221 253
196 222 253
194 218 247
196 214 238
215 232 255
215 232 255
215 232 255
215 232 255
215 232 255
215 232 255
215 232 255
215 232 255
215 232 255
215 232 255
215 232 255
215 232 255
215 232 255
215 232 255
215 232 255
215 232 255
215 232 255
215 232 255
215 232 255
215 232 255
215 232 255
215 232 255
215 232 255
215 232 255
215 232 255
215 232 255
215 232 255
215 232 255
215 232 255
215 232 255
215 232 255
215 232 255
215 232 255
215 232 255
215 232 255
215 232 255
215 232 255
215 232 255
215 232 255
215 232 255
215 232 255
215 232 255
215 232 255
215 232 255
215 232 255
215 232 255
215 232 255
215 232 255
215 232 255
215 232 255
215 232 255
215 232 255
215 232 255
215 232 255
215 232 255
215 232 255
215 232 255
215 232 255
215 232 255
215 232 255
215 232 255
215 232 255
215 232 255
215 232 255
215 232 255
215 232 255
215 232 255
215 232 255
215 232 255
215 232 255
215 232 255
215 232 255
215 232 255
215 232 255
215 232 255
215 232 255
215 232 255
215 232 255
215 232 255
215 232 255
215 232 255
215 232 255
215 232 255
215 232 255
215 232 255
215 232 255
215 232 255
215 232 255
215 232 255
215 232 255
215 232 255
215 232 255
215 232 255
215 232 255
215 232 255
215 232 255
215 232 255
215 232 255
215 232 255
215 232 255
215 232 255
215 232 255
215 232 255
215 232 255
215 232 255
215 232 255
215 232 255
215 232 255
215 232 255
215 232 255
215 232 255
215 232 255
215 232 255
215 232 255
215 232 255
215 232 255
215 232 255
215 232 255
215 232 255
215 232 255
215 232 255
215 232 255
215 232 255
215 232 255
215 232 255
215 232 255
215 232 255
215 232 255
215 232 255
215 232 255
215 232 255
215 232 255
215 232 255
215 232 255
215 232 255
215 232 255
215 232 255
215 232 255
215 232 255
215 232 255
216 232 255
216 232 255
216 232 255
216 232 255
216 232 255
216 232 255
216 232 255
216 232 255
216 232 255
216 232 255
216 232 255
216 232 255
216 232 255
216 232 255
216 232 255
216 232 255
216 232 255
216 232 255
216 232 255
216 232 255
216 232 255
216 232 255
216 232 255
216 232 255
216 232 255
216 232 255
216 232 255
216 232 255
216 232 255
216 232 255
216 232 255
216 232 255
216 232 255
216 232 255
216 232 255
216 232 255
216 232 255
216 232 255
216 232 255
216 232 255
216 232 255
216 232 255
216 232 255
216 232 255
216 232 255
216 232 255
216 232 255
216 232 255
216 232 255
216 232 255
216 232 255
216 232 255
216 232 255
216 232 255
216 232 255
216 232 255
216 232 255
216 232 255
216 232 255
216 232 255
216 232 255
216 232 255
216 232 255
216 232 255
216 232 255
216 232 255
216 232 255
216 232 255
216 232 255
216 232 255
216 232 255
216 232 255
216 232 255
216 232 255
215 232 255
215 232 255
215 232 255
215 232 255
215 232 255
215 232 255
215 232 255
215 232 255
215 232 255
215 232 255
215 232 255
215 232 255
215 232 255
215 232 255
215 232 255
215 232 255
215 232 255
215 232 255
215 232 255
215 232 255
215 232 255
215 232 255
215 232 255
215 232 255
215 232 255
215 232 255
215 232 255
215 232 255
215 232 255
215 232 255
215 232 255
215 232 255
215 232 255
215 232 255
215 232 255
215 232 255
215 232 255
215 232 255
215 232 255
215 232 255
215 232 255
215 232 255
215 232 255
215 232 255
215 232 255
215 232 255
215 232 255
215 232 255
215 232 255
215 232 255
215 232 255
215 232 255
215 232 255
215 232 255
215 232 255
215 232 255
215 232 255
215 232 255
215 232 255
215 232 255
215 232 255
215 232 255
215 232 255
215 232 255
215 232 255
215 232 255
215 232 255
215 232 255
215 232 255
215 232 255
215 232 255
215 232 255
215 232 255
215 232 255
215 232 255
215 232 255
215 232 255
215 232 255
215 232 255
215 232 255
215 232 255
215 232 255
215 232 255
215 232 255
215 232 255
215 232 255
215 232 255
215 232 255
215 232 255
215 232 255
215 232 255
215 232 255
215 232 255
215 232 255
215 232 255
215 232 255
215 232 255
215 232 255
215 232 255
215 232 255
215 232 255
215 232 255
215 232 255
215 232 255
215 232 255
215 232 255
215 232 255
215 232 255
215 232 255
215 232 255
215 232 255
186 200 220
142 154 168
44 49 46
34 38 29
38 44 37
56 65 61
88 101 103
103 116 121
71 79 76
32 37 25
20 27 5
21 28 8
24 28 8
24 29 9
23 28 8
20 27 12
21 29 16
16 25 9
17 23 4
16 23 8
16 22 5
21 26 6
21 24 9
21 23 6
22 23 8
22 24 11
26 27 14
36 39 29
31 33 22
29 32 18
29 32 15
24 27 11
27 27 11
27 27 15
18 34 47
20 50 98
13 52 122
14 52 119
13 53 118
12 52 119
12 52 118
12 51 117
12 51 117
13 51 118
14 51 123
13 51 119
14 52 116
12 52 120
17 51 117
15 53 114
19 49 93
74 83 89
109 123 135
132 149 173
116 130 145
74 85 93
44 64 98
36 61 99
19 47 92
37 60 107
50 76 123
23 52 98
25 57 113
11 48 114
11 45 107
8 39 98
2 31 84
5 32 85
8 35 90
13 38 86
88 106 132
168 192 222
193 220 253
196 222 253
169 196 227
97 117 151
124 139 172
194 210 235
215 232 255
215 232 255
215 232 255
215 232 255
215 232 255
215 232 255
215 232 255
215 232 255
215 232 255
215 232 255
215 232 255
215 232 255
215 232 255
215 232 255
215 232 255
215 232 255
215 232 255
215 232 255
215 232 255
215 232 255
215 232 255
215 232 255
215 232 255
215 232 255
215 232 255
215 232 255
215 232 255
215 232 255
215 232 255
215 232 255
215 232 255
215 232 255
215 232 255
215 232 255
215 232 255
215 232 255
215 232 255
215 232 255
215 232 255
215 232 255
215 232 255
215 232 255
215 232 255
215 232 255
215 232 255
215 232 255
215 232 255
215 232 255
215 232 255
215 232 255
215 232 255
215 232 255
215 232 255
215 232 255
215 232 255
215 232 255
215 232 255
215 232 255
215 232 255
215 232 255
215 232 255
215 232 255
215 232 255
215 232 255
215 232 255
215 232 255
215 232 255
215 232 255
215 232 255
215 232 255
215 232 255
215 232 255
215 232 255
215 232 255
215 232 255
215 232 255
215 232 255
215 232 255
215 232 255
215 232 255
215 232 255
215 232 255
215 232 255
215 232 255
215 232 255
215 232 255
215 232 255
215 232 255
215 232 255
215 232 255
215 232 255
215 232 255
215 232 255
215 232 255
215 232 255
215 232 255
215 232 255
215 232 255
215 232 255
215 232 255
215 232 255
215 232 255
215 232 255
215 232 255
215 232 255
215 232 255
215 232 255
215 232 255
215 232 255
215 232 255
215 232 255
216 232 255
216 232 255
216 232 255
216 232 255
216 232 255
216 232 255
216 232 255
216 232 255
216 232 255
216 232 255
216 232 255
216 232 255
216 232 255
216 232 255
216 232 255
216 232 255
216 232 255
216 232 255
216 232 255
216 232 255
216 232 255
216 232 255
216 232 255
216 232 255
216 232 255
216 232 255
216 232 255
216 232 255
216 232 255
216 232 255
216 232 255
216 232 255
216 232 255
216 232 255
216 232 255
216 232 255
216 232 255
216 232 255
216 232 255
216 232 255
216 232 255
216 232 255
216 232 255
216 232 255
216 232 255
216 232 255
216 232 255
216 232 255
216 232 255
216 232 255
216 232 255
216 232 255
216 232 255
216 232 255
216 232 255
216 232 255
216 232 255
216 232 255
216 232 255
216 232 255
216 232 255
216 232 255
216 232 255
216 232 255
216 232 255
216 232 255
216 232 255
216 232 255
216 232 255
216 232 255
216 232 255
216 232 255
216 232 255
216 232 255
216 232 255
216 232 255
216 232 255
216 232 255
216 232 255
216 232 255
216 232 255
216 232 255
216 232 255
216 232 255
216 232 255
216 232 255
216 232 255
216 232 255
216 232 255
216 232 255
216 232 255
216 232 255
216 232 255
216 232 255
216 232 255
216 232 255
216 232 255
216 232 255
216 232 255
216 232 255
216 232 255
216 232 255
216 232 255
216 232 255
216 232 255
216 232 255
216 232 255
216 232 255
216 232 255
216 232 255
216 232 255
216 232 255
216 232 255
216 232 255
216 232 255
216 232 255
216 232 255
216 232 255
216 232 255
216 232 255
216 232 255
216 232 255
216 232 255
216 232 255
216 232 255
216 232 255
216 232 255
216 232 255
216 232 255
216 232 255
215 232 255
215 232 255
215 232 255
215 232 255
215 232 255
215 232 255
215 232 255
215 232 255
215 232 255
215 232 255
215 232 255
215 232 255
215 232 255
215 232 255
215 232 255
215 232 255
215 232 255
215 232 255
215 232 255
215 232 255
215 232 255
215 232 255
215 232 255
215 232 255
215 232 255
215 232 255
215 232 255
215 232 255
215 232 255
215 232 255
215 232 255
215 232 255
215 232 255
215 232 255
215 232 255
215 232 255
215 232 255
215 232 255
215 232 255
215 232 255
215 232 255
215 232 255
215 232 255
215 232 255
215 232 255
215 232 255
215 232 255
215 232 255
215 232 255
215 232 255
215 232 255
215 232 255
215 232 255
215 232 255
215 232 255
215 232 255
215 232 255
215 232 255
215 232 255
215 232 255
215 232 255
215 232 255
215 232 255
215 232 255
215 232 255
215 232 255
215 232 255
215 232 255
215 232 255
215 232 255
215 232 255
215 232 255
215 232 255
215 232 255
215 232 255
215 232 255
215 232 255
215 232 255
209 225 248
167 180 198
95 103 111
22 27 11
20 25 9
18 26 7
19 27 10
21 28 15
65 76 76
76 87 89
79 89 90
41 49 40
13 24 0
14 23 0
17 24 5
20 28 7
20 28 7
20 27 12
16 22 7
22 30 14
20 27 5
19 25 4
14 21 1
16 21 7
16 20 2
15 18 0
13 16 0
16 20 0
20 22 5
17 20 4
20 23 10
19 22 5
19 23 5
25 28 9
24 26 8
27 28 12
22 26 19
24 47 84
17 52 113
15 52 115
14 53 116
16 52 118
12 51 119
12 51 118
12 51 117
12 51 117
12 52 117
12 52 116
12 51 113
12 51 115
13 51 121
12 52 114
15 51 111
17 54 113
24 39 63
27 30 17
26 31 14
58 65 58
58 64 58
56 62 53
52 56 56
30 38 48
22 47 105
31 67 121
13 51 113
15 48 106
16 48 101
12 50 111
11 47 111
3 33 88
0 27 77
0 25 72
0 24 70
0 24 70
6 27 74
92 110 141
146 167 195
183 208 237
188 216 247
120 145 176
20 48 101
105 118 148
165 180 204
212 229 252
215 232 255
215 232 255
215 232 255
215 232 255
215 232 255
215 232 255
215 232 255
215 232 255
215 232 255
215 232 255
215 232 255
215 232 255
215 232 255
215 232 255
215 232 255
215 232 255
215 232 255
215 232 255
215 232 255
215 232 255
215 232 255
215 232 255
215 232 255
215 232 255
215 232 255
215 232 255
215 232 255
215 232 255
215 232 255
215 232 255
215 232 255
215 232 255
215 232 255
215 232 255
215 232 255
215 232 255
215 232 255
215 232 255
215 232 255
215 232 255
215 232 255
215 232 255
215 232 255
215 232 255
215 232 255
215 232 255
215 232 255
215 232 255
215 232 255
215 232 255
215 232 255
215 232 255
215 232 255
215 232 255
215 232 255
215 232 255
215 232 255
215 232 255
215 232 255
215 232 255
215 232 255
215 232 255
215 232 255
215 232 255
215 232 255
215 232 255
215 232 255
215 232 255
215 232 255
215 232 255
215 232 255
215 232 255
215 232 255
215 232 255
215 232 255
216 232 255
215 232 255
215 232 255
216 232 255
216 232 255
216 232 255
216 232 255
216 232 255
216 232 255
216 232 255
216 232 255
216 232 255
216 232 255
216 232 255
216 232 255
216 232 255
216 232 255
216 232 255
216 232 255
216 232 255
216 232 255
216 232 255
216 232 255
216 232 255
216 232 255
216 232 255
216 232 255
216 232 255
216 232 255
216 232 255
216 232 255
216 232 255
216 232 255
216 232 255
216 232 255
216 232 255
216 232 255
216 232 255
216 232 255
216 232 255
216 232 255
216 232 255
216 232 255
216 232 255
216 232 255
216 232 255
216 232 255
216 232 255
216 232 255
216 232 255
216 232 255
216 232 255
216 232 255
216 232 255
216 232 255
216 232 255
216 232 255
216 232 255
216 232 255
216 232 255
216 232 255
216 232 255
216 232 255
216 232 255
216 232 255
216 232 255
216 232 255
216 232 255
216 232 255
216 232 255
216 232 255
216 232 255
216 232 255
216 232 255
216 232 255
216 232 255
216 232 255
216 232 255
216 232 255
216 232 255
216 232 255
216 232 255
216 232 255
216 232 255
216 232 255
216 232 255
216 232 255
216 232 255
216 232 255
216 232 255
216 232 255
216 232 255
216 232 255
216 232 255
216 232 255
216 232 255
216 232 255
216 232 255
216 232 255
216 232 255
216 232 255
216 232 255
216 232 255
216 232 255
216 232 255
216 232 255
216 232 255
216 232 255
216 232 255
216 232 255
216 232 255
216 232 255
216 232 255
216 232 255
216 232 255
216 232 255
216 232 255
216 232 255
216 232 255
216 232 255
216 232 255
216 232 255
216 232 255
216 232 255
216 232 255
216 232 255
216 232 255
216 232 255
216 232 255
216 232 255
216 232 255
216 232 255
216 232 255
216 232 255
216 232 255
216 232 255
216 232 255
216 232 255
216 232 255
216 232 255
216 232 255
216 232 255
216 232 255
216 232 255
216 232 255
216 232 255
216 232 255
216 232 255
216 232 255
216 232 255
216 232 255
216 232 255
216 232 255
216 232 255
216 232 255
216 232 255
216 232 255
216 232 255
216 232 255
216 232 255
216 232 255
216 232 255
216 232 255
216 232 255
216 232 255
216 232 255
216 232 255
216 232 255
216 232 255
216 232 255
216 232 255
216 232 255
216 232 255
216 232 255
216 232 255
216 232 255
216 232 255
216 232 255
216 232 255
216 232 255
216 232 255
216 232 255
216 232 255
216 232 255
216 232 255
216 232 255
216 232 255
216 232 255
216 232 255
216 232 255
216 232 255
216 232 255
216 232 255
216 232 255
216 232 255
216 232 255
216 232 255
216 232 255
216 232 255
216 232 255
216 232 255
216 232 255
216 232 255
216 232 255
216 232 255
216 232 255
216 232 255
215 232 255
215 232 255
215 232 255
215 232 255
215 232 255
215 232 255
215 232 255
215 232 255
215 232 255
215 232 255
215 232 255
215 232 255
215 232 255
215 232 255
215 232 255
215 232 255
215 232 255
215 232 255
215 232 255
215 232 255
215 232 255
215 232 255
215 232 255
215 232 255
215 232 255
215 232 255
215 232 255
215 232 255
215 232 255
215 232 255
215 232 255
215 232 255
193 209 229
141 152 166
78 88 89
47 55 52
24 29 15
21 26 10
17 25 9
23 31 18
22 29 17
15 20 10
13 19 9
10 18 0
13 23 4
13 24 0
15 23 0
17 24 3
13 23 0
14 24 0
17 25 3
15 23 2
18 26 4
22 31 9
19 28 4
15 23 5
22 28 15
19 23 8
19 23 7
18 24 8
17 22 8
13 18 0
14 18 5
15 20 5
21 26 6
20 25 1
18 23 0
18 21 0
17 20 0
21 24 2
23 30 13
26 32 25
19 38 47
19 50 101
12 53 117
16 50 112
13 51 113
12 51 114
12 52 114
12 52 117
12 52 119
12 51 120
12 50 120
12 50 120
12 51 120
12 50 117
12 51 119
13 51 117
18 42 76
26 34 45
25 29 12
26 28 9
27 29 10
29 31 14
29 30 12
29 32 16
26 35 39
21 42 74
21 48 101
20 49 98
37 57 68
92 113 121
32 58 110
15 49 112
11 41 100
5 31 81
0 23 67
0 22 64
0 20 62
0 19 59
5 24 66
38 51 84
123 142 168
147 171 197
140 163 190
91 113 148
3 30 81
52 63 97
124 136 162
204 221 244
215 232 255
215 232 255
215 232 255
215 232 255
215 232 255
215 232 255
215 232 255
215 232 255
215 232 255
215 232 255
215 232 255
215 232 255
215 232 255
215 232 255
215 232 255
215 232 255
215 232 255
215 232 255
215 232 255
215 232 255
215 232 255
215 232 255
215 232 255
215 232 255
215 232 255
215 232 255
215 232 255
215 232 255
215 232 255
215 232 255
215 232 255
216 232 255
215 232 255
216 232 255
216 232 255
216 232 255
216 232 255
216 232 255
216 232 255
216 232 255
216 232 255
216 232 255
216 232 255
216 232 255
216 232 255
216 232 255
216 232 255
216 232 255
216 232 255
216 232 255
216 232 255
216 232 255
216 232 255
216 232 255
216 232 255
216 232 255
216 232 255
216 232 255
216 232 255
216 232 255
216 232 255
216 232 255
216 232 255
216 232 255
216 232 255
216 232 255
216 232 255
216 232 255
216 232 255
216 232 255
216 232 255
216 232 255
216 232 255
216 232 255
216 232 255
216 232 255
216 232 255
216 232 255
216 232 255
216 232 255
216 232 255
216 232 255
216 232 255
216 232 255
216 232 255
216 232 255
216 232 255
216 232 255
216 232 255
216 232 255
216 232 255
216 232 255
216 232 255
216 232 255
216 232 255
216 232 255
216 232 255
216 232 255
216 232 255
216 232 255
216 232 255
216 232 255
216 232 255
216 232 255
216 232 255
216 232 255
216 232 255
216 232 255
216 232 255
216 232 255
216 232 255
216 232 255
216 232 255
216 232 255
216 232 255
216 232 255
216 232 255
216 232 255
216 232 255
216 232 255
216 232 255
216 232 255
216 232 255
216 232 255
216 232 255
216 232 255
216 232 255
216 232 255
216 232 255
216 232 255
216 232 255
216 232 255
216 232 255
216 232 255
216 232 255
216 232 255
216 232 255
216 232 255
216 232 255
216 232 255
216 232 255
216 232 255
216 232 255
216 232 255
216 232 255
216 232 255
216 232 255
216 232 255
216 232 255
216 232 255
216 232 255
216 232 255
216 232 255
216 232 255
216 232 255
216 232 255
216 232 255
216 232 255
216 232 255
216 232 255
216 232 255
216 232 255
216 232 255
216 232 255
216 232 255
216 232 255
216 232 255
216 232 255
216 232 255
216 232 255
216 232 255
216 232 255
216 232 255
216 232 255
216 232 255
216 232 255
216 232 255
216 232 255
216 232 255
216 232 255
216 232 255
216 232 255
216 232 255
216 232 255
216 232 255
216 232 255
216 232 255
216 232 255
216 232 255
216 232 255
216 232 255
216 232 255
216 232 255
216 232 255
216 232 255
216 232 255
216 232 255
216 232 255
216 232 255
216 232 255
216 232 255
216 232 255
216 232 255
216 232 255
216 232 255
216 232 255
216 232 255
216 232 255
216 232 255
216 232 255
216 232 255
216 232 255
216 232 255
216 232 255
216 232 255
216 232 255
216 232 255
216 232 255
216 232 255
216 232 255
216 232 255
216 232 255
216 232 255
216 232 255
216 232 255
216 232 255
216 232 255
216 232 255
216 232 255
216 232 255
216 232 255
216 232 255
216 232 255
216 232 255
216 232 255
216 232 255
216 232 255
216 232 255
216 232 255
216 232 255
216 232 255
216 232 255
216 232 255
216 232 255
216 232 255
216 232 255
216 232 255
216 232 255
216 232 255
216 232 255
216 232 255
216 232 255
216 232 255
216 232 255
216 232 255
216 232 255
216 232 255
216 232 255
216 232 255
216 232 255
216 232 255
216 232 255
216 232 255
216 232 255
216 232 255
216 232 255
216 232 255
216 232 255
216 232 255
216 232 255
216 232 255
216 232 255
216 232 255
216 232 255
216 232 255
216 232 255
216 232 255
216 232 255
216 232 255
216 232 255
216 232 255
216 232 255
216 232 255
216 232 255
216 232 255
216 232 255
216 232 255
216 232 255
216 232 255
216 232 255
216 232 255
216 232 255
216 232 255
216 232 255
216 232 255
216 232 255
216 232 255
216 232 255
216 232 255
216 232 255
216 232 255
216 232 255
216 232 255
216 232 255
216 232 255
216 232 255
216 232 255
216 232 255
216 232 255
216 232 255
185 199 219
143 158 171
61 71 70
121 137 151
124 141 154
54 59 57
22 30 16
16 23 11
27 34 23
18 25 13
22 30 23
34 44 36
15 24 14
11 22 0
12 24 0
14 25 0
14 24 0
14 27 2
16 29 3
20 32 12
14 25 0
13 24 1
15 26 2
16 26 1
16 27 4
16 26 3
21 27 10
20 26 12
15 22 5
16 23 5
15 22 4
13 20 6
9 14 3
13 20 4
14 21 0
17 25 3
20 27 11
17 24 0
16 24 0
18 25 1
19 26 8
22 25 9
24 28 10
22 33 38
12 34 50
15 34 51
16 42 67
14 43 78
16 47 96
12 49 107
13 52 113
12 50 115
12 50 119
12 50 118
12 52 115
12 52 114
14 50 111
18 48 109
17 50 115
16 51 115
29 48 84
27 32 22
24 27 11
28 31 15
29 33 17
28 32 13
27 31 8
24 30 11
21 30 18
19 31 24
22 31 20
50 56 49
59 68 63
36 49 67
22 49 93
15 48 107
6 38 88
0 25 74
0 20 66
0 19 60
0 18 57
0 17 56
0 17 54
6 22 64
21 34 74
87 106 137
69 90 122
11 34 84
0 24 69
21 35 76
134 147 173
179 194 219
216 232 255
216 232 255
216 232 255
216 232 255
216 232 255
216 232 255
216 232 255
216 232 255
216 232 255
216 232 255
216 232 255
216 232 255
216 232 255
216 232 255
216 232 255
216 232 255
216 232 255
216 232 255
216 232 255
216 232 255
216 232 255
216 232 255
216 232 255
216 232 255
216 232 255
216 232 255
216 232 255
216 232 255
216 232 255
216 232 255
216 232 255
216 232 255
216 232 255
216 232 255
216 232 255
216 232 255
216 232 255
216 232 255
216 232 255
216 232 255
216 232 255
216 232 255
216 232 255
216 232 255
216 232 255
216 232 255
216 232 255
216 232 255
216 232 255
216 232 255
216 232 255
216 232 255
216 232 255
216 232 255
216 232 255
216 232 255
216 232 255
216 232 255
216 232 255
216 232 255
216 232 255
216 232 255
216 232 255
216 232 255
216 232 255
216 232 255
216 232 255
216 232 255
216 232 255
216 232 255
216 232 255
216 232 255
216 232 255
216 232 255
216 232 255
216 232 255
216 232 255
216 232 255
216 232 255
216 232 255
216 232 255
216 232 255
216 232 255
216 232 255
216 232 255
216 232 255
216 232 255
216 232 255
216 232 255
216 232 255
216 232 255
216 232 255
216 232 255
216 232 255
216 232 255
216 232 255
216 232 255
216 232 255
216 232 255
216 232 255
216 232 255
216 232 255
216 232 255
216 232 255
216 232 255
216 232 255
216 232 255
216 232 255
216 232 255
216 232 255
216 232 255
216 232 255
216 232 255
216 232 255
216 232 255
216 232 255
216 232 255
216 232 255
216 232 255
216 232 255
216 232 255
216 232 255
216 232 255
216 232 255
216 232 255
216 232 255
216 232 255
216 232 255
216 232 255
216 232 255
216 232 255
216 232 255
216 232 255
216 232 255
216 232 255
216 232 255
216 232 255
216 232 255
216 232 255
216 232 255
216 232 255
216 232 255
216 232 255
216 232 255
216 232 255
216 232 255
216 232 255
216 232 255
216 232 255
216 232 255
216 232 255
216 232 255
216 232 255
216 232 255
216 233 255
216 233 255
216 233 255
216 233 255
216 233 255
216 233 255
216 233 255
216 232 255
216 232 255
216 232 255
216 232 255
216 232 255
216 232 255
216 232 255
216 232 255
216 232 255
216 232 255
216 232 255
216 232 255
216 232 255
216 232 255
216 232 255
216 232 255
216 232 255
216 232 255
216 232 255
216 232 255
216 232 255
216 232 255
216 232 255
216 232 255
216 232 255
216 232 255
216 232 255
216 232 255
216 232 255
216 232 255
216 232 255
216 232 255
216 232 255
216 232 255
216 232 255
216 232 255
216 232 255
216 232 255
216 232 255
216 232 255
216 232 255
216 232 255
216 232 255
216 232 255
216 232 255
216 232 255
216 232 255
216 232 255
216 232 255
216 232 255
216 232 255
216 232 255
216 232 255
216 232 255
216 232 255
216 232 255
216 232 255
216 232 255
216 232 255
216 232 255
216 232 255
216 232 255
216 232 255
216 232 255
216 232 255
216 232 255
216 232 255
216 232 255
216 232 255
216 232 255
216 232 255
216 232 255
216 232 255
216 232 255
216 232 255
216 232 255
216 232 255
216 232 255
216 232 255
216 232 255
216 232 255
216 232 255
216 232 255
216 232 255
216 232 255
216 232 255
216 232 255
216 232 255
216 232 255
216 232 255
216 232 255
216 232 255
216 232 255
216 232 255
216 232 255
216 232 255
216 232 255
216 232 255
216 232 255
216 232 255
216 232 255
216 232 255
216 232 255
216 232 255
216 232 255
216 232 255
216 232 255
216 232 255
216 232 255
216 232 255
216 232 255
216 232 255
216 232 255
216 232 255
216 232 255
216 232 255
216 232 255
216 232 255
216 232 255
216 232 255
216 232 255
216 232 255
216 232 255
216 232 255
216 232 255
216 232 255
216 232 255
216 232 255
216 232 255
216 232 255
216 232 255
216 232 255
216 232 255
216 232 255
216 232 255
216 232 255
216 232 255
216 232 255
216 232 255
216 232 255
216 232 255
216 232 255
216 232 255
216 232 255
216 232 255
185 201 220
115 127 143
48 63 84
64 84 107
105 128 152
124 148 167
88 106 115
104 121 131
18 22 15
19 26 14
24 32 20
40 49 42
31 40 34
72 86 82
10 20 5
13 23 0
12 22 0
11 22 0
17 28 6
15 28 4
11 25 0
11 22 0
14 25 0
13 25 0
14 26 0
11 23 0
16 27 6
12 22 3
12 20 2
13 21 4
12 20 2
11 19 0
13 21 0
13 20 0
13 20 0
14 22 0
15 24 1
13 23 0
12 22 3
13 23 2
15 25 4
14 23 2
15 26 4
16 24 0
16 23 0
18 25 2
20 26 9
20 24 12
24 26 12
22 28 12
17 29 30
13 35 51
13 40 73
17 44 84
15 47 92
16 50 103
14 50 96
12 52 107
12 49 120
14 47 99
15 47 91
13 52 109
22 48 93
20 30 30
19 24 7
15 18 3
15 19 2
21 26 9
26 30 12
26 31 9
23 30 9
15 23 4
15 25 8
16 25 5
33 39 25
46 49 34
36 38 23
22 40 56
15 49 100
9 46 105
7 34 92
0 25 72
0 22 63
0 18 58
0 14 54
0 14 53
0 14 54
1 19 60
2 26 70
11 35 83
5 30 78
0 23 67
0 21 65
2 27 76
114 127 156
172 187 212
216 232 255
216 232 255
216 232 255
216 232 255
216 232 255
216 232 255
216 232 255
216 232 255
216 232 255
216 232 255
216 232 255
216 232 255
216 232 255
216 232 255
216 232 255
216 232 255
216 232 255
216 232 255
216 232 255
216 232 255
216 232 255
216 232 255
216 232 255
216 232 255
216 232 255
216 232 255
216 232 255
216 232 255
216 232 255
216 232 255
216 232 255
216 232 255
216 232 255
216 232 255
216 232 255
216 232 255
216 232 255
216 232 255
216 232 255
216 232 255
216 232 255
216 232 255
216 232 255
216 232 255
216 232 255
216 232 255
216 232 255
216 232 255
216 232 255
216 232 255
216 232 255
216 232 255
216 232 255
216 232 255
216 232 255
216 232 255
216 232 255
216 232 255
216 232 255
216 232 255
216 232 255
216 232 255
216 232 255
216 232 255
216 232 255
216 232 255
216 232 255
216 232 255
216 232 255
216 232 255
216 232 255
216 232 255
216 232 255
216 232 255
216 232 255
216 232 255
216 232 255
216 232 255
216 232 255
216 232 255
216 232 255
216 232 255
216 232 255
216 232 255
216 232 255
216 232 255
216 232 255
216 232 255
216 232 255
216 232 255
216 232 255
216 232 255
216 232 255
216 232 255
216 232 255
216 232 255
216 232 255
216 232 255
216 232 255
216 232 255
216 232 255
216 232 255
216 232 255
216 232 255
216 232 255
216 232 255
216 232 255
216 232 255
216 232 255
216 232 255
216 232 255
216 232 255
216 232 255
216 232 255
216 232 255
216 232 255
216 232 255
216 232 255
216 232 255
216 232 255
216 232 255
216 232 255
216 232 255
216 232 255
216 232 255
216 232 255
216 232 255
216 232 255
216 232 255
216 232 255
216 232 255
216 232 255
216 232 255
216 232 255
216 232 255
216 232 255
216 232 255
216 232 255
216 232 255
216 232 255
216 232 255
216 232 255
216 232 255
216 232 255
216 232 255
216 233 255
216 233 255
216 233 255
216 233 255
216 233 255
216 233 255
216 233 255
216 233 255
216 233 255
216 233 255
216 233 255
216 233 255
216 233 255
216 233 255
216 233 255
216 233 255
216 233 255
216 233 255
216 233 255
216 233 255
216 233 255
216 233 255
216 233 255
216 233 255
216 233 255
216 233 255
216 233 255
216 233 255
216 233 255
216 233 255
216 233 255
216 233 255
216 233 255
216 233 255
216 233 255
216 233 255
216 233 255
216 233 255
216 233 255
216 233 255
216 232 255
216 232 255
216 232 255
216 232 255
216 232 255
216 232 255
216 232 255
216 232 255
216 232 255
216 232 255
216 232 255
216 232 255
216 232 255
216 232 255
216 232 255
216 232 255
216 232 255
216 232 255
216 232 255
216 232 255
216 232 255
216 232 255
216 232 255
216 232 255
216 232 255
216 232 255
216 232 255
216 232 255
216 232 255
216 232 255
216 232 255
216 232 255
216 232 255
216 232 255
216 232 255
216 232 255
216 232 255
216 232 255
216 232 255
216 232 255
216 232 255
216 232 255
216 232 255
216 232 255
216 232 255
216 232 255
216 232 255
216 232 255
216 232 255
216 232 255
216 232 255
216 232 255
216 232 255
216 232 255
216 232 255
216 232 255
216 232 255
216 232 255
216 232 255
216 232 255
216 232 255
216 232 255
216 232 255
216 232 255
216 232 255
216 232 255
216 232 255
216 232 255
216 232 255
216 232 255
216 232 255
216 232 255
216 232 255
216 232 255
216 232 255
216 232 255
216 232 255
216 232 255
216 232 255
216 232 255
216 232 255
216 232 255
216 232 255
216 232 255
216 232 255
216 232 255
216 232 255
216 232 255
216 232 255
216 232 255
216 232 255
216 232 255
216 232 255
216 232 255
216 232 255
216 232 255
216 232 255
216 232 255
216 232 255
216 232 255
216 232 255
216 232 255
216 232 255
216 232 255
216 232 255
216 232 255
216 232 255
216 232 255
216 232 255
216 232 255
216 232 255
216 232 255
216 232 255
216 232 255
216 232 255
216 232 255
216 232 255
186 201 221
111 125 145
38 57 85
12 28 70
5 25 71
17 46 99
39 58 85
18 31 43
109 126 139
86 100 108
33 42 34
29 38 27
28 36 24
19 25 11
17 24 15
18 27 15
16 26 3
24 36 12
23 36 10
26 36 11
29 40 17
10 22 0
10 22 0
10 23 0
12 25 0
13 27 0
10 23 0
14 26 0
13 24 3
12 22 0
11 21 1
11 22 2
5 15 0
10 19 0
11 19 0
11 19 0
8 17 0
12 21 0
13 24 1
11 24 0
14 25 2
15 25 2
12 22 0
8 18 0
10 20 0
10 21 0
11 22 0
12 24 0
14 24 0
16 26 3
15 28 6
17 26 6
20 25 11
18 22 5
18 23 0
16 23 10
14 23 18
14 24 24
16 29 34
19 44 80
13 50 112
15 51 112
18 46 88
19 39 73
16 28 33
20 25 11
20 24 7
17 22 0
18 23 2
14 18 4
17 21 6
30 36 22
42 50 39
34 40 27
42 50 38
23 30 17
16 21 3
33 36 22
26 27 8
29 32 15
20 31 35
16 41 79
18 49 107
11 44 106
8 37 92
0 24 74
0 20 62
0 15 55
0 14 54
0 14 50
0 15 53
2 20 61
4 23 68
0 19 61
0 19 61
0 20 63
0 22 66
4 31 82
106 118 148
183 198 221
216 232 255
216 232 255
216 232 255
216 232 255
216 232 255
216 232 255
216 232 255
216 232 255
216 232 255
216 232 255
216 232 255
216 232 255
216 232 255
216 232 255
216 232 255
216 232 255
216 232 255
216 232 255
216 232 255
216 232 255
216 232 255
216 232 255
216 232 255
216 232 255
216 232 255
216 232 255
216 232 255
216 232 255
216 232 255
216 232 255
216 232 255
216 232 255
216 232 255
216 232 255
216 232 255
216 232 255
216 232 255
216 232 255
216 232 255
216 232 255
216 232 255
216 232 255
216 232 255
216 232 255
216 232 255
216 232 255
216 232 255
216 232 255
216 232 255
216 232 255
216 232 255
216 232 255
216 232 255
216 232 255
216 232 255
216 232 255
216 232 255
216 232 255
216 232 255
216 232 255
216 232 255
216 232 255
216 232 255
216 232 255
216 232 255
216 232 255
216 232 255
216 232 255
216 232 255
216 232 255
216 232 255
216 232 255
216 232 255
216 232 255
216 232 255
216 232 255
216 232 255
216 232 255
216 232 255
216 232 255
216 232 255
216 232 255
216 232 255
216 232 255
216 232 255
216 232 255
216 232 255
216 232 255
216 232 255
216 232 255
216 232 255
216 232 255
216 232 255
216 232 255
216 232 255
216 232 255
216 232 255
216 232 255
216 232 255
216 232 255
216 232 255
216 232 255
216 232 255
216 232 255
216 232 255
216 232 255
216 232 255
216 232 255
216 232 255
216 232 255
216 232 255
216 232 255
216 232 255
216 232 255
216 232 255
216 232 255
216 232 255
216 233 255
216 233 255
216 233 255
216 233 255
216 233 255
216 233 255
216 233 255
216 233 255
216 233 255
216 233 255
216 233 255
216 233 255
216 233 255
216 233 255
216 233 255
216 233 255
216 233 255
216 233 255
216 233 255
216 233 255
216 233 255
216 233 255
216 233 255
216 233 255
216 233 255
216 233 255
216 233 255
216 233 255
216 233 255
216 233 255
216 233 255
216 233 255
216 233 255
216 233 255
216 233 255
216 233 255
216 233 255
216 233 255
216 233 255
216 233 255
216 233 255
216 233 255
216 233 255
216 233 255
216 233 255
216 233 255
216 233 255
216 233 255
216 233 255
216 233 255
216 233 255
216 233 255
216 233 255
216 233 255
216 233 255
216 233 255
216 233 255
216 233 255
216 233 255
216 233 255
216 233 255
216 233 255
216 233 255
216 233 255
216 233 255
216 233 255
216 233 255
216 233 255
216 233 255
216 233 255
216 233 255
216 233 255
216 233 255
216 233 255
216 233 255
216 233 255
216 233 255
216 233 255
216 233 255
216 233 255
216 233 255
216 233 255
216 233 255
216 233 255
216 233 255
216 233 255
216 233 255
216 233 255
216 233 255
216 233 255
216 233 255
216 233 255
216 233 255
216 233 255
216 233 255
216 232 255
216 232 255
216 232 255
216 232 255
216 232 255
216 232 255
216 232 255
216 232 255
216 232 255
216 232 255
216 232 255
216 232 255
216 232 255
216 232 255
216 232 255
216 232 255
216 232 255
216 232 255
216 232 255
216 232 255
216 232 255
216 232 255
216 232 255
216 232 255
216 232 255
216 232 255
216 232 255
216 232 255
216 232 255
216 232 255
216 232 255
216 232 255
216 232 255
216 232 255
216 232 255
216 232 255
216 232 255
216 232 255
216 232 255
216 232 255
216 232 255
216 232 255
216 232 255
216 232 255
216 232 255
216 232 255
216 232 255
216 232 255
216 232 255
216 232 255
216 232 255
216 232 255
216 232 255
216 232 255
216 232 255
216 232 255
216 232 255
216 232 255
216 232 255
216 232 255
216 232 255
216 232 255
216 232 255
216 232 255
216 232 255
216 232 255
216 232 255
216 232 255
216 232 255
216 232 255
216 232 255
216 232 255
216 232 255
216 232 255
216 232 255
216 232 255
216 232 255
216 232 255
216 232 255
216 232 255
216 232 255
216 232 255
216 232 255
216 232 255
216 232 255
216 232 255
191 206 227
105 119 147
12 34 77
4 18 53
0 13 50
0 17 59
4 27 77
15 42 85
11 33 55
21 31 37
80 96 101
46 56 59
18 26 16
17 24 14
11 19 8
7 15 0
6 17 2
10 20 4
12 22 1
20 30 10
19 31 9
14 26 3
13 25 1
14 27 6
21 34 8
22 36 6
22 34 6
23 34 10
19 30 2
20 32 10
18 28 7
15 27 3
9 22 3
9 23 0
12 25 2
13 25 3
13 26 0
12 25 0
11 23 0
11 24 1
13 27 6
10 23 5
14 25 7
12 23 0
13 23 0
13 22 4
9 19 0
10 23 0
9 22 0
13 26 0
11 23 0
9 21 0
8 21 0
12 22 2
14 22 5
14 22 0
14 22 0
16 25 0
17 25 5
19 24 0
15 22 0
13 35 54
17 48 101
14 50 105
14 44 95
13 30 28
22 28 6
17 22 8
12 20 5
13 17 1
16 20 4
16 21 0
14 20 6
13 19 5
22 29 15
21 26 12
34 40 31
30 36 23
31 38 24
15 20 4
15 20 5
19 24 12
29 36 21
26 32 15
15 25 26
17 38 72
16 46 90
16 47 98
9 37 92
9 34 85
5 25 72
0 16 58
0 14 51
0 13 49
0 14 51
0 15 52
0 17 53
0 19 57
0 19 60
0 23 67
3 28 77
3 33 85
86 97 126
185 200 223
216 232 255
216 232 255
216 232 255
216 232 255
216 232 255
216 232 255
216 232 255
216 232 255
216 232 255
216 232 255
216 232 255
216 232 255
216 232 255
216 232 255
216 232 255
216 232 255
216 232 255
216 232 255
216 232 255
216 232 255
216 232 255
216 232 255
216 232 255
216 232 255
216 232 255
216 232 255
216 232 255
216 232 255
216 232 255
216 232 255
216 232 255
216 232 255
216 232 255
216 232 255
216 232 255
216 232 255
216 232 255
216 232 255
216 232 255
216 232 255
216 232 255
216 232 255
216 232 255
216 232 255
216 232 255
216 232 255
216 232 255
216 232 255
216 232 255
216 232 255
216 232 255
216 232 255
216 232 255
216 232 255
216 232 255
216 232 255
216 232 255
216 232 255
216 232 255
216 232 255
216 232 255
216 232 255
216 232 255
216 232 255
216 232 255
216 232 255
216 232 255
216 232 255
216 232 255
216 232 255
216 232 255
216 232 255
216 232 255
216 232 255
216 232 255
216 232 255
216 232 255
216 232 255
216 232 255
216 232 255
216 232 255
216 232 255
216 232 255
216 232 255
216 232 255
216 233 255
216 233 255
216 233 255
216 233 255
216 233 255
216 233 255
216 233 255
216 233 255
216 233 255
216 233 255
216 233 255
216 233 255
216 233 255
216 233 255
216 233 255
216 233 255
216 233 255
216 233 255
216 233 255
216 233 255
216 233 255
216 233 255
216 233 255
216 233 255
216 233 255
216 233 255
216 233 255
216 233 255
216 233 255
216 233 255
216 233 255
216 233 255
216 233 255
216 233 255
216 233 255
216 233 255
216 233 255
216 233 255
216 233 255
216 233 255
216 233 255
216 233 255
216 233 255
216 233 255
216 233 255
216 233 255
216 233 255
216 233 255
216 233 255
216 233 255
216 233 255
216 233 255
216 233 255
216 233 255
216 233 255
216 233 255
216 233 255
216 233 255
216 233 255
216 233 255
216 233 255
216 233 255
216 233 255
216 233 255
216 233 255
216 233 255
216 233 255
216 233 255
216 233 255
216 233 255
216 233 255
216 233 255
216 233 255
216 233 255
216 233 255
216 233 255
216 233 255
216 233 255
216 233 255
216 233 255
216 233 255
216 233 255
216 233 255
216 233 255
216 233 255
216 233 255
216 233 255
216 233 255
216 233 255
216 233 255
216 233 255
216 233 255
216 233 255
216 233 255
216 233 255
216 233 255
216 233 255
216 233 255
216 233 255
216 233 255
216 233 255
216 233 255
216 233 255
216 233 255
216 233 255
216 233 255
216 233 255
216 233 255
216 233 255
216 233 255
216 233 255
216 233 255
216 233 255
216 233 255
216 233 255
216 233 255
216 233 255
216 233 255
216 233 255
216 233 255
216 233 255
216 233 255
216 233 255
216 233 255
216 233 255
216 233 255
216 233 255
216 233 255
216 233 255
216 233 255
216 233 255
216 233 255
216 233 255
216 233 255
216 233 255
216 233 255
216 233 255
216 233 255
216 233 255
216 233 255
216 233 255
216 233 255
216 233 255
216 233 255
216 233 255
216 233 255
216 233 255
216 233 255
216 233 255
216 233 255
216 233 255
216 233 255
216 233 255
216 233 255
216 233 255
216 233 255
216 233 255
216 233 255
216 233 255
216 233 255
216 233 255
216 232 255
216 233 255
216 232 255
216 232 255
216 232 255
216 232 255
216 232 255
216 232 255
216 232 255
216 232 255
216 232 255
216 232 255
216 232 255
216 232 255
216 232 255
216 232 255
216 232 255
216 232 255
216 232 255
216 232 255
216 232 255
216 232 255
216 232 255
216 232 255
216 232 255
216 232 255
216 232 255
216 232 255
216 232 255
216 232 255
216 232 255
216 232 255
216 232 255
216 232 255
216 232 255
216 232 255
216 232 255
216 232 255
216 232 255
216 232 255
216 232 255
216 232 255
216 232 255
216 232 255
216 232 255
216 232 255
216 232 255
216 232 255
209 226 248
137 151 172
24 39 75
4 17 49
0 13 46
0 14 52
0 19 61
0 24 70
14 43 103
12 39 79
13 32 54
24 32 34
25 35 28
14 22 7
11 19 3
8 17 3
7 17 0
9 18 0
8 17 6
30 41 31
19 28 18
10 19 0
11 21 2
11 25 0
18 33 8
27 41 13
33 47 19
40 51 23
40 49 20
40 49 22
37 47 22
34 45 21
29 40 17
29 40 15
29 40 12
27 41 13
28 44 16
24 39 12
12 27 3
8 25 0
11 25 3
11 25 3
9 24 0
10 26 4
13 27 9
11 23 5
12 20 0
10 21 0
12 24 0
13 23 0
14 25 0
11 21 0
9 20 0
11 21 0
6 21 0
7 19 0
6 16 0
9 17 0
12 22 0
15 25 0
19 26 0
18 22 10
15 22 0
18 30 14
29 44 31
16 42 50
14 41 94
14 36 66
18 29 15
19 30 9
13 24 1
18 25 5
20 26 9
15 22 0
16 22 2
14 20 2
15 19 0
15 20 4
22 28 14
24 29 17
18 22 7
22 28 13
13 20 8
9 15 5
10 17 2
17 24 6
15 23 4
10 23 0
14 30 23
16 30 35
16 41 85
16 50 107
15 50 113
15 45 105
5 31 80
0 19 59
0 15 52
0 12 49
0 17 57
0 18 57
0 18 57
0 19 60
0 22 68
1 27 76
3 30 81
21 36 81
122 133 157
201 217 240
216 232 255
216 232 255
216 232 255
216 232 255
216 232 255
216 232 255
216 232 255
216 232 255
216 232 255
216 232 255
216 232 255
216 232 255
216 232 255
216 232 255
216 232 255
216 232 255
216 232 255
216 232 255
216 232 255
216 232 255
216 232 255
216 232 255
216 232 255
216 232 255
216 232 255
216 232 255
216 232 255
216 232 255
216 232 255
216 232 255
216 232 255
216 232 255
216 232 255
216 232 255
216 232 255
216 232 255
216 232 255
216 232 255
216 232 255
216 232 255
216 232 255
216 232 255
216 232 255
216 232 255
216 233 255
216 232 255
216 232 255
216 232 255
216 233 255
216 233 255
216 233 255
216 233 255
216 233 255
216 233 255
216 233 255
216 233 255
216 233 255
216 233 255
216 233 255
216 233 255
216 233 255
216 233 255
216 233 255
216 233 255
216 233 255
216 233 255
216 233 255
216 233 255
216 233 255
216 233 255
216 233 255
216 233 255
216 233 255
216 233 255
216 233 255
216 233 255
216 233 255
216 233 255
216 233 255
216 233 255
216 233 255
216 233 255
216 233 255
216 233 255
216 233 255
216 233 255
216 233 255
216 233 255
216 233 255
216 233 255
216 233 255
216 233 255
216 233 255
216 233 255
216 233 255
216 233 255
216 233 255
216 233 255
216 233 255
216 233 255
216 233 255
216 233 255
216 233 255
216 233 255
216 233 255
216 233 255
216 233 255
216 233 255
216 233 255
216 233 255
216 233 255
216 233 255
216 233 255
216 233 255
216 233 255
216 233 255
216 233 255
216 233 255
216 233 255
216 233 255
216 233 255
216 233 255
216 233 255
216 233 255
216 233 255
216 233 255
216 233 255
216 233 255
216 233 255
216 233 255
216 233 255
216 233 255
216 233 255
216 233 255
216 233 255
216 233 255
216 233 255
216 233 255
216 233 255
216 233 255
216 233 255
216 233 255
216 233 255
216 233 255
216 233 255
216 233 255
216 233 255
216 233 255
216 233 255
216 233 255
216 233 255
216 233 255
216 233 255
216 233 255
216 233 255
216 233 255
216 233 255
216 233 255
216 233 255
216 233 255
216 233 255
216 233 255
216 233 255
216 233 255
216 233 255
216 233 255
216 233 255
216 233 255
216 233 255
216 233 255
216 233 255
216 233 255
216 233 255
216 233 255
216 233 255
216 233 255
216 233 255
216 233 255
216 233 255
216 233 255
216 233 255
216 233 255
216 233 255
216 233 255
216 233 255
216 233 255
216 233 255
216 233 255
216 233 255
216 233 255
216 233 255
216 233 255
216 233 255
216 233 255
216 233 255
216 233 255
216 233 255
216 233 255
216 233 255
216 233 255
216 233 255
216 233 255
216 233 255
216 233 255
216 233 255
216 233 255
216 233 255
216 233 255
216 233 255
216 233 255
216 233 255
216 233 255
216 233 255
216 233 255
216 233 255
216 233 255
216 233 255
216 233 255
216 233 255
216 233 255
216 233 255
216 233 255
216 233 255
216 233 255
216 233 255
216 233 255
216 233 255
216 233 255
216 233 255
216 233 255
216 233 255
216 233 255
216 233 255
216 233 255
216 233 255
216 233 255
216 233 255
216 233 255
216 233 255
216 233 255
216 233 255
216 233 255
216 233 255
216 233 255
216 233 255
216 233 255
216 233 255
216 233 255
216 233 255
216 233 255
216 233 255
216 233 255
216 233 255
216 233 255
216 233 255
216 233 255
216 233 255
216 233 255
216 233 255
216 233 255
216 233 255
216 233 255
216 233 255
216 233 255
216 233 255
216 233 255
216 233 255
216 233 255
216 233 255
216 233 255
216 233 255
216 233 255
216 233 255
216 233 255
216 233 255
216 233 255
216 233 255
216 233 255
216 233 255
216 233 255
216 233 255
216 233 255
216 233 255
216 233 255
216 233 255
216 233 255
216 233 255
216 233 255
216 233 255
216 233 255
213 229 252
150 165 188
34 46 69
4 13 45
0 10 44
0 14 49
0 18 55
0 20 61
0 23 67
9 34 82
17 44 91
18 49 97
14 34 58
26 36 33
28 35 30
10 16 2
12 18 0
12 20 4
12 22 0
7 17 1
45 56 50
36 45 39
53 64 56
47 55 50
16 22 15
12 23 0
24 36 10
33 44 13
40 47 18
43 49 22
42 46 20
50 54 29
54 57 34
49 54 31
44 49 25
41 48 22
39 50 22
35 48 20
32 46 19
25 38 11
25 40 16
22 36 13
15 29 6
16 32 5
14 29 0
18 34 8
22 38 14
16 28 6
13 22 0
12 21 0
10 21 0
8 20 0
7 17 0
3 16 0
9 19 0
8 19 0
5 21 0
3 18 0
9 18 0
11 19 0
13 23 0
17 26 0
19 25 0
18 27 0
19 27 0
18 25 0
17 22 2
16 25 15
16 31 44
16 30 41
13 24 13
15 25 6
13 24 4
16 26 0
14 22 0
15 22 0
15 24 0
16 23 0
17 23 2
18 24 5
22 28 12
18 24 9
18 23 5
18 27 6
11 20 0
13 17 0
14 18 0
13 21 0
8 22 0
9 18 0
8 17 7
15 23 20
9 17 8
14 25 29
10 36 67
15 49 111
14 50 117
8 39 96
1 26 72
0 16 54
0 14 48
0 15 51
0 17 55
0 15 54
0 18 60
0 21 66
2 27 74
1 31 80
1 29 77
37 46 82
140 152 174
209 226 249
216 233 255
216 233 255
216 233 255
216 233 255
216 233 255
216 233 255
216 233 255
216 233 255
216 233 255
216 233 255
216 233 255
216 233 255
216 233 255
216 233 255
216 233 255
216 233 255
216 233 255
216 233 255
216 233 255
216 233 255
216 233 255
216 233 255
216 233 255
216 233 255
216 233 255
216 233 255
216 233 255
216 233 255
216 233 255
216 233 255
216 233 255
216 233 255
216 233 255
216 233 255
216 233 255
216 233 255
216 233 255
216 233 255
216 233 255
216 233 255
216 233 255
216 233 255
216 233 255
216 233 255
216 233 255
216 233 255
216 233 255
216 233 255
216 233 255
216 233 255
216 233 255
216 233 255
216 233 255
216 233 255
216 233 255
216 233 255
216 233 255
216 233 255
216 233 255
216 233 255
216 233 255
216 233 255
216 233 255
216 233 255
216 233 255
216 233 255
216 233 255
216 233 255
216 233 255
216 233 255
216 233 255
216 233 255
216 233 255
216 233 255
216 233 255
216 233 255
216 233 255
216 233 255
216 233 255
216 233 255
216 233 255
216 233 255
216 233 255
216 233 255
216 233 255
216 233 255
216 233 255
216 233 255
216 233 255
216 233 255
216 233 255
216 233 255
216 233 255
216 233 255
216 233 255
216 233 255
216 233 255
216 233 255
216 233 255
216 233 255
216 233 255
216 233 255
216 233 255
216 233 255
216 233 255
216 233 255
216 233 255
216 233 255
216 233 255
216 233 255
216 233 255
216 233 255
216 233 255
216 233 255
216 233 255
216 233 255
216 233 255
216 233 255
216 233 255
216 233 255
216 233 255
216 233 255
216 233 255
216 233 255
216 233 255
216 233 255
216 233 255
216 233 255
216 233 255
216 233 255
216 233 255
216 233 255
216 233 255
216 233 255
216 233 255
216 233 255
216 233 255
216 233 255
216 233 255
216 233 255
216 233 255
216 233 255
216 233 255
216 233 255
216 233 255
216 233 255
216 233 255
216 233 255
216 233 255
216 233 255
216 233 255
216 233 255
216 233 255
216 233 255
216 233 255
216 233 255
216 233 255
216 233 255
216 233 255
216 233 255
216 233 255
216 233 255
216 233 255
216 233 255
216 233 255
216 233 255
216 233 255
216 233 255
216 233 255
216 233 255
216 233 255
216 233 255
216 233 255
216 233 255
216 233 255
216 233 255
216 233 255
216 233 255
216 233 255
216 233 255
216 233 255
216 233 255
216 233 255
216 233 255
216 233 255
216 233 255
216 233 255
216 233 255
216 233 255
216 233 255
216 233 255
216 233 255
216 233 255
216 233 255
216 233 255
216 233 255
216 233 255
216 233 255
216 233 255
216 233 255
216 233 255
216 233 255
216 233 255
216 233 255
216 233 255
216 233 255
216 233 255
216 233 255
216 233 255
216 233 255
216 233 255
216 233 255
216 233 255
216 233 255
216 233 255
216 233 255
216 233 255
216 233 255
216 233 255
216 233 255
216 233 255
216 233 255
216 233 255
216 233 255
216 233 255
216 233 255
216 233 255
216 233 255
216 233 255
216 233 255
216 233 255
216 233 255
216 233 255
216 233 255
216 233 255
216 233 255
216 233 255
216 233 255
216 233 255
216 233 255
216 233 255
216 233 255
216 233 255
216 233 255
216 233 255
216 233 255
216 233 255
216 233 255
216 233 255
216 233 255
216 233 255
216 233 255
216 233 255
216 233 255
216 233 255
216 233 255
216 233 255
216 233 255
216 233 255
216 233 255
216 233 255
216 233 255
216 233 255
216 233 255
216 233 255
216 233 255
216 233 255
216 233 255
216 233 255
216 233 255
216 233 255
216 233 255
216 233 255
216 233 255
216 233 255
216 233 255
216 233 255
216 233 255
216 233 255
216 233 255
216 233 255
216 233 255
216 233 255
216 233 255
216 233 255
216 233 255
216 233 255
176 191 214
62 73 100
4 13 38
0 4 37
0 10 43
0 13 49
0 16 55
0 19 57
0 21 64
3 25 69
15 37 77
18 47 92
18 49 94
3 21 29
45 55 54
21 26 19
17 21 5
20 25 9
16 24 5
13 21 0
7 15 0
17 25 16
36 44 38
62 71 66
71 82 80
40 46 39
20 29 8
40 47 21
46 52 22
49 51 26
54 56 33
62 65 42
64 67 41
60 63 36
59 63 37
50 54 29
49 55 28
45 54 26
39 50 20
30 42 13
30 44 15
30 45 18
25 40 11
24 39 13
25 40 14
25 42 12
24 41 13
24 40 6
21 35 7
14 25 0
12 22 0
12 23 0
11 20 0
9 19 0
8 18 0
8 17 0
1 14 0
7 19 0
11 22 3
12 22 1
11 20 0
13 22 0
11 22 0
14 23 0
15 24 4
15 25 3
14 26 0
17 29 0
17 28 3
15 27 9
17 27 5
18 27 5
16 26 6
11 21 2
11 20 0
11 19 0
10 20 2
12 21 4
9 17 0
15 24 3
15 24 0
13 22 0
14 22 5
8 16 0
10 18 0
12 20 4
14 20 2
17 22 4
18 26 3
10 19 7
11 19 5
6 16 0
10 21 0
11 23 0
12 20 0
14 21 4
9 30 42
15 50 112
12 50 110
12 48 110
7 34 87
1 20 62
0 13 47
0 10 44
0 12 47
0 14 48
0 14 53
0 18 60
0 22 66
0 27 74
0 28 75
0 25 70
71 80 105
188 203 226
215 231 254
216 233 255
216 233 255
216 233 255
216 233 255
216 233 255
216 233 255
216 233 255
216 233 255
216 233 255
216 233 255
216 233 255
216 233 255
216 233 255
216 233 255
216 233 255
216 233 255
216 233 255
216 233 255
216 233 255
216 233 255
216 233 255
216 233 255
216 233 255
216 233 255
216 233 255
216 233 255
216 233 255
216 233 255
216 233 255
216 233 255
216 233 255
216 233 255
216 233 255
216 233 255
216 233 255
216 233 255
216 233 255
216 233 255
216 233 255
216 233 255
216 233 255
216 233 255
216 233 255
216 233 255
216 233 255
216 233 255
216 233 255
216 233 255
216 233 255
216 233 255
216 233 255
216 233 255
216 233 255
216 233 255
216 233 255
216 233 255
216 233 255
216 233 255
216 233 255
216 233 255
216 233 255
216 233 255
216 233 255
216 233 255
216 233 255
216 233 255
216 233 255
216 233 255
216 233 255
216 233 255
216 233 255
216 233 255
216 233 255
216 233 255
216 233 255
216 233 255
216 233 255
216 233 255
216 233 255
216 233 255
216 233 255
216 233 255
216 233 255
216 233 255
216 233 255
216 233 255
216 233 255
216 233 255
216 233 255
216 233 255
216 233 255
216 233 255
216 233 255
216 233 255
216 233 255
216 233 255
216 233 255
216 233 255
216 233 255
216 233 255
216 233 255
216 233 255
216 233 255
216 233 255
216 233 255
216 233 255
216 233 255
216 233 255
216 233 255
216 233 255
216 233 255
216 233 255
216 233 255
216 233 255
216 233 255
216 233 255
216 233 255
216 233 255
216 233 255
216 233 255
216 233 255
216 233 255
216 233 255
216 233 255
216 233 255
216 233 255
216 233 255
216 233 255
216 233 255
216 233 255
216 233 255
216 233 255
216 233 255
216 233 255
216 233 255
216 233 255
216 233 255
216 233 255
216 233 255
216 233 255
216 233 255
216 233 255
216 233 255
216 233 255
216 233 255
216 233 255
216 233 255
216 233 255
216 233 255
216 233 255
216 233 255
216 233 255
216 233 255
216 233 255
216 233 255
216 233 255
216 233 255
216 233 255
216 233 255
216 233 255
216 233 255
216 233 255
216 233 255
216 233 255
216 233 255
216 233 255
216 233 255
216 233 255
216 233 255
216 233 255
216 233 255
216 233 255
216 233 255
216 233 255
216 233 255
216 233 255
216 233 255
216 233 255
216 233 255
216 233 255
216 233 255
216 233 255
216 233 255
216 233 255
216 233 255
216 233 255
216 233 255
216 233 255
216 233 255
216 233 255
216 233 255
216 233 255
216 233 255
216 233 255
216 233 255
216 233 255
216 233 255
216 233 255
216 233 255
216 233 255
216 233 255
216 233 255
216 233 255
216 233 255
216 233 255
216 233 255
216 233 255
216 233 255
216 233 255
216 233 255
216 233 255
216 233 255
216 233 255
216 233 255
216 233 255
216 233 255
216 233 255
216 233 255
216 233 255
216 233 255
216 233 255
216 233 255
216 233 255
216 233 255
216 233 255
216 233 255
216 233 255
216 233 255
216 233 255
216 233 255
216 233 255
216 233 255
216 233 255
216 233 255
216 233 255
216 233 255
216 233 255
216 233 255
216 233 255
216 233 255
216 233 255
216 233 255
216 233 255
216 233 255
216 233 255
216 233 255
216 233 255
216 233 255
216 233 255
216 233 255
216 233 255
216 233 255
216 233 255
216 233 255
216 233 255
216 233 255
216 233 255
216 233 255
216 233 255
216 233 255
216 233 255
216 233 255
216 233 255
216 233 255
216 233 255
216 233 255
216 233 255
216 233 255
216 233 255
216 233 255
216 233 255
216 233 255
216 233 255
216 233 255
216 233 255
216 233 255
216 233 255
216 233 255
216 233 255
216 233 255
216 233 255
216 233 255
216 233 255
204 220 243
122 134 155
5 19 52
2 9 42
0 8 40
0 11 44
0 14 50
0 14 53
0 15 55
0 19 59
0 24 67
5 27 71
7 38 84
15 51 120
17 48 92
12 24 26
75 86 87
68 79 78
35 42 38
17 24 7
22 28 11
16 23 4
12 20 2
15 21 15
34 42 37
56 65 63
25 27 18
35 43 29
32 38 17
52 56 31
54 56 30
52 54 30
56 58 33
64 66 43
57 59 35
57 60 36
53 57 33
51 56 31
47 52 26
45 53 27
39 47 19
35 46 19
32 44 15
30 44 14
30 43 12
34 47 17
31 44 13
31 45 15
35 52 22
36 54 22
25 41 10
16 29 0
11 23 0
9 21 0
9 21 0
11 20 0
7 17 0
8 17 0
4 18 0
10 20 0
6 16 0
2 16 0
3 18 0
8 20 0
5 21 0
10 24 0
10 24 0
12 24 0
13 25 0
14 26 0
16 29 0
13 26 0
13 25 0
14 27 0
12 24 0
11 23 0
9 21 0
10 21 0
5 20 0
8 21 0
12 24 4
12 24 5
12 23 5
11 23 1
11 23 3
9 21 0
9 19 0
10 20 5
6 16 5
5 19 21
8 20 24
6 17 13
9 16 10
3 13 5
5 18 5
5 18 3
3 18 14
15 37 60
24 42 66
16 41 63
14 49 112
13 49 113
12 50 114
14 46 108
8 33 84
0 17 55
0 12 44
0 7 41
0 10 41
0 11 47
0 13 52
0 18 59
0 24 67
3 28 74
0 24 67
3 22 65
118 129 152
204 220 242
216 233 255
216 233 255
216 233 255
216 233 255
216 233 255
216 233 255
216 233 255
216 233 255
216 233 255
216 233 255
216 233 255
216 233 255
216 233 255
216 233 255
216 233 255
216 233 255
216 233 255
216 233 255
216 233 255
216 233 255
216 233 255
216 233 255
216 233 255
216 233 255
216 233 255
216 233 255
216 233 255
216 233 255
216 233 255
216 233 255
216 233 255
216 233 255
216 233 255
216 233 255
216 233 255
216 233 255
216 233 255
216 233 255
216 233 255
216 233 255
216 233 255
216 233 255
216 233 255
216 233 255
216 233 255
216 233 255
216 233 255
216 233 255
216 233 255
216 233 255
216 233 255
216 233 255
216 233 255
216 233 255
216 233 255
216 233 255
216 233 255
216 233 255
216 233 255
216 233 255
216 233 255
216 233 255
216 233 255
216 233 255
216 233 255
216 233 255
216 233 255
216 233 255
216 233 255
216 233 255
216 233 255
216 233 255
216 233 255
216 233 255
216 233 255
216 233 255
216 233 255
216 233 255
216 233 255
216 233 255
216 233 255
216 233 255
216 233 255
216 233 255
216 233 255
216 233 255
216 233 255
216 233 255
216 233 255
216 233 255
216 233 255
216 233 255
216 233 255
216 233 255
216 233 255
216 233 255
216 233 255
216 233 255
216 233 255
216 233 255
216 233 255
216 233 255
216 233 255
216 233 255
216 233 255
216 233 255
216 233 255
216 233 255
216 233 255
216 233 255
216 233 255
216 233 255
216 233 255
216 233 255
216 233 255
216 233 255
216 233 255
216 233 255
216 233 255
216 233 255
216 233 255
216 233 255
216 233 255
216 233 255
216 233 255
216 233 255
216 233 255
216 233 255
216 233 255
216 233 255
216 233 255
216 233 255
216 233 255
216 233 255
216 233 255
216 233 255
216 233 255
216 233 255
216 233 255
216 233 255
216 233 255
216 233 255
216 233 255
216 233 255
216 233 255
216 233 255
216 233 255
216 233 255
216 233 255
216 233 255
216 233 255
216 233 255
216 233 255
216 233 255
216 233 255
216 233 255
216 233 255
216 233 255
216 233 255
216 233 255
216 233 255
216 233 255
216 233 255
216 233 255
216 233 255
216 233 255
216 233 255
216 233 255
216 233 255
216 233 255
216 233 255
216 233 255
216 233 255
216 233 255
216 233 255
216 233 255
216 233 255
216 233 255
216 233 255
216 233 255
216 233 255
216 233 255
216 233 255
216 233 255
216 233 255
216 233 255
216 233 255
216 233 255
216 233 255
216 233 255
216 233 255
216 233 255
216 233 255
216 233 255
216 233 255
216 233 255
216 233 255
216 233 255
216 233 255
216 233 255
216 233 255
216 233 255
216 233 255
216 233 255
216 233 255
216 233 255
216 233 255
216 233 255
216 233 255
216 233 255
216 233 255
216 233 255
216 233 255
216 233 255
216 233 255
216 233 255
216 233 255
216 233 255
216 233 255
216 233 255
216 233 255
216 233 255
216 233 255
216 233 255
216 233 255
216 233 255
216 233 255
216 233 255
216 233 255
216 233 255
216 233 255
216 233 255
216 233 255
216 233 255
216 233 255
216 233 255
216 233 255
216 233 255
216 233 255
216 233 255
216 233 255
216 233 255
216 233 255
216 233 255
216 233 255
216 233 255
216 233 255
216 233 255
216 233 255
216 233 255
216 233 255
216 233 255
216 233 255
216 233 255
216 233 255
216 233 255
216 233 255
216 233 255
216 233 255
216 233 255
216 233 255
216 233 255
216 233 255
216 233 255
216 233 255
216 233 255
216 233 255
216 233 255
216 233 255
216 233 255
216 233 255
216 233 255
216 233 255
216 233 255
216 233 255
216 233 255
216 233 255
216 233 255
216 233 255
216 233 255
216 233 255
154 167 188
78 85 101
0 0 31
0 5 38
0 7 42
0 13 44
0 14 48
0 14 50
0 14 52
0 15 53
0 20 61
0 24 72
1 28 77
8 40 94
18 45 104
18 39 62
12 21 15
40 51 49
82 96 104
68 79 73
18 23 14
20 26 9
22 28 10
13 21 3
9 17 5
18 26 15
30 38 27
16 24 5
24 31 10
48 53 29
58 60 35
65 66 40
64 65 38
54 53 27
57 55 33
56 57 34
54 55 31
52 54 30
55 56 33
54 57 33
50 54 30
44 51 27
39 48 20
38 47 20
38 48 21
39 49 21
33 44 15
34 47 16
35 49 19
35 49 18
33 47 15
23 36 8
19 33 9
12 26 4
13 26 3
5 21 0
8 20 0
4 17 0
4 18 0
6 20 0
9 22 2
13 25 9
12 22 8
4 15 1
8 17 0
7 19 0
4 20 0
8 23 0
11 25 0
12 27 0
13 27 3
12 26 0
13 27 0
12 26 4
16 30 8
12 26 0
12 24 0
9 22 0
7 22 0
13 26 0
10 23 0
12 25 0
12 26 3
12 27 5
9 23 0
9 22 2
7 23 0
9 28 6
3 21 16
11 31 51
22 52 83
18 52 97
19 50 90
13 40 63
18 41 59
19 44 71
17 41 69
15 41 75
19 52 108
19 52 104
8 29 44
18 44 77
15 51 106
14 49 112
12 51 117
14 50 118
9 40 99
4 28 74
0 16 53
0 11 45
0 2 36
0 4 40
0 11 47
0 17 53
0 15 52
0 19 58
0 21 62
0 19 60
30 38 72
167 181 202
216 233 255
216 233 255
216 233 255
216 233 255
216 233 255
216 233 255
216 233 255
216 233 255
216 233 255
216 233 255
216 233 255
216 233 255
216 233 255
216 233 255
216 233 255
216 233 255
216 233 255
216 233 255
216 233 255
216 233 255
216 233 255
216 233 255
216 233 255
216 233 255
216 233 255
216 233 255
216 233 255
216 233 255
216 233 255
216 233 255
216 233 255
216 233 255
216 233 255
216 233 255
216 233 255
216 233 255
216 233 255
216 233 255
216 233 255
216 233 255
216 233 255
216 233 255
216 233 255
216 233 255
216 233 255
216 233 255
216 233 255
216 233 255
216 233 255
216 233 255
216 233 255
216 233 255
216 233 255
216 233 255
216 233 255
216 233 255
216 233 255
216 233 255
216 233 255
216 233 255
216 233 255
216 233 255
216 233 255
216 233 255
216 233 255
216 233 255
216 233 255
216 233 255
216 233 255
216 233 255
216 233 255
216 233 255
216 233 255
216 233 255
216 233 255
216 233 255
216 233 255
216 233 255
216 233 255
216 233 255
216 233 255
216 233 255
216 233 255
216 233 255
216 233 255
216 233 255
216 233 255
216 233 255
216 233 255
216 233 255
216 233 255
216 233 255
216 233 255
216 233 255
216 233 255
216 233 255
216 233 255
216 233 255
216 233 255
216 233 255
216 233 255
216 233 255
216 233 255
216 233 255
216 233 255
216 233 255
216 233 255
216 233 255
216 233 255
216 233 255
216 233 255
216 233 255
216 233 255
216 233 255
216 233 255
216 233 255
216 233 255
216 233 255
216 233 255
216 233 255
216 233 255
216 233 255
216 233 255
216 233 255
216 233 255
216 233 255
216 233 255
216 233 255
216 233 255
216 233 255
216 233 255
216 233 255
216 233 255
216 233 255
216 233 255
216 233 255
216 233 255
216 233 255
216 233 255
216 233 255
216 233 255
216 233 255
216 233 255
216 233 255
216 233 255
216 233 255
216 233 255
216 233 255
216 233 255
216 233 255
216 233 255
216 233 255
216 233 255
216 233 255
216 233 255
216 233 255
216 233 255
216 233 255
216 233 255
216 233 255
216 233 255
216 233 255
216 233 255
216 233 255
216 233 255
216 233 255
216 233 255
216 233 255
216 233 255
216 233 255
216 233 255
216 233 255
216 233 255
216 233 255
216 233 255
216 233 255
216 233 255
216 233 255
216 233 255
216 233 255
216 233 255
216 233 255
216 233 255
216 233 255
216 233 255
216 233 255
216 233 255
216 233 255
216 233 255
216 233 255
216 233 255
216 233 255
216 233 255
216 233 255
216 233 255
216 233 255
216 233 255
216 233 255
216 233 255
216 233 255
216 233 255
216 233 255
216 233 255
216 233 255
216 233 255
216 233 255
216 233 255
216 233 255
216 233 255
216 233 255
216 233 255
216 233 255
216 233 255
216 233 255
216 233 255
216 233 255
216 233 255
216 233 255
216 233 255
216 233 255
216 233 255
216 233 255
216 233 255
216 233 255
216 233 255
216 233 255
216 233 255
216 233 255
216 233 255
216 233 255
216 233 255
216 233 255
216 233 255
216 233 255
216 233 255
216 233 255
216 233 255
216 233 255
216 233 255
216 233 255
216 233 255
216 233 255
216 233 255
216 233 255
216 233 255
216 233 255
216 233 255
216 233 255
216 233 255
216 233 255
216 233 255
216 233 255
216 233 255
216 233 255
216 233 255
216 233 255
216 233 255
216 233 255
216 233 255
216 233 255
216 233 255
216 233 255
216 233 255
216 233 255
216 233 255
216 233 255
216 233 255
216 233 255
216 233 255
216 233 255
216 233 255
216 233 255
216 233 255
216 233 255
216 233 255
216 233 255
216 233 255
216 233 255
207 223 245
94 102 116
0 3 31
0 3 33
0 4 36
0 10 42
0 12 44
0 14 47
0 14 47
0 14 49
0 15 51
0 17 60
0 20 61
0 26 73
4 30 82
3 35 85
17 43 80
2 17 27
11 23 21
17 32 39
17 27 31
18 27 14
7 11 2
15 21 5
21 27 11
10 20 2
10 19 3
11 21 0
10 20 3
12 21 1
22 27 6
54 58 37
72 71 46
75 71 47
75 72 48
67 64 41
63 60 39
64 63 42
59 60 37
59 58 36
57 56 33
57 58 34
52 54 30
49 54 32
44 49 25
44 51 26
43 50 23
39 46 19
38 49 21
33 46 15
33 46 17
35 48 16
37 50 20
31 43 15
21 35 8
13 30 0
13 29 0
12 27 0
11 26 0
6 22 0
7 20 6
9 21 7
15 23 11
3 7 0
1 3 0
0 0 0
0 0 0
4 8 0
11 18 5
13 22 0
6 23 0
10 24 0
8 23 0
6 22 0
7 23 0
10 24 4
15 29 8
11 27 0
13 28 0
10 25 0
5 22 0
6 22 0
10 22 0
11 24 0
11 25 0
11 27 2
9 24 0
13 28 0
10 24 7
9 25 18
25 47 53
20 46 60
12 38 50
5 27 35
9 33 49
17 42 84
17 46 91
11 44 75
12 47 104
15 50 122
13 51 114
16 56 108
13 38 53
13 30 30
12 37 66
14 50 93
14 51 104
13 50 116
12 50 116
10 43 104
5 32 85
0 24 71
8 23 61
1 5 37
0 0 36
0 6 39
0 11 46
0 13 48
0 13 47
0 13 48
0 15 54
0 14 50
120 130 151
204 220 242
216 233 255
216 233 255
216 233 255
216 233 255
216 233 255
216 233 255
216 233 255
216 233 255
216 233 255
216 233 255
216 233 255
216 233 255
216 233 255
216 233 255
216 233 255
216 233 255
216 233 255
216 233 255
216 233 255
216 233 255
216 233 255
216 233 255
216 233 255
216 233 255
216 233 255
216 233 255
216 233 255
216 233 255
216 233 255
216 233 255
216 233 255
216 233 255
216 233 255
216 233 255
216 233 255
216 233 255
216 233 255
216 233 255
216 233 255
216 233 255
216 233 255
216 233 255
216 233 255
216 233 255
216 233 255
216 233 255
216 233 255
216 233 255
216 233 255
216 233 255
216 233 255
216 233 255
216 233 255
216 233 255
216 233 255
216 233 255
216 233 255
216 233 255
216 233 255
216 233 255
216 233 255
216 233 255
216 233 255
216 233 255
216 233 255
216 233 255
216 233 255
216 233 255
216 233 255
216 233 255
216 233 255
216 233 255
216 233 255
216 233 255
216 233 255
216 233 255
216 233 255
216 233 255
216 233 255
216 233 255
216 233 255
216 233 255
216 233 255
216 233 255
216 233 255
216 233 255
216 233 255
216 233 255
216 233 255
216 233 255
216 233 255
216 233 255
216 233 255
216 233 255
216 233 255
216 233 255
216 233 255
216 233 255
216 233 255
216 233 255
216 233 255
216 233 255
216 233 255
216 233 255
216 233 255
216 233 255
216 233 255
216 233 255
216 233 255
216 233 255
216 233 255
216 233 255
216 233 255
216 233 255
216 233 255
216 233 255
216 233 255
216 233 255
216 233 255
216 233 255
216 233 255
216 233 255
216 233 255
216 233 255
216 233 255
216 233 255
216 233 255
216 233 255
216 233 255
216 233 255
216 233 255
216 233 255
216 233 255
216 233 255
216 233 255
216 233 255
216 233 255
216 233 255
216 233 255
216 233 255
216 233 255
216 233 255
216 233 255
216 233 255
216 233 255
216 233 255
216 233 255
216 233 255
216 233 255
216 233 255
216 233 255
216 233 255
216 233 255
216 233 255
216 233 255
216 233 255
216 233 255
216 233 255
216 233 255
216 233 255
216 233 255
216 233 255
216 233 255
216 233 255
216 233 255
216 233 255
216 233 255
216 233 255
216 233 255
216 233 255
216 233 255
216 233 255
216 233 255
216 233 255
216 233 255
216 233 255
216 233 255
216 233 255
216 233 255
216 233 255
216 233 255
216 233 255
216 233 255
216 233 255
216 233 255
216 233 255
216 233 255
216 233 255
216 233 255
216 233 255
216 233 255
216 233 255
216 233 255
216 233 255
216 233 255
216 233 255
216 233 255
216 233 255
216 233 255
216 233 255
216 233 255
216 233 255
216 233 255
216 233 255
216 233 255
216 233 255
216 233 255
216 233 255
216 233 255
216 233 255
216 233 255
216 233 255
216 233 255
216 233 255
216 233 255
216 233 255
216 233 255
216 233 255
216 233 255
216 233 255
216 233 255
216 233 255
216 233 255
216 233 255
216 233 255
216 233 255
216 233 255
216 233 255
216 233 255
216 233 255
216 233 255
216 233 255
216 233 255
216 233 255
216 233 255
216 233 255
216 233 255
216 233 255
216 233 255
216 233 255
216 233 255
216 233 255
216 233 255
216 233 255
216 233 255
216 233 255
216 233 255
216 233 255
216 233 255
216 233 255
216 233 255
216 233 255
216 233 255
216 233 255
216 233 255
216 233 255
216 233 255
216 233 255
216 233 255
216 233 255
216 233 255
216 233 255
216 233 255
216 233 255
216 233 255
216 233 255
216 233 255
216 233 255
216 233 255
216 233 255
216 233 255
216 233 255
216 233 255
216 233 255
216 233 255
177 190 209
53 57 66
0 0 23
0 1 30
0 1 33
0 11 43
0 10 44
0 13 44
0 14 45
0 14 47
0 14 51
0 18 60
0 20 61
0 24 67
0 27 76
0 29 75
1 32 80
21 52 97
15 38 66
3 18 25
19 40 57
19 36 39
16 26 11
24 26 10
44 44 26
24 29 9
25 30 11
16 21 3
12 19 0
15 25 12
23 30 17
16 20 0
51 51 30
77 72 48
77 73 49
77 72 49
63 61 37
61 59 36
67 65 42
68 65 44
66 64 44
68 68 46
64 63 42
61 60 39
57 58 37
52 52 32
49 50 28
45 48 21
40 46 17
39 48 20
36 48 18
36 47 16
36 48 17
36 48 20
32 45 17
18 32 3
14 28 0
12 27 0
14 31 0
16 32 0
10 24 2
6 13 6
0 0 0
0 3 0
5 11 5
7 12 8
0 0 0
0 0 0
0 0 0
0 0 0
5 13 0
11 24 0
12 24 0
9 23 0
7 22 0
7 21 0
5 19 0
16 27 9
12 25 3
7 22 0
5 21 0
4 20 0
2 20 0
11 24 0
9 23 0
10 23 0
11 25 0
12 27 0
8 23 0
8 23 0
16 34 23
18 35 30
7 26 4
9 26 0
12 29 5
14 39 26
12 43 56
21 49 113
17 52 111
14 52 115
12 51 117
11 51 114
19 51 106
16 38 59
8 22 2
11 24 7
12 20 14
8 25 26
15 43 82
15 50 114
13 52 113
11 45 105
0 32 83
0 25 74
1 19 64
0 9 46
0 3 37
0 0 32
0 3 35
0 2 41
0 9 44
0 10 45
1 17 53
1 18 55
37 43 66
174 188 208
216 233 255
216 233 255
216 233 255
216 233 255
216 233 255
216 233 255
216 233 255
216 233 255
216 233 255
216 233 255
216 233 255
216 233 255
216 233 255
216 233 255
216 233 255
216 233 255
216 233 255
216 233 255
216 233 255
216 233 255
216 233 255
216 233 255
216 233 255
216 233 255
216 233 255
216 233 255
216 233 255
216 233 255
216 233 255
216 233 255
216 233 255
216 233 255
216 233 255
216 233 255
216 233 255
216 233 255
216 233 255
216 233 255
216 233 255
216 233 255
216 233 255
216 233 255
216 233 255
216 233 255
216 233 255
216 233 255
216 233 255
216 233 255
216 233 255
216 233 255
216 233 255
216 233 255
216 233 255
216 233 255
216 233 255
216 233 255
216 233 255
216 233 255
216 233 255
216 233 255
216 233 255
216 233 255
216 233 255
216 233 255
216 233 255
216 233 255
216 233 255
216 233 255
216 233 255
216 233 255
216 233 255
216 233 255
216 233 255
216 233 255
216 233 255
216 233 255
216 233 255
216 233 255
216 233 255
216 233 255
216 233 255
216 233 255
216 233 255
216 233 255
216 233 255
216 233 255
216 233 255
216 233 255
216 233 255
216 233 255
216 233 255
216 233 255
216 233 255
216 233 255
216 233 255
216 233 255
216 233 255
216 233 255
216 233 255
216 233 255
216 233 255
216 233 255
216 233 255
216 233 255
216 233 255
216 233 255
216 233 255
216 233 255
216 233 255
216 233 255
216 233 255
216 233 255
216 233 255
216 233 255
216 233 255
216 233 255
216 233 255
216 233 255
216 233 255
216 233 255
216 233 255
216 233 255
216 233 255
216 233 255
216 233 255
216 233 255
216 233 255
216 233 255
216 233 255
216 233 255
216 233 255
216 233 255
216 233 255
216 233 255
216 233 255
216 233 255
216 233 255
216 233 255
216 233 255
216 233 255
216 233 255
216 233 255
216 233 255
216 233 255
216 233 255
216 233 255
216 233 255
216 233 255
216 233 255
216 233 255
216 233 255
216 233 255
216 233 255
216 233 255
216 233 255
216 233 255
216 233 255
216 233 255
216 233 255
216 233 255
216 233 255
216 233 255
216 233 255
216 233 255
216 233 255
216 233 255
216 233 255
216 233 255
216 233 255
216 233 255
216 233 255
216 233 255
216 233 255
216 233 255
216 233 255
216 233 255
216 233 255
216 233 255
216 233 255
216 233 255
216 233 255
216 233 255
216 233 255
216 233 255
216 233 255
216 233 255
216 233 255
216 233 255
216 233 255
216 233 255
216 233 255
216 233 255
216 233 255
216 233 255
216 233 255
216 233 255
216 233 255
216 233 255
216 233 255
216 233 255
216 233 255
216 233 255
216 233 255
216 233 255
216 233 255
216 233 255
216 233 255
216 233 255
216 233 255
216 233 255
216 233 255
216 233 255
216 233 255
216 233 255
216 233 255
216 233 255
216 233 255
216 233 255
216 233 255
216 233 255
216 233 255
216 233 255
216 233 255
216 233 255
216 233 255
216 233 255
216 233 255
216 233 255
216 233 255
216 233 255
216 233 255
216 233 255
216 233 255
216 233 255
216 233 255
216 233 255
216 233 255
216 233 255
216 233 255
216 233 255
216 233 255
216 233 255
216 233 255
216 233 255
216 233 255
216 233 255
216 233 255
216 233 255
216 233 255
216 233 255
216 233 255
216 233 255
216 233 255
216 233 255
216 233 255
216 233 255
216 233 255
216 233 255
216 233 255
216 233 255
216 233 255
216 233 255
216 233 255
216 233 255
216 233 255
216 233 255
216 233 255
216 233 255
216 233 255
216 233 255
216 233 255
216 233 255
207 223 245
128 137 152
0 0 19
0 0 19
0 0 27
0 2 33
0 5 39
0 9 42
0 10 40
0 6 39
0 14 46
0 14 49
0 17 56
0 21 60
0 23 65
0 24 69
0 25 72
0 27 74
1 31 83
12 45 106
16 44 78
10 28 28
19 36 46
12 25 21
27 26 12
64 60 42
78 74 53
72 70 48
55 56 36
17 20 1
9 17 0
26 34 19
25 32 15
23 28 9
49 50 28
52 52 31
46 44 25
64 64 43
57 55 32
74 72 49
79 76 54
79 76 56
80 76 56
75 73 53
71 70 49
63 63 42
61 59 39
58 56 35
57 57 36
50 54 29
46 52 27
39 47 20
38 49 19
37 48 16
35 47 17
37 50 23
25 39 10
24 41 10
18 34 4
14 29 2
18 34 0
16 31 0
13 27 3
14 29 10
10 22 4
10 23 0
13 26 7
11 24 2
12 23 10
11 19 11
11 22 14
13 25 17
9 22 9
16 29 11
10 23 1
10 22 0
9 23 0
14 27 3
15 27 8
10 22 0
7 21 0
6 22 0
5 23 0
8 23 0
9 23 0
12 25 0
10 23 0
9 23 0
8 23 0
10 25 0
11 25 0
16 30 8
17 34 13
10 29 0
11 29 0
16 32 0
15 31 6
9 27 15
5 29 30
22 50 95
17 54 110
13 54 115
15 51 112
13 52 116
13 52 109
12 41 83
12 35 54
14 30 42
13 25 35
13 23 20
13 29 30
14 42 79
14 51 114
12 51 117
10 47 113
7 37 94
2 28 80
2 26 78
9 32 82
2 18 57
0 1 31
0 0 28
0 4 37
0 5 36
0 8 39
0 13 50
0 18 55
0 14 50
138 149 168
214 230 253
216 233 255
216 233 255
216 233 255
216 233 255
216 233 255
216 233 255
216 233 255
216 233 255
216 233 255
216 233 255
216 233 255
216 233 255
216 233 255
216 233 255
216 233 255
216 233 255
216 233 255
216 233 255
216 233 255
216 233 255
216 233 255
216 233 255
216 233 255
216 233 255
216 233 255
216 233 255
216 233 255
216 233 255
216 233 255
216 233 255
216 233 255
216 233 255
216 233 255
216 233 255
216 233 255
216 233 255
216 233 255
216 233 255
216 233 255
216 233 255
216 233 255
216 233 255
216 233 255
216 233 255
216 233 255
216 233 255
216 233 255
216 233 255
216 233 255
216 233 255
216 233 255
216 233 255
216 233 255
216 233 255
216 233 255
216 233 255
216 233 255
216 233 255
216 233 255
216 233 255
216 233 255
216 233 255
216 233 255
216 233 255
216 233 255
216 233 255
216 233 255
216 233 255
216 233 255
216 233 255
216 233 255
216 233 255
216 233 255
216 233 255
216 233 255
216 233 255
216 233 255
216 233 255
216 233 255
216 233 255
216 233 255
216 233 255
216 233 255
216 233 255
216 233 255
216 233 255
216 233 255
216 233 255
216 233 255
216 233 255
216 233 255
216 233 255
216 233 255
216 233 255
216 233 255
216 233 255
216 233 255
216 233 255
216 233 255
216 233 255
216 233 255
216 233 255
216 233 255
216 233 255
216 233 255
216 233 255
216 233 255
216 233 255
216 233 255
216 233 255
216 233 255
216 233 255
216 233 255
216 233 255
216 233 255
216 233 255
216 233 255
216 233 255
216 233 255
216 233 255
216 233 255
216 233 255
216 233 255
216 233 255
216 233 255
216 233 255
216 233 255
216 233 255
216 233 255
216 233 255
216 233 255
216 233 255
216 233 255
216 233 255
216 233 255
216 233 255
216 233 255
216 233 255
216 233 255
216 233 255
216 233 255
216 233 255
216 233 255
216 233 255
216 233 255
216 233 255
216 233 255
216 233 255
216 233 255
216 233 255
216 233 255
216 233 255
216 233 255
216 233 255
216 233 255
216 233 255
216 233 255
216 233 255
216 233 255
216 233 255
216 233 255
216 233 255
216 233 255
216 233 255
216 233 255
216 233 255
216 233 255
216 233 255
216 233 255
216 233 255
216 233 255
216 233 255
216 233 255
216 233 255
216 233 255
216 233 255
216 233 255
216 233 255
216 233 255
216 233 255
216 233 255
216 233 255
216 233 255
216 233 255
216 233 255
216 233 255
216 233 255
216 233 255
216 233 255
216 233 255
216 233 255
216 233 255
216 233 255
216 233 255
216 233 255
216 233 255
216 233 255
216 233 255
216 233 255
216 233 255
216 233 255
216 233 255
216 233 255
216 233 255
216 233 255
216 233 255
216 233 255
216 233 255
216 233 255
216 233 255
216 233 255
216 233 255
216 233 255
216 233 255
216 233 255
216 233 255
216 233 255
216 233 255
216 233 255
216 233 255
216 233 255
216 233 255
216 233 255
216 233 255
216 233 255
216 233 255
216 233 255
216 233 255
216 233 255
216 233 255
216 233 255
216 233 255
216 233 255
216 233 255
216 233 255
216 233 255
216 233 255
216 233 255
216 233 255
216 233 255
216 233 255
216 233 255
216 233 255
216 233 255
216 233 255
216 233 255
216 233 255
216 233 255
216 233 255
216 233 255
216 233 255
216 233 255
216 233 255
216 233 255
216 233 255
216 233 255
216 233 255
216 233 255
216 233 255
216 233 255
216 233 255
216 233 255
216 233 255
216 233 255
216 233 255
216 233 255
216 233 255
216 233 255
216 233 255
192 207 227
65 69 78
0 0 16
0 0 18
0 0 25
0 0 31
0 4 37
0 1 37
0 3 36
0 6 38
0 12 42
0 13 46
0 14 52
0 19 59
0 22 65
0 24 70
0 25 74
0 24 75
0 26 76
6 33 88
17 49 102
13 29 40
19 21 9
18 25 13
34 33 24
59 56 38
66 59 35
83 77 53
78 73 48
55 56 36
15 20 5
12 18 3
25 31 15
27 32 14
32 38 20
45 51 33
45 49 28
53 56 37
75 77 58
75 75 54
71 69 45
73 69 44
74 69 50
76 71 53
75 72 52
67 64 44
65 62 42
63 60 41
59 56 37
60 59 38
53 56 32
48 54 28
41 49 22
39 49 18
37 47 16
31 42 12
32 44 16
26 40 8
23 43 10
25 42 12
25 40 12
25 39 13
19 35 8
17 33 6
12 32 0
12 30 0
14 26 0
13 25 0
13 26 0
17 29 9
13 21 11
4 12 5
2 7 2
11 21 9
12 20 8
3 7 2
0 7 0
6 15 0
2 10 0
9 18 5
13 24 8
12 24 3
10 24 0
11 25 0
12 27 0
13 28 5
12 25 0
14 28 2
10 25 2
17 32 9
18 33 6
18 32 0
15 30 8
14 29 3
7 26 0
6 26 0
11 30 0
16 35 0
12 28 0
12 28 4
17 32 28
20 45 61
18 52 84
14 51 99
18 54 112
15 44 86
20 48 101
14 52 110
15 54 104
19 52 101
18 50 85
8 40 63
18 45 69
10 35 63
14 51 114
12 52 119
14 51 120
15 50 115
16 48 106
10 45 107
12 48 111
6 28 73
0 4 30
0 0 25
0 0 28
0 1 32
0 5 36
0 12 45
0 16 54
0 16 53
89 96 113
197 212 233
216 233 255
216 233 255
216 233 255
216 233 255
216 233 255
216 233 255
216 233 255
216 233 255
216 233 255
216 233 255
216 233 255
216 233 255
216 233 255
216 233 255
216 233 255
216 233 255
216 233 255
216 233 255
216 233 255
216 233 255
216 233 255
216 233 255
216 233 255
216 233 255
216 233 255
216 233 255
216 233 255
216 233 255
216 233 255
216 233 255
216 233 255
216 233 255
216 233 255
216 233 255
216 233 255
216 233 255
216 233 255
216 233 255
216 233 255
216 233 255
216 233 255
216 233 255
216 233 255
216 233 255
216 233 255
216 233 255
216 233 255
216 233 255
216 233 255
216 233 255
216 233 255
216 233 255
216 233 255
216 233 255
216 233 255
216 233 255
216 233 255
216 233 255
216 233 255
216 233 255
216 233 255
216 233 255
216 233 255
216 233 255
216 233 255
216 233 255
216 233 255
216 233 255
216 233 255
216 233 255
216 233 255
216 233 255
216 233 255
216 233 255
216 233 255
216 233 255
216 233 255
216 233 255
216 233 255
216 233 255
216 233 255
216 233 255
216 233 255
216 233 255
216 233 255
216 233 255
216 233 255
216 233 255
216 233 255
216 233 255
216 233 255
216 233 255
216 233 255
216 233 255
216 233 255
216 233 255
216 233 255
216 233 255
216 233 255
216 233 255
216 233 255
216 233 255
216 233 255
216 233 255
216 233 255
216 233 255
216 233 255
216 233 255
216 233 255
216 233 255
216 233 255
216 233 255
216 233 255
216 233 255
216 233 255
216 233 255
216 233 255
216 233 255
216 233 255
216 233 255
216 233 255
216 233 255
216 233 255
216 233 255
216 233 255
216 233 255
216 233 255
216 233 255
216 233 255
216 233 255
216 233 255
216 233 255
216 233 255
216 233 255
216 233 255
216 233 255
216 233 255
216 233 255
216 233 255
216 233 255
216 233 255
216 233 255
216 233 255
216 233 255
216 233 255
216 233 255
216 233 255
216 233 255
216 233 255
216 233 255
216 233 255
216 233 255
216 233 255
216 233 255
216 233 255
216 233 255
216 233 255
216 233 255
216 233 255
216 233 255
216 233 255
216 233 255
216 233 255
216 233 255
216 233 255
216 233 255
216 233 255
216 233 255
216 233 255
216 233 255
216 233 255
216 233 255
216 233 255
216 233 255
216 233 255
216 233 255
216 233 255
216 233 255
216 233 255
216 233 255
216 233 255
216 233 255
216 233 255
216 233 255
216 233 255
216 233 255
216 233 255
216 233 255
216 233 255
216 233 255
216 233 255
216 233 255
216 233 255
216 233 255
216 233 255
216 233 255
216 233 255
216 233 255
216 233 255
216 233 255
216 233 255
216 233 255
216 233 255
216 233 255
216 233 255
216 233 255
216 233 255
216 233 255
216 233 255
216 233 255
216 233 255
216 233 255
216 233 255
216 233 255
216 233 255
216 233 255
216 233 255
216 233 255
216 233 255
216 233 255
216 233 255
216 233 255
216 233 255
216 233 255
216 233 255
216 233 255
216 233 255
216 233 255
216 233 255
216 233 255
216 233 255
216 233 255
216 233 255
216 233 255
216 233 255
216 233 255
216 233 255
216 233 255
216 233 255
216 233 255
216 233 255
216 233 255
216 233 255
216 233 255
216 233 255
216 233 255
216 233 255
216 233 255
216 233 255
216 233 255
216 233 255
216 233 255
216 233 255
216 233 255
216 233 255
216 233 255
216 233 255
216 233 255
216 233 255
216 233 255
216 233 255
216 233 255
216 233 255
216 233 255
216 233 255
216 233 255
216 233 255
173 186 205
53 57 64
0 0 16
0 0 18
0 0 22
0 0 29
0 0 32
0 0 32
0 0 35
0 1 37
0 2 38
0 12 42
0 13 47
0 17 57
0 21 65
0 24 70
0 25 74
0 24 73
0 24 74
2 27 76
10 43 93
18 45 82
12 23 14
11 20 7
21 25 11
65 63 44
74 70 46
73 70 47
50 46 28
41 39 18
34 36 19
15 19 3
17 23 5
28 32 16
37 40 25
51 55 36
45 46 28
37 36 17
43 41 23
68 68 49
70 67 44
67 65 41
66 62 39
69 64 45
75 71 52
75 71 52
74 73 54
66 64 43
59 57 35
61 59 38
54 55 31
51 52 28
53 57 33
44 50 22
40 47 18
38 48 19
34 47 17
30 46 16
26 43 10
25 42 7
25 42 10
25 41 6
26 42 13
24 40 12
23 40 7
20 37 2
24 41 12
22 37 13
20 33 2
26 39 16
20 30 14
6 9 4
3 8 4
15 24 14
18 31 9
17 30 10
18 28 19
3 6 4
0 0 0
0 6 0
7 14 6
2 9 0
14 27 7
11 26 3
11 26 0
13 28 0
15 31 4
21 37 10
24 40 16
21 36 11
25 40 16
23 39 13
13 28 0
13 29 0
7 23 0
13 26 0
10 26 0
10 29 0
6 29 0
8 32 10
9 29 18
12 29 21
16 33 33
16 37 37
16 42 53
20 48 75
12 38 60
7 34 57
15 47 105
11 51 112
12 51 115
13 52 119
14 51 116
17 53 114
17 47 104
17 50 99
13 52 117
12 52 115
12 51 118
13 51 117
10 45 109
13 51 117
13 51 113
11 33 77
0 6 35
0 0 24
0 0 24
0 0 27
0 6 32
0 5 38
0 15 52
0 18 56
48 53 71
172 185 204
216 233 255
216 233 255
216 233 255
216 233 255
216 233 255
216 233 255
216 233 255
216 233 255
216 233 255
216 233 255
216 233 255
216 233 255
216 233 255
216 233 255
216 233 255
216 233 255
216 233 255
216 233 255
216 233 255
216 233 255
216 233 255
216 233 255
216 233 255
216 233 255
216 233 255
216 233 255
216 233 255
216 233 255
216 233 255
216 233 255
216 233 255
216 233 255
216 233 255
216 233 255
216 233 255
216 233 255
216 233 255
216 233 255
216 233 255
216 233 255
216 233 255
216 233 255
216 233 255
216 233 255
216 233 255
216 233 255
216 233 255
216 233 255
216 233 255
216 233 255
216 233 255
216 233 255
216 233 255
216 233 255
216 233 255
216 233 255
216 233 255
216 233 255
216 233 255
216 233 255
216 233 255
216 233 255
216 233 255
216 233 255
216 233 255
216 233 255
216 233 255
216 233 255
216 233 255
216 233 255
216 233 255
216 233 255
216 233 255
216 233 255
216 233 255
216 233 255
216 233 255
216 233 255
216 233 255
216 233 255
216 233 255
216 233 255
216 233 255
216 233 255
216 233 255
216 233 255
216 233 255
216 233 255
216 233 255
216 233 255
216 233 255
216 233 255
216 233 255
216 233 255
216 233 255
216 233 255
216 233 255
216 233 255
216 233 255
216 233 255
216 233 255
216 233 255
216 233 255
216 233 255
216 233 255
216 233 255
216 233 255
216 233 255
216 233 255
216 233 255
216 233 255
216 233 255
216 233 255
216 233 255
216 233 255
216 233 255
216 233 255
216 233 255
216 233 255
216 233 255
216 233 255
216 233 255
216 233 255
216 233 255
216 233 255
216 233 255
216 233 255
216 233 255
216 233 255
216 233 255
216 233 255
216 233 255
216 233 255
217 233 255
217 233 255
217 233 255
217 233 255
217 233 255
217 233 255
217 233 255
217 233 255
217 233 255
217 233 255
217 233 255
217 233 255
217 233 255
217 233 255
217 233 255
217 233 255
217 233 255
217 233 255
217 233 255
217 233 255
217 233 255
217 233 255
217 233 255
216 233 255
216 233 255
216 233 255
216 233 255
216 233 255
216 233 255
216 233 255
216 233 255
216 233 255
216 233 255
216 233 255
216 233 255
216 233 255
216 233 255
216 233 255
216 233 255
216 233 255
216 233 255
216 233 255
216 233 255
216 233 255
216 233 255
216 233 255
216 233 255
216 233 255
216 233 255
216 233 255
216 233 255
216 233 255
216 233 255
216 233 255
216 233 255
216 233 255
216 233 255
216 233 255
216 233 255
216 233 255
216 233 255
216 233 255
216 233 255
216 233 255
216 233 255
216 233 255
216 233 255
216 233 255
216 233 255
216 233 255
216 233 255
216 233 255
216 233 255
216 233 255
216 233 255
216 233 255
216 233 255
216 233 255
216 233 255
216 233 255
216 233 255
216 233 255
216 233 255
216 233 255
216 233 255
216 233 255
216 233 255
216 233 255
216 233 255
216 233 255
216 233 255
216 233 255
216 233 255
216 233 255
216 233 255
216 233 255
216 233 255
216 233 255
216 233 255
216 233 255
216 233 255
216 233 255
216 233 255
216 233 255
216 233 255
216 233 255
216 233 255
216 233 255
216 233 255
216 233 255
216 233 255
216 233 255
216 233 255
216 233 255
216 233 255
216 233 255
216 233 255
216 233 255
216 233 255
216 233 255
216 233 255
216 233 255
216 233 255
216 233 255
216 233 255
216 233 255
216 233 255
216 233 255
216 233 255
216 233 255
216 233 255
215 232 254
145 156 172
0 0 16
0 0 16
0 0 16
0 0 18
0 0 25
0 0 28
0 0 29
0 0 33
0 0 35
0 0 35
0 9 38
0 13 45
0 14 52
0 20 63
0 27 73
0 25 72
0 24 69
0 24 69
0 26 71
6 36 93
19 50 96
23 36 41
31 36 22
27 29 16
69 66 47
70 66 44
55 53 32
43 43 26
41 42 23
30 32 11
24 28 6
29 33 15
43 45 28
47 47 29
54 54 35
39 39 19
34 33 16
31 31 15
45 44 27
97 93 77
106 101 83
50 47 29
71 68 48
82 80 60
72 72 53
58 57 38
40 37 19
62 61 40
65 64 43
60 59 36
57 57 33
53 54 30
51 54 31
50 54 29
42 49 22
38 49 20
28 41 9
27 46 12
25 42 5
25 41 0
22 38 0
24 40 6
25 42 11
24 40 10
21 37 0
19 35 0
17 33 1
22 37 10
25 40 8
33 46 20
27 36 26
0 3 0
14 19 14
19 29 12
21 33 8
18 33 4
20 33 14
20 27 21
6 9 7
15 21 11
29 42 21
26 40 17
26 40 20
27 42 22
21 35 19
18 32 14
16 31 9
14 29 5
17 32 10
12 26 2
9 25 0
12 25 0
12 27 0
13 28 0
6 24 0
12 27 5
14 30 0
12 31 13
5 29 24
7 35 40
15 47 74
23 51 79
16 35 41
14 29 13
11 29 30
6 29 38
12 37 59
17 48 88
15 52 113
15 50 115
15 50 116
12 50 111
16 51 114
17 51 119
16 53 117
16 52 119
13 53 127
12 52 118
14 53 114
13 52 119
15 51 115
12 43 102
16 48 104
16 41 94
2 15 53
0 1 34
0 0 23
0 0 23
0 0 26
0 0 31
0 2 37
0 14 50
0 21 60
0 14 48
137 147 164
216 233 255
216 233 255
216 233 255
216 233 255
216 233 255
216 233 255
216 233 255
216 233 255
216 233 255
216 233 255
216 233 255
216 233 255
216 233 255
216 233 255
216 233 255
216 233 255
216 233 255
216 233 255
216 233 255
216 233 255
216 233 255
216 233 255
216 233 255
216 233 255
216 233 255
216 233 255
216 233 255
216 233 255
216 233 255
216 233 255
216 233 255
216 233 255
216 233 255
216 233 255
216 233 255
216 233 255
216 233 255
216 233 255
216 233 255
216 233 255
216 233 255
216 233 255
216 233 255
216 233 255
216 233 255
216 233 255
216 233 255
216 233 255
216 233 255
216 233 255
216 233 255
216 233 255
216 233 255
216 233 255
216 233 255
216 233 255
216 233 255
216 233 255
216 233 255
216 233 255
216 233 255
216 233 255
216 233 255
216 233 255
216 233 255
216 233 255
216 233 255
216 233 255
216 233 255
216 233 255
216 233 255
216 233 255
216 233 255
216 233 255
216 233 255
216 233 255
216 233 255
216 233 255
216 233 255
216 233 255
216 233 255
216 233 255
216 233 255
216 233 255
216 233 255
216 233 255
216 233 255
216 233 255
216 233 255
216 233 255
216 233 255
216 233 255
216 233 255
216 233 255
216 233 255
216 233 255
216 233 255
216 233 255
216 233 255
216 233 255
216 233 255
216 233 255
216 233 255
216 233 255
216 233 255
216 233 255
216 233 255
216 233 255
216 233 255
216 233 255
217 233 255
217 233 255
217 233 255
217 233 255
217 233 255
217 233 255
217 233 255
217 233 255
217 233 255
217 233 255
217 233 255
217 233 255
217 233 255
217 233 255
217 233 255
217 233 255
217 233 255
217 233 255
217 233 255
217 233 255
217 233 255
217 233 255
217 233 255
217 233 255
217 233 255
217 233 255
217 233 255
217 233 255
217 233 255
217 233 255
217 233 255
217 233 255
217 233 255
217 233 255
217 233 255
217 233 255
217 233 255
217 233 255
217 233 255
217 233 255
217 233 255
217 233 255
217 233 255
217 233 255
217 233 255
217 233 255
217 233 255
217 233 255
217 233 255
217 233 255
217 233 255
217 233 255
217 233 255
217 233 255
217 233 255
217 233 255
217 233 255
217 233 255
217 233 255
217 233 255
217 233 255
217 233 255
217 233 255
217 233 255
217 233 255
217 233 255
217 233 255
217 233 255
217 233 255
217 233 255
217 233 255
217 233 255
217 233 255
217 233 255
217 233 255
217 233 255
217 233 255
217 233 255
217 233 255
216 233 255
216 233 255
216 233 255
216 233 255
216 233 255
216 233 255
216 233 255
216 233 255
216 233 255
216 233 255
216 233 255
216 233 255
216 233 255
216 233 255
216 233 255
216 233 255
216 233 255
216 233 255
216 233 255
216 233 255
216 233 255
216 233 255
216 233 255
216 233 255
216 233 255
216 233 255
216 233 255
216 233 255
216 233 255
216 233 255
216 233 255
216 233 255
216 233 255
216 233 255
216 233 255
216 233 255
216 233 255
216 233 255
216 233 255
216 233 255
216 233 255
216 233 255
216 233 255
216 233 255
216 233 255
216 233 255
216 233 255
216 233 255
216 233 255
216 233 255
216 233 255
216 233 255
216 233 255
216 233 255
216 233 255
216 233 255
216 233 255
216 233 255
216 233 255
216 233 255
216 233 255
216 233 255
216 233 255
216 233 255
216 233 255
216 233 255
216 233 255
216 233 255
216 233 255
216 233 255
216 233 255
216 233 255
216 233 255
208 223 245
99 106 117
0 0 11
0 0 14
0 0 15
0 0 16
0 0 22
0 0 27
0 0 28
0 0 33
0 0 35
0 0 35
0 0 36
0 5 40
0 13 48
0 17 60
0 24 69
0 25 72
0 24 69
0 23 66
0 24 66
4 29 81
19 50 108
20 40 55
39 46 34
17 22 9
55 54 38
51 48 28
46 44 24
38 36 18
67 66 48
68 69 48
40 41 23
34 34 16
39 39 21
60 60 41
67 65 47
62 66 46
45 49 29
29 32 12
37 39 22
56 54 35
85 82 61
92 88 67
65 61 40
88 84 63
86 82 61
81 79 60
75 75 55
50 48 28
71 72 52
79 78 57
70 70 48
62 61 38
59 60 36
59 60 37
50 53 28
41 49 21
34 45 14
28 42 8
23 40 3
22 39 0
22 39 0
22 38 0
23 39 0
22 39 2
24 41 9
23 39 3
20 36 0
21 37 0
20 36 4
28 44 10
34 47 21
19 26 16
0 0 0
17 22 16
28 38 21
28 42 15
33 49 18
32 50 18
36 50 33
22 31 19
21 29 18
38 51 26
32 45 22
34 47 27
12 21 6
10 19 7
7 15 4
4 12 0
10 19 6
15 27 7
12 26 0
3 24 0
7 26 3
13 30 5
14 29 0
12 28 0
8 29 20
10 36 44
13 44 66
16 51 91
16 51 107
15 53 109
21 48 94
2 27 27
6 32 39
20 48 90
20 50 102
18 53 106
18 52 108
17 52 119
13 51 118
16 52 118
18 51 117
14 47 104
12 41 95
6 34 85
9 45 93
13 54 110
14 54 113
17 52 121
12 52 121
15 53 117
7 37 89
4 27 73
0 15 54
0 4 40
0 0 29
0 0 26
0 0 26
0 0 25
0 0 30
0 0 32
0 5 38
0 13 50
0 19 60
0 15 52
116 125 140
208 223 245
216 233 255
216 233 255
216 233 255
216 233 255
216 233 255
216 233 255
216 233 255
216 233 255
216 233 255
216 233 255
216 233 255
216 233 255
216 233 255
216 233 255
216 233 255
216 233 255
216 233 255
216 233 255
216 233 255
216 233 255
216 233 255
216 233 255
216 233 255
216 233 255
216 233 255
216 233 255
216 233 255
216 233 255
216 233 255
216 233 255
216 233 255
216 233 255
216 233 255
216 233 255
216 233 255
216 233 255
216 233 255
216 233 255
216 233 255
216 233 255
216 233 255
216 233 255
216 233 255
216 233 255
216 233 255
216 233 255
216 233 255
216 233 255
216 233 255
216 233 255
216 233 255
216 233 255
216 233 255
216 233 255
216 233 255
216 233 255
216 233 255
216 233 255
216 233 255
216 233 255
216 233 255
216 233 255
216 233 255
216 233 255
216 233 255
216 233 255
216 233 255
216 233 255
216 233 255
216 233 255
216 233 255
216 233 255
216 233 255
216 233 255
216 233 255
217 233 255
217 233 255
217 233 255
217 233 255
217 233 255
217 233 255
217 233 255
217 233 255
217 233 255
217 233 255
217 233 255
217 233 255
217 233 255
217 233 255
217 233 255
217 233 255
217 233 255
217 233 255
217 233 255
217 233 255
217 233 255
217 233 255
217 233 255
217 233 255
217 233 255
217 233 255
217 233 255
217 233 255
217 233 255
217 233 255
217 233 255
217 233 255
217 233 255
217 233 255
217 233 255
217 233 255
217 233 255
217 233 255
217 233 255
217 233 255
217 233 255
217 233 255
217 233 255
217 233 255
217 233 255
217 233 255
217 233 255
217 233 255
217 233 255
217 233 255
217 233 255
217 233 255
217 233 255
217 233 255
217 233 255
217 233 255
217 233 255
217 233 255
217 233 255
217 233 255
217 233 255
217 233 255
217 233 255
217 233 255
217 233 255
217 233 255
217 233 255
217 233 255
217 233 255
217 233 255
217 233 255
217 233 255
217 233 255
217 233 255
217 233 255
217 233 255
217 233 255
217 233 255
217 233 255
217 233 255
217 233 255
217 233 255
217 233 255
217 233 255
217 233 255
217 233 255
217 233 255
217 233 255
217 233 255
217 233 255
217 233 255
217 233 255
217 233 255
217 233 255
217 233 255
217 233 255
217 233 255
217 233 255
217 233 255
217 233 255
217 233 255
217 233 255
217 233 255
217 233 255
217 233 255
217 233 255
217 233 255
217 233 255
217 233 255
217 233 255
217 233 255
217 233 255
217 233 255
217 233 255
217 233 255
217 233 255
217 233 255
217 233 255
217 233 255
217 233 255
217 233 255
217 233 255
217 233 255
217 233 255
217 233 255
217 233 255
217 233 255
217 233 255
217 233 255
217 233 255
217 233 255
217 233 255
217 233 255
217 233 255
217 233 255
217 233 255
217 233 255
217 233 255
217 233 255
217 233 255
217 233 255
217 233 255
217 233 255
217 233 255
217 233 255
217 233 255
217 233 255
217 233 255
217 233 255
217 233 255
217 233 255
217 233 255
216 233 255
216 233 255
216 233 255
216 233 255
216 233 255
216 233 255
216 233 255
216 233 255
216 233 255
216 233 255
216 233 255
216 233 255
216 233 255
216 233 255
216 233 255
216 233 255
216 233 255
216 233 255
216 233 255
216 233 255
216 233 255
216 233 255
216 233 255
216 233 255
216 233 255
216 233 255
216 233 255
216 233 255
216 233 255
216 233 255
216 233 255
216 233 255
200 215 236
94 101 111
0 0 2
0 0 8
0 0 12
0 0 15
0 0 18
0 0 26
0 0 28
0 0 32
0 0 36
0 0 36
0 3 37
0 10 40
0 12 46
0 14 54
0 20 63
0 24 69
0 24 72
0 23 68
0 23 66
0 22 65
16 45 100
16 38 65
24 31 18
13 18 6
43 41 23
75 71 53
70 67 49
63 58 41
77 69 51
78 73 52
76 73 53
61 59 42
56 54 35
58 56 36
60 56 34
72 72 52
54 57 35
31 30 9
39 40 24
57 57 40
70 69 49
89 86 62
90 86 64
88 82 61
80 76 54
84 80 58
77 74 53
70 68 47
71 70 48
68 68 47
67 66 44
66 65 43
61 59 37
57 56 33
56 57 34
51 53 29
43 52 24
36 47 16
29 43 10
22 39 0
21 37 0
23 39 0
24 40 8
26 42 10
23 39 6
27 43 13
23 40 6
23 39 5
25 41 11
26 42 16
26 42 3
28 42 12
20 27 18
0 0 0
5 9 2
30 42 20
26 40 6
29 45 12
26 42 7
32 46 22
30 41 25
42 52 44
30 37 24
29 38 24
20 28 17
14 24 10
21 37 16
21 37 16
18 34 10
21 38 11
16 34 5
16 36 5
14 33 4
14 31 3
13 30 4
13 28 0
14 29 0
11 32 22
20 48 86
16 54 110
11 54 115
13 52 118
13 52 123
17 50 124
19 48 95
17 52 93
16 54 113
16 52 121
14 53 113
16 54 118
18 53 119
17 52 115
12 46 100
5 29 77
0 21 67
0 19 62
0 18 58
0 20 59
3 28 73
11 42 97
17 53 116
14 53 121
12 53 119
10 41 97
0 16 56
0 13 47
0 5 38
0 0 23
0 0 18
0 0 22
0 0 28
0 2 30
0 0 31
0 3 36
0 7 42
0 12 51
0 20 63
0 19 59
97 104 119
203 218 240
216 233 255
216 233 255
216 233 255
216 233 255
216 233 255
216 233 255
216 233 255
216 233 255
216 233 255
216 233 255
216 233 255
216 233 255
216 233 255
216 233 255
216 233 255
216 233 255
216 233 255
216 233 255
216 233 255
216 233 255
216 233 255
216 233 255
216 233 255
216 233 255
216 233 255
216 233 255
216 233 255
216 233 255
216 233 255
216 233 255
216 233 255
216 233 255
217 233 255
217 233 255
217 233 255
217 233 255
217 233 255
217 233 255
217 233 255
217 233 255
217 233 255
217 233 255
217 233 255
217 233 255
217 233 255
217 233 255
217 233 255
217 233 255
217 233 255
217 233 255
217 233 255
217 233 255
217 233 255
217 233 255
217 233 255
217 233 255
217 233 255
217 233 255
217 233 255
217 233 255
217 233 255
217 233 255
217 233 255
217 233 255
217 233 255
217 233 255
217 233 255
217 233 255
217 233 255
217 233 255
217 233 255
217 233 255
217 233 255
217 233 255
217 233 255
217 233 255
217 233 255
217 233 255
217 233 255
217 233 255
217 233 255
217 233 255
217 233 255
217 233 255
217 233 255
217 233 255
217 233 255
217 233 255
217 233 255
217 233 255
217 233 255
217 233 255
217 233 255
217 233 255
217 233 255
217 233 255
217 233 255
217 233 255
217 233 255
217 233 255
217 233 255
217 233 255
217 233 255
217 233 255
217 233 255
217 233 255
217 233 255
217 233 255
217 233 255
217 233 255
217 233 255
217 233 255
217 233 255
217 233 255
217 233 255
217 233 255
217 233 255
217 233 255
217 233 255
217 233 255
217 233 255
217 233 255
217 233 255
217 233 255
217 233 255
217 233 255
217 233 255
217 233 255
217 233 255
217 233 255
217 233 255
217 233 255
217 233 255
217 233 255
217 233 255
217 233 255
217 233 255
217 233 255
217 233 255
217 233 255
217 233 255
217 233 255
217 233 255
217 233 255
217 233 255
217 233 255
217 233 255
217 233 255
217 233 255
217 233 255
217 233 255
217 233 255
217 233 255
217 233 255
217 233 255
217 233 255
217 233 255
217 233 255
217 233 255
217 233 255
217 233 255
217 233 255
217 233 255
217 233 255
217 233 255
217 233 255
217 233 255
217 233 255
217 233 255
217 233 255
217 233 255
217 233 255
217 233 255
217 233 255
217 233 255
217 233 255
217 233 255
217 233 255
217 233 255
217 233 255
217 233 255
217 233 255
217 233 255
217 233 255
217 233 255
217 233 255
217 233 255
217 233 255
217 233 255
217 233 255
217 233 255
217 233 255
217 233 255
217 233 255
217 233 255
217 233 255
217 233 255
217 233 255
217 233 255
217 233 255
217 233 255
217 233 255
217 233 255
217 233 255
217 233 255
217 233 255
217 233 255
217 233 255
217 233 255
217 233 255
217 233 255
217 233 255
217 233 255
217 233 255
217 233 255
217 233 255
217 233 255
217 233 255
217 233 255
217 233 255
217 233 255
217 233 255
217 233 255
217 233 255
217 233 255
217 233 255
217 233 255
217 233 255
217 233 255
217 233 255
217 233 255
217 233 255
217 233 255
217 233 255
217 233 255
217 233 255
217 233 255
217 233 255
217 233 255
217 233 255
217 233 255
217 233 255
217 233 255
217 233 255
217 233 255
217 233 255
217 233 255
217 233 255
217 233 255
217 233 255
217 233 255
217 233 255
217 233 255
217 233 255
217 233 255
217 233 255
217 233 255
190 204 224
53 57 62
0 0 0
0 0 0
0 0 5
0 0 15
0 0 19
0 0 27
0 0 29
0 0 32
0 0 35
0 2 39
0 5 40
0 13 42
0 14 47
0 14 49
0 15 56
0 18 59
0 20 62
0 21 65
0 21 66
0 21 63
11 35 82
19 44 76
19 28 15
14 17 3
32 34 16
66 62 46
84 79 62
86 80 61
74 64 44
88 76 57
70 60 36
87 81 63
86 82 64
73 69 49
74 71 49
69 66 42
60 59 36
51 48 27
42 39 19
79 79 68
81 80 63
84 82 61
95 93 70
92 87 66
85 82 61
80 76 58
61 57 37
72 70 51
69 67 45
65 64 42
66 66 46
64 64 43
62 64 44
56 58 36
55 57 36
55 60 38
50 57 33
35 45 13
30 43 14
28 43 12
22 39 0
25 41 8
25 41 8
29 43 15
29 41 11
26 40 4
27 42 12
26 42 9
25 40 2
24 39 2
20 37 0
22 38 0
31 45 18
40 49 34
10 14 6
19 28 15
28 41 16
28 41 12
29 42 11
32 44 13
34 47 22
28 40 27
12 18 14
4 11 3
11 20 6
14 28 8
16 31 8
11 28 5
7 28 0
12 32 0
14 34 3
13 33 0
12 33 0
8 29 0
14 29 0
14 29 0
14 31 0
14 29 2
13 33 21
23 48 73
16 53 107
11 53 118
13 51 123
19 49 121
18 50 124
13 53 124
14 56 111
13 50 105
9 42 103
12 43 94
10 39 89
6 32 86
1 22 69
0 20 61
0 14 50
0 9 43
0 8 42
0 8 42
0 10 39
0 7 38
0 12 52
6 28 79
13 46 107
12 54 122
14 54 120
6 29 78
0 10 46
0 0 39
0 0 31
0 0 19
0 0 16
0 7 28
3 12 43
0 5 37
0 0 34
0 3 39
0 11 48
0 17 58
1 24 68
0 21 63
75 81 96
196 211 232
217 233 255
217 233 255
217 233 255
217 233 255
217 233 255
217 233 255
217 233 255
217 233 255
217 233 255
217 233 255
217 233 255
217 233 255
217 233 255
217 233 255
217 233 255
217 233 255
217 233 255
217 233 255
217 233 255
217 233 255
217 233 255
217 233 255
217 233 255
217 233 255
217 233 255
217 233 255
217 233 255
217 233 255
217 233 255
217 233 255
217 233 255
217 233 255
217 233 255
217 233 255
217 233 255
217 233 255
217 233 255
217 233 255
217 233 255
217 233 255
217 233 255
217 233 255
217 233 255
217 233 255
217 233 255
217 233 255
217 233 255
217 233 255
217 233 255
217 233 255
217 233 255
217 233 255
217 233 255
217 233 255
217 233 255
217 233 255
217 233 255
217 233 255
217 233 255
217 233 255
217 233 255
217 233 255
217 233 255
217 233 255
217 233 255
217 233 255
217 233 255
217 233 255
217 233 255
217 233 255
217 233 255
217 233 255
217 233 255
217 233 255
217 233 255
217 233 255
217 233 255
217 233 255
217 233 255
217 233 255
217 233 255
217 233 255
217 233 255
217 233 255
217 233 255
217 233 255
217 233 255
217 233 255
217 233 255
217 233 255
217 233 255
217 233 255
217 233 255
217 233 255
217 233 255
217 233 255
217 233 255
217 233 255
217 233 255
217 233 255
217 233 255
217 233 255
217 233 255
217 233 255
217 233 255
217 233 255
217 233 255
217 233 255
217 233 255
217 233 255
217 233 255
217 233 255
217 233 255
217 233 255
217 233 255
217 233 255
217 233 255
217 233 255
217 233 255
217 233 255
217 233 255
217 233 255
217 233 255
217 233 255
217 233 255
217 233 255
217 233 255
217 233 255
217 233 255
217 233 255
217 233 255
217 233 255
217 233 255
217 233 255
217 233 255
217 233 255
217 233 255
217 233 255
217 233 255
217 233 255
217 233 255
217 233 255
217 233 255
217 233 255
217 233 255
217 233 255
217 233 255
217 233 255
217 233 255
217 233 255
217 233 255
217 233 255
217 233 255
217 233 255
217 233 255
217 233 255
217 233 255
217 233 255
217 233 255
217 233 255
217 233 255
217 233 255
217 233 255
217 233 255
217 233 255
217 233 255
217 233 255
217 233 255
217 233 255
217 233 255
217 233 255
217 233 255
217 233 255
217 233 255
217 233 255
217 233 255
217 233 255
217 233 255
217 233 255
217 233 255
217 233 255
217 233 255
217 233 255
217 233 255
217 233 255
217 233 255
217 233 255
217 233 255
217 233 255
217 233 255
217 233 255
217 233 255
217 233 255
217 233 255
217 233 255
217 233 255
217 233 255
217 233 255
217 233 255
217 233 255
217 233 255
217 233 255
217 233 255
217 233 255
217 233 255
217 233 255
217 233 255
217 233 255
217 233 255
217 233 255
217 233 255
217 233 255
217 233 255
217 233 255
217 233 255
217 233 255
217 233 255
217 233 255
217 233 255
217 233 255
217 233 255
217 233 255
217 233 255
217 233 255
217 233 255
217 233 255
217 233 255
217 233 255
217 233 255
217 233 255
217 233 255
217 233 255
217 233 255
217 233 255
217 233 255
217 233 255
217 233 255
217 233 255
217 233 255
217 233 255
217 233 255
217 233 255
217 233 255
217 233 255
217 233 255
217 233 255
217 233 255
217 233 255
217 233 255
217 233 255
217 233 255
217 233 255
217 233 255
217 233 255
217 233 255
172 185 203
48 52 57
0 0 1
0 0 1
0 0 11
0 0 15
0 0 21
0 0 27
0 0 33
0 0 32
0 0 36
0 0 38
0 0 38
0 12 42
0 14 45
0 14 48
0 14 51
0 17 55
0 20 59
0 20 61
0 22 65
0 24 69
3 25 65
17 44 83
11 22 16
26 29 18
34 36 23
51 46 28
55 47 28
76 68 48
83 76 57
84 74 53
91 81 59
81 72 51
72 62 42
74 68 47
72 67 46
81 79 64
81 82 65
56 59 39
60 57 40
90 86 75
108 105 93
99 95 76
103 101 78
97 97 77
85 83 66
59 58 42
77 77 59
66 65 45
70 69 50
69 67 45
65 63 41
65 64 44
60 60 40
52 56 34
48 52 29
44 50 26
45 52 28
43 52 25
35 45 14
33 44 14
28 42 11
30 46 16
24 40 3
28 42 12
29 43 16
29 43 15
27 42 9
27 41 10
26 41 9
22 36 0
23 37 0
22 38 0
25 41 7
28 41 12
34 45 23
31 42 20
28 40 14
26 39 7
28 41 10
29 42 14
32 44 15
36 49 22
32 46 21
26 40 19
26 40 19
22 38 15
20 35 5
12 28 0
10 28 0
8 27 0
7 25 0
11 29 1
14 32 5
16 32 4
13 30 0
18 33 0
14 29 5
14 33 24
10 32 30
11 36 45
15 40 65
16 49 94
15 54 113
12 54 124
13 54 122
16 53 117
14 54 114
17 51 106
1 27 77
2 25 75
0 25 69
0 24 60
0 17 52
0 11 47
0 5 38
0 0 30
0 0 26
0 0 27
0 0 27
0 0 29
0 0 26
0 0 24
0 3 33
0 17 55
8 36 86
13 47 103
10 39 91
0 23 67
0 12 43
0 3 33
0 0 19
0 0 16
0 0 16
0 0 20
0 3 31
0 10 39
0 5 39
0 12 46
0 15 53
0 19 63
2 25 71
1 23 67
21 26 51
180 193 213
217 233 255
217 233 255
217 233 255
217 233 255
217 233 255
217 233 255
217 233 255
217 233 255
217 233 255
217 233 255
217 233 255
217 233 255
217 233 255
217 233 255
217 233 255
217 233 255
217 233 255
217 233 255
217 233 255
217 233 255
217 233 255
217 233 255
217 233 255
217 233 255
217 233 255
217 233 255
217 233 255
217 233 255
217 233 255
217 233 255
217 233 255
217 233 255
217 233 255
217 233 255
217 233 255
217 233 255
217 233 255
217 233 255
217 233 255
217 233 255
217 233 255
217 233 255
217 233 255
217 233 255
217 233 255
217 233 255
217 233 255
217 233 255
217 233 255
217 233 255
217 233 255
217 233 255
217 233 255
217 233 255
217 233 255
217 233 255
217 233 255
217 233 255
217 233 255
217 233 255
217 233 255
217 233 255
217 233 255
217 233 255
217 233 255
217 233 255
217 233 255
217 233 255
217 233 255
217 233 255
217 233 255
217 233 255
217 233 255
217 233 255
217 233 255
217 233 255
217 233 255
217 233 255
217 233 255
217 233 255
217 233 255
217 233 255
217 233 255
217 233 255
217 233 255
217 233 255
217 233 255
217 233 255
217 233 255
217 233 255
217 233 255
217 233 255
217 233 255
217 233 255
217 233 255
217 233 255
217 233 255
217 233 255
217 233 255
217 233 255
217 233 255
217 233 255
217 233 255
217 233 255
217 233 255
217 233 255
217 233 255
217 233 255
217 233 255
217 233 255
217 233 255
217 233 255
217 233 255
217 233 255
217 233 255
217 233 255
217 233 255
217 233 255
217 233 255
217 233 255
217 233 255
217 233 255
217 233 255
217 233 255
217 233 255
217 233 255
217 233 255
217 233 255
217 233 255
217 233 255
217 233 255
217 233 255
217 233 255
217 233 255
217 233 255
217 233 255
217 233 255
217 233 255
217 233 255
217 233 255
217 233 255
217 233 255
217 233 255
217 233 255
217 233 255
217 233 255
217 233 255
217 233 255
217 233 255
217 233 255
217 233 255
217 233 255
217 233 255
217 233 255
217 233 255
217 233 255
217 233 255
217 233 255
217 233 255
217 233 255
217 233 255
217 233 255
217 233 255
217 233 255
217 233 255
217 233 255
217 233 255
217 233 255
217 233 255
217 233 255
217 233 255
217 233 255
217 233 255
217 233 255
217 233 255
217 233 255
217 233 255
217 233 255
217 233 255
217 233 255
217 233 255
217 233 255
217 233 255
217 233 255
217 233 255
217 233 255
217 233 255
217 233 255
217 233 255
217 233 255
217 233 255
217 233 255
217 233 255
217 233 255
217 233 255
217 233 255
217 233 255
217 233 255
217 233 255
217 233 255
217 233 255
217 233 255
217 233 255
217 233 255
217 233 255
217 233 255
217 233 255
217 233 255
217 233 255
217 233 255
217 233 255
217 233 255
217 233 255
217 233 255
217 233 255
217 233 255
217 233 255
217 233 255
217 233 255
217 233 255
217 233 255
217 233 255
217 233 255
217 233 255
217 233 255
217 233 255
217 233 255
217 233 255
217 233 255
217 233 255
217 233 255
217 233 255
217 233 255
217 233 255
217 233 255
217 233 255
217 233 255
217 233 255
217 233 255
217 233 255
217 233 255
217 233 255
217 233 255
217 233 255
217 233 255
217 233 255
217 233 255
217 233 255
217 233 255
217 233 255
217 233 255
217 233 255
217 233 255
170 183 201
30 33 37
0 0 3
0 0 0
0 0 13
0 0 16
0 0 20
0 0 27
0 0 32
0 0 33
0 0 35
0 0 38
0 0 39
0 3 39
0 13 44
0 14 48
0 14 48
0 15 52
0 19 58
0 20 60
0 22 64
0 21 64
0 22 61
14 42 90
17 39 58
25 29 18
43 48 34
46 46 32
65 58 42
77 69 49
86 80 59
96 92 72
87 79 56
85 77 55
74 65 44
76 69 52
81 77 61
127 128 121
131 135 129
65 65 46
49 50 28
52 50 31
56 51 37
79 74 58
79 75 53
96 98 75
68 68 48
31 31 13
47 49 32
41 40 21
64 65 45
74 73 54
72 70 49
67 65 44
59 59 39
53 52 31
51 54 30
48 52 27
43 47 21
39 46 18
40 46 18
36 42 11
38 46 18
36 47 18
29 42 11
27 40 5
30 45 15
27 42 11
28 43 15
27 42 13
27 41 10
25 39 0
22 37 0
23 38 0
27 43 12
26 42 15
31 44 16
32 45 16
30 43 11
29 42 4
28 41 9
27 41 10
29 43 13
34 47 18
35 49 20
32 48 20
24 40 6
27 44 13
20 36 6
20 36 0
19 35 2
18 34 0
13 29 0
16 30 0
18 32 3
19 34 7
17 32 4
23 35 10
22 34 15
25 45 47
17 43 64
17 46 80
21 54 98
20 56 108
17 54 112
15 54 114
12 54 119
14 53 119
17 53 115
20 55 114
8 34 81
0 19 60
0 15 52
0 12 45
0 12 43
0 7 36
0 0 30
0 0 27
0 0 22
0 0 16
0 0 17
0 0 16
0 0 18
0 0 19
0 0 18
0 0 17
0 2 19
0 11 39
0 21 58
0 18 61
0 22 65
0 15 51
0 5 37
0 0 24
0 0 14
0 0 16
0 0 16
0 0 19
0 3 26
0 7 36
0 10 42
0 13 48
0 14 53
0 22 65
2 27 72
2 23 66
21 28 57
181 195 214
217 233 255
217 233 255
217 233 255
217 233 255
217 233 255
217 233 255
217 233 255
217 233 255
217 233 255
217 233 255
217 233 255
217 233 255
217 233 255
217 233 255
217 233 255
217 233 255
217 233 255
217 233 255
217 233 255
217 233 255
217 233 255
217 233 255
217 233 255
217 233 255
217 233 255
217 233 255
217 233 255
217 233 255
217 233 255
217 233 255
217 233 255
217 233 255
217 233 255
217 233 255
217 233 255
217 233 255
217 233 255
217 233 255
217 233 255
217 233 255
217 233 255
217 233 255
217 233 255
217 233 255
217 233 255
217 233 255
217 233 255
217 233 255
217 233 255
217 233 255
217 233 255
217 233 255
217 233 255
217 233 255
217 233 255
217 233 255
217 233 255
217 233 255
217 233 255
217 233 255
217 233 255
217 233 255
217 233 255
217 233 255
217 233 255
217 233 255
217 233 255
217 233 255
217 233 255
217 233 255
217 233 255
217 233 255
217 233 255
217 233 255
217 233 255
217 233 255
217 233 255
217 233 255
217 233 255
217 233 255
217 233 255
217 233 255
217 233 255
217 233 255
217 233 255
217 233 255
217 233 255
217 233 255
217 233 255
217 233 255
217 233 255
217 233 255
217 233 255
217 233 255
217 233 255
217 233 255
217 233 255
217 233 255
217 233 255
217 233 255
217 233 255
217 233 255
217 233 255
217 233 255
217 233 255
217 233 255
217 233 255
217 233 255
217 233 255
217 233 255
217 233 255
217 233 255
217 233 255
217 233 255
217 233 255
217 233 255
217 233 255
217 233 255
217 233 255
217 233 255
217 233 255
217 233 255
217 233 255
217 233 255
217 233 255
217 233 255
217 233 255
217 233 255
217 233 255
217 233 255
217 233 255
217 233 255
217 233 255
217 233 255
217 233 255
217 233 255
217 233 255
217 233 255
217 233 255
217 233 255
217 233 255
217 233 255
217 233 255
217 233 255
217 233 255
217 233 255
217 233 255
217 233 255
217 233 255
217 233 255
217 233 255
217 233 255
217 233 255
217 233 255
217 233 255
217 233 255
217 233 255
217 233 255
217 233 255
217 233 255
217 233 255
217 233 255
217 233 255
217 233 255
217 233 255
217 233 255
217 233 255
217 233 255
217 233 255
217 233 255
217 233 255
217 233 255
217 233 255
217 233 255
217 233 255
217 233 255
217 233 255
217 233 255
217 233 255
217 233 255
217 233 255
217 233 255
217 233 255
217 233 255
217 233 255
217 233 255
217 233 255
217 233 255
217 233 255
217 233 255
217 233 255
217 233 255
217 233 255
217 233 255
217 233 255
217 233 255
217 233 255
217 233 255
217 233 255
217 233 255
217 233 255
217 233 255
217 233 255
217 233 255
217 233 255
217 233 255
217 233 255
217 233 255
217 233 255
217 233 255
217 233 255
217 233 255
217 233 255
217 233 255
217 233 255
217 233 255
217 233 255
217 233 255
217 233 255
217 233 255
217 233 255
217 233 255
217 233 255
217 233 255
217 233 255
217 233 255
217 233 255
217 233 255
217 233 255
217 233 255
217 233 255
217 233 255
217 233 255
217 233 255
217 233 255
217 233 255
217 233 255
217 233 255
217 233 255
217 233 255
217 233 255
217 233 255
217 233 255
217 233 255
217 233 255
217 233 255
217 233 255
217 233 255
217 233 255
217 233 255
217 233 255
158 169 186
30 33 36
0 0 7
0 0 0
0 0 12
0 0 16
0 0 21
0 0 26
0 0 30
0 0 32
0 0 35
0 0 36
0 0 37
0 5 39
0 8 40
0 14 46
0 14 47
0 16 53
0 19 60
0 19 62
0 22 65
0 23 66
0 19 61
3 25 77
20 46 84
12 20 16
26 26 10
25 27 10
47 44 29
63 58 40
93 88 67
103 101 82
95 89 66
95 89 66
87 81 59
81 74 55
91 86 71
108 107 95
146 150 144
96 95 83
75 73 53
42 42 19
60 61 43
83 78 63
93 89 70
75 74 50
60 62 40
36 39 21
36 41 23
32 35 16
41 42 23
68 70 50
76 75 54
73 71 50
65 64 43
64 64 45
65 65 45
62 63 39
64 66 41
62 64 39
62 66 41
56 60 33
49 54 28
44 51 25
41 50 23
36 46 19
28 40 8
29 43 14
27 42 12
27 43 13
26 41 9
25 40 6
26 41 8
27 41 11
28 42 12
31 45 15
31 44 16
30 45 17
28 43 11
26 41 1
29 43 10
36 50 25
29 42 16
29 43 12
31 44 14
29 41 13
32 47 19
24 39 10
21 37 0
18 37 0
20 36 4
23 38 13
18 32 0
19 32 0
22 35 7
26 39 13
26 40 15
24 41 13
26 41 15
27 37 25
24 44 63
21 55 105
19 53 109
19 52 116
15 50 114
15 51 111
15 51 113
16 53 112
15 49 103
14 41 92
10 35 83
0 19 62
0 14 50
0 7 37
0 0 27
0 0 25
0 0 26
0 0 23
0 0 18
0 0 17
0 0 12
0 0 3
0 0 7
0 0 7
0 0 10
0 0 16
0 0 16
0 0 13
0 0 10
0 5 27
0 7 38
0 15 52
0 19 57
0 13 48
0 0 33
0 0 19
0 0 16
0 0 16
0 0 16
0 0 17
0 0 25
0 8 39
0 11 44
0 12 48
0 15 54
0 22 66
6 29 76
0 24 67
0 14 49
165 177 196
217 233 255
217 233 255
217 233 255
217 233 255
217 233 255
217 233 255
217 233 255
217 233 255
217 233 255
217 233 255
217 233 255
217 233 255
217 233 255
217 233 255
217 233 255
217 233 255
217 233 255
217 233 255
217 233 255
217 233 255
217 233 255
217 233 255
217 233 255
217 233 255
217 233 255
217 233 255
217 233 255
217 233 255
217 233 255
217 233 255
217 233 255
217 233 255
217 233 255
217 233 255
217 233 255
217 233 255
217 233 255
217 233 255
217 233 255
217 233 255
217 233 255
217 233 255
217 233 255
217 233 255
217 233 255
217 233 255
217 233 255
217 233 255
217 233 255
217 233 255
217 233 255
217 233 255
217 233 255
217 233 255
217 233 255
217 233 255
217 233 255
217 233 255
217 233 255
217 233 255
217 233 255
217 233 255
217 233 255
217 233 255
217 233 255
217 233 255
217 233 255
217 233 255
217 233 255
217 233 255
217 233 255
217 233 255
217 233 255
217 233 255
217 233 255
217 233 255
217 233 255
217 233 255
217 233 255
217 233 255
217 233 255
217 233 255
217 233 255
217 233 255
217 233 255
217 233 255
217 233 255
217 233 255
217 233 255
217 233 255
217 233 255
217 233 255
217 233 255
217 233 255
217 233 255
217 233 255
217 233 255
217 233 255
217 233 255
217 233 255
217 233 255
217 233 255
217 233 255
217 233 255
217 233 255
217 233 255
217 233 255
217 233 255
217 233 255
217 233 255
217 233 255
217 233 255
217 233 255
217 233 255
217 233 255
217 233 255
217 233 255
217 233 255
217 233 255
217 233 255
217 233 255
217 233 255
217 233 255
217 233 255
217 233 255
217 233 255
217 233 255
217 233 255
217 233 255
217 233 255
217 233 255
217 233 255
217 233 255
217 233 255
217 233 255
217 233 255
217 233 255
217 233 255
217 233 255
217 233 255
217 233 255
217 233 255
217 233 255
217 233 255
217 233 255
217 233 255
217 233 255
217 233 255
217 233 255
217 233 255
217 233 255
217 233 255
217 233 255
217 233 255
217 233 255
217 233 255
217 233 255
217 233 255
217 233 255
217 233 255
217 233 255
217 233 255
217 233 255
217 233 255
217 233 255
217 233 255
217 233 255
217 233 255
217 233 255
217 233 255
217 233 255
217 233 255
217 233 255
217 233 255
217 233 255
217 233 255
217 233 255
217 233 255
217 233 255
217 233 255
217 233 255
217 233 255
217 233 255
217 233 255
217 233 255
217 233 255
217 233 255
217 233 255
217 233 255
217 233 255
217 233 255
217 233 255
217 233 255
217 233 255
217 233 255
217 233 255
217 233 255
217 233 255
217 233 255
217 233 255
217 233 255
217 233 255
217 233 255
217 233 255
217 233 255
217 233 255
217 233 255
217 233 255
217 233 255
217 233 255
217 233 255
217 233 255
217 233 255
217 233 255
217 233 255
217 233 255
217 233 255
217 233 255
217 233 255
217 233 255
217 233 255
217 233 255
217 233 255
217 233 255
217 233 255
217 233 255
217 233 255
217 233 255
217 233 255
217 233 255
217 233 255
217 233 255
217 233 255
217 233 255
217 233 255
217 233 255
217 233 255
217 233 255
217 233 255
217 233 255
217 233 255
217 233 255
217 233 255
217 233 255
217 233 255
217 233 255
217 233 255
217 233 255
217 233 255
161 173 189
0 0 3
0 0 6
0 0 0
0 0 9
0 0 16
0 0 20
0 0 24
0 0 26
0 0 29
0 0 34
0 0 36
0 0 35
0 0 37
0 9 39
0 13 43
0 13 46
0 14 51
0 18 56
0 20 59
0 19 59
0 20 60
0 17 56
7 24 68
11 36 90
13 31 45
27 27 11
59 59 42
30 29 12
45 43 27
85 81 62
95 91 69
100 97 74
93 89 66
90 86 63
85 80 59
83 79 59
83 79 60
95 93 76
126 128 116
95 93 78
71 70 48
59 62 40
71 71 52
82 76 58
79 75 54
56 56 32
42 45 22
35 39 20
32 38 20
38 41 23
41 40 19
62 62 40
77 75 52
75 74 53
71 71 48
67 69 47
66 68 46
64 66 45
66 68 47
62 64 42
58 59 37
56 59 33
47 52 26
41 47 21
36 45 15
34 43 16
32 43 15
31 43 16
28 42 12
28 43 13
25 42 4
26 42 9
25 39 9
28 40 12
28 39 13
31 44 16
31 45 16
31 44 16
30 43 10
32 45 14
28 40 10
25 38 8
24 39 9
23 37 7
24 39 10
22 37 4
20 36 5
17 33 0
21 36 0
19 34 0
19 34 0
19 35 8
16 31 0
16 33 0
24 38 16
29 42 17
28 42 14
22 36 11
24 40 16
15 36 27
19 48 84
16 53 113
20 53 113
16 46 104
3 29 81
0 27 74
0 27 80
0 28 78
0 25 69
0 21 62
0 18 56
0 9 46
0 3 41
0 0 33
0 0 25
0 0 20
0 0 16
0 0 15
0 0 15
0 0 16
0 0 15
0 0 11
0 0 9
0 0 8
0 0 7
0 0 14
0 0 16
0 0 16
0 0 12
0 0 10
0 0 16
0 7 35
0 14 48
0 16 50
0 11 50
0 2 34
0 0 19
0 0 16
0 0 16
0 0 14
0 0 17
0 0 28
0 4 41
0 4 43
0 7 45
0 15 54
2 24 70
5 27 75
0 22 64
2 16 51
156 168 185
217 233 255
217 233 255
217 233 255
217 233 255
217 233 255
217 233 255
217 233 255
217 233 255
217 233 255
217 233 255
217 233 255
217 233 255
217 233 255
217 233 255
217 233 255
217 233 255
217 233 255
217 233 255
217 233 255
217 233 255
217 233 255
217 233 255
217 233 255
217 233 255
217 233 255
217 233 255
217 233 255
217 233 255
217 233 255
217 233 255
217 233 255
217 233 255
217 233 255
217 233 255
217 233 255
217 233 255
217 233 255
217 233 255
217 233 255
217 233 255
217 233 255
217 233 255
217 233 255
217 233 255
217 233 255
217 233 255
217 233 255
217 233 255
217 233 255
217 233 255
217 233 255
217 233 255
217 233 255
217 233 255
217 233 255
217 233 255
217 233 255
217 233 255
217 233 255
217 233 255
217 233 255
217 233 255
217 233 255
217 233 255
217 233 255
217 233 255
217 233 255
217 233 255
217 233 255
217 233 255
217 233 255
217 233 255
217 233 255
217 233 255
217 233 255
217 233 255
217 233 255
217 233 255
217 233 255
217 233 255
217 233 255
217 233 255
217 233 255
217 233 255
217 233 255
217 233 255
217 233 255
217 233 255
217 233 255
217 233 255
217 233 255
217 233 255
217 233 255
217 233 255
217 233 255
217 233 255
217 233 255
217 233 255
217 233 255
217 233 255
217 233 255
217 233 255
217 233 255
217 233 255
217 233 255
217 233 255
217 233 255
217 233 255
217 233 255
217 233 255
217 233 255
217 233 255
217 233 255
217 233 255
217 233 255
217 233 255
217 233 255
217 233 255
217 233 255
217 233 255
217 233 255
217 233 255
217 233 255
217 233 255
217 233 255
217 233 255
217 233 255
217 233 255
217 233 255
217 233 255
217 233 255
217 233 255
217 233 255
217 233 255
217 233 255
217 233 255
217 233 255
217 233 255
217 233 255
217 233 255
217 233 255
217 233 255
217 233 255
217 233 255
217 233 255
217 233 255
217 233 255
217 233 255
217 233 255
217 233 255
217 233 255
217 233 255
217 233 255
217 233 255
217 233 255
217 233 255
217 233 255
217 233 255
217 233 255
217 233 255
217 233 255
217 233 255
217 233 255
217 233 255
217 233 255
217 233 255
217 233 255
217 233 255
217 233 255
217 233 255
217 233 255
217 233 255
217 233 255
217 233 255
217 233 255
217 233 255
217 233 255
217 233 255
217 233 255
217 233 255
217 233 255
217 233 255
217 233 255
217 233 255
217 233 255
217 233 255
217 233 255
217 233 255
217 233 255
217 233 255
217 233 255
217 233 255
217 233 255
217 233 255
217 233 255
217 233 255
217 233 255
217 233 255
217 233 255
217 233 255
217 233 255
217 233 255
217 233 255
217 233 255
217 233 255
217 233 255
217 233 255
217 233 255
217 233 255
217 233 255
217 233 255
217 233 255
217 233 255
217 233 255
217 233 255
217 233 255
217 233 255
217 233 255
217 233 255
217 233 255
217 233 255
217 233 255
217 233 255
217 233 255
217 233 255
217 233 255
217 233 255
217 233 255
217 233 255
217 233 255
217 233 255
217 233 255
217 233 255
217 233 255
217 233 255
217 233 255
217 233 255
217 233 255
217 233 255
217 233 255
217 233 255
217 233 255
217 233 255
217 233 255
217 233 255
217 233 255
217 233 255
158 170 186
0 0 2
0 0 0
0 0 0
0 0 0
0 0 14
0 0 17
0 0 20
0 0 22
0 0 22
0 0 28
0 0 33
0 0 33
0 0 34
0 5 36
0 8 39
0 7 40
0 10 40
0 8 39
0 8 38
0 6 36
0 3 33
0 3 35
0 10 42
5 27 78
19 44 78
24 32 26
51 48 29
61 62 40
25 24 11
43 39 21
83 78 59
103 100 80
91 86 65
87 82 62
84 76 55
89 83 63
82 77 58
82 78 59
107 104 88
124 122 107
79 73 56
70 67 48
102 99 78
118 108 90
101 90 73
76 70 51
72 75 56
44 48 31
38 41 23
40 42 25
54 55 36
51 50 30
72 71 49
78 76 54
75 75 52
71 72 48
68 69 43
64 65 42
68 71 49
65 69 48
63 65 42
59 60 36
51 54 28
48 53 27
43 51 25
36 45 16
34 44 16
36 48 19
30 43 14
29 43 14
25 39 9
23 39 3
23 38 2
20 34 4
23 35 6
30 42 18
29 42 13
30 44 16
32 45 16
32 46 16
32 46 16
27 40 6
25 38 8
27 43 14
22 37 5
22 37 9
24 40 11
15 30 0
21 36 0
20 35 0
19 33 0
17 32 0
13 28 0
15 31 0
20 35 5
20 33 8
24 36 15
22 38 10
20 38 25
21 35 25
18 44 55
21 55 107
21 53 116
14 43 95
2 24 72
0 26 68
0 24 65
0 23 67
0 21 63
0 18 58
0 16 52
0 12 46
0 3 36
0 0 32
0 0 30
0 0 24
0 0 17
0 0 16
0 0 15
0 0 13
0 0 16
0 0 15
0 0 16
0 0 16
0 0 16
0 0 16
0 0 16
0 0 16
0 0 16
0 0 16
0 0 15
0 0 15
0 0 17
0 0 18
0 4 27
0 9 38
0 9 40
0 0 32
0 0 23
0 0 16
0 0 15
0 0 10
0 0 13
0 0 25
0 0 33
0 1 36
0 7 41
0 17 59
3 27 75
3 27 75
0 19 61
0 14 51
152 163 181
217 233 255
217 233 255
217 233 255
217 233 255
217 233 255
217 233 255
217 233 255
217 233 255
217 233 255
217 233 255
217 233 255
217 233 255
217 233 255
217 233 255
217 233 255
217 233 255
217 233 255
217 233 255
217 233 255
217 233 255
217 233 255
217 233 255
217 233 255
217 233 255
217 233 255
217 233 255
217 233 255
217 233 255
217 233 255
217 233 255
217 233 255
217 233 255
217 233 255
217 233 255
217 233 255
217 233 255
217 233 255
217 233 255
217 233 255
217 233 255
217 233 255
217 233 255
217 233 255
217 233 255
217 233 255
217 233 255
217 233 255
217 233 255
217 233 255
217 233 255
217 233 255
217 233 255
217 233 255
217 233 255
217 233 255
217 233 255
217 233 255
217 233 255
217 233 255
217 233 255
217 233 255
217 233 255
217 233 255
217 233 255
217 233 255
217 233 255
217 233 255
217 233 255
217 233 255
217 233 255
217 233 255
217 233 255
217 233 255
217 233 255
217 233 255
217 233 255
217 233 255
217 233 255
217 233 255
217 233 255
217 233 255
217 233 255
217 233 255
217 233 255
217 233 255
217 233 255
217 233 255
217 233 255
217 233 255
217 233 255
217 233 255
217 233 255
217 233 255
217 233 255
217 233 255
217 233 255
217 233 255
217 233 255
217 233 255
217 233 255
217 233 255
217 233 255
217 233 255
217 233 255
217 233 255
217 233 255
217 233 255
217 233 255
217 233 255
217 233 255
217 233 255
217 233 255
217 233 255
217 233 255
217 233 255
217 233 255
217 233 255
217 233 255
217 233 255
217 233 255
217 233 255
217 233 255
217 233 255
217 233 255
217 233 255
217 233 255
217 233 255
217 233 255
217 233 255
217 233 255
217 233 255
217 233 255
217 233 255
217 233 255
217 233 255
217 233 255
217 233 255
217 233 255
217 233 255
217 233 255
217 233 255
217 233 255
217 233 255
217 233 255
217 233 255
217 233 255
217 233 255
217 233 255
217 233 255
217 233 255
217 233 255
217 233 255
217 233 255
217 233 255
217 233 255
217 233 255
217 233 255
217 233 255
217 233 255
217 233 255
217 233 255
217 233 255
217 233 255
217 233 255
217 233 255
217 233 255
217 233 255
217 233 255
217 233 255
217 233 255
217 233 255
217 233 255
217 233 255
217 233 255
217 233 255
217 233 255
217 233 255
217 233 255
217 233 255
217 233 255
217 233 255
217 233 255
217 233 255
217 233 255
217 233 255
217 233 255
217 233 255
217 233 255
217 233 255
217 233 255
217 233 255
217 233 255
217 233 255
217 233 255
217 233 255
217 233 255
217 233 255
217 233 255
217 233 255
217 233 255
217 233 255
217 233 255
217 233 255
217 233 255
217 233 255
217 233 255
217 233 255
217 233 255
217 233 255
217 233 255
217 233 255
217 233 255
217 233 255
217 233 255
217 233 255
217 233 255
217 233 255
217 233 255
217 233 255
217 233 255
217 233 255
217 233 255
217 233 255
217 233 255
217 233 255
217 233 255
217 233 255
217 233 255
217 233 255
217 233 255
217 233 255
217 233 255
217 233 255
217 233 255
217 233 255
217 233 255
217 233 255
217 233 255
217 233 255
217 233 255
217 233 255
217 233 255
217 233 255
217 233 255
217 233 255
153 165 181
0 0 5
0 0 8
0 0 0
0 0 2
0 0 14
0 0 16
0 0 17
0 0 18
0 0 18
0 0 22
0 0 27
0 0 29
0 4 32
0 11 37
0 10 35
0 2 31
0 0 28
0 0 27
0 0 28
0 0 30
0 0 33
0 0 33
0 2 37
0 13 49
1 20 61
19 43 77
33 38 35
61 57 26
67 66 46
32 27 12
48 42 28
85 80 66
97 94 77
89 81 62
83 76 57
88 83 65
96 91 74
81 75 55
81 74 55
95 89 70
77 69 50
60 50 30
87 77 60
121 107 91
101 81 62
82 72 55
68 65 47
46 48 31
40 43 24
42 44 28
64 66 50
49 49 29
66 67 46
80 81 60
85 84 63
85 86 64
70 71 48
68 70 46
59 60 34
59 61 36
61 64 39
57 60 34
58 59 34
55 56 28
50 54 27
40 47 19
34 45 16
35 47 18
36 48 20
34 46 16
30 43 12
23 38 3
23 35 9
21 33 3
20 32 2
18 31 0
20 33 5
27 39 2
26 39 9
27 40 8
29 42 10
30 44 14
26 40 5
26 41 10
26 42 12
24 41 14
26 43 15
20 35 7
18 33 0
18 33 0
17 32 0
13 30 0
17 32 0
14 30 0
16 30 0
20 35 0
23 34 7
21 32 10
19 36 13
19 39 35
16 37 43
18 44 80
20 53 119
15 44 109
3 27 75
0 25 70
0 23 62
0 20 57
0 16 56
0 14 53
0 11 48
0 7 42
0 0 36
0 0 28
0 0 24
0 0 20
0 0 20
0 0 20
0 0 20
0 0 19
0 0 14
0 0 12
0 0 15
0 0 16
0 0 16
0 0 16
0 0 16
0 0 16
0 0 16
0 0 16
0 0 16
0 0 16
0 0 16
0 0 15
0 0 13
0 0 10
0 0 15
0 0 20
0 0 24
0 0 31
0 0 23
0 0 17
0 0 16
0 0 14
0 0 11
0 0 22
0 0 27
0 0 28
0 12 45
2 24 69
2 30 80
1 27 76
0 19 61
1 12 45
172 185 203
217 233 255
217 233 255
217 233 255
217 233 255
217 233 255
217 233 255
217 233 255
217 233 255
217 233 255
217 233 255
217 233 255
217 233 255
217 233 255
217 233 255
217 233 255
217 233 255
217 233 255
217 233 255
217 233 255
217 233 255
217 233 255
217 233 255
217 233 255
217 233 255
217 233 255
217 233 255
217 233 255
217 233 255
217 233 255
217 233 255
217 233 255
217 233 255
217 233 255
217 233 255
217 233 255
217 233 255
217 233 255
217 233 255
217 233 255
217 233 255
217 233 255
217 233 255
217 233 255
217 233 255
217 233 255
217 233 255
217 233 255
217 233 255
217 233 255
217 233 255
217 233 255
217 233 255
217 233 255
217 233 255
217 233 255
217 233 255
217 233 255
217 233 255
217 233 255
217 233 255
217 233 255
217 233 255
217 233 255
217 233 255
217 233 255
217 233 255
217 233 255
217 233 255
217 233 255
217 233 255
217 233 255
217 233 255
217 233 255
217 233 255
217 233 255
217 233 255
217 233 255
217 233 255
217 233 255
217 233 255
217 233 255
217 233 255
217 233 255
217 233 255
217 233 255
217 233 255
217 233 255
217 233 255
217 233 255
217 233 255
217 233 255
217 233 255
217 233 255
217 233 255
217 233 255
217 233 255
217 233 255
217 233 255
217 233 255
217 233 255
217 233 255
217 233 255
217 233 255
217 233 255
217 233 255
217 233 255
217 233 255
217 233 255
217 233 255
217 233 255
217 233 255
217 233 255
217 233 255
217 233 255
217 233 255
217 233 255
217 233 255
217 233 255
217 233 255
217 233 255
217 233 255
217 233 255
217 233 255
217 233 255
217 233 255
217 233 255
217 233 255
217 233 255
217 233 255
217 233 255
217 233 255
217 233 255
217 233 255
217 233 255
217 233 255
217 233 255
217 233 255
217 233 255
217 233 255
217 233 255
217 233 255
217 233 255
217 233 255
217 233 255
217 233 255
217 233 255
217 233 255
217 233 255
217 233 255
217 233 255
217 233 255
217 233 255
217 233 255
217 233 255
217 233 255
217 233 255
217 233 255
217 233 255
217 233 255
217 233 255
217 233 255
217 233 255
217 233 255
217 233 255
217 233 255
217 233 255
217 233 255
217 233 255
217 233 255
217 233 255
217 233 255
217 233 255
217 233 255
217 233 255
217 233 255
217 233 255
217 233 255
217 233 255
217 233 255
217 233 255
217 233 255
217 233 255
217 233 255
217 233 255
217 233 255
217 233 255
217 233 255
217 233 255
217 233 255
217 233 255
217 233 255
217 233 255
217 233 255
217 233 255
217 233 255
217 233 255
217 233 255
217 233 255
217 233 255
217 233 255
217 233 255
217 233 255
217 233 255
217 233 255
217 233 255
217 233 255
217 233 255
217 233 255
217 233 255
217 233 255
217 233 255
217 233 255
217 233 255
217 233 255
217 233 255
217 233 255
217 233 255
217 233 255
217 233 255
217 233 255
217 233 255
217 233 255
217 233 255
217 233 255
217 233 255
217 233 255
217 233 255
217 233 255
217 233 255
217 233 255
217 233 255
217 233 255
217 233 255
217 233 255
217 233 255
217 233 255
217 233 255
217 233 255
217 233 255
217 233 255
217 233 255
217 233 255
217 233 255
168 180 198
0 0 7
0 0 9
0 0 7
0 0 12
0 0 18
0 0 21
0 0 20
0 0 19
0 0 18
0 0 16
0 0 16
0 0 17
0 0 17
0 0 18
0 0 22
0 0 23
0 0 23
0 0 27
0 0 26
0 0 26
0 0 26
0 0 29
0 0 33
0 1 41
0 12 48
0 17 55
26 49 81
43 52 49
65 62 40
76 70 50
41 33 18
56 49 36
79 75 58
93 88 70
104 99 81
96 90 71
92 87 68
94 87 66
87 78 57
82 73 52
88 81 62
65 60 39
83 76 56
104 93 74
102 87 65
88 72 51
88 78 59
56 51 30
31 30 9
32 29 6
38 35 21
77 78 63
56 56 39
63 64 42
87 87 66
73 70 48
79 79 57
69 70 45
62 63 37
56 58 32
54 57 29
59 62 34
57 60 32
59 60 34
62 63 37
53 57 32
41 49 23
32 45 16
38 50 23
41 53 26
36 48 21
34 48 18
28 43 12
26 37 14
24 36 12
16 28 3
14 28 0
16 31 0
28 42 11
27 40 10
23 36 0
24 37 0
26 40 9
25 41 6
24 40 5
26 43 13
22 39 8
20 36 6
19 34 7
15 29 0
15 30 0
14 29 0
16 31 0
18 32 0
17 32 0
20 36 0
20 35 0
18 33 0
16 31 5
18 34 4
14 35 23
20 44 59
20 49 94
19 53 117
5 33 86
0 26 74
0 21 64
0 17 54
0 15 50
0 8 45
0 0 43
0 0 38
0 0 34
0 0 29
0 0 24
0 0 21
0 0 17
0 0 16
0 0 16
0 0 16
0 0 15
0 0 10
0 0 14
0 0 15
0 0 18
0 0 13
0 0 15
0 0 15
0 0 15
0 0 15
0 0 16
0 0 16
0 0 16
0 0 13
0 0 12
0 0 14
0 0 14
0 0 16
0 0 16
0 0 16
0 0 18
0 0 22
0 0 20
0 0 19
0 0 15
0 0 14
0 0 17
0 0 26
0 0 27
0 5 35
0 16 55
2 27 76
5 32 84
0 27 75
0 17 57
21 25 49
165 177 195
217 233 255
217 233 255
217 233 255
217 233 255
217 233 255
217 233 255
217 233 255
217 233 255
217 233 255
217 233 255
217 233 255
217 233 255
217 233 255
217 233 255
217 233 255
217 233 255
217 233 255
217 233 255
217 233 255
217 233 255
217 233 255
217 233 255
217 233 255
217 233 255
217 233 255
217 233 255
217 233 255
217 233 255
217 233 255
217 233 255
217 233 255
217 233 255
217 233 255
217 233 255
217 233 255
217 233 255
217 233 255
217 233 255
217 233 255
217 233 255
217 233 255
217 233 255
217 233 255
217 233 255
217 233 255
217 233 255
217 233 255
217 233 255
217 233 255
217 233 255
217 233 255
217 233 255
217 233 255
217 233 255
217 233 255
217 233 255
217 233 255
217 233 255
217 233 255
217 233 255
217 233 255
217 233 255
217 233 255
217 233 255
217 233 255
217 233 255
217 233 255
217 233 255
217 233 255
217 233 255
217 233 255
217 233 255
217 233 255
217 233 255
217 233 255
217 233 255
217 233 255
217 233 255
217 233 255
217 233 255
217 233 255
217 233 255
217 233 255
217 233 255
217 233 255
217 233 255
217 233 255
217 233 255
217 233 255
217 233 255
217 233 255
217 233 255
217 233 255
217 233 255
217 233 255
217 233 255
217 233 255
217 233 255
217 233 255
217 233 255
217 233 255
217 233 255
217 233 255
217 233 255
217 233 255
217 233 255
217 233 255
217 233 255
217 233 255
217 233 255
217 233 255
217 233 255
217 233 255
217 233 255
217 233 255
217 233 255
217 233 255
217 233 255
217 233 255
217 233 255
217 233 255
217 233 255
217 233 255
217 233 255
217 233 255
217 233 255
217 233 255
217 233 255
217 233 255
217 233 255
217 233 255
217 233 255
217 233 255
217 233 255
217 233 255
217 233 255
217 233 255
217 233 255
217 233 255
217 233 255
217 233 255
217 233 255
217 233 255
217 233 255
217 233 255
217 233 255
217 233 255
217 233 255
217 233 255
217 233 255
217 233 255
217 233 255
217 233 255
217 233 255
217 233 255
217 233 255
217 233 255
217 233 255
217 233 255
217 233 255
217 233 255
217 233 255
217 233 255
217 233 255
217 233 255
217 233 255
217 233 255
217 233 255
217 233 255
217 233 255
217 233 255
217 233 255
217 233 255
217 233 255
217 233 255
217 233 255
217 233 255
217 233 255
217 233 255
217 233 255
217 233 255
217 233 255
217 233 255
217 233 255
217 233 255
217 233 255
217 233 255
217 233 255
217 233 255
217 233 255
217 233 255
217 233 255
217 233 255
217 233 255
217 233 255
217 233 255
217 233 255
217 233 255
217 233 255
217 233 255
217 233 255
217 233 255
217 233 255
217 233 255
217 233 255
217 233 255
217 233 255
217 233 255
217 233 255
217 233 255
217 233 255
217 233 255
217 233 255
217 233 255
217 233 255
217 233 255
217 233 255
217 233 255
217 233 255
217 233 255
217 233 255
217 233 255
217 233 255
217 233 255
217 233 255
217 233 255
217 233 255
217 233 255
217 233 255
217 233 255
217 233 255
217 233 255
217 233 255
217 233 255
217 233 255
217 233 255
217 233 255
217 233 255
217 233 255
217 233 255
217 233 255
171 183 201
0 0 8
0 0 11
0 0 7
0 0 10
0 0 16
0 0 16
0 0 15
0 0 13
0 0 15
0 0 11
0 0 4
0 0 9
0 0 16
0 0 16
0 0 17
0 0 13
0 0 16
0 0 17
0 0 19
0 0 22
0 0 23
0 0 27
0 0 27
0 0 32
0 0 36
0 11 43
3 21 60
24 50 83
44 53 53
71 65 45
80 74 53
59 53 38
48 43 27
83 81 62
89 82 61
88 82 62
88 81 61
92 85 66
85 76 53
89 82 62
88 80 59
85 75 54
88 75 57
114 97 81
104 83 64
111 92 70
120 102 83
118 108 89
91 88 66
78 76 56
56 53 34
44 40 25
68 67 53
39 38 17
49 49 28
58 56 33
65 62 41
72 70 48
68 68 44
63 63 36
66 67 40
63 65 38
61 63 35
62 60 34
67 64 40
66 66 42
55 60 36
39 48 21
31 43 14
36 48 19
31 44 15
30 43 13
25 38 7
24 37 3
25 36 7
26 37 12
23 36 7
21 37 7
31 49 18
34 49 21
28 42 14
29 42 12
21 32 0
27 41 11
29 46 16
24 41 7
21 38 7
18 36 0
14 31 0
15 32 3
16 32 5
20 36 10
19 35 6
17 32 0
19 33 0
20 35 8
21 35 8
19 33 4
14 33 0
12 30 0
18 35 5
17 35 15
20 41 47
24 53 100
18 51 112
0 29 71
0 22 65
0 18 61
0 14 51
0 11 43
0 0 39
0 0 39
0 0 32
0 0 28
0 0 24
0 0 21
0 0 19
0 0 16
0 0 16
0 0 16
0 0 16
0 0 15
0 0 6
0 0 3
0 0 15
0 0 15
0 0 14
0 0 16
0 0 8
0 0 0
0 0 0
0 0 3
0 0 4
0 0 14
0 0 14
0 0 1
0 0 0
0 0 4
0 0 13
0 0 14
0 0 15
0 0 15
0 0 16
0 0 15
0 0 13
0 0 12
0 0 10
0 0 16
0 0 23
0 0 29
0 1 32
0 8 44
1 22 63
5 34 86
6 34 87
4 30 80
1 17 55
21 25 48
172 185 203
217 233 255
217 233 255
217 233 255
217 233 255
217 233 255
217 233 255
217 233 255
217 233 255
217 233 255
217 233 255
217 233 255
217 233 255
217 233 255
217 233 255
217 233 255
217 233 255
217 233 255
217 233 255
217 233 255
217 233 255
217 233 255
217 233 255
217 233 255
217 233 255
217 233 255
217 233 255
217 233 255
217 233 255
217 233 255
217 233 255
217 233 255
217 233 255
217 233 255
217 233 255
217 233 255
217 233 255
217 233 255
217 233 255
217 233 255
217 233 255
217 233 255
217 233 255
217 233 255
217 233 255
217 233 255
217 233 255
217 233 255
217 233 255
217 233 255
217 233 255
217 233 255
217 233 255
217 233 255
217 233 255
217 233 255
217 233 255
217 233 255
217 233 255
217 233 255
217 233 255
217 233 255
217 233 255
217 233 255
217 233 255
217 233 255
217 233 255
217 233 255
217 233 255
217 233 255
217 233 255
217 233 255
217 233 255
217 233 255
217 233 255
217 233 255
217 233 255
217 233 255
217 233 255
217 233 255
217 233 255
217 233 255
217 233 255
217 233 255
217 233 255
217 233 255
217 233 255
217 233 255
217 233 255
217 233 255
217 233 255
217 233 255
217 233 255
217 233 255
217 233 255
217 233 255
217 233 255
217 233 255
217 233 255
217 233 255
217 233 255
217 233 255
217 233 255
217 233 255
217 233 255
217 233 255
217 233 255
217 233 255
217 233 255
217 233 255
217 233 255
217 233 255
217 233 255
217 233 255
217 233 255
217 233 255
217 233 255
217 233 255
217 233 255
217 233 255
217 233 255
217 233 255
217 233 255
217 233 255
217 233 255
217 233 255
217 233 255
217 233 255
217 233 255
217 233 255
217 233 255
217 233 255
217 233 255
217 233 255
217 233 255
217 233 255
217 233 255
217 233 255
217 233 255
217 233 255
217 233 255
217 233 255
217 233 255
217 233 255
217 233 255
217 233 255
217 233 255
217 233 255
217 233 255
217 233 255
217 233 255
217 233 255
217 233 255
217 233 255
217 233 255
217 233 255
217 233 255
217 233 255
217 233 255
217 233 255
217 233 255
217 233 255
217 233 255
217 233 255
217 233 255
217 233 255
217 233 255
217 233 255
217 233 255
217 233 255
217 233 255
217 233 255
217 233 255
217 233 255
217 233 255
217 233 255
217 233 255
217 233 255
217 233 255
217 233 255
217 233 255
217 233 255
217 233 255
217 233 255
217 233 255
217 233 255
217 233 255
217 233 255
217 233 255
217 233 255
217 233 255
217 233 255
217 233 255
217 233 255
217 233 255
217 233 255
217 233 255
217 233 255
217 233 255
217 233 255
217 233 255
217 233 255
217 233 255
217 233 255
217 233 255
217 233 255
217 233 255
217 233 255
217 233 255
217 233 255
217 233 255
217 233 255
217 233 255
217 233 255
217 233 255
217 233 255
217 233 255
217 233 255
217 233 255
217 233 255
217 233 255
217 233 255
217 233 255
217 233 255
217 233 255
217 233 255
217 233 255
217 233 255
217 233 255
217 233 255
217 233 255
217 233 255
217 233 255
217 233 255
217 233 255
217 233 255
217 233 255
217 233 255
217 233 255
217 233 255
180 194 212
37 40 45
0 0 11
0 0 5
0 0 11
0 0 10
0 0 12
0 0 11
0 0 10
0 0 9
0 0 14
0 0 0
0 0 3
0 0 15
0 0 16
0 0 12
0 0 3
0 0 0
0 0 8
0 0 16
0 0 16
0 0 18
0 0 21
0 0 25
0 0 27
0 0 31
0 0 34
0 12 40
0 23 65
15 40 72
40 46 45
75 70 50
79 75 50
82 81 60
45 42 19
86 83 62
82 76 57
96 88 70
95 86 65
92 84 63
100 93 72
96 87 64
90 82 60
87 75 56
81 65 50
124 107 92
113 94 75
110 91 70
95 84 65
109 105 82
113 115 92
96 94 75
63 58 41
71 69 53
46 46 33
53 53 35
68 68 48
72 72 52
69 65 46
61 55 32
64 61 35
72 71 45
70 68 44
58 59 34
58 57 31
59 51 27
66 60 37
66 66 42
43 48 21
34 43 15
38 47 20
37 50 21
25 38 5
27 38 10
19 30 3
20 32 5
21 30 1
19 30 0
24 38 8
34 49 19
31 47 17
30 43 14
33 46 18
25 37 6
20 31 0
19 31 0
25 41 11
26 43 14
21 37 0
19 34 0
19 35 6
23 39 13
20 35 10
18 33 6
14 28 0
17 31 2
21 35 3
26 42 14
25 39 13
21 34 9
17 33 8
20 37 11
21 37 13
18 33 8
16 30 17
15 40 68
22 51 111
2 31 82
0 22 62
0 14 54
0 13 44
0 9 40
0 0 35
0 0 31
0 0 27
0 0 23
0 0 17
0 0 15
0 0 16
0 0 16
0 0 16
0 0 16
0 0 16
0 0 16
0 0 11
0 0 0
0 0 11
0 0 16
0 0 15
0 0 15
0 0 15
0 0 12
0 0 3
0 0 0
0 0 0
0 0 8
0 0 16
0 0 13
0 0 11
0 0 13
0 0 11
0 0 4
0 0 5
0 0 9
0 0 16
0 0 15
0 0 8
0 0 3
0 0 13
0 0 16
0 0 25
0 2 32
0 4 34
0 5 37
0 13 51
3 29 78
7 36 92
6 35 89
9 32 81
0 13 51
30 33 46
178 191 209
217 233 255
217 233 255
217 233 255
217 233 255
217 233 255
217 233 255
217 233 255
217 233 255
217 233 255
217 233 255
217 233 255
217 233 255
217 233 255
217 233 255
217 233 255
217 233 255
217 233 255
217 233 255
217 233 255
217 233 255
217 233 255
217 233 255
217 233 255
217 233 255
217 233 255
217 233 255
217 233 255
217 233 255
217 233 255
217 233 255
217 233 255
217 233 255
217 233 255
217 233 255
217 233 255
217 233 255
217 233 255
217 233 255
217 233 255
217 233 255
217 233 255
217 233 255
217 233 255
217 233 255
217 233 255
217 233 255
217 233 255
217 233 255
217 233 255
217 233 255
217 233 255
217 233 255
217 233 255
217 233 255
217 233 255
217 233 255
217 233 255
217 233 255
217 233 255
217 233 255
217 233 255
217 233 255
217 233 255
217 233 255
217 233 255
217 233 255
217 233 255
217 233 255
217 233 255
217 233 255
217 233 255
217 233 255
217 233 255
217 233 255
217 233 255
217 233 255
217 233 255
217 233 255
217 233 255
217 233 255
217 233 255
217 233 255
217 233 255
217 233 255
217 233 255
217 233 255
217 233 255
217 233 255
217 233 255
217 233 255
217 233 255
217 233 255
217 233 255
217 233 255
217 233 255
217 233 255
217 233 255
217 233 255
217 233 255
217 233 255
217 233 255
217 233 255
217 233 255
217 233 255
217 233 255
217 233 255
217 233 255
217 233 255
217 233 255
217 233 255
217 233 255
217 233 255
217 233 255
217 233 255
217 233 255
217 233 255
217 233 255
217 233 255
217 233 255
217 233 255
217 233 255
217 233 255
217 233 255
217 233 255
217 233 255
217 233 255
217 233 255
217 233 255
217 233 255
217 233 255
217 233 255
217 233 255
217 233 255
217 233 255
217 233 255
217 233 255
217 233 255
217 233 255
217 233 255
217 233 255
217 233 255
217 233 255
217 233 255
217 233 255
217 233 255
217 233 255
217 233 255
217 233 255
217 233 255
217 233 255
217 233 255
217 233 255
217 233 255
217 233 255
217 233 255
217 233 255
217 233 255
217 233 255
217 233 255
217 233 255
217 233 255
217 233 255
217 233 255
217 233 255
217 233 255
217 233 255
217 233 255
217 233 255
217 233 255
217 233 255
217 233 255
217 233 255
217 233 255
217 233 255
217 233 255
217 233 255
217 233 255
217 233 255
217 233 255
217 233 255
217 233 255
217 233 255
217 233 255
217 233 255
217 233 255
217 233 255
217 233 255
217 233 255
217 233 255
217 233 255
217 233 255
217 233 255
217 233 255
217 233 255
217 233 255
217 233 255
217 233 255
217 233 255
217 233 255
217 233 255
217 233 255
217 233 255
217 233 255
217 233 255
217 233 255
217 233 255
217 233 255
217 233 255
217 233 255
217 233 255
217 233 255
217 233 255
217 233 255
217 233 255
217 233 255
217 233 255
217 233 255
217 233 255
217 233 255
217 233 255
217 233 255
217 233 255
217 233 255
217 233 255
217 233 255
217 233 255
217 233 255
217 233 255
217 233 255
217 233 255
217 233 255
217 233 255
217 233 255
217 233 255
217 233 255
217 233 255
217 233 255
201 216 237
61 66 73
0 0 8
0 0 4
0 0 12
0 0 8
0 0 10
0 0 10
0 0 4
0 0 5
0 0 15
0 0 11
0 0 12
0 0 14
0 0 16
0 0 15
0 0 6
0 0 8
0 0 3
0 0 9
0 0 16
0 0 17
0 0 18
0 0 22
0 0 23
0 0 27
0 0 30
0 6 37
0 15 46
0 17 57
18 38 74
45 52 53
78 74 55
81 81 50
77 74 53
50 43 20
97 89 67
88 78 59
93 83 65
98 89 67
98 90 66
95 86 63
87 78 56
78 67 47
96 86 69
79 65 49
122 108 90
119 102 83
110 94 75
80 66 45
100 94 72
106 103 83
104 97 78
86 79 62
77 73 58
51 48 31
70 66 47
74 69 47
78 75 54
81 77 56
80 77 55
74 72 49
71 70 45
66 63 39
62 59 35
65 59 35
70 63 40
66 61 37
58 61 35
38 45 16
36 46 18
37 46 19
34 48 19
31 45 15
31 43 17
26 38 9
25 37 10
27 38 12
25 37 10
30 42 12
33 46 16
32 45 17
31 44 17
26 39 9
22 33 0
21 33 0
23 35 5
27 42 15
25 40 11
20 34 7
23 39 11
24 39 12
13 28 1
12 27 0
13 28 0
19 33 6
24 39 10
24 39 4
26 41 8
20 34 0
18 32 0
27 40 17
29 43 17
26 42 15
18 34 13
14 30 29
8 28 50
24 53 98
5 29 76
0 20 62
0 11 50
0 8 41
0 3 37
0 0 34
0 0 29
0 0 24
0 0 18
0 0 16
0 0 11
0 0 10
0 0 16
0 0 16
0 0 16
0 0 16
0 0 16
0 0 15
0 0 1
0 0 4
0 0 15
0 0 16
0 0 16
0 0 17
0 0 16
0 0 14
0 0 6
0 0 0
0 0 0
0 0 10
0 0 13
0 0 15
0 0 15
0 0 16
0 0 9
0 0 2
0 0 0
0 0 13
0 0 15
0 0 14
0 0 7
0 0 15
0 0 18
0 0 27
0 1 35
0 12 43
0 12 46
0 11 48
0 20 64
6 33 86
7 37 93
10 37 92
8 29 77
0 14 50
61 66 74
200 215 236
217 233 255
217 233 255
217 233 255
217 233 255
217 233 255
217 233 255
217 233 255
217 233 255
217 233 255
217 233 255
217 233 255
217 233 255
217 233 255
217 233 255
217 233 255
217 233 255
217 233 255
217 233 255
217 233 255
217 233 255
217 233 255
217 233 255
217 233 255
217 233 255
217 233 255
217 233 255
217 233 255
217 233 255
217 233 255
217 233 255
217 233 255
217 233 255
217 233 255
217 233 255
217 233 255
217 233 255
217 233 255
217 233 255
217 233 255
217 233 255
217 233 255
217 233 255
217 233 255
217 233 255
217 233 255
217 233 255
217 233 255
217 233 255
217 233 255
217 233 255
217 233 255
217 233 255
217 233 255
217 233 255
217 233 255
217 233 255
217 233 255
217 233 255
217 233 255
217 233 255
217 233 255
217 233 255
217 233 255
217 233 255
217 233 255
217 233 255
217 233 255
217 233 255
217 233 255
217 233 255
217 233 255
217 233 255
217 233 255
217 233 255
217 233 255
217 233 255
217 233 255
217 233 255
217 233 255
217 233 255
217 233 255
217 233 255
217 233 255
217 233 255
217 233 255
217 233 255
217 233 255
217 233 255
217 233 255
217 233 255
217 233 255
217 233 255
217 233 255
217 233 255
217 233 255
217 233 255
217 233 255
217 233 255
217 233 255
217 233 255
217 233 255
217 233 255
217 233 255
217 233 255
217 233 255
217 233 255
217 233 255
217 233 255
217 233 255
217 233 255
217 233 255
217 233 255
217 233 255
217 233 255
217 233 255
217 233 255
217 233 255
217 233 255
217 233 255
217 233 255
217 233 255
217 233 255
217 233 255
217 233 255
217 233 255
217 233 255
217 233 255
217 233 255
217 233 255
217 233 255
217 233 255
217 233 255
217 233 255
217 233 255
217 233 255
217 233 255
217 233 255
217 233 255
217 233 255
217 233 255
217 233 255
217 233 255
217 233 255
217 233 255
217 233 255
217 233 255
217 233 255
217 233 255
217 233 255
217 233 255
217 233 255
217 233 255
217 233 255
217 233 255
217 233 255
217 233 255
217 233 255
217 233 255
217 233 255
217 233 255
217 233 255
217 233 255
217 233 255
217 233 255
217 233 255
217 233 255
217 233 255
217 233 255
217 233 255
217 233 255
217 233 255
217 233 255
217 233 255
217 233 255
217 233 255
217 233 255
217 233 255
217 233 255
217 233 255
217 233 255
217 233 255
217 233 255
217 233 255
217 233 255
217 233 255
217 233 255
217 233 255
217 233 255
217 233 255
217 233 255
217 233 255
217 233 255
217 233 255
217 233 255
217 233 255
217 233 255
217 233 255
217 233 255
217 233 255
217 233 255
217 233 255
217 233 255
217 233 255
217 233 255
217 233 255
217 233 255
217 233 255
217 233 255
217 233 255
217 233 255
217 233 255
217 233 255
217 233 255
217 233 255
217 233 255
217 233 255
217 233 255
217 233 255
217 233 255
217 233 255
217 233 255
217 233 255
217 233 255
217 233 255
217 233 255
217 233 255
217 233 255
217 233 255
217 233 255
217 233 255
217 233 255
217 233 255
217 233 255
217 233 255
217 233 255
208 224 245
68 73 81
0 0 4
0 0 0
0 0 10
0 0 10
0 0 6
0 0 7
0 0 0
0 0 0
0 0 13
0 0 16
0 0 15
0 0 15
0 0 14
0 0 16
0 0 16
0 0 13
0 0 7
0 0 14
0 0 15
0 0 16
0 0 21
0 0 20
0 0 22
0 0 23
0 0 27
0 0 32
0 10 40
0 13 46
0 16 58
19 42 82
38 51 59
85 85 63
106 91 70
95 79 61
80 70 46
114 105 83
107 98 78
113 105 83
99 91 67
99 91 65
99 89 66
89 79 60
86 77 61
67 57 37
62 50 31
103 91 73
116 103 84
111 99 83
93 82 63
69 61 40
83 73 52
105 96 77
90 80 60
86 78 62
80 75 59
82 77 56
81 73 50
79 72 48
71 66 41
65 62 37
72 69 47
66 63 39
67 62 38
71 64 41
73 66 44
67 61 38
56 57 30
45 50 21
38 47 18
33 42 12
34 42 13
23 35 6
20 32 0
17 29 0
18 31 0
19 30 0
22 34 6
33 46 20
35 46 19
40 51 24
35 45 17
26 38 9
20 32 0
25 36 6
23 34 1
29 41 13
30 44 19
26 39 13
23 36 11
23 35 4
18 31 0
18 31 0
19 31 0
22 35 11
29 43 19
21 34 6
19 33 0
24 38 2
22 36 3
25 39 11
27 41 14
22 39 10
15 33 18
10 33 35
14 42 61
25 54 90
17 42 76
0 20 56
0 16 59
0 10 45
0 0 35
0 0 32
0 0 31
0 0 26
0 0 18
0 0 16
0 0 16
0 0 15
0 0 13
0 0 15
0 0 16
0 0 16
0 0 16
0 0 16
0 0 16
0 0 14
0 0 13
0 0 16
0 0 16
0 0 17
0 0 16
0 0 17
0 0 16
0 0 11
0 0 10
0 0 3
0 0 3
0 0 8
0 0 13
3 4 18
4 5 26
0 0 20
0 0 15
0 0 15
0 0 13
0 0 2
0 0 5
0 0 10
0 0 15
0 0 20
0 0 28
0 2 35
0 13 43
0 15 51
0 15 53
0 20 62
4 28 78
9 35 90
7 34 88
10 36 90
5 28 76
2 12 44
68 73 82
203 218 238
217 233 255
217 233 255
217 233 255
217 233 255
217 233 255
217 233 255
217 233 255
217 233 255
217 233 255
217 233 255
217 233 255
217 233 255
217 233 255
217 233 255
217 233 255
217 233 255
217 233 255
217 233 255
217 233 255
217 233 255
217 233 255
217 233 255
217 233 255
217 233 255
217 233 255
217 233 255
217 233 255
217 233 255
217 233 255
217 233 255
217 233 255
217 233 255
217 233 255
217 233 255
217 233 255
217 233 255
217 233 255
217 233 255
217 233 255
217 233 255
217 233 255
217 233 255
217 233 255
217 233 255
217 233 255
217 233 255
217 233 255
217 233 255
217 233 255
217 233 255
217 233 255
217 233 255
217 233 255
217 233 255
217 233 255
217 233 255
217 233 255
217 233 255
217 233 255
217 233 255
217 233 255
217 233 255
217 233 255
217 233 255
217 233 255
217 233 255
217 233 255
217 233 255
217 233 255
217 233 255
217 233 255
217 233 255
217 233 255
217 233 255
217 233 255
217 233 255
217 233 255
217 233 255
217 233 255
217 233 255
217 233 255
217 233 255
217 233 255
217 233 255
217 233 255
217 233 255
217 233 255
217 233 255
217 233 255
217 233 255
217 233 255
217 233 255
217 233 255
217 233 255
217 233 255
217 233 255
217 233 255
217 233 255
217 233 255
217 233 255
217 233 255
217 233 255
217 233 255
217 233 255
217 233 255
217 233 255
217 233 255
217 233 255
217 233 255
217 233 255
217 233 255
217 233 255
217 233 255
217 233 255
217 233 255
217 233 255
217 233 255
217 233 255
217 233 255
217 233 255
217 233 255
217 233 255
217 233 255
217 233 255
217 233 255
217 233 255
217 233 255
217 233 255
217 233 255
217 233 255
217 233 255
217 233 255
217 233 255
217 233 255
217 233 255
217 233 255
217 233 255
217 233 255
217 233 255
217 233 255
217 233 255
217 233 255
217 233 255
217 233 255
217 233 255
217 233 255
217 233 255
217 233 255
217 233 255
217 233 255
217 233 255
217 233 255
217 233 255
217 233 255
217 233 255
217 233 255
217 233 255
217 233 255
217 233 255
217 233 255
217 233 255
217 233 255
217 233 255
217 233 255
217 233 255
217 233 255
217 233 255
217 233 255
217 233 255
217 233 255
217 233 255
217 233 255
217 233 255
217 233 255
217 233 255
217 233 255
217 233 255
217 233 255
217 233 255
217 233 255
217 233 255
217 233 255
217 233 255
217 233 255
217 233 255
217 233 255
217 233 255
217 233 255
217 233 255
217 233 255
217 233 255
217 233 255
217 233 255
217 233 255
217 233 255
217 233 255
217 233 255
217 233 255
217 233 255
217 233 255
217 233 255
217 233 255
217 233 255
217 233 255
217 233 255
217 233 255
217 233 255
217 233 255
217 233 255
217 233 255
217 233 255
217 233 255
217 233 255
217 233 255
217 233 255
217 233 255
217 233 255
217 233 255
217 233 255
217 233 255
217 233 255
217 233 255
217 233 255
217 233 255
217 233 255
217 233 255
217 233 255
217 233 255
217 233 255
217 233 255
217 233 255
217 233 255
217 233 255
215 231 253
99 107 117
0 0 0
0 0 9
0 0 4
0 0 12
0 0 7
0 0 5
0 0 0
0 0 7
0 0 12
0 0 13
0 0 6
0 0 3
0 0 12
0 0 13
0 0 16
0 0 15
0 0 5
0 0 10
0 0 16
0 0 16
0 0 16
0 0 17
0 0 20
0 0 21
0 0 23
0 0 28
0 0 34
0 5 37
0 7 41
0 13 56
18 44 92
38 55 84
57 55 58
91 78 70
74 70 47
119 117 99
112 107 86
113 105 82
111 103 81
108 101 80
102 92 71
93 83 64
86 75 57
69 61 40
72 66 44
50 40 18
71 60 40
87 76 60
92 83 67
89 83 68
78 73 56
86 79 57
98 86 64
92 80 60
88 80 62
94 87 68
92 83 60
89 77 53
76 67 40
66 62 35
58 56 28
63 59 35
65 62 37
66 60 37
73 63 42
73 66 44
71 66 43
58 62 35
42 48 21
35 45 17
37 46 17
36 44 17
28 41 11
26 39 9
22 34 5
23 34 5
21 32 0
17 28 0
26 36 14
35 45 19
38 48 21
41 50 24
21 33 0
25 37 1
29 42 13
21 32 1
22 33 2
27 39 13
26 38 13
24 36 10
21 32 1
24 36 8
30 43 18
28 41 15
25 37 11
22 33 5
20 31 2
21 34 7
22 35 4
27 41 15
23 37 15
23 37 16
10 32 20
17 41 62
23 53 103
18 52 111
17 52 110
2 23 61
0 21 48
0 11 48
0 2 35
0 0 26
0 0 27
0 0 23
0 0 16
0 0 15
0 0 11
0 0 12
0 0 16
0 0 16
0 0 10
0 0 3
0 0 3
0 0 6
0 0 10
0 0 16
0 0 16
0 0 15
0 0 15
0 0 22
0 0 22
0 0 21
0 0 20
0 0 17
0 0 19
0 0 17
0 0 6
0 0 9
0 0 10
0 0 11
0 0 16
0 4 23
5 7 35
0 0 19
0 0 16
0 0 16
0 0 18
0 0 11
0 0 13
0 0 17
0 0 21
0 3 32
0 7 42
0 5 39
0 13 47
0 18 58
0 19 62
0 25 73
9 34 88
10 36 89
6 30 80
6 30 80
10 33 79
2 11 41
119 128 141
215 231 253
217 233 255
217 233 255
217 233 255
217 233 255
217 233 255
217 233 255
217 233 255
217 233 255
217 233 255
217 233 255
217 233 255
217 233 255
217 233 255
217 233 255
217 233 255
217 233 255
217 233 255
217 233 255
217 233 255
217 233 255
217 233 255
217 233 255
217 233 255
217 233 255
217 233 255
217 233 255
217 233 255
217 233 255
217 233 255
217 233 255
217 233 255
217 233 255
217 233 255
217 233 255
217 233 255
217 233 255
217 233 255
217 233 255
217 233 255
217 233 255
217 233 255
217 233 255
217 233 255
217 233 255
217 233 255
217 233 255
217 233 255
217 233 255
217 233 255
217 233 255
217 233 255
217 233 255
217 233 255
217 233 255
217 233 255
217 233 255
217 233 255
217 233 255
217 233 255
217 233 255
217 233 255
217 233 255
217 233 255
217 233 255
217 233 255
217 233 255
217 233 255
217 233 255
217 233 255
217 233 255
217 233 255
217 233 255
217 233 255
217 233 255
217 233 255
217 233 255
217 233 255
217 233 255
217 233 255
217 233 255
217 233 255
217 233 255
217 233 255
217 233 255
217 233 255
217 233 255
217 233 255
217 233 255
217 233 255
217 233 255
217 233 255
217 233 255
217 233 255
217 233 255
217 233 255
217 233 255
217 233 255
217 233 255
217 233 255
217 233 255
217 233 255
217 233 255
217 233 255
217 233 255
217 233 255
217 233 255
217 233 255
217 233 255
217 233 255
217 233 255
217 233 255
217 233 255
217 233 255
217 233 255
217 233 255
217 233 255
217 233 255
217 233 255
217 233 255
217 233 255
217 233 255
217 233 255
217 233 255
217 233 255
217 233 255
217 233 255
217 233 255
217 233 255
217 233 255
217 233 255
217 233 255
217 233 255
217 233 255
217 233 255
217 233 255
217 233 255
217 233 255
217 233 255
217 233 255
217 233 255
217 233 255
217 233 255
217 233 255
217 233 255
217 233 255
217 233 255
217 233 255
217 233 255
217 233 255
217 233 255
217 233 255
217 233 255
217 233 255
217 233 255
217 233 255
217 233 255
217 233 255
217 233 255
217 233 255
217 233 255
217 233 255
217 233 255
217 233 255
217 233 255
217 233 255
217 233 255
217 233 255
217 233 255
217 233 255
217 233 255
217 233 255
217 233 255
217 233 255
217 233 255
217 233 255
217 233 255
217 233 255
217 233 255
217 233 255
217 233 255
217 233 255
217 233 255
217 233 255
217 233 255
217 233 255
217 233 255
217 233 255
217 233 255
217 233 255
217 233 255
217 233 255
217 233 255
217 233 255
217 233 255
217 233 255
217 233 255
217 233 255
217 233 255
217 233 255
217 233 255
217 233 255
217 233 255
217 233 255
217 233 255
217 233 255
217 233 255
217 233 255
217 233 255
217 233 255
217 233 255
217 233 255
217 233 255
217 233 255
217 233 255
217 233 255
217 233 255
217 233 255
217 233 255
217 233 255
217 233 255
217 233 255
217 233 255
217 233 255
217 233 255
217 233 255
217 233 255
217 233 255
217 233 255
217 233 255
217 233 255
217 233 255
216 232 254
128 138 151
0 0 0
0 0 8
0 0 8
0 0 6
0 0 10
0 0 6
0 0 0
0 0 6
0 0 14
0 0 10
0 0 3
0 0 0
0 0 1
0 0 13
0 0 15
0 0 12
0 0 10
0 0 0
0 0 6
0 0 15
0 0 16
0 0 16
0 0 19
0 0 20
0 0 19
0 0 23
0 0 28
0 0 33
0 0 34
0 7 34
0 14 54
12 33 84
24 50 96
33 46 60
45 51 61
55 62 67
65 65 52
75 71 48
113 107 83
121 112 93
123 115 102
106 97 81
106 99 82
108 97 77
88 80 59
72 64 41
61 53 32
59 50 30
46 37 18
38 31 13
47 43 23
77 73 56
77 69 50
100 92 72
93 86 67
77 68 49
99 93 73
105 97 76
89 81 57
77 71 46
70 66 40
72 69 46
65 61 38
66 60 32
67 60 34
73 68 43
70 64 40
63 60 35
47 50 21
42 47 20
41 50 22
43 55 29
44 55 30
41 52 26
32 45 17
27 42 14
28 40 15
18 28 0
16 26 0
20 28 0
34 42 18
44 52 29
42 50 26
22 33 0
17 28 0
28 40 13
21 33 5
20 31 0
23 35 6
24 36 6
21 32 0
21 32 0
25 37 10
29 41 15
20 32 5
18 30 0
21 33 7
23 34 10
27 37 20
29 38 6
29 40 10
16 30 22
14 36 49
23 53 88
20 53 100
18 55 113
13 51 114
8 41 100
0 19 54
0 16 44
0 0 36
0 0 31
0 0 22
0 0 14
0 0 14
0 0 16
0 0 16
0 0 12
0 0 11
0 0 13
0 0 16
0 0 14
0 0 5
0 0 5
0 0 9
0 0 12
0 0 15
0 0 16
0 0 16
0 0 21
0 0 21
0 0 24
0 0 22
0 0 20
0 0 21
0 0 18
0 0 19
0 0 17
0 0 11
0 0 16
0 0 16
0 0 16
0 0 16
0 0 21
5 8 30
5 9 26
4 5 27
6 9 31
0 2 22
0 0 20
0 0 28
0 0 26
0 0 33
0 3 38
0 8 42
0 11 44
0 16 52
0 20 65
2 26 73
10 35 87
4 33 85
0 25 74
1 21 65
4 24 69
9 25 64
0 6 32
126 136 150
217 233 255
217 233 255
217 233 255
217 233 255
217 233 255
217 233 255
217 233 255
217 233 255
217 233 255
217 233 255
217 233 255
217 233 255
217 233 255
217 233 255
217 233 255
217 233 255
217 233 255
217 233 255
217 233 255
217 233 255
217 233 255
217 233 255
217 233 255
217 233 255
217 233 255
217 233 255
217 233 255
217 233 255
217 233 255
217 233 255
217 233 255
217 233 255
217 233 255
217 233 255
217 233 255
217 233 255
217 233 255
217 233 255
217 233 255
217 233 255
217 233 255
217 233 255
217 233 255
217 233 255
217 233 255
217 233 255
217 233 255
217 233 255
217 233 255
217 233 255
217 233 255
217 233 255
217 233 255
217 233 255
217 233 255
217 233 255
217 233 255
217 233 255
217 233 255
217 233 255
217 233 255
217 233 255
217 233 255
217 233 255
217 233 255
217 233 255
217 233 255
217 233 255
217 233 255
217 233 255
217 233 255
217 233 255
217 233 255
217 233 255
217 233 255
217 233 255
217 233 255
217 233 255
217 233 255
217 233 255
217 233 255
217 233 255
217 233 255
217 233 255
217 233 255
217 233 255
217 233 255
217 233 255
217 233 255
217 233 255
217 233 255
217 233 255
217 233 255
217 233 255
217 233 255
217 233 255
217 233 255
217 233 255
217 233 255
217 233 255
217 233 255
217 233 255
217 233 255
217 233 255
217 233 255
217 233 255
217 233 255
217 233 255
217 233 255
217 233 255
217 233 255
217 233 255
217 233 255
217 233 255
217 233 255
217 233 255
217 233 255
217 233 255
217 233 255
217 233 255
217 233 255
217 233 255
217 233 255
217 233 255
217 233 255
217 233 255
217 233 255
217 233 255
217 233 255
217 233 255
217 233 255
217 233 255
217 233 255
217 233 255
217 233 255
217 233 255
217 233 255
217 233 255
217 233 255
217 233 255
217 233 255
217 233 255
217 233 255
217 233 255
217 233 255
217 233 255
217 233 255
217 233 255
217 233 255
217 233 255
217 233 255
217 233 255
217 233 255
217 233 255
217 233 255
217 233 255
217 233 255
217 233 255
217 233 255
217 233 255
217 233 255
217 233 255
217 233 255
217 233 255
217 233 255
217 233 255
217 233 255
217 233 255
217 233 255
217 233 255
217 233 255
217 233 255
217 233 255
217 233 255
217 233 255
217 233 255
217 233 255
217 233 255
217 233 255
217 233 255
217 233 255
217 233 255
217 233 255
217 233 255
217 233 255
217 233 255
217 233 255
217 233 255
217 233 255
217 233 255
217 233 255
217 233 255
217 233 255
217 233 255
217 233 255
217 233 255
217 233 255
217 233 255
217 233 255
217 233 255
217 233 255
217 233 255
217 233 255
217 233 255
217 233 255
217 233 255
217 233 255
217 233 255
217 233 255
217 233 255
217 233 255
217 233 255
217 233 255
217 233 255
217 233 255
217 233 255
217 233 255
217 233 255
217 233 255
217 233 255
217 233 255
217 233 255
217 233 255
217 233 255
217 233 255
217 233 255
217 233 255
217 233 255
217 233 255
217 233 255
217 233 255
163 174 191
0 0 2
0 0 0
0 0 5
0 0 7
0 0 10
0 0 7
0 0 5
0 0 0
0 0 11
0 0 7
0 0 0
0 0 0
0 0 0
0 0 10
0 0 9
0 0 10
0 0 0
0 0 0
0 0 0
0 0 10
0 0 16
0 0 16
0 0 17
0 0 21
0 0 16
0 0 22
0 0 24
0 0 29
0 0 33
0 0 32
0 8 37
0 14 52
6 26 73
15 46 94
12 43 86
17 43 82
38 56 82
55 61 61
67 62 40
93 85 65
109 99 86
103 92 80
95 89 74
103 96 79
107 97 80
107 97 78
105 97 78
72 65 44
79 74 53
64 60 41
57 54 37
50 48 27
49 42 22
95 87 71
101 93 75
122 118 103
54 44 23
102 98 76
107 101 79
95 88 65
86 78 54
75 67 43
77 71 48
73 67 43
72 67 40
70 66 40
72 69 43
59 56 30
51 51 24
45 49 19
49 57 30
57 68 43
46 57 30
36 46 18
33 44 17
23 36 3
21 35 6
22 34 7
16 25 0
18 29 0
26 35 13
46 56 32
37 46 21
31 40 13
20 32 2
19 30 0
21 33 7
24 36 5
22 34 8
20 32 1
22 34 2
18 30 0
21 33 0
22 34 2
23 34 0
21 32 6
25 37 8
25 36 12
24 35 13
21 33 6
23 34 7
16 30 21
13 34 49
21 49 87
20 54 105
14 52 106
14 50 108
14 48 105
7 36 88
0 18 53
0 10 39
0 0 27
0 0 23
0 0 21
0 0 6
0 0 3
0 0 15
0 0 16
0 0 16
0 0 16
0 0 16
0 0 16
0 0 15
0 0 6
0 0 12
0 0 15
0 0 19
0 0 19
0 0 18
0 0 17
0 5 25
0 0 23
0 4 29
0 0 22
0 0 19
0 0 16
0 0 21
0 0 21
0 0 14
0 0 12
0 0 15
0 0 16
0 0 16
0 0 16
0 0 17
0 1 18
5 6 27
5 6 26
0 0 17
0 0 24
0 0 20
0 0 28
0 0 31
0 0 33
0 1 36
0 9 41
0 14 48
0 16 53
0 19 61
0 24 70
1 27 73
3 29 78
0 28 76
0 22 68
0 18 62
1 17 56
0 11 41
0 5 27
167 179 197
217 233 255
217 233 255
217 233 255
217 233 255
217 233 255
217 233 255
217 233 255
217 233 255
217 233 255
217 233 255
217 233 255
217 233 255
217 233 255
217 233 255
217 233 255
217 233 255
217 233 255
217 233 255
217 233 255
217 233 255
217 233 255
217 233 255
217 233 255
217 233 255
217 233 255
217 233 255
217 233 255
217 233 255
217 233 255
217 233 255
217 233 255
217 233 255
217 233 255
217 233 255
217 233 255
217 233 255
217 233 255
217 233 255
217 233 255
217 233 255
217 233 255
217 233 255
217 233 255
217 233 255
217 233 255
217 233 255
217 233 255
217 233 255
217 233 255
217 233 255
217 233 255
217 233 255
217 233 255
217 233 255
217 233 255
217 233 255
217 233 255
217 233 255
217 233 255
217 233 255
217 233 255
217 233 255
217 233 255
217 233 255
217 233 255
217 233 255
217 233 255
217 233 255
217 233 255
217 233 255
217 233 255
217 233 255
217 233 255
217 233 255
217 233 255
217 233 255
217 233 255
217 233 255
217 233 255
217 233 255
217 233 255
217 233 255
217 233 255
217 233 255
217 233 255
217 233 255
217 233 255
217 233 255
217 233 255
217 233 255
217 233 255
217 233 255
217 233 255
217 233 255
217 233 255
217 233 255
217 233 255
217 233 255
217 233 255
217 233 255
217 233 255
217 233 255
217 233 255
217 233 255
217 233 255
217 233 255
217 233 255
217 233 255
217 233 255
217 233 255
217 233 255
217 233 255
217 233 255
217 233 255
217 233 255
218 233 255
218 233 255
218 233 255
218 233 255
218 233 255
218 233 255
218 233 255
218 233 255
218 233 255
218 233 255
218 233 255
218 233 255
218 233 255
218 233 255
218 233 255
218 233 255
218 233 255
218 233 255
218 233 255
218 233 255
218 233 255
218 233 255
218 233 255
218 233 255
218 233 255
218 233 255
217 233 255
217 233 255
217 233 255
217 233 255
217 233 255
217 233 255
217 233 255
217 233 255
217 233 255
217 233 255
217 233 255
217 233 255
217 233 255
217 233 255
217 233 255
217 233 255
217 233 255
217 233 255
217 233 255
217 233 255
217 233 255
217 233 255
217 233 255
217 233 255
217 233 255
217 233 255
217 233 255
217 233 255
217 233 255
217 233 255
217 233 255
217 233 255
217 233 255
217 233 255
217 233 255
217 233 255
217 233 255
217 233 255
217 233 255
217 233 255
217 233 255
217 233 255
217 233 255
217 233 255
217 233 255
217 233 255
217 233 255
217 233 255
217 233 255
217 233 255
217 233 255
217 233 255
217 233 255
217 233 255
217 233 255
217 233 255
217 233 255
217 233 255
217 233 255
217 233 255
217 233 255
217 233 255
217 233 255
217 233 255
217 233 255
217 233 255
217 233 255
217 233 255
217 233 255
217 233 255
217 233 255
217 233 255
217 233 255
217 233 255
217 233 255
217 233 255
217 233 255
217 233 255
217 233 255
217 233 255
217 233 255
217 233 255
217 233 255
217 233 255
217 233 255
217 233 255
217 233 255
217 233 255
193 207 227
0 0 6
0 0 7
0 0 6
0 0 15
0 0 16
0 0 9
0 0 0
0 0 0
0 0 0
0 0 0
0 0 0
0 0 0
0 0 0
0 0 6
0 0 12
0 0 13
0 0 8
0 0 8
0 0 6
0 0 8
0 0 14
0 0 16
0 0 21
0 0 23
0 0 25
0 0 26
0 0 27
0 0 28
0 0 31
0 0 32
0 0 36
0 2 40
0 12 46
7 27 73
14 45 99
10 42 96
12 41 91
20 42 88
50 59 76
76 72 64
127 124 118
108 102 92
105 96 81
112 101 82
122 113 95
102 94 75
105 97 76
110 102 81
83 76 55
76 69 48
93 87 70
94 90 73
85 81 63
88 81 62
101 90 71
104 95 78
114 108 92
99 91 70
102 95 72
108 103 80
101 90 66
95 86 61
87 78 54
87 78 56
81 74 50
77 73 48
67 64 38
63 63 38
56 56 30
49 53 27
44 51 22
45 52 25
48 56 30
41 50 23
35 46 17
31 44 15
26 41 12
19 34 0
24 37 11
19 29 0
17 29 0
31 44 20
37 49 24
25 33 5
26 34 5
18 28 3
18 29 0
20 31 0
20 31 0
25 37 11
22 34 3
28 40 12
25 37 11
20 31 1
23 35 6
24 36 5
29 42 14
26 37 8
21 32 5
26 37 16
20 33 7
13 29 27
19 41 62
24 53 91
21 53 115
15 51 114
13 50 111
13 47 105
14 43 96
4 27 72
1 22 60
0 9 41
0 0 25
0 0 16
0 0 13
0 0 6
0 0 9
0 0 15
0 0 16
0 0 16
0 0 16
0 0 16
0 0 16
0 0 16
0 0 9
0 0 9
0 0 17
0 0 20
7 12 33
7 12 34
0 0 26
0 0 21
0 0 19
0 0 23
0 0 22
0 0 16
0 0 14
0 0 16
0 0 21
0 0 17
0 0 16
0 0 16
0 0 16
0 0 16
0 0 16
0 0 15
0 0 14
0 0 15
0 0 16
0 0 13
0 0 15
0 0 17
0 0 15
0 0 25
0 0 32
0 3 38
0 7 40
0 13 45
0 14 53
0 21 62
6 27 71
7 30 74
0 26 69
0 23 66
0 22 66
0 21 64
0 17 58
0 11 45
0 1 30
30 33 43
188 202 223
217 233 255
217 233 255
217 233 255
217 233 255
217 233 255
217 233 255
217 233 255
217 233 255
217 233 255
217 233 255
217 233 255
217 233 255
217 233 255
217 233 255
217 233 255
217 233 255
217 233 255
217 233 255
217 233 255
217 233 255
217 233 255
217 233 255
217 233 255
217 233 255
217 233 255
217 233 255
217 233 255
217 233 255
217 233 255
217 233 255
217 233 255
217 233 255
217 233 255
217 233 255
217 233 255
217 233 255
217 233 255
217 233 255
217 233 255
217 233 255
217 233 255
217 233 255
217 233 255
217 233 255
217 233 255
217 233 255
217 233 255
217 233 255
217 233 255
217 233 255
217 233 255
217 233 255
217 233 255
217 233 255
217 233 255
217 233 255
217 233 255
217 233 255
217 233 255
217 233 255
217 233 255
217 233 255
217 233 255
217 233 255
217 233 255
217 233 255
217 233 255
217 233 255
217 233 255
217 233 255
217 233 255
217 233 255
217 233 255
217 233 255
217 233 255
217 233 255
217 233 255
217 233 255
217 233 255
217 233 255
217 233 255
217 233 255
217 233 255
217 233 255
217 233 255
217 233 255
217 233 255
218 233 255
217 233 255
218 233 255
218 233 255
218 233 255
218 233 255
218 233 255
218 233 255
218 233 255
218 233 255
218 233 255
218 233 255
218 233 255
218 233 255
218 233 255
218 233 255
218 233 255
218 233 255
218 233 255
218 233 255
218 233 255
218 233 255
218 233 255
218 233 255
218 233 255
218 233 255
218 233 255
218 233 255
218 233 255
218 233 255
218 233 255
218 233 255
218 233 255
218 233 255
218 233 255
218 233 255
218 233 255
218 233 255
218 233 255
218 233 255
218 233 255
218 233 255
218 233 255
218 233 255
218 233 255
218 233 255
218 233 255
218 233 255
218 233 255
218 233 255
218 233 255
218 233 255
218 233 255
218 233 255
218 233 255
218 233 255
218 233 255
218 233 255
218 233 255
218 233 255
218 233 255
218 233 255
218 233 255
218 233 255
218 233 255
218 233 255
218 233 255
218 233 255
218 233 255
218 233 255
218 233 255
218 233 255
218 233 255
218 233 255
218 233 255
218 233 255
218 233 255
218 233 255
218 233 255
218 233 255
218 233 255
218 233 255
218 233 255
218 233 255
218 233 255
218 233 255
218 233 255
218 233 255
218 233 255
218 233 255
218 233 255
218 233 255
218 233 255
218 233 255
218 233 255
218 233 255
218 233 255
217 233 255
217 233 255
217 233 255
217 233 255
217 233 255
217 233 255
217 233 255
217 233 255
217 233 255
217 233 255
217 233 255
217 233 255
217 233 255
217 233 255
217 233 255
217 233 255
217 233 255
217 233 255
217 233 255
217 233 255
217 233 255
217 233 255
217 233 255
217 233 255
217 233 255
217 233 255
217 233 255
217 233 255
217 233 255
217 233 255
217 233 255
217 233 255
217 233 255
217 233 255
217 233 255
217 233 255
217 233 255
217 233 255
217 233 255
217 233 255
217 233 255
217 233 255
217 233 255
210 225 246
68 73 80
0 0 11
0 0 8
0 0 11
0 0 16
0 0 13
0 0 0
0 0 0
0 0 0
0 0 2
0 0 6
0 0 6
0 0 9
0 0 10
0 0 8
0 0 8
0 0 14
0 0 15
0 0 16
0 0 14
0 0 19
0 0 24
0 0 25
0 0 23
0 0 23
0 0 25
0 0 28
0 0 28
0 0 32
0 0 34
0 0 35
0 0 38
0 6 42
0 13 47
4 21 62
13 39 92
11 40 98
8 36 94
14 37 86
46 60 81
61 62 55
121 120 106
106 100 83
144 135 124
131 117 101
113 102 82
99 89 65
94 85 62
103 95 74
91 81 60
95 85 66
89 77 60
106 98 80
106 99 80
112 103 83
114 102 84
116 104 87
113 104 85
117 112 90
98 92 66
114 108 84
107 98 73
107 98 73
103 97 74
100 93 71
90 85 61
75 71 47
66 67 43
56 58 33
48 53 28
49 56 29
45 52 23
44 51 24
51 60 35
39 46 19
32 41 14
22 35 3
19 34 0
17 32 0
15 29 0
21 33 5
15 28 0
26 38 13
30 41 15
17 27 0
19 28 0
20 30 4
20 30 4
19 29 0
18 28 0
18 28 0
17 28 0
21 32 0
21 33 3
23 34 6
24 35 3
26 39 4
29 42 14
25 36 6
19 30 4
20 31 7
11 27 13
18 38 61
25 55 110
17 53 107
14 49 115
11 46 117
13 47 110
13 47 108
8 34 87
4 23 68
5 23 65
0 18 56
0 7 34
0 0 17
0 0 8
0 0 6
0 0 14
0 0 12
0 0 16
0 0 16
0 0 16
0 0 16
0 0 16
0 0 16
0 0 15
0 0 15
0 0 16
0 0 18
21 28 54
11 16 44
0 0 31
0 0 28
0 0 26
0 0 23
0 0 22
0 0 16
0 0 12
0 0 15
0 0 10
0 0 14
0 0 11
0 0 16
0 0 16
0 0 16
0 0 16
0 0 16
0 0 16
0 0 16
0 0 16
0 0 7
0 0 0
0 0 9
0 0 10
0 0 20
0 2 34
0 0 41
0 11 41
0 11 43
0 17 54
0 22 63
0 26 70
1 26 70
0 23 66
0 22 61
0 20 59
0 22 64
4 18 61
6 19 53
0 2 30
0 0 19
78 84 95
207 223 244
217 233 255
217 233 255
217 233 255
217 233 255
217 233 255
217 233 255
217 233 255
217 233 255
217 233 255
217 233 255
217 233 255
217 233 255
217 233 255
217 233 255
217 233 255
217 233 255
217 233 255
217 233 255
217 233 255
217 233 255
217 233 255
217 233 255
217 233 255
217 233 255
217 233 255
217 233 255
217 233 255
217 233 255
217 233 255
217 233 255
217 233 255
217 233 255
217 233 255
217 233 255
217 233 255
217 233 255
217 233 255
217 233 255
217 233 255
217 233 255
217 233 255
217 233 255
218 233 255
217 233 255
217 233 255
218 233 255
218 233 255
218 233 255
218 233 255
218 233 255
218 233 255
218 233 255
218 233 255
218 233 255
218 233 255
218 233 255
218 233 255
218 233 255
218 233 255
218 233 255
218 233 255
218 233 255
218 233 255
218 233 255
218 233 255
218 233 255
218 233 255
218 233 255
218 233 255
218 233 255
218 233 255
218 233 255
218 233 255
218 233 255
218 233 255
218 233 255
218 233 255
218 233 255
218 233 255
218 233 255
218 233 255
218 233 255
218 233 255
218 233 255
218 233 255
218 233 255
218 233 255
218 233 255
218 233 255
218 233 255
218 233 255
218 233 255
218 233 255
218 233 255
218 233 255
218 233 255
218 233 255
218 233 255
218 233 255
218 233 255
218 233 255
218 233 255
218 233 255
218 233 255
218 233 255
218 233 255
218 233 255
218 233 255
218 233 255
218 233 255
218 233 255
218 233 255
218 233 255
218 234 255
218 234 255
218 234 255
218 234 255
218 234 255
218 234 255
218 234 255
218 234 255
218 234 255
218 234 255
218 234 255
218 234 255
218 234 255
218 234 255
218 234 255
218 234 255
218 234 255
218 234 255
218 234 255
218 234 255
218 234 255
218 234 255
218 234 255
218 234 255
218 234 255
218 234 255
218 234 255
218 234 255
218 234 255
218 234 255
218 233 255
218 233 255
218 234 255
218 233 255
218 233 255
218 233 255
218 233 255
218 233 255
218 233 255
218 233 255
218 233 255
218 233 255
218 233 255
218 233 255
218 233 255
218 233 255
218 233 255
218 233 255
218 233 255
218 233 255
218 233 255
218 233 255
218 233 255
218 233 255
218 233 255
218 233 255
218 233 255
218 233 255
218 233 255
218 233 255
218 233 255
218 233 255
218 233 255
218 233 255
218 233 255
218 233 255
218 233 255
218 233 255
218 233 255
218 233 255
218 233 255
218 233 255
218 233 255
218 233 255
218 233 255
218 233 255
218 233 255
218 233 255
218 233 255
218 233 255
218 233 255
218 233 255
218 233 255
218 233 255
218 233 255
218 233 255
218 233 255
218 233 255
218 233 255
218 233 255
218 233 255
218 233 255
218 233 255
218 233 255
218 233 255
218 233 255
218 233 255
218 233 255
218 233 255
218 233 255
218 233 255
218 233 255
218 233 255
218 233 255
218 233 255
218 233 255
218 233 255
218 233 255
218 233 255
218 233 255
218 233 255
218 233 255
216 232 254
115 123 135
0 0 7
0 0 11
0 0 7
0 0 15
0 0 14
0 0 4
0 0 0
0 0 0
0 0 0
0 0 11
0 0 16
0 0 14
0 0 15
0 0 13
0 0 14
0 0 14
0 0 18
0 0 20
0 0 22
0 0 26
0 0 30
0 0 32
0 0 26
0 0 29
0 0 31
0 0 32
0 0 32
0 0 33
0 0 35
0 0 36
0 0 36
0 8 40
0 4 39
0 11 45
0 14 55
9 31 80
10 37 92
7 36 92
16 40 84
37 51 70
61 63 59
104 104 91
90 91 83
107 111 122
106 109 118
108 104 92
97 87 63
92 83 58
76 64 39
78 65 42
97 83 63
82 66 47
94 82 61
106 97 76
115 105 85
147 134 119
125 114 98
113 104 84
112 106 84
107 103 78
113 108 81
110 105 79
104 99 74
100 97 72
96 92 69
73 68 43
72 70 47
68 70 46
54 59 35
46 54 28
45 53 28
51 59 32
53 60 32
50 58 30
31 39 7
32 42 17
18 31 5
14 29 0
12 27 0
19 32 6
17 28 2
24 35 7
34 46 23
21 33 7
16 28 2
22 33 6
19 29 0
18 28 2
19 31 0
20 31 7
17 30 6
17 31 6
19 33 6
23 36 12
30 42 17
31 42 15
31 44 13
30 43 14
22 34 8
15 26 0
17 29 8
9 27 22
23 50 89
19 54 123
12 53 117
11 46 109
15 46 117
13 44 107
13 44 105
6 28 82
0 22 68
0 16 62
0 17 60
0 15 46
0 3 26
0 0 14
0 0 2
0 0 14
0 0 11
0 0 16
0 0 16
0 0 16
0 0 16
0 0 12
0 0 6
0 0 8
0 0 16
0 0 16
0 0 19
0 4 27
0 2 32
0 0 31
0 0 27
0 0 24
0 0 19
0 0 17
0 0 16
0 0 9
0 0 13
0 0 15
0 0 14
0 0 11
0 0 13
0 0 16
0 0 16
0 0 16
0 0 16
0 0 16
0 0 16
0 0 16
0 0 12
0 0 0
0 0 11
0 0 15
0 0 15
0 0 26
0 0 41
0 9 43
0 12 44
0 12 52
0 20 64
5 28 74
5 24 68
0 20 64
0 20 63
0 22 63
0 20 60
6 23 66
1 16 58
0 5 31
0 0 15
0 0 10
106 115 130
216 232 254
218 233 255
218 233 255
218 233 255
218 233 255
218 233 255
218 233 255
218 233 255
218 233 255
218 233 255
218 233 255
218 233 255
218 233 255
218 233 255
218 233 255
218 233 255
218 233 255
218 233 255
218 233 255
218 233 255
218 233 255
218 233 255
218 233 255
218 233 255
218 233 255
218 233 255
218 233 255
218 233 255
218 233 255
218 233 255
218 233 255
218 233 255
218 233 255
218 233 255
218 233 255
218 233 255
218 233 255
218 233 255
218 233 255
218 233 255
218 233 255
218 233 255
218 233 255
218 233 255
218 233 255
218 233 255
218 233 255
218 233 255
218 233 255
218 233 255
218 233 255
218 233 255
218 233 255
218 233 255
218 233 255
218 233 255
218 233 255
218 233 255
218 233 255
218 233 255
218 233 255
218 233 255
218 233 255
218 233 255
218 233 255
218 233 255
218 233 255
218 233 255
218 233 255
218 233 255
218 233 255
218 233 255
218 233 255
218 233 255
218 233 255
218 233 255
218 233 255
218 233 255
218 233 255
218 233 255
218 233 255
218 233 255
218 233 255
218 234 255
218 234 255
218 234 255
218 234 255
218 234 255
218 234 255
218 234 255
218 234 255
218 234 255
218 234 255
218 234 255
218 234 255
218 234 255
218 234 255
218 234 255
218 234 255
218 234 255
218 234 255
218 234 255
218 234 255
218 234 255
218 234 255
218 234 255
218 234 255
218 234 255
218 234 255
218 234 255
218 234 255
218 234 255
218 234 255
218 234 255
218 234 255
218 234 255
218 234 255
218 234 255
218 234 255
218 234 255
218 234 255
218 234 255
218 234 255
218 234 255
218 234 255
218 234 255
218 234 255
218 234 255
218 234 255
218 234 255
218 234 255
218 234 255
218 234 255
218 234 255
218 234 255
218 234 255
218 234 255
218 234 255
218 234 255
218 234 255
218 234 255
218 234 255
218 234 255
218 234 255
218 234 255
218 234 255
218 234 255
218 234 255
218 234 255
218 234 255
218 234 255
218 234 255
218 234 255
218 234 255
218 234 255
218 234 255
218 234 255
218 234 255
218 234 255
218 234 255
218 234 255
218 234 255
218 234 255
218 234 255
218 234 255
218 234 255
218 234 255
218 234 255
218 234 255
218 234 255
218 234 255
218 234 255
218 234 255
218 234 255
218 234 255
218 234 255
218 234 255
218 234 255
218 234 255
218 234 255
218 234 255
218 234 255
218 234 255
218 234 255
218 234 255
218 234 255
218 234 255
218 234 255
218 234 255
218 233 255
218 233 255
218 233 255
218 233 255
218 233 255
218 233 255
218 233 255
218 233 255
218 233 255
218 233 255
218 233 255
218 233 255
218 233 255
218 233 255
218 233 255
218 233 255
218 233 255
218 233 255
218 233 255
218 233 255
218 233 255
218 233 255
218 233 255
218 233 255
218 233 255
218 233 255
218 233 255
218 233 255
218 233 255
218 233 255
218 233 255
218 233 255
218 233 255
218 233 255
218 233 255
218 233 255
149 160 175
0 0 7
0 0 14
0 0 10
0 0 7
0 0 2
0 0 0
0 0 0
0 0 0
0 0 0
0 0 6
0 0 15
0 0 15
0 0 16
0 0 17
0 0 20
0 0 22
0 0 19
0 0 21
0 0 17
0 0 24
0 0 27
0 0 28
0 0 31
0 0 31
0 0 31
0 0 32
0 0 33
0 0 35
0 0 37
0 5 39
0 2 39
0 0 40
0 5 38
0 8 41
0 12 45
0 12 50
7 25 69
8 33 85
10 31 84
12 33 79
37 47 80
60 58 65
100 105 102
45 60 78
23 46 94
56 67 89
105 109 97
95 87 69
91 80 59
69 62 39
66 63 36
75 71 50
75 67 50
90 83 64
90 81 62
94 84 67
128 119 107
109 100 83
99 91 70
97 91 69
93 88 64
62 55 27
96 93 69
96 93 68
82 80 55
77 75 49
68 65 41
67 67 44
57 59 35
50 55 32
42 52 26
44 49 27
51 54 31
61 64 38
39 45 16
39 49 24
24 34 11
21 26 6
18 24 3
21 30 0
18 29 2
30 40 16
43 55 28
33 44 17
26 37 12
23 37 8
18 32 2
19 31 11
20 34 21
17 36 30
17 39 39
14 38 41
17 41 48
22 44 50
16 36 39
18 32 22
25 34 12
23 35 6
17 32 6
20 36 15
12 28 0
6 25 0
13 33 32
21 54 89
15 54 115
9 51 115
10 45 108
15 43 110
13 44 107
13 47 108
6 34 88
0 18 61
0 11 48
0 10 45
0 14 44
0 12 36
0 0 18
0 0 9
0 0 6
0 0 6
0 0 15
0 0 16
0 0 16
0 0 14
0 0 8
0 0 0
0 0 0
0 0 14
0 0 16
0 0 17
0 0 21
0 0 26
0 0 26
0 0 24
0 0 22
0 0 16
0 0 15
0 0 15
0 0 12
0 0 0
0 0 8
0 0 3
0 0 9
0 0 11
0 0 15
0 0 16
0 0 16
0 0 16
0 0 16
0 0 16
0 0 16
0 0 10
0 0 0
0 0 7
0 0 16
0 0 16
0 0 22
0 7 37
0 7 42
0 10 45
0 12 52
2 20 64
5 26 74
3 23 67
0 21 64
0 16 59
0 17 60
0 18 58
0 17 57
3 21 61
1 16 54
0 3 18
0 0 6
2 6 19
154 165 184
218 233 255
218 233 255
218 233 255
218 233 255
218 233 255
218 233 255
218 233 255
218 233 255
218 233 255
218 233 255
218 233 255
218 233 255
218 233 255
218 233 255
218 233 255
218 233 255
218 233 255
218 233 255
218 233 255
218 233 255
218 233 255
218 233 255
218 233 255
218 233 255
218 233 255
218 233 255
218 233 255
218 233 255
218 233 255
218 233 255
218 233 255
218 233 255
218 233 255
218 234 255
218 234 255
218 234 255
218 234 255
218 234 255
218 234 255
218 234 255
218 234 255
218 234 255
218 234 255
218 234 255
218 234 255
218 234 255
218 234 255
218 234 255
218 234 255
218 234 255
218 234 255
218 234 255
218 234 255
218 234 255
218 234 255
218 234 255
218 234 255
218 234 255
218 234 255
218 234 255
218 234 255
218 234 255
218 234 255
218 234 255
218 234 255
218 234 255
218 234 255
218 234 255
218 234 255
218 234 255
218 234 255
218 234 255
218 234 255
218 234 255
218 234 255
218 234 255
218 234 255
218 234 255
218 234 255
218 234 255
218 234 255
218 234 255
218 234 255
218 234 255
218 234 255
218 234 255
218 234 255
218 234 255
218 234 255
218 234 255
218 234 255
218 234 255
218 234 255
218 234 255
218 234 255
218 234 255
218 234 255
218 234 255
218 234 255
218 234 255
218 234 255
218 234 255
218 234 255
218 234 255
218 234 255
218 234 255
218 234 255
218 234 255
218 234 255
218 234 255
218 234 255
218 234 255
218 234 255
218 234 255
218 234 255
218 234 255
218 234 255
218 234 255
218 234 255
218 234 255
218 234 255
218 234 255
218 234 255
218 234 255
218 234 255
218 234 255
218 234 255
218 234 255
218 234 255
218 234 255
218 234 255
218 234 255
218 234 255
218 234 255
218 234 255
218 234 255
218 234 255
218 234 255
218 234 255
218 234 255
218 234 255
218 234 255
218 234 255
218 234 255
218 234 255
218 234 255
218 234 255
218 234 255
218 234 255
218 234 255
218 234 255
218 234 255
218 234 255
218 234 255
218 234 255
218 234 255
218 234 255
218 234 255
218 234 255
218 234 255
218 234 255
218 234 255
218 234 255
218 234 255
218 234 255
218 234 255
218 234 255
218 234 255
218 234 255
218 234 255
218 234 255
218 234 255
218 234 255
218 234 255
218 234 255
218 234 255
218 234 255
218 234 255
218 234 255
218 234 255
218 234 255
218 234 255
218 234 255
218 234 255
218 234 255
218 234 255
218 234 255
218 234 255
218 234 255
218 234 255
218 234 255
218 234 255
218 234 255
218 234 255
218 234 255
218 234 255
218 234 255
218 234 255
218 234 255
218 234 255
218 234 255
218 234 255
218 234 255
218 234 255
218 234 255
218 234 255
218 234 255
218 234 255
218 234 255
218 234 255
218 234 255
218 234 255
218 234 255
218 234 255
218 234 255
218 234 255
218 234 255
218 234 255
218 234 255
218 234 255
218 234 255
218 234 255
218 234 255
199 214 234
30 33 36
0 0 11
0 0 16
0 0 10
0 0 0
0 0 0
0 0 3
0 0 9
0 0 2
0 0 8
0 0 14
0 0 16
0 0 18
0 0 20
0 0 22
0 0 23
0 0 21
0 0 21
0 0 22
0 0 22
0 0 22
0 0 23
0 0 26
0 0 28
0 0 31
0 0 32
0 0 32
0 0 35
0 0 37
0 0 37
0 6 40
0 9 41
0 0 38
0 0 39
0 10 40
0 13 44
0 13 49
0 16 59
5 24 73
7 30 73
4 32 75
36 46 86
62 62 64
84 83 79
43 60 86
21 51 113
43 60 86
97 104 100
94 88 74
89 84 67
62 62 39
45 55 28
53 57 34
54 51 31
52 46 25
86 78 61
95 86 70
96 87 69
92 84 64
112 107 86
104 99 77
79 73 49
81 76 51
81 76 50
84 80 54
85 84 58
79 79 52
71 70 45
58 59 34
53 56 33
48 53 28
44 51 24
44 51 19
49 54 28
41 43 23
42 46 28
37 45 21
46 55 25
39 47 28
26 35 36
26 38 36
20 35 32
31 45 39
38 54 43
33 49 24
17 32 5
25 38 7
24 37 16
13 32 25
11 33 45
25 53 88
20 54 101
17 56 99
19 53 101
23 54 102
23 53 94
17 43 68
9 28 35
18 39 46
17 41 47
8 33 25
21 42 12
16 32 0
21 36 26
20 46 82
19 53 116
6 50 117
10 47 109
14 45 109
15 46 112
13 46 111
12 44 100
11 32 72
4 16 43
0 0 26
0 0 29
0 0 27
0 0 28
0 0 22
0 0 5
0 0 11
0 0 16
0 0 16
0 0 16
0 0 15
0 0 0
0 0 0
0 0 0
0 0 11
0 0 16
0 0 16
0 0 16
0 0 16
0 0 19
0 0 18
0 0 18
0 0 16
0 0 11
0 0 0
0 0 1
0 0 0
0 0 0
0 0 0
0 0 0
0 0 0
0 0 8
0 0 11
0 0 11
0 0 13
0 0 13
0 0 13
0 0 14
0 0 13
0 0 0
0 0 1
0 0 15
0 0 24
0 3 26
0 8 37
0 7 39
0 13 47
0 17 55
1 20 63
4 26 71
0 21 65
0 19 61
0 18 58
0 15 55
0 14 53
0 12 48
1 14 51
1 17 58
0 9 41
0 0 13
0 0 9
1 5 30
187 201 221
218 234 255
218 234 255
218 234 255
218 234 255
218 234 255
218 234 255
218 234 255
218 234 255
218 234 255
218 234 255
218 234 255
218 234 255
218 234 255
218 234 255
218 234 255
218 234 255
218 234 255
218 234 255
218 234 255
218 234 255
218 234 255
218 234 255
218 234 255
218 234 255
218 234 255
218 234 255
218 234 255
218 234 255
218 234 255
218 234 255
218 234 255
218 234 255
218 234 255
218 234 255
218 234 255
218 234 255
218 234 255
218 234 255
218 234 255
218 234 255
218 234 255
218 234 255
218 234 255
218 234 255
218 234 255
218 234 255
218 234 255
218 234 255
218 234 255
218 234 255
218 234 255
218 234 255
218 234 255
218 234 255
218 234 255
218 234 255
218 234 255
218 234 255
218 234 255
218 234 255
218 234 255
218 234 255
218 234 255
218 234 255
218 234 255
218 234 255
218 234 255
218 234 255
218 234 255
218 234 255
218 234 255
218 234 255
218 234 255
218 234 255
218 234 255
218 234 255
218 234 255
218 234 255
218 234 255
218 234 255
218 234 255
218 234 255
218 234 255
218 234 255
218 234 255
218 234 255
218 234 255
218 234 255
218 234 255
218 234 255
218 234 255
218 234 255
218 234 255
218 234 255
218 234 255
218 234 255
218 234 255
218 234 255
218 234 255
218 234 255
218 234 255
218 234 255
218 234 255
218 234 255
218 234 255
218 234 255
218 234 255
218 234 255
218 234 255
218 234 255
218 234 255
218 234 255
218 234 255
218 234 255
218 234 255
218 234 255
218 234 255
218 234 255
218 234 255
218 234 255
218 234 255
218 234 255
218 234 255
218 234 255
218 234 255
218 234 255
218 234 255
218 234 255
218 234 255
218 234 255
218 234 255
218 234 255
218 234 255
218 234 255
218 234 255
218 234 255
218 234 255
218 234 255
218 234 255
218 234 255
218 234 255
218 234 255
218 234 255
218 234 255
218 234 255
218 234 255
218 234 255
218 234 255
218 234 255
218 234 255
218 234 255
218 234 255
218 234 255
218 234 255
218 234 255
218 234 255
218 234 255
218 234 255
218 234 255
218 234 255
218 234 255
218 234 255
218 234 255
218 234 255
218 234 255
218 234 255
218 234 255
218 234 255
218 234 255
218 234 255
218 234 255
218 234 255
218 234 255
218 234 255
218 234 255
218 234 255
218 234 255
218 234 255
218 234 255
218 234 255
218 234 255
218 234 255
218 234 255
218 234 255
218 234 255
218 234 255
218 234 255
218 234 255
218 234 255
218 234 255
218 234 255
218 234 255
218 234 255
218 234 255
218 234 255
218 234 255
218 234 255
218 234 255
218 234 255
218 234 255
218 234 255
218 234 255
218 234 255
218 234 255
218 234 255
218 234 255
218 234 255
218 234 255
218 234 255
218 234 255
218 234 255
218 234 255
218 234 255
218 234 255
218 234 255
218 234 255
218 234 255
218 234 255
218 234 255
218 234 255
218 234 255
214 230 252
87 93 102
0 0 6
0 0 15
0 0 14
0 0 2
0 0 0
0 0 0
0 0 3
0 0 5
0 0 4
0 0 15
0 0 17
0 0 21
0 0 20
0 0 18
0 0 24
0 0 25
0 0 23
0 0 22
0 0 22
0 0 22
0 0 22
0 0 22
0 0 24
0 0 27
0 0 29
0 0 29
0 0 31
0 0 35
0 0 37
0 0 35
0 2 39
0 8 39
0 0 37
0 8 40
0 12 41
0 14 46
0 14 51
0 14 56
0 18 64
0 28 66
2 28 75
26 40 78
68 75 89
81 87 97
43 61 85
21 49 91
25 50 89
91 94 97
90 85 72
91 85 60
59 60 32
46 57 30
49 56 31
38 40 14
37 33 12
66 60 42
75 68 47
73 65 45
93 88 68
98 93 71
89 83 59
94 89 66
96 90 66
92 90 67
84 83 57
80 82 55
87 90 63
73 76 51
57 59 34
47 49 25
44 48 22
45 52 26
49 58 27
42 47 20
40 44 24
37 46 19
44 59 21
41 59 24
32 53 49
22 47 75
21 49 87
22 53 99
22 49 95
18 41 69
19 43 49
22 44 41
14 30 30
12 26 34
12 31 45
16 37 70
24 50 105
21 51 115
13 49 108
8 47 100
14 53 109
16 55 117
19 55 113
19 49 99
23 53 102
25 56 108
19 48 80
10 35 32
22 36 15
14 21 11
16 33 56
28 55 109
14 49 115
9 47 108
13 46 108
13 44 109
12 44 110
12 45 102
13 36 73
1 8 25
0 0 14
0 0 19
0 0 22
0 0 25
0 0 30
0 0 20
0 0 15
0 0 16
0 0 16
0 0 14
0 0 13
0 0 6
0 0 0
0 0 0
0 0 6
0 0 9
0 0 10
0 0 13
0 0 11
0 0 14
0 0 16
0 0 16
0 0 16
0 0 12
0 0 0
0 0 0
0 0 0
0 0 0
0 0 0
0 0 0
0 0 0
0 0 0
0 0 0
0 0 0
0 0 0
0 0 0
0 0 0
0 0 0
0 0 0
0 0 0
0 0 5
0 0 14
0 0 17
0 2 25
0 8 36
0 11 42
0 14 45
0 15 53
0 20 60
0 22 63
0 21 61
0 19 61
0 18 59
0 15 51
0 15 50
0 8 43
0 8 43
0 10 46
6 19 58
10 18 42
0 0 6
0 0 15
81 88 104
209 224 245
218 234 255
218 234 255
218 234 255
218 234 255
218 234 255
218 234 255
218 234 255
218 234 255
218 234 255
218 234 255
218 234 255
218 234 255
218 234 255
218 234 255
218 234 255
218 234 255
218 234 255
218 234 255
218 234 255
218 234 255
218 234 255
218 234 255
218 234 255
218 234 255
218 234 255
218 234 255
218 234 255
218 234 255
218 234 255
218 234 255
218 234 255
218 234 255
218 234 255
218 234 255
218 234 255
218 234 255
218 234 255
218 234 255
218 234 255
218 234 255
218 234 255
218 234 255
218 234 255
218 234 255
218 234 255
218 234 255
218 234 255
218 234 255
218 234 255
218 234 255
218 234 255
218 234 255
218 234 255
218 234 255
218 234 255
218 234 255
218 234 255
218 234 255
218 234 255
218 234 255
218 234 255
218 234 255
218 234 255
218 234 255
218 234 255
218 234 255
218 234 255
218 234 255
218 234 255
218 234 255
218 234 255
218 234 255
218 234 255
218 234 255
218 234 255
218 234 255
218 234 255
218 234 255
218 234 255
218 234 255
218 234 255
218 234 255
218 234 255
218 234 255
218 234 255
218 234 255
218 234 255
218 234 255
218 234 255
218 234 255
218 234 255
218 234 255
218 234 255
218 234 255
218 234 255
218 234 255
218 234 255
218 234 255
218 234 255
218 234 255
218 234 255
218 234 255
218 234 255
218 234 255
218 234 255
218 234 255
218 234 255
218 234 255
218 234 255
218 234 255
218 234 255
218 234 255
218 234 255
218 234 255
218 234 255
218 234 255
218 234 255
218 234 255
218 234 255
218 234 255
218 234 255
218 234 255
218 234 255
218 234 255
218 234 255
218 234 255
218 234 255
218 234 255
218 234 255
218 234 255
218 234 255
218 234 255
218 234 255
218 234 255
218 234 255
218 234 255
218 234 255
218 234 255
218 234 255
218 234 255
218 234 255
218 234 255
218 234 255
218 234 255
218 234 255
218 234 255
218 234 255
218 234 255
218 234 255
218 234 255
218 234 255
218 234 255
218 234 255
218 234 255
218 234 255
218 234 255
218 234 255
218 234 255
218 234 255
218 234 255
218 234 255
218 234 255
218 234 255
218 234 255
218 234 255
218 234 255
218 234 255
218 234 255
218 234 255
218 234 255
218 234 255
218 234 255
218 234 255
218 234 255
218 234 255
218 234 255
218 234 255
218 234 255
218 234 255
218 234 255
218 234 255
218 234 255
218 234 255
218 234 255
218 234 255
218 234 255
218 234 255
218 234 255
218 234 255
218 234 255
218 234 255
218 234 255
218 234 255
218 234 255
218 234 255
218 234 255
218 234 255
218 234 255
218 234 255
218 234 255
218 234 255
218 234 255
218 234 255
218 234 255
218 234 255
218 234 255
218 234 255
218 234 255
218 234 255
218 234 255
218 234 255
218 234 255
218 234 255
218 234 255
218 234 255
218 234 255
218 234 255
218 234 255
218 234 255
218 234 255
139 149 164
0 0 5
0 0 14
0 0 15
0 0 5
0 0 0
0 0 0
0 0 0
0 0 3
0 0 3
0 0 12
0 0 17
0 0 20
0 0 21
0 0 23
0 0 24
0 0 27
0 0 26
0 0 22
0 0 22
0 0 23
0 0 24
0 0 24
0 0 22
0 0 26
0 0 27
0 0 27
0 0 29
0 0 32
0 0 35
0 0 33
0 0 34
0 0 34
0 0 35
0 0 38
0 0 39
0 10 41
0 14 47
0 15 53
0 14 54
0 14 52
1 22 60
11 33 80
13 33 78
45 58 87
62 73 96
71 86 105
40 59 84
27 49 92
78 80 89
112 110 102
99 91 63
75 75 45
41 50 17
33 45 11
29 36 6
37 37 18
59 55 36
65 60 38
66 60 39
100 96 75
91 87 65
100 95 73
86 79 55
87 82 58
95 93 69
70 70 44
52 54 25
56 60 33
69 72 47
62 64 39
53 57 33
45 49 25
48 53 28
47 56 28
41 49 23
34 44 19
36 53 35
31 53 39
20 46 52
22 54 91
18 56 110
13 56 116
14 55 121
19 53 124
21 55 112
20 54 100
18 51 89
19 50 94
22 50 99
26 52 96
17 44 92
16 41 93
7 31 86
6 31 85
16 49 96
14 52 103
10 51 113
12 54 124
13 54 125
14 53 121
18 54 122
20 54 116
18 47 76
19 36 28
31 40 17
23 35 24
20 43 72
19 52 107
11 48 108
12 46 108
16 44 106
11 44 106
6 44 102
12 38 80
0 0 17
0 0 5
0 0 9
0 0 18
0 0 22
0 0 27
0 0 27
0 0 20
0 0 16
0 0 16
0 0 5
0 0 0
0 0 0
0 0 0
0 0 0
0 0 0
0 0 0
0 0 0
0 0 10
0 0 8
0 0 11
0 0 15
0 0 15
0 0 15
0 0 14
0 0 3
0 0 0
0 0 0
0 0 0
0 0 0
0 0 0
0 0 0
0 0 0
0 0 0
0 0 0
0 0 0
0 0 0
0 0 0
0 0 0
0 0 8
0 0 9
0 0 14
0 0 16
0 0 17
0 0 28
0 0 38
0 8 44
0 9 42
0 15 50
0 20 59
0 21 62
0 18 58
0 17 58
0 18 58
0 11 48
0 12 44
0 8 40
0 7 38
0 7 38
0 6 42
9 24 59
0 0 13
0 0 4
3 11 39
144 155 173
218 234 255
218 234 255
218 234 255
218 234 255
218 234 255
218 234 255
218 234 255
218 234 255
218 234 255
218 234 255
218 234 255
218 234 255
218 234 255
218 234 255
218 234 255
218 234 255
218 234 255
218 234 255
218 234 255
218 234 255
218 234 255
218 234 255
218 234 255
218 234 255
218 234 255
218 234 255
218 234 255
218 234 255
218 234 255
218 234 255
218 234 255
218 234 255
218 234 255
218 234 255
218 234 255
218 234 255
218 234 255
218 234 255
218 234 255
218 234 255
218 234 255
218 234 255
218 234 255
218 234 255
218 234 255
218 234 255
218 234 255
218 234 255
218 234 255
218 234 255
218 234 255
218 234 255
218 234 255
218 234 255
218 234 255
218 234 255
218 234 255
218 234 255
218 234 255
218 234 255
218 234 255
218 234 255
218 234 255
218 234 255
218 234 255
218 234 255
218 234 255
218 234 255
218 234 255
218 234 255
218 234 255
218 234 255
218 234 255
218 234 255
218 234 255
218 234 255
218 234 255
218 234 255
218 234 255
218 234 255
218 234 255
218 234 255
218 234 255
218 234 255
218 234 255
218 234 255
218 234 255
218 234 255
218 234 255
218 234 255
218 234 255
218 234 255
218 234 255
218 234 255
218 234 255
218 234 255
218 234 255
218 234 255
218 234 255
218 234 255
218 234 255
218 234 255
218 234 255
218 234 255
218 234 255
218 234 255
218 234 255
218 234 255
218 234 255
218 234 255
218 234 255
218 234 255
218 234 255
218 234 255
218 234 255
218 234 255
218 234 255
218 234 255
218 234 255
218 234 255
218 234 255
218 234 255
218 234 255
218 234 255
218 234 255
218 234 255
218 234 255
218 234 255
218 234 255
218 234 255
218 234 255
218 234 255
218 234 255
218 234 255
218 234 255
218 234 255
218 234 255
218 234 255
218 234 255
218 234 255
218 234 255
218 234 255
218 234 255
218 234 255
218 234 255
218 234 255
218 234 255
218 234 255
218 234 255
218 234 255
218 234 255
218 234 255
218 234 255
218 234 255
218 234 255
218 234 255
218 234 255
218 234 255
218 234 255
218 234 255
218 234 255
218 234 255
218 234 255
218 234 255
218 234 255
218 234 255
218 234 255
218 234 255
218 234 255
218 234 255
218 234 255
218 234 255
218 234 255
218 234 255
218 234 255
218 234 255
218 234 255
218 234 255
218 234 255
218 234 255
218 234 255
218 234 255
218 234 255
218 234 255
218 234 255
218 234 255
218 234 255
218 234 255
218 234 255
218 234 255
218 234 255
218 234 255
218 234 255
218 234 255
218 234 255
218 234 255
218 234 255
218 234 255
218 234 255
218 234 255
218 234 255
218 234 255
218 234 255
218 234 255
218 234 255
218 234 255
218 234 255
218 234 255
218 234 255
218 234 255
218 234 255
218 234 255
218 234 255
218 234 255
218 234 255
218 234 255
218 234 255
218 234 255
218 234 255
186 200 218
0 0 12
0 0 5
0 0 11
0 0 11
0 0 1
0 0 8
0 0 11
0 0 14
0 0 13
0 0 11
0 0 13
0 0 16
0 0 17
0 0 22
0 0 23
0 0 27
0 0 29
0 0 28
0 0 29
0 0 26
0 0 27
0 0 26
0 0 24
0 0 23
0 0 27
0 0 27
0 0 27
0 0 31
0 0 32
0 0 32
0 0 32
0 0 33
0 0 35
0 0 33
0 0 33
0 4 38
0 13 43
0 13 45
0 14 49
0 15 49
0 14 47
0 15 53
9 25 66
17 41 96
24 51 98
47 56 87
73 76 83
58 64 73
29 46 83
54 68 95
102 110 114
88 88 69
61 64 41
32 42 13
26 41 6
28 36 11
46 47 29
61 59 39
63 60 37
61 58 35
82 78 56
88 83 61
87 81 57
87 81 59
90 83 61
93 92 70
72 73 50
40 42 13
51 55 26
59 61 36
59 61 37
59 63 40
46 49 24
44 48 23
42 50 19
39 48 19
31 45 35
27 48 68
25 50 92
25 52 106
20 52 117
14 54 120
13 55 114
17 56 113
17 55 116
14 56 117
16 55 113
15 56 112
16 55 111
15 53 112
11 44 108
11 43 101
1 34 85
0 29 80
1 24 76
8 32 76
11 43 92
12 47 107
13 52 119
13 55 120
13 55 113
16 56 115
16 54 119
20 52 94
20 42 42
26 39 5
33 47 14
17 36 40
24 55 94
11 49 107
10 46 108
12 44 101
10 44 102
3 44 102
17 44 91
5 14 36
0 0 4
0 0 13
0 0 16
0 0 19
0 0 22
0 0 22
0 0 21
0 0 16
0 0 16
0 0 7
0 0 0
0 0 0
0 0 0
0 0 0
0 0 0
0 0 0
0 0 0
0 0 0
0 0 0
0 0 6
0 0 15
0 0 0
0 0 0
0 0 0
0 0 0
0 0 0
0 0 0
0 0 0
0 0 0
0 0 0
0 0 0
0 0 0
0 0 0
0 0 0
0 0 0
0 0 0
0 0 0
0 0 0
0 0 11
0 0 15
0 0 15
0 0 16
0 0 21
0 0 29
0 4 39
0 9 47
0 14 50
0 15 50
0 18 56
0 18 58
0 16 55
0 14 53
0 14 53
0 13 48
0 11 45
0 1 33
0 0 31
0 0 30
0 0 31
6 19 53
0 3 24
0 0 0
0 0 9
21 23 41
197 212 232
218 234 255
218 234 255
218 234 255
218 234 255
218 234 255
218 234 255
218 234 255
218 234 255
218 234 255
218 234 255
218 234 255
218 234 255
218 234 255
218 234 255
218 234 255
218 234 255
218 234 255
218 234 255
218 234 255
218 234 255
218 234 255
218 234 255
218 234 255
218 234 255
218 234 255
218 234 255
218 234 255
218 234 255
218 234 255
218 234 255
218 234 255
218 234 255
218 234 255
218 234 255
218 234 255
218 234 255
218 234 255
218 234 255
218 234 255
218 234 255
218 234 255
218 234 255
218 234 255
218 234 255
218 234 255
218 234 255
218 234 255
218 234 255
218 234 255
218 234 255
218 234 255
218 234 255
218 234 255
218 234 255
218 234 255
218 234 255
218 234 255
218 234 255
218 234 255
218 234 255
218 234 255
218 234 255
218 234 255
218 234 255
218 234 255
218 234 255
218 234 255
218 234 255
218 234 255
218 234 255
218 234 255
218 234 255
218 234 255
218 234 255
218 234 255
218 234 255
218 234 255
218 234 255
218 234 255
218 234 255
218 234 255
218 234 255
218 234 255
218 234 255
218 234 255
218 234 255
218 234 255
218 234 255
218 234 255
218 234 255
218 234 255
218 234 255
218 234 255
218 234 255
218 234 255
218 234 255
218 234 255
218 234 255
218 234 255
218 234 255
218 234 255
218 234 255
218 234 255
218 234 255
218 234 255
218 234 255
218 234 255
218 234 255
218 234 255
218 234 255
218 234 255
218 234 255
218 234 255
218 234 255
218 234 255
218 234 255
218 234 255
218 234 255
218 234 255
218 234 255
218 234 255
218 234 255
218 234 255
218 234 255
218 234 255
218 234 255
218 234 255
218 234 255
218 234 255
218 234 255
218 234 255
218 234 255
218 234 255
218 234 255
218 234 255
218 234 255
218 234 255
218 234 255
218 234 255
218 234 255
218 234 255
218 234 255
218 234 255
218 234 255
218 234 255
218 234 255
218 234 255
218 234 255
218 234 255
218 234 255
218 234 255
218 234 255
218 234 255
218 234 255
218 234 255
218 234 255
218 234 255
218 234 255
218 234 255
218 234 255
218 234 255
218 234 255
218 234 255
218 234 255
218 234 255
218 234 255
218 234 255
218 234 255
218 234 255
218 234 255
218 234 255
218 234 255
218 234 255
218 234 255
218 234 255
218 234 255
218 234 255
218 234 255
218 234 255
218 234 255
218 234 255
218 234 255
218 234 255
218 234 255
218 234 255
218 234 255
218 234 255
218 234 255
218 234 255
218 234 255
218 234 255
218 234 255
218 234 255
218 234 255
218 234 255
218 234 255
218 234 255
218 234 255
218 234 255
218 234 255
218 234 255
218 234 255
218 234 255
218 234 255
218 234 255
218 234 255
218 234 255
218 234 255
218 234 255
218 234 255
218 234 255
218 234 255
218 234 255
218 234 255
218 234 255
218 234 255
218 234 255
216 231 253
97 104 115
0 0 6
0 0 0
0 0 4
0 0 0
0 0 8
0 0 14
0 0 14
0 0 10
0 0 11
0 0 11
0 0 15
0 0 16
0 0 18
0 0 22
0 0 24
0 0 28
0 0 31
0 0 28
0 0 28
0 0 29
0 0 27
0 0 23
0 0 22
0 0 22
0 0 26
0 0 29
0 0 28
0 0 28
0 0 30
0 0 32
0 0 32
0 0 32
0 0 35
0 0 34
0 0 35
0 7 41
0 12 44
0 7 43
0 7 44
0 11 43
0 13 46
0 11 47
0 11 52
25 54 108
24 54 100
51 53 77
87 85 78
77 83 90
27 45 84
16 46 90
43 61 84
65 74 73
53 60 45
27 43 15
19 37 0
29 37 8
34 35 17
46 46 24
59 59 37
68 69 44
78 78 51
82 77 50
84 75 52
92 84 63
103 99 80
106 104 85
78 79 55
47 49 24
54 56 30
65 68 44
63 66 43
62 65 40
55 57 32
47 50 23
44 53 20
48 61 36
31 54 70
21 52 109
22 51 117
17 49 111
14 47 111
11 45 111
12 48 111
14 50 108
11 49 105
11 49 106
10 47 103
7 46 97
5 46 94
4 44 92
7 40 93
9 38 91
6 32 84
0 24 77
0 23 75
0 18 64
0 20 66
1 19 72
13 37 97
19 50 113
17 53 113
14 54 108
14 55 111
20 56 104
25 51 67
32 50 18
22 42 0
16 32 14
27 49 70
15 48 106
11 50 111
9 47 104
2 46 99
1 44 95
17 44 93
9 23 53
0 0 13
0 0 12
0 0 15
0 0 17
0 0 22
0 0 18
0 0 16
0 0 13
0 0 7
0 0 10
0 0 11
0 0 0
0 0 0
0 0 0
0 0 0
0 0 0
0 0 0
0 0 3
0 0 11
0 0 11
0 0 13
0 0 5
0 0 0
0 0 0
0 0 0
0 0 0
0 0 0
0 0 0
0 0 0
0 0 0
0 0 0
0 0 0
0 0 0
0 0 0
0 0 0
0 0 0
0 0 0
0 0 0
0 0 1
0 0 4
0 0 9
0 0 14
0 0 16
0 0 22
0 0 33
0 7 43
0 11 48
0 14 52
0 20 58
0 22 61
0 16 54
0 15 50
0 13 47
0 10 44
0 9 41
0 2 31
0 0 28
0 0 25
0 0 24
0 2 30
2 10 40
0 0 8
0 0 2
0 0 15
90 96 109
215 230 252
218 234 255
218 234 255
218 234 255
218 234 255
218 234 255
218 234 255
218 234 255
218 234 255
218 234 255
218 234 255
218 234 255
218 234 255
218 234 255
218 234 255
218 234 255
218 234 255
218 234 255
218 234 255
218 234 255
218 234 255
218 234 255
218 234 255
218 234 255
218 234 255
218 234 255
218 234 255
218 234 255
218 234 255
218 234 255
218 234 255
218 234 255
218 234 255
218 234 255
218 234 255
218 234 255
218 234 255
218 234 255
218 234 255
218 234 255
218 234 255
218 234 255
218 234 255
218 234 255
218 234 255
218 234 255
218 234 255
218 234 255
218 234 255
218 234 255
218 234 255
218 234 255
218 234 255
218 234 255
218 234 255
218 234 255
218 234 255
218 234 255
218 234 255
218 234 255
218 234 255
218 234 255
218 234 255
218 234 255
218 234 255
218 234 255
218 234 255
218 234 255
218 234 255
218 234 255
218 234 255
218 234 255
218 234 255
218 234 255
218 234 255
218 234 255
218 234 255
218 234 255
218 234 255
218 234 255
218 234 255
218 234 255
218 234 255
218 234 255
218 234 255
218 234 255
218 234 255
218 234 255
218 234 255
218 234 255
218 234 255
218 234 255
218 234 255
218 234 255
218 234 255
218 234 255
218 234 255
218 234 255
218 234 255
218 234 255
218 234 255
218 234 255
218 234 255
218 234 255
218 234 255
218 234 255
218 234 255
218 234 255
218 234 255
218 234 255
218 234 255
218 234 255
218 234 255
218 234 255
218 234 255
218 234 255
218 234 255
218 234 255
218 234 255
218 234 255
218 234 255
218 234 255
218 234 255
218 234 255
218 234 255
218 234 255
218 234 255
218 234 255
218 234 255
218 234 255
218 234 255
218 234 255
218 234 255
218 234 255
218 234 255
218 234 255
218 234 255
218 234 255
218 234 255
218 234 255
218 234 255
218 234 255
218 234 255
218 234 255
218 234 255
218 234 255
218 234 255
218 234 255
218 234 255
218 234 255
218 234 255
218 234 255
218 234 255
218 234 255
218 234 255
218 234 255
218 234 255
218 234 255
218 234 255
218 234 255
218 234 255
218 234 255
218 234 255
218 234 255
218 234 255
218 234 255
218 234 255
218 234 255
218 234 255
218 234 255
218 234 255
218 234 255
218 234 255
218 234 255
218 234 255
218 234 255
218 234 255
218 234 255
218 234 255
218 234 255
218 234 255
218 234 255
218 234 255
218 234 255
218 234 255
218 234 255
218 234 255
218 234 255
218 234 255
218 234 255
218 234 255
218 234 255
218 234 255
218 234 255
218 234 255
218 234 255
218 234 255
218 234 255
218 234 255
218 234 255
218 234 255
218 234 255
218 234 255
218 234 255
218 234 255
218 234 255
218 234 255
218 234 255
218 234 255
218 234 255
218 234 255
218 234 255
218 234 255
218 234 255
218 234 255
218 234 255
218 234 255
152 163 179
0 0 11
0 0 0
0 0 0
0 0 0
0 0 4
0 0 13
0 0 16
0 0 16
0 0 16
0 0 10
0 0 13
0 0 16
0 0 16
0 0 21
0 0 22
0 0 23
0 0 29
0 0 31
0 0 29
0 0 28
0 0 33
0 0 25
0 0 23
0 0 23
0 0 25
0 0 27
0 0 28
0 0 27
0 0 28
0 0 32
0 0 32
0 0 33
0 0 35
0 0 35
0 0 35
0 0 36
0 2 37
0 13 40
0 12 42
0 9 43
0 13 44
0 13 46
0 6 48
0 10 51
14 36 70
58 75 115
99 105 124
119 122 110
71 69 68
41 52 81
9 35 73
9 35 68
44 62 73
63 73 66
37 52 32
26 43 8
24 37 5
36 42 21
49 49 27
58 59 36
72 73 50
81 81 55
90 86 61
86 78 56
95 87 68
98 91 72
100 97 77
80 81 59
67 69 46
80 85 63
67 72 48
67 71 47
73 77 53
68 72 47
49 54 27
40 51 19
35 51 40
24 54 87
13 52 110
7 44 97
2 41 94
0 41 98
0 39 99
1 40 101
7 41 102
0 39 97
0 38 95
0 36 91
0 33 86
9 37 89
8 35 85
0 31 79
0 31 77
0 30 76
0 26 70
0 26 69
0 24 72
0 21 68
0 19 62
0 18 64
19 45 105
21 53 121
14 55 112
13 56 112
16 54 104
23 50 75
24 42 26
24 43 7
18 33 7
24 41 50
22 49 96
12 49 108
19 54 110
18 51 102
12 45 92
13 39 86
10 26 63
0 0 17
0 0 16
0 0 19
0 0 22
0 0 24
0 0 18
0 0 13
0 0 10
0 0 0
0 0 8
0 0 14
0 0 0
0 0 0
0 0 0
0 0 0
0 0 0
0 0 0
0 0 1
0 0 15
0 0 16
0 0 10
0 0 0
0 0 0
0 0 0
0 0 0
0 0 0
0 0 0
0 0 0
0 0 0
0 0 0
0 0 0
0 0 0
0 0 0
0 0 0
0 0 0
0 0 0
0 0 0
0 0 0
0 0 1
0 0 7
0 0 3
0 0 2
0 0 11
0 0 15
0 0 23
0 4 33
0 14 45
0 12 48
0 19 59
0 19 59
0 14 52
0 14 49
0 13 44
0 6 37
0 2 33
0 0 28
0 0 23
0 0 23
0 0 23
0 0 23
11 22 48
8 14 32
0 0 5
0 0 7
0 0 18
146 157 174
218 234 255
218 234 255
218 234 255
218 234 255
218 234 255
218 234 255
218 234 255
218 234 255
218 234 255
218 234 255
218 234 255
218 234 255
218 234 255
218 234 255
218 234 255
218 234 255
218 234 255
218 234 255
218 234 255
218 234 255
218 234 255
218 234 255
218 234 255
218 234 255
218 234 255
218 234 255
218 234 255
218 234 255
218 234 255
218 234 255
218 234 255
218 234 255
218 234 255
218 234 255
218 234 255
218 234 255
218 234 255
218 234 255
218 234 255
218 234 255
218 234 255
218 234 255
218 234 255
218 234 255
218 234 255
218 234 255
218 234 255
218 234 255
218 234 255
218 234 255
218 234 255
218 234 255
218 234 255
218 234 255
218 234 255
218 234 255
218 234 255
218 234 255
218 234 255
218 234 255
218 234 255
218 234 255
218 234 255
218 234 255
218 234 255
218 234 255
218 234 255
218 234 255
218 234 255
218 234 255
218 234 255
218 234 255
218 234 255
218 234 255
218 234 255
218 234 255
218 234 255
218 234 255
218 234 255
218 234 255
218 234 255
218 234 255
218 234 255
218 234 255
218 234 255
218 234 255
218 234 255
218 234 255
218 234 255
218 234 255
218 234 255
218 234 255
218 234 255
218 234 255
218 234 255
218 234 255
218 234 255
218 234 255
218 234 255
218 234 255
218 234 255
218 234 255
218 234 255
218 234 255
218 234 255
218 234 255
218 234 255
218 234 255
218 234 255
218 234 255
218 234 255
218 234 255
218 234 255
218 234 255
218 234 255
218 234 255
218 234 255
218 234 255
218 234 255
218 234 255
218 234 255
218 234 255
218 234 255
218 234 255
218 234 255
218 234 255
218 234 255
218 234 255
218 234 255
218 234 255
218 234 255
218 234 255
218 234 255
218 234 255
218 234 255
218 234 255
218 234 255
218 234 255
218 234 255
218 234 255
218 234 255
218 234 255
218 234 255
218 234 255
218 234 255
218 234 255
218 234 255
218 234 255
218 234 255
218 234 255
218 234 255
218 234 255
218 234 255
218 234 255
218 234 255
218 234 255
218 234 255
218 234 255
218 234 255
218 234 255
218 234 255
218 234 255
218 234 255
218 234 255
218 234 255
218 234 255
218 234 255
218 234 255
218 234 255
218 234 255
218 234 255
218 234 255
218 234 255
218 234 255
218 234 255
218 234 255
218 234 255
218 234 255
218 234 255
218 234 255
218 234 255
218 234 255
218 234 255
218 234 255
218 234 255
218 234 255
218 234 255
218 234 255
218 234 255
218 234 255
218 234 255
218 234 255
218 234 255
218 234 255
218 234 255
218 234 255
218 234 255
218 234 255
218 234 255
218 234 255
218 234 255
218 234 255
218 234 255
218 234 255
218 234 255
218 234 255
218 234 255
218 234 255
218 234 255
218 234 255
218 234 255
218 234 255
218 234 255
218 234 255
218 234 255
206 220 241
21 23 27
0 0 6
0 0 0
0 0 0
0 0 0
0 0 5
0 0 13
0 0 16
0 0 16
0 0 16
0 0 14
0 0 16
0 0 16
0 0 16
0 0 19
0 0 22
0 0 23
0 0 26
0 0 30
0 0 29
0 0 28
0 0 30
0 0 26
0 0 25
0 0 25
0 0 26
0 0 27
0 0 27
0 0 27
0 0 28
0 0 32
0 0 32
0 0 34
0 0 34
0 0 35
0 0 35
0 0 36
0 1 36
0 3 38
0 0 40
0 7 40
0 14 40
0 12 43
0 13 47
0 14 48
1 13 50
33 42 81
87 101 123
110 119 115
84 82 79
56 57 67
25 40 66
0 40 80
22 48 76
60 70 79
56 67 59
25 42 12
21 42 6
27 38 13
34 37 13
50 53 31
66 66 42
77 73 47
92 87 65
97 92 73
113 109 93
107 103 86
81 79 59
81 82 61
73 74 52
71 74 51
70 74 50
61 63 39
70 74 51
63 67 42
60 62 38
45 46 23
46 60 64
27 55 101
14 49 110
11 40 89
0 38 87
0 38 88
4 37 90
3 37 93
2 36 94
0 34 91
0 33 87
3 31 84
10 30 83
7 27 79
0 21 71
0 23 66
0 26 69
0 29 69
0 28 67
0 27 63
0 23 67
0 19 63
0 20 56
0 19 57
4 23 75
22 50 120
14 54 115
12 56 113
16 57 109
25 55 93
27 47 53
19 37 20
21 35 8
19 32 27
27 51 87
12 46 102
20 54 109
19 50 97
25 56 99
26 50 94
12 25 60
0 0 22
0 0 23
0 0 21
0 0 27
0 0 25
0 0 20
0 0 7
0 0 3
0 0 5
0 0 10
0 0 16
0 0 7
0 0 3
0 0 0
0 0 0
0 0 0
0 0 0
0 0 0
0 0 13
0 0 16
0 0 13
0 0 0
0 0 0
0 0 0
0 0 0
0 0 0
0 0 0
0 0 0
0 0 0
0 0 0
0 0 0
0 0 0
0 0 0
0 0 9
0 0 8
0 0 0
0 0 0
0 0 0
0 0 0
0 0 0
0 0 0
0 0 0
0 0 9
0 0 16
0 0 17
0 0 31
0 10 40
0 13 48
4 21 62
0 20 59
0 14 52
0 12 45
0 12 43
0 6 35
0 0 26
0 0 23
0 0 18
0 0 16
0 0 16
0 0 17
0 0 22
2 6 28
0 0 10
0 0 6
0 0 13
21 24 42
200 214 236
218 234 255
218 234 255
218 234 255
218 234 255
218 234 255
218 234 255
218 234 255
218 234 255
218 234 255
218 234 255
218 234 255
218 234 255
218 234 255
218 234 255
218 234 255
218 234 255
218 234 255
218 234 255
218 234 255
218 234 255
218 234 255
218 234 255
218 234 255
218 234 255
218 234 255
218 234 255
218 234 255
218 234 255
218 234 255
218 234 255
218 234 255
218 234 255
218 234 255
218 234 255
218 234 255
218 234 255
218 234 255
218 234 255
218 234 255
218 234 255
218 234 255
218 234 255
218 234 255
218 234 255
218 234 255
218 234 255
218 234 255
218 234 255
218 234 255
218 234 255
218 234 255
218 234 255
218 234 255
218 234 255
218 234 255
218 234 255
218 234 255
218 234 255
218 234 255
218 234 255
218 234 255
218 234 255
218 234 255
218 234 255
218 234 255
218 234 255
218 234 255
218 234 255
218 234 255
218 234 255
218 234 255
218 234 255
218 234 255
218 234 255
218 234 255
218 234 255
218 234 255
218 234 255
218 234 255
218 234 255
218 234 255
218 234 255
218 234 255
218 234 255
218 234 255
218 234 255
218 234 255
218 234 255
218 234 255
218 234 255
218 234 255
218 234 255
218 234 255
218 234 255
218 234 255
218 234 255
218 234 255
218 234 255
218 234 255
218 234 255
218 234 255
218 234 255
218 234 255
218 234 255
218 234 255
218 234 255
218 234 255
218 234 255
218 234 255
218 234 255
218 234 255
218 234 255
218 234 255
218 234 255
218 234 255
218 234 255
218 234 255
218 234 255
218 234 255
218 234 255
218 234 255
218 234 255
218 234 255
218 234 255
218 234 255
218 234 255
218 234 255
218 234 255
218 234 255
218 234 255
218 234 255
218 234 255
218 234 255
218 234 255
218 234 255
218 234 255
218 234 255
218 234 255
218 234 255
218 234 255
218 234 255
218 234 255
218 234 255
218 234 255
218 234 255
218 234 255
218 234 255
218 234 255
218 234 255
218 234 255
218 234 255
218 234 255
218 234 255
218 234 255
218 234 255
218 234 255
218 234 255
218 234 255
218 234 255
218 234 255
218 234 255
218 234 255
218 234 255
218 234 255
218 234 255
218 234 255
218 234 255
218 234 255
218 234 255
218 234 255
218 234 255
218 234 255
218 234 255
218 234 255
218 234 255
218 234 255
218 234 255
218 234 255
218 234 255
218 234 255
218 234 255
218 234 255
218 234 255
218 234 255
218 234 255
218 234 255
218 234 255
218 234 255
218 234 255
218 234 255
218 234 255
218 234 255
218 234 255
218 234 255
218 234 255
218 234 255
218 234 255
218 234 255
218 234 255
218 234 255
218 234 255
218 234 255
218 234 255
218 234 255
218 234 255
218 234 255
218 234 255
218 234 255
218 234 255
218 234 255
218 234 255
218 234 255
218 234 255
218 234 255
117 126 138
0 0 7
0 0 0
0 0 0
0 0 0
0 0 10
0 0 15
0 0 15
0 0 16
0 0 16
0 0 16
0 0 16
0 0 16
0 0 16
0 0 16
0 0 18
0 0 22
0 0 22
0 0 24
0 0 28
0 0 27
0 0 27
0 0 23
0 0 22
0 0 22
0 0 26
0 0 27
0 0 27
0 0 27
0 0 27
0 0 30
0 0 32
0 0 34
0 0 35
0 5 37
0 3 38
0 5 37
0 0 35
0 12 39
0 8 40
0 2 40
0 3 38
0 12 38
0 14 43
0 13 43
0 15 47
0 13 58
3 20 66
30 52 85
47 63 80
72 81 95
56 57 59
49 62 80
9 39 80
13 41 84
33 46 76
52 65 70
37 54 34
22 39 10
22 34 2
28 38 12
30 34 11
48 46 24
75 68 44
78 73 52
104 103 85
124 123 109
104 102 86
90 88 70
78 76 57
73 72 53
84 88 67
77 81 59
54 56 31
58 61 36
67 70 46
77 74 53
75 74 56
48 63 66
24 55 98
17 50 112
16 37 91
8 36 83
0 27 70
0 23 65
0 23 67
0 22 69
0 26 74
0 27 73
6 28 75
0 24 70
0 16 64
0 18 64
0 20 64
0 21 63
0 24 63
0 24 62
0 22 60
0 21 58
0 20 56
0 20 57
0 19 62
2 18 67
21 45 106
20 52 118
16 56 115
14 56 116
18 55 111
27 53 87
20 40 51
17 29 18
24 33 31
36 58 86
13 48 102
14 52 108
10 47 92
13 42 78
28 52 90
7 15 41
0 0 19
0 0 21
0 0 24
0 0 22
0 0 18
0 0 17
0 0 9
0 0 0
0 0 7
0 0 16
0 0 16
0 0 16
0 0 12
0 0 0
0 0 0
0 0 0
0 0 0
0 0 0
0 0 3
0 0 7
0 0 5
0 0 0
0 0 0
0 0 0
0 0 0
0 0 0
0 0 0
0 0 0
0 0 0
0 0 0
0 0 0
0 0 0
0 0 0
0 0 3
0 0 6
0 0 4
0 0 0
0 0 0
0 0 0
0 0 0
0 0 0
0 0 6
0 0 8
0 0 14
0 0 21
0 2 28
0 7 35
0 8 44
4 20 57
1 20 58
0 15 51
0 11 45
0 13 41
0 6 35
0 0 26
0 0 21
0 0 16
0 0 16
0 0 16
0 0 15
0 0 15
0 0 18
0 0 16
0 0 13
0 0 10
0 0 21
109 118 137
218 234 255
218 234 255
218 234 255
218 234 255
218 234 255
218 234 255
218 234 255
218 234 255
218 234 255
218 234 255
218 234 255
218 234 255
218 234 255
218 234 255
218 234 255
218 234 255
218 234 255
218 234 255
218 234 255
218 234 255
218 234 255
218 234 255
218 234 255
218 234 255
218 234 255
218 234 255
218 234 255
218 234 255
218 234 255
218 234 255
218 234 255
218 234 255
218 234 255
218 234 255
218 234 255
218 234 255
218 234 255
218 234 255
218 234 255
218 234 255
218 234 255
218 234 255
218 234 255
218 234 255
218 234 255
218 234 255
218 234 255
218 234 255
218 234 255
218 234 255
218 234 255
218 234 255
218 234 255
218 234 255
218 234 255
218 234 255
218 234 255
218 234 255
218 234 255
218 234 255
218 234 255
218 234 255
218 234 255
218 234 255
218 234 255
218 234 255
218 234 255
218 234 255
218 234 255
218 234 255
218 234 255
218 234 255
218 234 255
218 234 255
218 234 255
218 234 255
218 234 255
218 234 255
218 234 255
218 234 255
218 234 255
218 234 255
218 234 255
218 234 255
218 234 255
218 234 255
218 234 255
218 234 255
218 234 255
218 234 255
218 234 255
218 234 255
218 234 255
218 234 255
218 234 255
218 234 255
218 234 255
218 234 255
218 234 255
218 234 255
218 234 255
218 234 255
218 234 255
218 234 255
218 234 255
218 234 255
218 234 255
218 234 255
218 234 255
218 234 255
218 234 255
218 234 255
218 234 255
218 234 255
218 234 255
218 234 255
218 234 255
218 234 255
218 234 255
218 234 255
218 234 255
218 234 255
218 234 255
218 234 255
218 234 255
218 234 255
218 234 255
218 234 255
218 234 255
218 234 255
218 234 255
218 234 255
218 234 255
218 234 255
218 234 255
218 234 255
218 234 255
218 234 255
218 234 255
218 234 255
218 234 255
218 234 255
218 234 255
218 234 255
218 234 255
218 234 255
218 234 255
218 234 255
218 234 255
218 234 255
218 234 255
218 234 255
218 234 255
218 234 255
218 234 255
218 234 255
218 234 255
218 234 255
218 234 255
218 234 255
218 234 255
218 234 255
218 234 255
218 234 255
218 234 255
218 234 255
218 234 255
218 234 255
218 234 255
218 234 255
218 234 255
218 234 255
218 234 255
218 234 255
218 234 255
218 234 255
218 234 255
218 234 255
218 234 255
218 234 255
218 234 255
218 234 255
218 234 255
218 234 255
218 234 255
218 234 255
218 234 255
218 234 255
218 234 255
218 234 255
218 234 255
218 234 255
218 234 255
218 234 255
218 234 255
218 234 255
218 234 255
218 234 255
218 234 255
218 234 255
218 234 255
218 234 255
218 234 255
218 234 255
218 234 255
218 234 255
218 234 255
218 234 255
218 234 255
218 234 255
218 234 255
218 234 255
218 234 255
174 187 204
0 0 8
0 0 3
0 0 0
0 0 8
0 0 7
0 0 15
0 0 12
0 0 16
0 0 16
0 0 16
0 0 16
0 0 18
0 0 16
0 0 16
0 0 17
0 0 21
0 0 22
0 0 22
0 0 26
0 0 27
0 0 25
0 0 23
0 0 20
0 0 20
0 0 22
0 0 26
0 0 27
0 0 27
0 0 27
0 0 27
0 0 28
0 0 34
0 0 35
0 2 35
0 13 41
0 12 40
0 9 39
0 1 36
0 5 37
0 6 39
0 7 42
0 3 39
0 9 41
0 14 43
0 14 45
0 11 45
0 12 52
2 20 60
16 43 91
24 50 101
32 54 89
64 74 83
50 55 62
20 43 78
6 33 87
25 44 91
57 76 94
57 70 58
35 44 20
22 36 0
23 35 0
27 31 0
54 50 27
66 59 35
71 67 45
77 76 56
96 93 76
107 106 91
125 126 112
119 120 104
86 85 67
80 84 63
53 55 33
60 62 38
61 64 40
67 71 47
63 62 40
76 81 60
51 78 71
16 58 92
11 50 107
13 39 95
3 25 70
0 16 56
0 19 53
0 16 53
0 15 56
0 15 57
0 16 58
0 20 60
0 17 58
0 17 58
0 19 60
0 17 60
0 15 60
0 16 61
0 18 59
0 15 57
0 18 53
0 20 53
0 20 60
0 18 65
0 15 63
18 38 89
25 53 122
15 52 115
14 55 121
15 53 121
23 55 111
23 48 82
12 27 36
29 40 43
32 52 79
13 49 104
18 62 122
12 57 106
23 62 97
8 30 59
8 18 43
6 12 29
0 0 18
0 0 22
0 0 18
0 0 14
0 0 8
0 0 0
0 0 0
0 0 3
0 0 16
0 0 16
0 0 16
0 0 13
0 0 0
0 0 0
0 0 0
0 0 0
0 0 0
0 0 0
0 0 0
0 0 0
0 0 0
0 0 0
0 0 0
0 0 0
0 0 0
0 0 0
0 0 0
0 0 0
0 0 0
0 0 0
0 0 0
0 0 0
0 0 0
0 0 10
0 0 11
0 0 6
0 0 0
0 0 0
0 0 0
0 0 0
0 0 9
0 0 15
0 0 16
0 0 18
0 0 23
0 9 36
0 10 44
0 16 53
0 19 57
0 14 51
0 13 48
0 7 40
0 5 35
0 0 22
0 0 17
0 0 15
0 0 16
0 0 16
0 0 6
0 0 5
0 0 9
0 0 14
0 0 16
0 0 12
0 0 15
5 11 41
180 193 214
218 234 255
218 234 255
218 234 255
218 234 255
218 234 255
218 234 255
218 234 255
218 234 255
218 234 255
218 234 255
218 234 255
218 234 255
218 234 255
218 234 255
218 234 255
218 234 255
218 234 255
218 234 255
218 234 255
218 234 255
218 234 255
218 234 255
218 234 255
218 234 255
218 234 255
218 234 255
218 234 255
218 234 255
218 234 255
218 234 255
218 234 255
218 234 255
218 234 255
218 234 255
218 234 255
218 234 255
218 234 255
218 234 255
218 234 255
218 234 255
218 234 255
218 234 255
218 234 255
218 234 255
218 234 255
218 234 255
218 234 255
218 234 255
218 234 255
218 234 255
218 234 255
218 234 255
218 234 255
218 234 255
218 234 255
218 234 255
218 234 255
218 234 255
218 234 255
218 234 255
218 234 255
218 234 255
218 234 255
218 234 255
218 234 255
218 234 255
218 234 255
218 234 255
218 234 255
218 234 255
218 234 255
218 234 255
218 234 255
218 234 255
218 234 255
218 234 255
218 234 255
218 234 255
218 234 255
218 234 255
218 234 255
218 234 255
218 234 255
218 234 255
218 234 255
218 234 255
218 234 255
218 234 255
218 234 255
218 234 255
218 234 255
218 234 255
218 234 255
218 234 255
218 234 255
218 234 255
218 234 255
218 234 255
218 234 255
218 234 255
218 234 255
218 234 255
218 234 255
218 234 255
218 234 255
218 234 255
218 234 255
218 234 255
218 234 255
218 234 255
218 234 255
218 234 255
218 234 255
218 234 255
218 234 255
218 234 255
218 234 255
218 234 255
218 234 255
218 234 255
218 234 255
218 234 255
218 234 255
218 234 255
218 234 255
218 234 255
218 234 255
218 234 255
218 234 255
218 234 255
218 234 255
218 234 255
218 234 255
218 234 255
218 234 255
218 234 255
218 234 255
218 234 255
218 234 255
218 234 255
218 234 255
218 234 255
218 234 255
218 234 255
218 234 255
218 234 255
218 234 255
218 234 255
218 234 255
218 234 255
218 234 255
218 234 255
218 234 255
218 234 255
218 234 255
218 234 255
218 234 255
218 234 255
218 234 255
218 234 255
218 234 255
218 234 255
218 234 255
218 234 255
218 234 255
218 234 255
218 234 255
218 234 255
218 234 255
218 234 255
218 234 255
218 234 255
218 234 255
218 234 255
218 234 255
218 234 255
218 234 255
218 234 255
218 234 255
218 234 255
218 234 255
218 234 255
218 234 255
218 234 255
218 234 255
218 234 255
218 234 255
218 234 255
218 234 255
218 234 255
218 234 255
218 234 255
218 234 255
218 234 255
218 234 255
218 234 255
218 234 255
218 234 255
218 234 255
218 234 255
218 234 255
218 234 255
218 234 255
218 234 255
218 234 255
218 234 255
218 234 255
218 234 255
218 234 255
218 234 255
218 234 255
217 233 254
78 84 93
0 0 12
0 0 10
0 0 0
0 0 0
0 0 11
0 0 14
0 0 13
0 0 16
0 0 16
0 0 16
0 0 16
0 0 16
0 0 16
0 0 18
0 0 21
0 0 21
0 0 22
0 0 22
0 0 24
0 0 24
0 0 22
0 0 16
0 0 16
0 0 19
0 0 22
0 0 27
0 0 27
0 0 27
0 0 27
0 0 27
0 0 28
0 0 32
0 0 34
0 0 34
0 3 36
0 0 35
0 5 36
0 0 35
0 12 40
0 10 41
0 10 44
0 3 41
0 8 42
0 10 44
0 6 45
0 8 44
5 16 40
0 14 46
9 30 79
19 51 113
21 53 94
75 82 83
69 62 54
31 41 72
0 30 85
7 32 78
29 50 76
52 70 76
41 57 49
19 32 7
20 33 0
20 27 2
39 42 24
60 59 38
60 60 31
73 72 47
83 80 62
88 85 66
99 99 80
83 79 57
81 77 54
66 66 42
49 48 27
36 37 16
56 61 39
64 71 48
51 57 34
58 72 61
34 62 78
15 55 99
8 43 100
7 27 78
0 18 57
0 15 48
0 14 47
0 14 47
0 14 48
0 14 50
0 14 52
0 14 53
0 14 54
0 14 54
0 14 53
0 14 52
0 15 56
0 14 58
2 17 61
1 20 62
0 17 59
0 16 58
0 17 60
0 15 58
0 15 61
5 22 69
19 45 113
18 54 119
13 55 117
13 56 119
13 53 120
24 56 112
14 44 71
17 45 60
18 45 92
11 46 113
11 58 117
18 68 114
24 57 81
12 32 62
25 53 107
29 53 93
8 15 33
0 0 20
0 0 20
0 0 11
0 0 0
0 0 8
0 0 12
0 0 11
0 0 15
0 0 16
0 0 16
0 0 15
0 0 0
0 0 0
0 0 0
0 0 0
0 0 0
0 0 0
0 0 0
0 0 0
0 0 0
0 0 0
0 0 0
0 0 0
0 0 0
0 0 0
0 0 0
0 0 0
0 0 0
0 0 0
0 0 0
0 0 0
0 0 0
0 0 0
0 0 0
0 0 0
0 0 0
0 0 0
0 0 0
0 0 0
0 0 9
0 0 16
0 0 16
0 0 16
0 0 26
0 2 33
0 7 40
0 16 52
0 18 55
0 15 52
0 14 48
0 5 40
0 2 32
0 0 26
0 0 16
0 0 16
0 0 15
0 0 15
0 0 12
0 0 0
0 0 5
0 0 3
0 0 13
0 0 14
0 0 15
4 7 27
95 105 126
214 229 251
218 234 255
218 234 255
218 234 255
218 234 255
218 234 255
218 234 255
218 234 255
218 234 255
218 234 255
218 234 255
218 234 255
218 234 255
218 234 255
218 234 255
218 234 255
218 234 255
218 234 255
218 234 255
218 234 255
218 234 255
218 234 255
218 234 255
218 234 255
218 234 255
218 234 255
218 234 255
218 234 255
218 234 255
218 234 255
218 234 255
218 234 255
218 234 255
218 234 255
218 234 255
218 234 255
218 234 255
218 234 255
218 234 255
218 234 255
218 234 255
218 234 255
218 234 255
218 234 255
218 234 255
218 234 255
218 234 255
218 234 255
218 234 255
218 234 255
218 234 255
218 234 255
218 234 255
218 234 255
218 234 255
218 234 255
218 234 255
218 234 255
218 234 255
218 234 255
218 234 255
218 234 255
218 234 255
218 234 255
218 234 255
218 234 255
218 234 255
218 234 255
218 234 255
218 234 255
218 234 255
218 234 255
218 234 255
218 234 255
218 234 255
218 234 255
218 234 255
218 234 255
218 234 255
218 234 255
218 234 255
218 234 255
218 234 255
218 234 255
218 234 255
218 234 255
218 234 255
218 234 255
218 234 255
218 234 255
218 234 255
218 234 255
218 234 255
218 234 255
218 234 255
218 234 255
218 234 255
218 234 255
218 234 255
218 234 255
218 234 255
218 234 255
218 234 255
218 234 255
218 234 255
218 234 255
218 234 255
218 234 255
218 234 255
218 234 255
218 234 255
218 234 255
218 234 255
218 234 255
218 234 255
218 234 255
218 234 255
218 234 255
218 234 255
218 234 255
218 234 255
218 234 255
218 234 255
218 234 255
218 234 255
218 234 255
218 234 255
218 234 255
218 234 255
218 234 255
218 234 255
218 234 255
218 234 255
218 234 255
218 234 255
218 234 255
218 234 255
218 234 255
218 234 255
218 234 255
218 234 255
218 234 255
218 234 255
218 234 255
218 234 255
218 234 255
218 234 255
218 234 255
218 234 255
218 234 255
218 234 255
218 234 255
218 234 255
218 234 255
218 234 255
218 234 255
218 234 255
218 234 255
218 234 255
218 234 255
218 234 255
218 234 255
218 234 255
218 234 255
218 234 255
218 234 255
218 234 255
218 234 255
218 234 255
218 234 255
218 234 255
218 234 255
218 234 255
218 234 255
218 234 255
218 234 255
218 234 255
218 234 255
218 234 255
218 234 255
218 234 255
218 234 255
218 234 255
218 234 255
218 234 255
218 234 255
218 234 255
218 234 255
218 234 255
218 234 255
218 234 255
218 234 255
218 234 255
218 234 255
218 234 255
218 234 255
218 234 255
218 234 255
218 234 255
218 234 255
218 234 255
218 234 255
218 234 255
218 234 255
218 234 255
218 234 255
218 234 255
218 234 255
218 234 255
218 234 255
218 234 255
163 175 191
0 1 18
0 0 15
0 0 6
0 0 0
0 0 3
0 0 15
0 0 8
0 0 11
0 0 15
0 0 16
0 0 16
0 0 20
0 0 17
0 0 16
0 0 19
0 0 18
0 0 16
0 0 22
0 0 22
0 0 21
0 0 21
0 0 19
0 0 16
0 0 17
0 0 18
0 0 26
0 0 29
0 0 27
0 0 27
0 0 27
0 0 26
0 0 29
0 0 32
0 0 33
0 0 35
0 4 35
0 5 35
0 8 39
0 10 40
0 16 45
0 13 43
0 13 42
0 14 40
0 5 39
1 9 47
5 18 60
0 5 45
0 9 45
0 14 48
0 22 62
9 46 96
35 62 102
90 97 100
78 74 74
37 49 78
13 43 82
4 31 78
16 41 83
22 48 76
42 66 70
35 54 39
17 34 7
15 28 0
28 35 13
41 44 21
62 64 38
60 59 34
69 68 47
80 78 56
87 84 62
77 73 48
86 82 56
83 83 59
79 82 62
45 46 26
45 50 29
35 42 18
43 50 26
46 62 62
25 53 88
12 47 103
0 35 87
0 21 63
0 14 55
0 14 50
0 14 47
0 14 47
0 14 49
0 14 48
0 14 47
0 14 47
0 14 47
0 14 47
0 14 47
0 14 49
0 11 52
0 13 61
10 33 85
14 43 97
10 37 88
3 23 68
2 17 60
0 16 56
0 16 58
0 16 58
3 26 74
14 47 102
13 53 114
13 55 116
16 55 114
18 56 109
14 57 91
11 54 79
6 46 96
12 44 110
19 52 106
32 85 125
42 81 97
15 42 60
19 53 104
15 44 96
13 31 64
13 24 48
0 0 21
0 0 16
0 0 2
0 0 4
0 0 0
0 0 6
0 0 11
0 0 16
0 0 16
0 0 16
0 0 6
0 0 0
0 0 0
0 0 0
0 0 0
0 0 0
0 0 0
0 0 0
0 0 0
0 0 0
0 0 0
0 0 0
0 0 0
0 0 0
0 0 0
0 0 0
0 0 0
0 0 0
0 0 5
0 0 13
0 0 0
0 0 0
0 0 10
0 0 9
0 0 3
0 0 0
0 0 7
0 0 5
0 0 5
0 0 15
0 0 16
0 0 18
0 0 21
0 0 32
0 8 39
0 15 51
0 17 55
0 15 50
0 15 48
0 13 45
0 9 37
0 0 27
0 0 21
0 0 16
0 0 8
0 0 12
0 0 11
0 0 5
0 0 0
0 0 8
0 0 8
0 0 15
0 0 13
0 0 16
10 21 53
163 176 198
218 234 255
218 234 255
218 234 255
218 234 255
218 234 255
218 234 255
218 234 255
218 234 255
218 234 255
218 234 255
218 234 255
218 234 255
218 234 255
218 234 255
218 234 255
218 234 255
218 234 255
218 234 255
218 234 255
218 234 255
218 234 255
218 234 255
218 234 255
218 234 255
218 234 255
218 234 255
218 234 255
218 234 255
218 234 255
218 234 255
218 234 255
218 234 255
218 234 255
218 234 255
218 234 255
218 234 255
218 234 255
218 234 255
218 234 255
218 234 255
218 234 255
218 234 255
218 234 255
218 234 255
218 234 255
218 234 255
218 234 255
218 234 255
218 234 255
218 234 255
218 234 255
218 234 255
218 234 255
218 234 255
218 234 255
218 234 255
218 234 255
218 234 255
218 234 255
218 234 255
218 234 255
218 234 255
218 234 255
218 234 255
218 234 255
218 234 255
218 234 255
218 234 255
218 234 255
218 234 255
218 234 255
218 234 255
218 234 255
218 234 255
218 234 255
218 234 255
218 234 255
218 234 255
218 234 255
218 234 255
218 234 255
218 234 255
218 234 255
218 234 255
218 234 255
218 234 255
218 234 255
218 234 255
218 234 255
218 234 255
218 234 255
218 234 255
218 234 255
218 234 255
218 234 255
218 234 255
218 234 255
218 234 255
218 234 255
218 234 255
218 234 255
218 234 255
218 234 255
218 234 255
218 234 255
218 234 255
218 234 255
218 234 255
218 234 255
218 234 255
218 234 255
218 234 255
218 234 255
218 234 255
218 234 255
218 234 255
218 234 255
218 234 255
218 234 255
218 234 255
218 234 255
218 234 255
218 234 255
218 234 255
218 234 255
218 234 255
218 234 255
218 234 255
218 234 255
218 234 255
218 234 255
218 234 255
218 234 255
218 234 255
218 234 255
218 234 255
218 234 255
218 234 255
218 234 255
218 234 255
218 234 255
218 234 255
218 234 255
218 234 255
218 234 255
218 234 255
218 234 255
218 234 255
218 234 255
218 234 255
218 234 255
218 234 255
218 234 255
218 234 255
218 234 255
218 234 255
218 234 255
218 234 255
218 234 255
218 234 255
218 234 255
218 234 255
218 234 255
218 234 255
218 234 255
218 234 255
218 234 255
218 234 255
218 234 255
218 234 255
218 234 255
218 234 255
218 234 255
218 234 255
218 234 255
218 234 255
218 234 255
218 234 255
218 234 255
218 234 255
218 234 255
218 234 255
218 234 255
218 234 255
218 234 255
218 234 255
218 234 255
218 234 255
218 234 255
218 234 255
218 234 255
218 234 255
218 234 255
218 234 255
218 234 255
218 234 255
218 234 255
218 234 255
218 234 255
218 234 255
218 234 255
218 234 255
218 234 255
218 234 255
218 234 255
218 234 255
218 234 255
218 234 255
218 234 255
210 226 246
69 74 82
0 2 19
0 0 13
0 0 4
0 0 0
0 0 11
0 0 15
0 0 2
0 0 0
0 0 14
0 0 16
0 0 20
0 0 21
0 0 16
0 0 16
0 0 21
0 0 16
0 0 16
0 0 20
0 0 22
0 0 18
0 0 22
0 0 18
0 0 17
0 0 17
0 0 19
0 0 23
0 0 27
0 0 31
0 0 28
0 0 27
0 0 28
0 0 31
0 0 34
0 0 34
0 0 34
0 6 36
0 3 36
0 8 39
0 4 37
0 6 39
0 0 38
0 7 41
0 8 41
0 1 38
0 13 47
0 13 48
0 12 45
0 13 48
0 15 51
0 14 57
11 35 87
24 50 103
62 74 96
79 95 120
41 61 84
35 54 73
9 34 75
5 29 81
22 48 101
27 52 84
35 61 67
17 39 16
13 29 2
18 29 0
36 42 17
48 50 29
51 51 29
65 65 41
65 64 41
81 78 55
79 76 51
80 77 52
89 89 67
81 85 66
53 57 38
35 43 23
53 65 40
45 54 29
31 51 65
24 53 105
6 37 99
0 29 74
0 22 57
0 16 59
0 14 52
0 14 48
0 14 48
0 14 51
0 14 46
0 14 45
0 14 44
0 14 45
0 14 47
0 10 43
0 13 49
6 18 61
17 42 95
19 52 113
15 53 117
14 48 108
18 42 96
11 28 75
0 14 52
0 14 52
0 18 56
3 28 70
8 39 90
8 42 102
10 44 105
7 41 94
10 41 91
6 43 95
0 45 97
11 54 121
12 51 123
19 50 112
19 58 113
53 90 120
41 71 94
13 49 92
13 50 108
7 37 86
12 37 75
4 15 46
6 13 38
0 0 14
0 0 8
0 0 0
0 0 0
0 0 0
0 0 10
0 0 16
0 0 16
0 0 7
0 0 0
0 0 0
0 0 0
0 0 0
0 0 0
0 0 0
0 0 0
0 0 0
0 0 0
0 0 0
0 0 0
0 0 0
0 0 0
0 0 0
0 0 0
0 0 0
0 0 0
0 0 0
0 0 14
0 0 7
0 0 0
0 0 13
0 0 16
0 0 9
0 0 0
0 0 12
0 0 16
0 0 16
0 0 16
0 0 16
0 0 21
0 0 24
0 0 31
0 12 45
0 18 52
0 20 57
0 14 49
0 7 43
0 14 46
0 10 39
0 0 27
0 0 20
0 0 15
0 0 4
0 0 5
0 0 0
0 0 0
0 0 0
0 0 0
0 0 0
0 0 13
0 0 11
0 0 13
1 2 25
62 68 88
211 226 248
218 234 255
218 234 255
218 234 255
218 234 255
218 234 255
218 234 255
218 234 255
218 234 255
218 234 255
218 234 255
218 234 255
218 234 255
218 234 255
218 234 255
218 234 255
218 234 255
218 234 255
218 234 255
218 234 255
218 234 255
218 234 255
218 234 255
218 234 255
218 234 255
218 234 255
218 234 255
218 234 255
218 234 255
218 234 255
218 234 255
218 234 255
218 234 255
218 234 255
218 234 255
218 234 255
218 234 255
218 234 255
218 234 255
218 234 255
218 234 255
218 234 255
218 234 255
218 234 255
218 234 255
218 234 255
218 234 255
218 234 255
218 234 255
218 234 255
218 234 255
218 234 255
218 234 255
218 234 255
218 234 255
218 234 255
218 234 255
218 234 255
218 234 255
218 234 255
218 234 255
218 234 255
218 234 255
218 234 255
218 234 255
218 234 255
218 234 255
218 234 255
218 234 255
218 234 255
218 234 255
218 234 255
218 234 255
218 234 255
218 234 255
218 234 255
218 234 255
218 234 255
218 234 255
218 234 255
218 234 255
218 234 255
218 234 255
218 234 255
218 234 255
218 234 255
218 234 255
218 234 255
218 234 255
218 234 255
218 234 255
218 234 255
218 234 255
218 234 255
218 234 255
218 234 255
218 234 255
218 234 255
218 234 255
218 234 255
218 234 255
218 234 255
218 234 255
218 234 255
218 234 255
218 234 255
218 234 255
218 234 255
218 234 255
218 234 255
218 234 255
218 234 255
218 234 255
218 234 255
218 234 255
218 234 255
218 234 255
218 234 255
218 234 255
218 234 255
218 234 255
218 234 255
218 234 255
218 234 255
218 234 255
218 234 255
218 234 255
218 234 255
218 234 255
218 234 255
218 234 255
218 234 255
218 234 255
218 234 255
218 234 255
218 234 255
218 234 255
218 234 255
218 234 255
218 234 255
218 234 255
218 234 255
218 234 255
218 234 255
218 234 255
218 234 255
218 234 255
218 234 255
218 234 255
218 234 255
218 234 255
218 234 255
218 234 255
218 234 255
218 234 255
218 234 255
218 234 255
218 234 255
218 234 255
218 234 255
218 234 255
218 234 255
218 234 255
218 234 255
218 234 255
218 234 255
218 234 255
218 234 255
218 234 255
218 234 255
218 234 255
218 234 255
218 234 255
218 234 255
218 234 255
218 234 255
218 234 255
218 234 255
218 234 255
218 234 255
218 234 255
218 234 255
218 234 255
218 234 255
218 234 255
218 234 255
218 234 255
218 234 255
218 234 255
218 234 255
218 234 255
218 234 255
218 234 255
218 234 255
218 234 255
218 234 255
218 234 255
218 234 255
218 234 255
218 234 255
218 234 255
218 234 255
218 234 255
218 234 255
218 234 255
218 234 255
218 234 255
218 234 255
218 234 255
157 169 185
0 0 15
0 0 14
0 0 12
0 0 0
0 0 3
0 0 14
0 0 10
0 0 4
0 0 14
0 0 13
0 0 16
0 0 20
0 0 17
0 0 17
0 0 21
0 0 20
0 0 16
0 0 18
0 0 21
0 0 20
0 0 19
0 0 18
0 0 20
0 0 22
0 0 22
0 0 25
0 0 26
0 0 28
0 0 31
0 0 31
0 0 29
0 0 31
0 0 32
0 0 35
0 0 35
0 0 35
0 0 35
0 5 38
0 5 39
0 0 38
0 0 37
0 1 39
0 5 44
0 4 42
0 6 39
0 11 41
0 13 44
0 14 47
0 13 45
0 12 49
0 13 57
0 18 70
20 41 96
22 44 92
38 64 99
61 82 104
46 60 71
14 35 59
0 24 72
12 38 102
18 45 100
28 56 95
19 43 44
12 31 16
16 30 3
24 31 8
43 47 27
47 50 26
59 62 39
68 69 45
66 62 37
73 69 43
82 77 53
76 73 50
75 77 56
49 54 35
30 40 14
42 55 29
27 39 17
27 52 69
14 45 100
12 32 89
5 26 69
0 23 60
0 17 58
0 14 50
0 14 48
0 14 48
0 14 50
0 14 46
0 10 44
0 14 49
0 14 51
0 12 51
6 25 66
16 42 90
22 51 107
21 53 116
14 52 118
13 55 122
14 52 116
13 45 103
4 26 75
6 25 69
6 27 69
7 24 68
0 26 73
0 30 77
0 33 84
5 36 85
7 38 82
13 39 83
20 38 93
18 45 101
13 51 110
7 52 116
7 51 117
16 51 128
29 64 127
40 79 127
9 45 92
14 52 107
24 62 117
21 51 99
17 37 79
8 22 56
0 3 25
0 0 18
0 0 7
0 0 0
0 0 5
0 0 7
0 0 16
0 0 9
0 0 4
0 0 0
0 0 0
0 0 0
0 0 0
0 0 0
0 0 0
0 0 0
0 0 0
0 0 0
0 0 0
0 0 0
0 0 0
0 0 0
0 0 0
0 0 0
0 0 0
0 0 0
0 0 0
0 0 12
0 0 11
0 0 0
0 0 10
0 0 16
0 0 13
0 0 0
0 0 9
0 0 16
0 0 16
0 0 16
0 0 16
0 0 18
0 0 24
0 0 29
0 8 43
0 15 50
0 15 49
0 15 49
0 11 44
0 6 40
0 5 34
0 2 26
0 0 19
0 0 16
0 0 11
0 0 0
0 0 0
0 0 0
0 0 0
0 0 0
0 0 0
0 0 9
0 0 15
0 0 9
0 0 17
0 11 45
160 171 189
218 234 255
218 234 255
218 234 255
218 234 255
218 234 255
218 234 255
218 234 255
218 234 255
218 234 255
218 234 255
218 234 255
218 234 255
218 234 255
218 234 255
218 234 255
218 234 255
218 234 255
218 234 255
218 234 255
218 234 255
218 234 255
218 234 255
218 234 255
218 234 255
218 234 255
218 234 255
218 234 255
218 234 255
218 234 255
218 234 255
218 234 255
218 234 255
218 234 255
218 234 255
218 234 255
218 234 255
218 234 255
218 234 255
218 234 255
218 234 255
218 234 255
218 234 255
218 234 255
218 234 255
218 234 255
218 234 255
218 234 255
218 234 255
218 234 255
218 234 255
218 234 255
218 234 255
218 234 255
218 234 255
218 234 255
218 234 255
218 234 255
218 234 255
218 234 255
218 234 255
218 234 255
218 234 255
218 234 255
218 234 255
218 234 255
218 234 255
218 234 255
218 234 255
218 234 255
218 234 255
218 234 255
218 234 255
218 234 255
218 234 255
218 234 255
218 234 255
218 234 255
218 234 255
218 234 255
218 234 255
218 234 255
218 234 255
218 234 255
218 234 255
218 234 255
218 234 255
218 234 255
218 234 255
218 234 255
218 234 255
218 234 255
218 234 255
218 234 255
218 234 255
218 234 255
218 234 255
218 234 255
218 234 255
218 234 255
218 234 255
218 234 255
218 234 255
218 234 255
218 234 255
218 234 255
218 234 255
218 234 255
218 234 255
218 234 255
218 234 255
218 234 255
218 234 255
218 234 255
218 234 255
218 234 255
218 234 255
218 234 255
218 234 255
218 234 255
218 234 255
218 234 255
218 234 255
218 234 255
218 234 255
218 234 255
218 234 255
218 234 255
218 234 255
218 234 255
218 234 255
218 234 255
218 234 255
218 234 255
218 234 255
218 234 255
218 234 255
218 234 255
218 234 255
218 234 255
218 234 255
218 234 255
218 234 255
218 234 255
218 234 255
218 234 255
218 234 255
218 234 255
218 234 255
218 234 255
218 234 255
218 234 255
218 234 255
218 234 255
218 234 255
218 234 255
218 234 255
218 234 255
218 234 255
218 234 255
218 234 255
218 234 255
218 234 255
218 234 255
218 234 255
218 234 255
218 234 255
218 234 255
218 234 255
218 234 255
218 234 255
218 234 255
218 234 255
218 234 255
218 234 255
218 234 255
218 234 255
218 234 255
218 234 255
218 234 255
218 234 255
218 234 255
218 234 255
218 234 255
218 234 255
218 234 255
218 234 255
218 234 255
218 234 255
218 234 255
218 234 255
218 234 255
218 234 255
218 234 255
218 234 255
218 234 255
218 234 255
218 234 255
218 234 255
218 234 255
218 234 255
218 234 255
218 234 255
218 234 255
218 234 255
218 234 255
218 234 255
218 234 255
202 217 237
30 33 41
0 0 17
0 0 14
0 0 9
0 0 6
0 0 9
0 0 14
0 0 2
0 0 11
0 0 12
0 0 8
0 0 16
0 0 18
0 0 18
0 0 16
0 0 17
0 0 16
0 0 20
0 0 21
0 0 17
0 0 16
0 0 16
0 0 16
0 0 16
0 0 21
0 0 22
0 0 27
0 0 26
0 0 27
0 0 31
0 0 29
0 0 32
0 0 32
0 0 32
0 0 35
0 0 35
0 0 35
0 0 35
0 0 38
0 0 39
0 0 39
0 0 39
0 4 40
0 6 43
0 2 39
0 11 38
0 14 42
0 12 43
0 14 46
0 10 45
0 13 52
0 15 58
0 17 59
3 22 70
14 37 90
13 41 82
39 54 81
52 67 92
23 39 64
4 26 69
0 27 80
8 40 95
15 45 93
26 51 84
17 39 47
14 30 12
23 33 0
30 35 5
35 39 10
53 55 30
65 65 40
66 63 38
89 85 60
81 75 50
68 66 43
67 69 48
56 63 42
21 31 5
33 47 18
24 36 13
19 52 76
12 44 93
12 30 77
7 25 67
0 23 64
0 16 54
0 14 47
0 14 44
0 14 45
0 14 47
0 13 45
0 13 48
0 11 51
0 18 64
6 31 83
14 46 104
16 55 118
17 56 123
17 54 124
16 54 123
14 54 117
13 51 112
13 49 110
7 42 96
11 44 94
5 32 81
6 29 80
5 30 74
15 41 77
14 42 65
18 48 64
22 52 70
21 48 71
25 48 63
22 45 63
17 46 59
15 51 72
13 55 96
17 53 112
16 52 111
12 55 109
15 55 113
18 55 115
18 57 112
24 55 107
26 51 99
8 27 68
3 16 50
5 14 39
0 0 22
0 0 19
0 0 16
0 0 16
0 0 11
0 0 7
0 0 0
0 0 0
0 0 0
0 0 0
0 0 0
0 0 0
0 0 0
0 0 0
0 0 0
0 0 0
0 0 0
0 0 0
0 0 0
0 0 0
0 0 0
0 0 0
0 0 0
0 0 0
0 0 0
0 0 0
0 0 0
0 0 0
0 0 3
0 0 14
0 0 14
0 0 1
0 0 4
0 0 15
0 0 16
0 0 16
0 0 16
0 0 13
0 0 19
0 0 23
0 8 37
7 18 50
0 16 51
0 16 50
0 8 42
0 9 41
0 5 35
0 0 23
0 0 16
0 0 15
0 0 10
0 0 0
0 0 0
0 0 0
0 0 0
0 0 0
0 0 0
0 0 0
0 0 11
0 0 11
0 0 11
0 7 34
62 69 92
210 224 244
218 234 255
218 234 255
218 234 255
218 234 255
218 234 255
218 234 255
218 234 255
218 234 255
218 234 255
218 234 255
218 234 255
218 234 255
218 234 255
218 234 255
218 234 255
218 234 255
218 234 255
218 234 255
218 234 255
218 234 255
218 234 255
218 234 255
218 234 255
218 234 255
218 234 255
218 234 255
218 234 255
218 234 255
218 234 255
218 234 255
218 234 255
218 234 255
218 234 255
218 234 255
218 234 255
218 234 255
218 234 255
218 234 255
218 234 255
218 234 255
218 234 255
218 234 255
218 234 255
218 234 255
218 234 255
218 234 255
218 234 255
218 234 255
218 234 255
218 234 255
218 234 255
218 234 255
218 234 255
218 234 255
218 234 255
218 234 255
218 234 255
218 234 255
218 234 255
218 234 255
218 234 255
218 234 255
218 234 255
218 234 255
218 234 255
218 234 255
218 234 255
218 234 255
218 234 255
218 234 255
218 234 255
218 234 255
218 234 255
218 234 255
218 234 255
218 234 255
218 234 255
218 234 255
218 234 255
218 234 255
218 234 255
218 234 255
218 234 255
218 234 255
218 234 255
218 234 255
218 234 255
218 234 255
218 234 255
218 234 255
218 234 255
218 234 255
218 234 255
218 234 255
218 234 255
218 234 255
218 234 255
218 234 255
218 234 255
218 234 255
218 234 255
218 234 255
218 234 255
219 234 255
219 234 255
219 234 255
219 234 255
219 234 255
219 234 255
219 234 255
219 234 255
219 234 255
219 234 255
219 234 255
219 234 255
219 234 255
219 234 255
219 234 255
219 234 255
219 234 255
219 234 255
219 234 255
219 234 255
219 234 255
219 234 255
219 234 255
219 234 255
219 234 255
219 234 255
219 234 255
219 234 255
219 234 255
219 234 255
219 234 255
219 234 255
219 234 255
219 234 255
219 234 255
219 234 255
219 234 255
218 234 255
218 234 255
218 234 255
218 234 255
218 234 255
218 234 255
218 234 255
218 234 255
218 234 255
218 234 255
218 234 255
218 234 255
218 234 255
218 234 255
218 234 255
218 234 255
218 234 255
218 234 255
218 234 255
218 234 255
218 234 255
218 234 255
218 234 255
218 234 255
218 234 255
218 234 255
218 234 255
218 234 255
218 234 255
218 234 255
218 234 255
218 234 255
218 234 255
218 234 255
218 234 255
218 234 255
218 234 255
218 234 255
218 234 255
218 234 255
218 234 255
218 234 255
218 234 255
218 234 255
218 234 255
218 234 255
218 234 255
218 234 255
218 234 255
218 234 255
218 234 255
218 234 255
218 234 255
218 234 255
218 234 255
218 234 255
218 234 255
218 234 255
218 234 255
218 234 255
218 234 255
218 234 255
218 234 255
218 234 255
218 234 255
218 234 255
143 153 169
0 0 17
0 0 17
0 0 17
0 0 6
0 0 10
0 0 14
0 0 11
0 0 3
0 0 15
0 0 6
0 0 12
0 0 16
0 0 15
0 0 16
0 0 16
0 0 16
0 0 16
0 0 16
0 0 16
0 0 16
0 0 16
0 0 16
0 0 16
0 0 20
0 0 21
0 0 22
0 0 26
0 0 28
0 0 32
0 0 32
0 0 33
0 0 33
0 0 34
0 0 35
0 0 35
0 0 35
0 0 35
0 0 35
0 0 38
0 0 39
0 0 39
0 0 39
0 3 39
0 2 39
0 0 36
0 10 38
0 14 44
0 13 43
0 14 45
0 14 48
0 16 53
0 16 54
0 21 51
0 16 59
0 21 70
3 30 71
20 35 70
25 34 71
5 19 58
0 25 64
0 26 66
2 33 75
9 39 92
24 50 106
24 52 75
17 37 24
24 36 5
32 39 12
37 45 21
38 43 18
55 58 32
59 59 34
81 79 55
76 72 49
71 68 47
56 58 36
55 64 41
24 37 9
41 58 29
35 55 34
28 57 73
10 38 83
7 29 84
3 25 71
0 24 61
0 18 56
0 14 48
0 14 45
0 14 47
0 16 52
0 15 51
0 17 59
11 36 87
17 52 103
19 57 112
15 54 114
14 58 124
13 55 124
13 55 125
14 53 122
14 52 117
18 53 115
16 50 116
6 45 108
5 40 93
2 32 77
14 37 84
27 49 81
17 42 65
15 44 68
16 50 73
22 56 75
14 47 58
15 45 32
21 48 31
25 50 30
24 51 39
23 52 59
24 55 78
23 58 88
17 57 102
18 55 111
18 53 115
21 58 118
8 35 85
0 27 68
7 29 67
47 69 114
17 33 72
10 22 52
0 8 34
0 0 23
0 0 17
0 0 14
0 0 10
0 0 0
0 0 9
0 0 10
0 0 4
0 0 0
0 0 0
0 0 0
0 0 0
0 0 0
0 0 0
0 0 0
0 0 0
0 0 0
0 0 0
0 0 0
0 0 0
0 0 0
0 0 0
0 0 0
0 0 0
0 0 0
0 0 0
0 0 0
0 0 0
0 0 0
0 0 0
0 0 0
0 0 12
0 0 16
0 0 16
0 0 15
0 0 16
0 5 24
3 9 31
0 0 27
0 3 36
0 5 39
0 12 47
0 11 45
0 2 38
0 0 34
0 0 26
0 0 16
0 0 16
0 0 6
0 0 0
0 0 0
0 0 0
0 0 0
0 0 0
0 0 0
0 0 0
0 0 0
0 0 7
0 0 14
0 0 21
3 18 57
163 174 191
218 234 255
218 234 255
218 234 255
218 234 255
218 234 255
218 234 255
218 234 255
218 234 255
218 234 255
218 234 255
218 234 255
218 234 255
218 234 255
218 234 255
218 234 255
218 234 255
218 234 255
218 234 255
218 234 255
218 234 255
218 234 255
218 234 255
218 234 255
218 234 255
218 234 255
218 234 255
218 234 255
218 234 255
218 234 255
218 234 255
218 234 255
218 234 255
218 234 255
218 234 255
218 234 255
218 234 255
218 234 255
218 234 255
218 234 255
218 234 255
218 234 255
218 234 255
218 234 255
218 234 255
218 234 255
218 234 255
218 234 255
218 234 255
218 234 255
218 234 255
218 234 255
218 234 255
218 234 255
218 234 255
218 234 255
218 234 255
218 234 255
218 234 255
218 234 255
218 234 255
218 234 255
218 234 255
218 234 255
218 234 255
218 234 255
218 234 255
218 234 255
218 234 255
218 234 255
219 234 255
219 234 255
219 234 255
219 234 255
219 234 255
219 234 255
219 234 255
219 234 255
219 234 255
219 234 255
219 234 255
219 234 255
219 234 255
219 234 255
219 234 255
219 234 255
219 234 255
219 234 255
219 234 255
219 234 255
219 234 255
219 234 255
219 234 255
219 234 255
219 234 255
219 234 255
219 234 255
219 234 255
219 234 255
219 234 255
219 234 255
219 234 255
219 234 255
219 234 255
219 234 255
219 234 255
219 234 255
219 234 255
219 234 255
219 234 255
219 234 255
219 234 255
219 234 255
219 234 255
219 234 255
219 234 255
219 234 255
219 234 255
219 234 255
219 234 255
219 234 255
219 234 255
219 234 255
219 234 255
219 234 255
219 234 255
219 234 255
219 234 255
219 234 255
219 234 255
219 234 255
219 234 255
219 234 255
219 234 255
219 234 255
219 234 255
219 234 255
219 234 255
219 234 255
219 234 255
219 234 255
219 234 255
219 234 255
219 234 255
219 234 255
219 234 255
219 234 255
219 234 255
219 234 255
219 234 255
219 234 255
219 234 255
219 234 255
219 234 255
219 234 255
219 234 255
219 234 255
219 234 255
219 234 255
219 234 255
219 234 255
219 234 255
219 234 255
219 234 255
219 234 255
219 234 255
219 234 255
219 234 255
219 234 255
219 234 255
219 234 255
219 234 255
219 234 255
219 234 255
219 234 255
219 234 255
219 234 255
219 234 255
219 234 255
219 234 255
219 234 255
219 234 255
219 234 255
219 234 255
219 234 255
219 234 255
219 234 255
219 234 255
219 234 255
219 234 255
219 234 255
219 234 255
219 234 255
219 234 255
219 234 255
219 234 255
219 234 255
219 234 255
219 234 255
219 234 255
219 234 255
219 234 255
219 234 255
219 234 255
218 234 255
219 234 255
204 218 239
61 66 75
0 0 22
0 0 23
0 0 17
0 0 8
0 0 8
0 0 15
0 0 10
0 0 12
0 0 13
0 0 2
0 0 12
0 0 10
0 0 14
0 0 16
0 0 16
0 0 16
0 0 16
0 0 16
0 0 16
0 0 16
0 0 16
0 0 16
0 0 17
0 0 18
0 0 16
0 0 20
0 0 24
0 0 30
0 0 34
0 0 32
0 8 36
0 7 36
0 0 34
0 0 34
0 0 35
0 0 36
0 0 35
0 0 36
0 0 39
0 0 38
0 2 37
0 6 39
0 2 39
0 10 40
0 3 39
0 7 41
0 13 43
0 8 42
0 13 45
0 14 48
0 14 48
0 18 52
0 20 56
0 20 58
0 19 59
0 21 61
0 21 63
0 19 61
0 23 62
0 23 62
0 20 64
0 23 72
8 34 94
18 52 113
16 54 82
18 42 29
19 31 0
23 33 5
30 43 19
34 46 17
36 44 13
57 63 36
74 77 53
74 72 50
59 55 32
47 49 25
53 60 35
25 37 9
36 54 23
28 52 21
25 53 56
16 45 87
0 32 92
0 30 74
0 25 60
0 18 60
0 14 53
0 14 52
0 15 53
0 17 57
4 24 66
20 45 99
21 55 117
17 57 117
13 55 112
18 56 115
14 56 115
14 54 115
16 55 111
19 55 108
19 55 100
23 58 101
20 54 108
10 43 106
0 32 86
7 35 76
21 43 83
17 35 60
16 34 54
22 48 77
24 54 84
25 56 83
32 62 85
30 52 61
15 39 37
19 42 30
20 42 30
21 42 39
22 41 40
28 49 52
41 67 84
14 40 68
12 41 84
12 43 96
17 43 99
11 36 78
3 29 63
18 41 82
10 36 78
11 30 63
3 17 46
16 29 55
9 17 37
0 1 26
0 0 20
0 0 10
0 0 16
0 0 15
0 0 16
0 0 13
0 0 0
0 0 0
0 0 0
0 0 0
0 0 0
0 0 0
0 0 12
0 0 10
0 0 0
0 0 0
0 0 0
0 0 0
0 0 0
0 0 0
0 0 6
0 0 10
0 0 9
0 0 7
0 0 6
0 0 0
0 0 0
0 0 0
0 0 10
0 0 16
0 0 15
0 0 15
0 0 16
0 0 15
2 5 27
0 0 31
0 3 32
0 8 40
0 13 49
0 14 51
0 9 43
0 0 28
0 0 24
0 0 16
0 0 16
0 0 10
0 0 0
0 0 0
0 0 0
0 0 0
0 0 8
0 0 1
0 0 0
0 0 0
0 0 3
0 0 15
0 0 16
0 10 42
77 85 108
215 229 250
219 234 255
219 234 255
219 234 255
218 234 255
219 234 255
219 234 255
219 234 255
219 234 255
219 234 255
219 234 255
219 234 255
219 234 255
219 234 255
219 234 255
219 234 255
219 234 255
219 234 255
219 234 255
219 234 255
219 234 255
219 234 255
219 234 255
219 234 255
219 234 255
219 234 255
219 234 255
219 234 255
219 234 255
219 234 255
219 234 255
219 234 255
219 234 255
219 234 255
219 234 255
219 234 255
219 234 255
219 234 255
219 234 255
219 234 255
219 234 255
219 234 255
219 234 255
219 234 255
219 234 255
219 234 255
219 234 255
219 234 255
219 234 255
219 234 255
219 234 255
219 234 255
219 234 255
219 234 255
219 234 255
219 234 255
219 234 255
219 234 255
219 234 255
219 234 255
219 234 255
219 234 255
219 234 255
219 234 255
219 234 255
219 234 255
219 234 255
219 234 255
219 234 255
219 234 255
219 234 255
219 234 255
219 234 255
219 234 255
219 234 255
219 234 255
219 234 255
219 234 255
219 234 255
219 234 255
219 234 255
219 234 255
219 234 255
219 234 255
219 234 255
219 234 255
219 234 255
219 234 255
219 234 255
219 234 255
219 234 255
219 234 255
219 234 255
219 234 255
219 234 255
219 234 255
219 234 255
219 234 255
219 234 255
219 234 255
219 234 255
219 234 255
219 234 255
219 234 255
219 234 255
219 234 255
219 234 255
219 234 255
219 234 255
219 234 255
219 234 255
219 234 255
219 234 255
219 234 255
219 234 255
219 234 255
219 234 255
219 234 255
219 234 255
219 234 255
219 234 255
219 234 255
219 234 255
219 234 255
219 234 255
219 234 255
219 234 255
219 234 255
219 234 255
219 234 255
219 234 255
219 234 255
219 234 255
219 234 255
219 234 255
219 234 255
219 234 255
219 234 255
219 234 255
219 234 255
219 234 255
219 234 255
219 234 255
219 234 255
219 234 255
219 234 255
219 234 255
219 234 255
219 234 255
219 234 255
219 234 255
219 234 255
219 234 255
219 234 255
219 234 255
219 234 255
219 234 255
219 234 255
219 234 255
219 234 255
219 234 255
219 234 255
219 234 255
219 234 255
219 234 255
219 234 255
219 234 255
219 234 255
219 234 255
219 234 255
219 234 255
219 234 255
219 234 255
219 234 255
219 234 255
219 234 255
219 234 255
219 234 255
219 234 255
219 234 255
219 234 255
219 234 255
219 234 255
219 234 255
219 234 255
219 234 255
219 234 255
219 234 255
219 234 255
219 234 255
219 234 255
219 234 255
219 234 255
219 234 255
219 234 255
219 234 255
219 234 255
219 234 255
219 234 255
219 234 255
219 234 255
219 234 255
219 234 255
219 234 255
219 234 255
147 157 173
0 0 22
0 0 26
0 0 29
0 0 16
0 0 5
0 0 7
0 0 10
0 0 3
0 0 2
0 0 0
0 0 3
0 0 3
0 0 0
0 0 11
0 0 11
0 0 11
0 0 12
0 0 7
0 0 8
0 0 13
0 0 12
0 0 14
0 0 16
0 0 18
0 0 17
0 0 16
0 0 19
0 0 23
0 0 27
0 0 29
0 0 27
0 3 33
0 5 36
0 0 35
0 0 36
0 0 35
0 0 35
0 0 35
0 0 37
0 0 39
0 0 39
0 0 39
0 6 39
0 13 43
0 10 42
0 0 42
0 11 42
0 14 45
0 13 45
0 14 46
0 14 47
0 14 49
0 14 52
0 17 56
0 20 58
0 21 60
0 20 60
0 21 64
0 21 67
0 24 66
0 21 62
0 23 64
0 25 69
10 37 85
21 53 111
22 54 93
26 48 48
21 33 6
23 35 0
26 40 10
34 47 14
39 49 16
46 55 22
50 57 27
63 64 38
63 65 39
39 43 16
27 35 7
22 33 5
30 47 13
25 51 5
18 47 38
19 49 86
4 35 93
0 31 77
0 27 65
0 17 61
0 14 56
0 14 57
0 20 60
0 21 63
4 26 76
21 53 113
16 53 122
14 54 127
14 55 120
16 53 106
22 56 92
24 56 86
21 53 79
18 49 65
23 55 63
17 49 61
16 52 86
13 43 95
10 33 87
6 26 67
1 12 40
2 13 42
3 18 43
9 26 47
12 31 49
14 31 53
26 43 70
24 40 66
10 24 48
3 22 35
16 37 50
25 49 69
26 49 62
27 44 29
24 42 27
23 46 40
13 36 46
4 27 52
3 24 66
0 23 66
0 21 66
6 27 75
9 32 68
5 27 56
3 25 60
46 71 107
55 82 116
0 23 45
0 8 26
0 0 21
0 0 12
0 0 5
0 0 10
0 0 14
0 0 1
0 0 11
0 0 15
0 0 10
0 0 3
0 0 9
0 0 15
0 0 15
0 0 8
0 0 0
0 0 8
0 0 8
0 0 6
0 0 5
0 0 12
0 0 16
0 0 16
0 0 16
0 0 13
0 0 0
0 0 0
0 0 0
0 0 7
0 0 16
0 0 15
0 0 14
0 0 15
0 0 17
0 0 22
0 0 20
0 0 27
0 10 38
0 10 45
0 19 56
0 15 50
0 5 37
0 0 26
0 0 19
0 0 15
0 0 5
0 0 0
0 0 0
0 0 0
0 0 0
0 0 0
0 0 0
0 0 0
0 0 0
0 0 0
0 0 13
0 0 15
0 2 25
8 32 79
160 169 187
219 234 255
219 234 255
219 234 255
219 234 255
219 234 255
219 234 255
219 234 255
219 234 255
219 234 255
219 234 255
219 234 255
219 234 255
219 234 255
219 234 255
219 234 255
219 234 255
219 234 255
219 234 255
219 234 255
219 234 255
219 234 255
219 234 255
219 234 255
219 234 255
219 234 255
219 234 255
219 234 255
219 234 255
219 234 255
219 234 255
219 234 255
219 234 255
219 234 255
219 234 255
219 234 255
219 234 255
219 234 255
219 234 255
219 234 255
219 234 255
219 234 255
219 234 255
219 234 255
219 234 255
219 234 255
219 234 255
219 234 255
219 234 255
219 234 255
219 234 255
219 234 255
219 234 255
219 234 255
219 234 255
219 234 255
219 234 255
219 234 255
219 234 255
219 234 255
219 234 255
219 234 255
219 234 255
219 234 255
219 234 255
219 234 255
219 234 255
219 234 255
219 234 255
219 234 255
219 234 255
219 234 255
219 234 255
219 234 255
219 234 255
219 234 255
219 234 255
219 234 255
219 234 255
219 234 255
219 234 255
219 234 255
219 234 255
219 234 255
219 234 255
219 234 255
219 234 255
219 234 255
219 234 255
219 234 255
219 234 255
219 234 255
219 234 255
219 234 255
219 234 255
219 234 255
219 234 255
219 234 255
219 234 255
219 234 255
219 234 255
219 234 255
219 234 255
219 234 255
219 234 255
219 234 255
219 234 255
219 234 255
219 234 255
219 234 255
219 234 255
219 234 255
219 234 255
219 234 255
219 234 255
219 234 255
219 234 255
219 234 255
219 234 255
219 234 255
219 234 255
219 234 255
219 234 255
219 234 255
219 234 255
219 234 255
219 234 255
219 234 255
219 234 255
219 234 255
219 234 255
219 234 255
219 234 255
219 234 255
219 234 255
219 234 255
219 234 255
219 234 255
219 234 255
219 234 255
219 234 255
219 234 255
219 234 255
219 234 255
219 234 255
219 234 255
219 234 255
219 234 255
219 234 255
219 234 255
219 234 255
219 234 255
219 234 255
219 234 255
219 234 255
219 234 255
219 234 255
219 234 255
219 234 255
219 234 255
219 234 255
219 234 255
219 234 255
219 234 255
219 234 255
219 234 255
219 234 255
219 234 255
219 234 255
219 234 255
219 234 255
219 234 255
219 234 255
219 234 255
219 234 255
219 234 255
219 234 255
219 234 255
219 234 255
219 234 255
219 234 255
219 234 255
219 234 255
219 234 255
219 234 255
219 234 255
219 234 255
219 234 255
219 234 255
219 234 255
219 234 255
219 234 255
219 234 255
219 234 255
219 234 255
219 234 255
219 234 255
219 234 255
219 234 255
219 234 255
219 234 255
219 234 255
219 234 255
219 234 255
216 232 253
69 76 93
0 0 24
0 0 32
0 0 30
0 0 10
0 0 4
0 0 0
0 0 0
0 0 0
0 0 0
0 0 6
0 0 13
0 0 14
0 0 3
0 0 0
0 0 0
0 0 0
0 0 1
0 0 0
0 0 0
0 0 0
0 0 3
0 0 16
0 0 16
0 0 18
0 0 17
0 0 16
0 0 20
0 0 22
0 0 27
0 0 27
0 0 27
0 0 27
0 0 31
0 0 35
0 0 35
0 0 35
0 0 35
0 0 35
0 0 38
0 6 39
0 12 41
0 6 39
0 12 42
0 14 44
0 13 44
0 10 42
0 14 44
0 14 45
0 14 45
0 14 46
0 14 47
0 14 50
0 14 52
0 14 55
0 18 58
0 20 59
0 20 61
0 22 65
0 24 71
0 22 68
0 20 63
0 23 63
0 21 60
0 17 49
11 37 87
27 55 100
24 42 52
21 33 7
19 34 0
28 43 12
29 44 3
37 51 15
38 50 13
36 47 8
48 54 23
53 61 34
46 55 29
35 44 19
17 26 4
22 37 0
27 50 10
17 43 30
27 54 82
15 41 95
0 31 86
0 27 72
0 20 62
0 18 63
0 19 66
0 24 71
0 25 71
4 32 86
17 55 114
14 56 124
14 53 128
20 55 115
17 49 80
20 48 47
23 48 43
18 44 31
13 39 18
13 41 17
0 32 13
13 45 66
16 41 84
10 25 70
0 7 38
0 0 27
0 0 36
0 3 35
0 4 27
0 4 23
0 2 28
0 2 37
0 4 53
0 3 54
0 7 49
0 14 48
13 35 67
26 54 83
20 52 62
16 45 38
21 46 28
37 56 45
40 54 52
29 44 55
25 43 58
9 29 63
2 24 75
14 33 81
32 56 91
6 22 47
11 28 57
29 53 89
16 41 76
12 31 62
1 13 41
0 6 26
0 0 7
0 0 0
0 0 15
0 0 15
0 0 15
0 0 16
0 0 16
0 0 14
0 0 15
0 0 16
0 0 16
0 0 15
0 0 12
0 0 15
0 0 16
0 0 16
0 0 16
0 0 16
0 0 16
0 0 16
0 0 16
0 0 15
0 0 2
0 0 0
0 0 0
0 0 0
0 0 14
0 0 14
0 0 14
0 0 14
0 0 16
0 0 20
0 0 24
0 0 27
0 10 38
0 14 47
0 16 53
0 15 52
0 8 42
0 0 33
0 0 22
0 0 16
0 0 9
0 0 0
0 0 0
0 0 0
0 0 0
0 0 0
0 0 10
0 0 2
0 0 0
0 0 0
0 0 9
0 0 14
0 0 17
0 13 46
111 113 128
218 233 254
219 234 255
219 234 255
219 234 255
219 234 255
219 234 255
219 234 255
219 234 255
219 234 255
219 234 255
219 234 255
219 234 255
219 234 255
219 234 255
219 234 255
219 234 255
219 234 255
219 234 255
219 234 255
219 234 255
219 234 255
219 234 255
219 234 255
219 234 255
219 234 255
219 234 255
219 234 255
219 234 255
219 234 255
219 234 255
219 234 255
219 234 255
219 234 255
219 234 255
219 234 255
219 234 255
219 234 255
219 234 255
219 234 255
219 234 255
219 234 255
219 234 255
219 234 255
219 234 255
219 234 255
219 234 255
219 234 255
219 234 255
219 234 255
219 234 255
219 234 255
219 234 255
219 234 255
219 234 255
219 234 255
219 234 255
219 234 255
219 234 255
219 234 255
219 234 255
219 234 255
219 234 255
219 234 255
219 234 255
219 234 255
219 234 255
219 234 255
219 234 255
219 234 255
219 234 255
219 234 255
219 234 255
219 234 255
219 234 255
219 234 255
219 234 255
219 234 255
219 234 255
219 234 255
219 234 255
219 234 255
219 234 255
219 234 255
219 234 255
219 234 255
219 234 255
219 234 255
219 234 255
219 234 255
219 234 255
219 234 255
219 234 255
219 234 255
219 234 255
219 234 255
219 234 255
219 234 255
219 234 255
219 234 255
219 234 255
219 234 255
219 234 255
219 234 255
219 234 255
219 234 255
219 234 255
219 234 255
219 234 255
219 234 255
219 234 255
219 234 255
219 234 255
219 234 255
219 234 255
219 234 255
219 234 255
219 234 255
219 234 255
219 234 255
219 234 255
219 234 255
219 234 255
219 234 255
219 234 255
219 234 255
219 234 255
219 234 255
219 234 255
219 234 255
219 234 255
219 234 255
219 234 255
219 234 255
219 234 255
219 234 255
219 234 255
219 234 255
219 234 255
219 234 255
219 234 255
219 234 255
219 234 255
219 234 255
219 234 255
219 234 255
219 234 255
219 234 255
219 234 255
219 234 255
219 234 255
219 234 255
219 234 255
219 234 255
219 234 255
219 234 255
219 234 255
219 234 255
219 234 255
219 234 255
219 234 255
219 234 255
219 234 255
219 234 255
219 234 255
219 234 255
219 234 255
219 234 255
219 234 255
219 234 255
219 234 255
219 234 255
219 234 255
219 234 255
219 234 255
219 234 255
219 234 255
219 234 255
219 234 255
219 234 255
219 234 255
219 234 255
219 234 255
219 234 255
219 234 255
219 234 255
219 234 255
219 234 255
219 234 255
219 234 255
219 234 255
219 234 255
219 234 255
219 234 255
219 234 255
219 234 255
219 234 255
219 234 255
219 234 255
219 234 255
219 234 255
219 234 255
219 234 255
219 234 255
176 189 208
11 22 52
0 0 25
0 0 32
0 0 25
0 0 3
0 0 0
0 0 0
0 0 0
0 0 0
0 0 0
0 0 13
0 0 16
0 0 13
0 0 0
0 0 0
0 0 0
0 0 0
0 0 0
0 0 0
0 0 0
0 0 0
0 0 10
0 0 16
0 0 16
0 0 16
0 0 16
0 0 16
0 0 16
0 0 20
0 0 24
0 0 27
0 0 29
0 0 30
0 0 30
0 0 32
0 0 34
0 0 35
0 0 35
0 0 35
0 0 38
0 6 39
0 6 40
0 0 39
0 5 40
0 12 43
0 14 45
0 14 45
0 14 44
0 14 45
0 14 46
0 14 46
0 14 46
0 14 49
0 14 53
0 15 57
0 16 57
0 19 59
0 20 62
0 23 66
0 25 70
0 22 68
0 20 65
0 20 61
0 21 56
0 17 44
6 28 74
20 45 85
15 32 38
16 29 1
21 35 8
31 47 19
35 52 20
32 49 11
34 49 13
31 45 10
34 47 12
32 44 12
40 51 23
46 56 33
43 52 34
30 39 18
21 37 7
26 48 27
27 50 56
25 50 88
6 33 88
0 28 74
0 25 66
0 23 71
0 28 79
0 29 81
0 35 84
0 36 91
11 53 104
15 57 116
17 52 121
24 54 98
18 45 53
18 39 16
22 42 12
17 38 2
15 36 3
10 32 4
13 35 29
16 41 65
22 38 75
6 13 42
0 0 23
0 0 27
0 0 32
0 1 36
0 7 36
0 9 34
0 6 38
2 13 49
4 19 65
0 17 63
6 24 68
2 25 67
0 18 58
1 26 64
6 44 78
20 54 75
28 54 59
28 45 35
44 53 39
41 52 39
22 38 30
15 37 47
10 32 69
11 30 79
13 27 68
4 18 36
0 10 38
6 19 55
12 28 70
14 32 74
8 25 60
23 41 71
3 12 32
0 0 14
0 0 16
0 0 11
0 0 10
0 0 13
0 0 14
0 0 9
0 0 11
0 0 16
0 0 16
0 0 16
0 0 16
0 0 16
0 0 16
0 0 16
0 0 16
0 0 16
0 0 16
0 0 16
0 0 16
0 0 16
0 0 7
0 0 0
0 0 0
0 0 0
0 0 12
0 0 16
0 0 16
0 0 18
0 0 17
0 0 17
0 0 23
0 0 31
0 5 38
0 14 46
0 20 57
0 20 57
0 13 46
0 4 37
0 0 26
0 0 18
0 0 13
0 0 0
0 0 0
0 0 0
0 0 0
0 0 4
0 0 14
0 0 15
0 0 3
0 0 0
0 0 0
0 0 14
0 0 14
0 4 29
34 46 82
190 198 209
219 234 255
219 234 255
219 234 255
219 234 255
219 234 255
219 234 255
219 234 255
219 234 255
219 234 255
219 234 255
219 234 255
219 234 255
219 234 255
219 234 255
219 234 255
219 234 255
219 234 255
219 234 255
219 234 255
219 234 255
219 234 255
219 234 255
219 234 255
219 234 255
219 234 255
219 234 255
219 234 255
219 234 255
219 234 255
219 234 255
219 234 255
219 234 255
219 234 255
219 234 255
219 234 255
219 234 255
219 234 255
219 234 255
219 234 255
219 234 255
219 234 255
219 234 255
219 234 255
219 234 255
219 234 255
219 234 255
219 234 255
219 234 255
219 234 255
219 234 255
219 234 255
219 234 255
219 234 255
219 234 255
219 234 255
219 234 255
219 234 255
219 234 255
219 234 255
219 234 255
219 234 255
219 234 255
219 234 255
219 234 255
219 234 255
219 234 255
219 234 255
219 234 255
219 234 255
219 234 255
219 234 255
219 234 255
219 234 255
219 234 255
219 234 255
219 234 255
219 234 255
219 234 255
219 234 255
219 234 255
219 234 255
219 234 255
219 234 255
219 234 255
219 234 255
219 234 255
219 234 255
219 234 255
219 234 255
219 234 255
219 234 255
219 234 255
219 234 255
219 234 255
219 234 255
219 234 255
219 234 255
219 234 255
219 234 255
219 234 255
219 234 255
219 234 255
219 234 255
219 234 255
219 234 255
219 234 255
219 234 255
219 234 255
219 234 255
219 234 255
219 234 255
219 234 255
219 234 255
219 234 255
219 234 255
219 234 255
219 234 255
219 234 255
219 234 255
219 234 255
219 234 255
219 234 255
219 234 255
219 234 255
219 234 255
219 234 255
219 234 255
219 234 255
219 234 255
219 234 255
219 234 255
219 234 255
219 234 255
219 234 255
219 234 255
219 234 255
219 234 255
219 234 255
219 234 255
219 234 255
219 234 255
219 234 255
219 234 255
219 234 255
219 234 255
219 234 255
219 234 255
219 234 255
219 234 255
219 234 255
219 234 255
219 234 255
219 234 255
219 234 255
219 234 255
219 234 255
219 234 255
219 234 255
219 234 255
219 234 255
219 234 255
219 234 255
219 234 255
219 234 255
219 234 255
219 234 255
219 234 255
219 234 255
219 234 255
219 234 255
219 234 255
219 234 255
219 234 255
219 234 255
219 234 255
219 234 255
219 234 255
219 234 255
219 234 255
219 234 255
219 234 255
219 234 255
219 234 255
219 234 255
219 234 255
219 234 255
219 234 255
219 234 255
219 234 255
219 234 255
219 234 255
219 234 255
219 234 255
219 234 255
219 234 255
219 234 255
219 234 255
219 234 255
219 234 255
219 234 255
219 234 255
217 232 253
93 99 112
9 19 44
0 0 27
0 0 24
0 0 17
0 0 0
0 0 0
0 0 0
0 0 0
0 0 0
0 0 5
0 0 16
0 0 16
0 0 10
0 0 0
0 0 0
0 0 0
0 0 0
0 0 0
0 0 0
0 0 0
0 0 0
0 0 13
0 0 16
0 0 16
0 0 16
0 0 16
0 0 16
0 0 16
0 0 21
0 0 22
0 0 24
0 0 25
0 0 30
0 0 28
0 0 31
0 0 32
0 0 32
0 0 32
0 0 34
0 0 38
0 0 39
0 0 39
0 0 39
0 9 41
0 12 44
0 9 43
0 8 42
0 14 43
0 14 45
0 14 46
0 14 47
0 14 48
0 14 51
0 14 55
0 17 57
0 18 59
0 17 59
0 20 64
0 22 63
0 25 65
0 22 68
0 20 66
0 20 63
0 18 54
0 16 42
6 31 71
21 44 73
13 29 24
14 29 6
23 39 15
25 43 17
32 50 19
30 48 13
28 46 9
30 47 13
29 46 10
30 45 11
32 44 15
25 35 9
44 51 34
45 52 38
27 36 17
17 33 4
21 43 21
22 45 63
16 40 83
0 32 75
0 28 69
0 31 80
0 33 87
0 36 90
7 41 93
8 47 102
13 55 103
16 57 110
19 53 114
25 52 81
17 42 28
17 35 0
18 36 0
18 37 6
14 33 11
14 30 23
25 42 57
21 38 72
11 21 51
0 0 22
0 0 19
0 0 26
0 0 30
0 4 37
0 14 48
0 16 52
0 15 53
6 22 59
0 20 59
4 27 66
7 28 70
11 31 72
16 38 78
15 38 78
18 37 78
27 47 84
32 50 73
26 38 45
22 32 21
26 34 22
29 41 28
27 47 41
7 32 50
8 26 58
14 33 67
23 44 72
12 30 61
15 30 67
13 27 59
6 20 46
0 13 41
21 39 74
8 20 58
13 17 50
0 0 10
0 0 0
0 0 0
0 0 0
0 0 4
0 0 0
0 0 9
0 0 15
0 0 7
0 0 3
0 0 10
0 0 12
0 0 12
0 0 13
0 0 15
0 0 15
0 0 16
0 0 16
0 0 16
0 0 16
0 0 11
0 0 0
0 0 0
0 0 0
0 0 9
0 0 16
0 0 15
0 0 15
0 0 16
0 0 26
0 0 22
0 0 26
0 0 38
0 9 43
0 18 53
0 17 55
0 13 48
0 6 37
0 0 27
0 0 18
0 0 14
0 0 0
0 0 0
0 0 9
0 0 7
0 0 5
0 0 15
0 0 16
0 0 13
0 0 5
0 0 7
0 0 0
0 0 10
0 0 21
3 16 51
130 130 130
219 234 255
219 234 255
219 234 255
219 234 255
219 234 255
219 234 255
219 234 255
219 234 255
219 234 255
219 234 255
219 234 255
219 234 255
219 234 255
219 234 255
219 234 255
219 234 255
219 234 255
219 234 255
219 234 255
219 234 255
219 234 255
219 234 255
219 234 255
219 234 255
219 234 255
219 234 255
219 234 255
219 234 255
219 234 255
219 234 255
219 234 255
219 234 255
219 234 255
219 234 255
219 234 255
219 234 255
219 234 255
219 234 255
219 234 255
219 234 255
219 234 255
219 234 255
219 234 255
219 234 255
219 234 255
219 234 255
219 234 255
219 234 255
219 234 255
219 234 255
219 234 255
219 234 255
219 234 255
219 234 255
219 234 255
219 234 255
219 234 255
219 234 255
219 234 255
219 234 255
219 234 255
219 234 255
219 234 255
219 234 255
219 234 255
219 234 255
219 234 255
219 234 255
219 234 255
219 234 255
219 234 255
219 234 255
219 234 255
219 234 255
219 234 255
219 234 255
219 234 255
219 234 255
219 234 255
219 234 255
219 234 255
219 234 255
219 234 255
219 234 255
219 234 255
219 234 255
219 234 255
219 234 255
219 234 255
219 234 255
219 234 255
219 234 255
219 234 255
219 234 255
219 234 255
219 234 255
219 234 255
219 234 255
219 234 255
219 234 255
219 234 255
219 234 255
219 234 255
219 234 255
219 234 255
219 234 255
219 234 255
219 234 255
219 234 255
219 234 255
219 234 255
219 234 255
219 234 255
219 234 255
219 234 255
219 234 255
219 234 255
219 234 255
219 234 255
219 234 255
219 234 255
219 234 255
219 234 255
219 234 255
219 234 255
219 234 255
219 234 255
219 234 255
219 234 255
219 234 255
219 234 255
219 234 255
219 234 255
219 234 255
219 234 255
219 234 255
219 234 255
219 234 255
219 234 255
219 234 255
219 234 255
219 234 255
219 234 255
219 234 255
219 234 255
219 234 255
219 234 255
219 234 255
219 234 255
219 234 255
219 234 255
219 234 255
219 234 255
219 234 255
219 234 255
219 234 255
219 234 255
219 234 255
219 234 255
219 234 255
219 234 255
219 234 255
219 234 255
219 234 255
219 234 255
219 234 255
219 234 255
219 234 255
219 234 255
219 234 255
219 234 255
219 234 255
219 234 255
219 234 255
219 234 255
219 234 255
219 234 255
219 234 255
219 234 255
219 234 255
219 234 255
219 234 255
219 234 255
219 234 255
219 234 255
219 234 255
219 234 255
219 234 255
219 234 255
219 234 255
219 234 255
219 234 255
219 234 255
219 234 255
219 234 255
219 234 255
219 234 255
219 234 255
219 234 255
219 234 255
219 234 255
165 177 193
4 7 29
16 28 57
0 6 26
0 0 14
0 0 14
0 0 0
0 0 3
0 0 6
0 0 0
0 0 0
0 0 11
0 0 16
0 0 16
0 0 13
0 0 0
0 0 0
0 0 0
0 0 0
0 0 0
0 0 0
0 0 0
0 0 8
0 0 15
0 0 16
0 0 16
0 0 16
0 0 16
0 0 16
0 0 16
0 0 16
0 0 21
0 0 22
0 0 24
0 0 28
0 0 30
0 0 30
0 0 32
0 0 32
0 0 32
0 0 34
0 0 38
0 0 39
0 0 39
0 0 38
0 4 40
0 5 42
0 9 43
0 14 44
0 12 43
0 14 46
0 14 47
0 14 48
0 14 50
0 14 53
0 15 57
0 19 58
0 20 59
0 21 61
0 18 60
0 20 61
0 21 62
0 23 64
0 24 65
0 19 60
0 20 57
0 15 47
6 19 52
23 45 73
18 38 48
13 30 25
19 41 13
18 41 7
14 31 0
20 36 5
22 39 3
26 44 13
20 37 9
20 36 3
21 36 5
27 39 8
50 62 38
37 44 27
35 39 22
48 58 27
30 43 11
21 43 44
23 50 82
9 35 82
0 31 80
0 38 88
6 44 96
7 46 100
11 49 106
14 55 115
15 56 117
16 56 117
22 58 109
19 53 72
13 45 21
14 44 0
13 38 0
13 36 0
9 35 0
22 44 35
25 42 61
12 25 55
0 4 22
0 0 25
0 0 26
0 0 27
0 5 34
0 14 46
4 20 60
7 21 63
0 12 53
7 10 50
12 26 61
11 29 67
10 25 64
13 25 63
7 18 48
5 16 43
11 17 50
6 10 36
3 7 25
0 4 10
0 2 9
0 5 16
6 10 23
6 14 34
1 14 49
10 29 73
19 39 86
36 61 94
28 49 65
33 51 59
40 59 66
32 53 48
21 43 45
13 31 44
7 14 46
6 12 47
0 2 17
0 0 3
0 0 0
0 0 3
0 0 0
0 0 0
0 0 5
0 0 15
0 0 4
0 0 0
0 0 3
0 0 2
0 0 0
0 0 0
0 0 0
0 0 0
0 0 10
0 0 15
0 0 16
0 0 16
0 0 13
0 0 0
0 0 0
0 0 1
0 0 12
0 0 14
0 0 14
0 0 15
0 0 15
0 0 22
0 0 27
0 3 32
0 8 38
0 10 45
0 17 51
0 16 53
0 13 47
0 7 41
0 2 31
0 0 21
0 0 16
0 0 5
0 0 0
0 0 8
0 0 7
0 0 0
0 0 7
0 0 14
0 0 16
0 0 20
0 0 16
0 0 10
0 0 10
0 0 19
0 7 36
76 80 94
199 208 220
219 234 255
219 234 255
219 234 255
219 234 255
219 234 255
219 234 255
219 234 255
219 234 255
219 234 255
219 234 255
219 234 255
219 234 255
219 234 255
219 234 255
219 234 255
219 234 255
219 234 255
219 234 255
219 234 255
219 234 255
219 234 255
219 234 255
219 234 255
219 234 255
219 234 255
219 234 255
219 234 255
219 234 255
219 234 255
219 234 255
219 234 255
219 234 255
219 234 255
219 234 255
219 234 255
219 234 255
219 234 255
219 234 255
219 234 255
219 234 255
219 234 255
219 234 255
219 234 255
219 234 255
219 234 255
219 234 255
219 234 255
219 234 255
219 234 255
219 234 255
219 234 255
219 234 255
219 234 255
219 234 255
219 234 255
219 234 255
219 234 255
219 234 255
219 234 255
219 234 255
219 234 255
219 234 255
219 234 255
219 234 255
219 234 255
219 234 255
219 234 255
219 234 255
219 234 255
219 234 255
219 234 255
219 234 255
219 234 255
219 234 255
219 234 255
219 234 255
219 234 255
219 234 255
219 234 255
219 234 255
219 234 255
219 234 255
219 234 255
219 234 255
219 234 255
219 234 255
219 234 255
219 234 255
219 234 255
219 234 255
219 234 255
219 234 255
219 234 255
219 234 255
219 234 255
219 234 255
219 234 255
219 234 255
219 234 255
219 234 255
219 234 255
219 234 255
219 234 255
219 234 255
219 234 255
219 234 255
219 234 255
219 234 255
219 234 255
219 234 255
219 234 255
219 234 255
219 234 255
219 234 255
219 234 255
219 234 255
219 234 255
219 234 255
219 234 255
219 234 255
219 234 255
219 234 255
219 234 255
219 234 255
219 234 255
219 234 255
219 234 255
219 234 255
219 234 255
219 234 255
219 234 255
219 234 255
219 234 255
219 234 255
219 234 255
219 234 255
219 234 255
219 234 255
219 234 255
219 234 255
219 234 255
219 234 255
219 234 255
219 234 255
219 234 255
219 234 255
219 234 255
219 234 255
219 234 255
219 234 255
219 234 255
219 234 255
219 234 255
219 234 255
219 234 255
219 234 255
219 234 255
219 234 255
219 234 255
219 234 255
219 234 255
219 234 255
219 234 255
219 234 255
219 234 255
219 234 255
219 234 255
219 234 255
219 234 255
219 234 255
219 234 255
219 234 255
219 234 255
219 234 255
219 234 255
219 234 255
219 234 255
219 234 255
219 234 255
219 234 255
219 234 255
219 234 255
219 234 255
219 234 255
219 234 255
219 234 255
219 234 255
219 234 255
219 234 255
219 234 255
219 234 255
219 234 255
219 234 255
219 234 255
219 234 255
219 234 255
219 234 255
219 234 255
219 234 255
219 234 255
122 130 144
3 7 33
20 34 68
10 19 42
0 0 7
0 0 10
0 0 0
0 0 13
0 0 10
0 0 5
0 0 6
0 0 12
0 0 12
0 0 15
0 0 15
0 0 12
0 0 0
0 0 0
0 0 0
0 0 0
0 0 0
0 0 6
0 0 16
0 0 15
0 0 11
0 0 13
0 0 16
0 0 16
0 0 16
0 0 17
0 0 20
0 0 20
0 0 23
0 0 29
0 0 31
0 0 31
0 0 31
0 0 34
0 0 33
0 0 32
0 0 35
0 0 37
0 0 39
0 2 38
0 9 39
0 12 44
0 12 43
0 9 43
0 13 44
0 14 46
0 14 48
0 14 48
0 14 50
0 14 53
0 14 54
0 19 57
0 21 60
0 25 65
0 23 60
0 17 56
0 19 60
0 20 59
0 21 56
0 22 57
0 22 60
0 15 55
0 15 51
0 9 46
5 18 47
22 42 63
21 40 50
12 37 27
12 36 18
18 36 16
26 42 18
26 42 13
23 40 2
21 40 0
21 39 0
16 31 0
19 33 1
29 41 13
30 37 18
47 53 37
53 61 38
21 31 9
24 44 41
24 50 65
22 50 82
19 48 93
17 48 102
18 50 110
19 52 111
24 54 108
25 54 106
23 55 99
23 55 87
20 50 72
14 44 38
15 45 8
15 44 0
18 40 0
16 34 0
15 38 0
7 34 23
17 42 67
12 25 54
0 4 21
0 0 23
0 0 29
0 4 32
2 15 42
12 30 63
13 31 67
13 30 67
0 10 45
6 12 44
8 16 39
4 11 32
0 2 25
0 0 24
0 0 20
0 0 19
0 0 18
0 2 11
0 3 5
0 1 14
0 9 34
0 19 53
2 19 54
9 27 64
13 33 76
9 28 72
14 34 78
23 41 68
39 56 58
42 54 33
32 43 19
25 40 20
25 46 23
21 44 30
27 47 50
17 31 48
2 6 25
2 10 35
0 0 28
0 0 22
0 0 23
0 0 27
0 0 34
0 0 27
0 0 24
0 0 18
0 0 12
0 0 8
0 0 0
0 0 0
0 0 0
0 0 0
0 0 0
0 0 3
0 0 5
0 0 6
0 0 11
0 0 12
0 0 13
0 0 12
0 0 14
0 0 10
0 0 15
0 0 13
0 0 14
0 0 18
0 0 23
0 3 33
0 4 38
0 7 45
0 13 48
0 19 55
0 18 53
0 10 44
0 0 31
0 0 21
0 0 15
0 0 10
0 0 0
0 0 0
0 0 0
0 0 0
0 0 0
0 0 10
0 0 18
0 0 23
0 0 25
0 0 16
0 0 16
0 0 17
0 0 30
27 40 75
170 171 172
219 234 255
219 234 255
219 234 255
219 234 255
219 234 255
219 234 255
219 234 255
219 234 255
219 234 255
219 234 255
219 234 255
219 234 255
219 234 255
219 234 255
219 234 255
219 234 255
219 234 255
219 234 255
219 234 255
219 234 255
219 234 255
219 234 255
219 234 255
219 234 255
219 234 255
219 234 255
219 234 255
219 234 255
219 234 255
219 234 255
219 234 255
219 234 255
219 234 255
219 234 255
219 234 255
219 234 255
219 234 255
219 234 255
219 234 255
219 234 255
219 234 255
219 234 255
219 234 255
219 234 255
219 234 255
219 234 255
219 234 255
219 234 255
219 234 255
219 234 255
219 234 255
219 234 255
219 234 255
219 234 255
219 234 255
219 234 255
219 234 255
219 234 255
219 234 255
219 234 255
219 234 255
219 234 255
219 234 255
219 234 255
219 234 255
219 234 255
219 234 255
219 234 255
219 234 255
219 234 255
219 234 255
219 234 255
219 234 255
219 234 255
219 234 255
219 234 255
219 234 255
219 234 255
219 234 255
219 234 255
219 234 255
219 234 255
219 234 255
219 234 255
219 234 255
219 234 255
219 234 255
219 234 255
219 234 255
219 234 255
219 234 255
219 234 255
219 234 255
219 234 255
219 234 255
219 234 255
219 234 255
219 234 255
219 234 255
219 234 255
219 234 255
219 234 255
219 234 255
219 234 255
219 234 255
219 234 255
219 234 255
219 234 255
219 234 255
219 234 255
219 234 255
219 234 255
219 234 255
219 234 255
219 234 255
219 234 255
219 234 255
219 234 255
219 234 255
219 234 255
219 234 255
219 234 255
219 234 255
219 234 255
219 234 255
219 234 255
219 234 255
219 234 255
219 234 255
219 234 255
219 234 255
219 234 255
219 234 255
219 234 255
219 234 255
219 234 255
219 234 255
219 234 255
219 234 255
219 234 255
219 234 255
219 234 255
219 234 255
219 234 255
219 234 255
219 234 255
219 234 255
219 234 255
219 234 255
219 234 255
219 234 255
219 234 255
219 234 255
219 234 255
219 234 255
219 234 255
219 234 255
219 234 255
219 234 255
219 234 255
219 234 255
219 234 255
219 234 255
219 234 255
219 234 255
219 234 255
219 234 255
219 234 255
219 234 255
219 234 255
219 234 255
219 234 255
219 234 255
219 234 255
219 234 255
219 234 255
219 234 255
219 234 255
219 234 255
219 234 255
219 234 255
219 234 255
219 234 255
219 234 255
219 234 255
219 234 255
219 234 255
219 234 255
219 234 255
219 234 255
219 234 255
219 234 255
219 234 255
219 234 255
219 234 255
219 234 255
219 234 255
219 234 255
219 234 255
211 226 246
21 23 33
0 2 31
18 33 71
7 14 34
0 0 13
0 0 4
0 0 4
0 0 15
0 0 16
0 0 16
0 0 14
0 0 0
0 0 6
0 0 15
0 0 16
0 0 10
0 0 0
0 0 0
0 0 0
0 0 0
0 0 12
0 0 15
0 0 14
0 0 0
0 0 0
0 0 15
0 0 16
0 0 16
0 0 16
0 0 18
0 0 20
0 0 22
0 0 26
0 0 31
0 0 33
0 0 32
0 0 32
0 0 35
0 0 34
0 0 34
0 0 38
0 0 40
0 4 40
0 0 39
0 0 38
0 2 40
0 8 42
0 12 43
0 12 42
0 14 46
0 14 48
0 14 49
0 14 51
0 14 53
0 15 54
0 20 57
0 22 60
0 24 62
0 19 57
0 19 57
0 15 56
0 16 54
0 17 51
0 16 52
0 21 59
0 19 57
0 22 59
0 22 59
0 20 55
4 13 42
18 35 59
25 49 63
11 34 39
5 24 20
17 31 14
23 38 14
22 39 5
25 46 10
21 39 3
20 36 0
23 38 5
33 46 15
34 44 15
51 60 36
58 67 47
25 32 10
23 40 24
21 46 32
18 47 47
16 45 59
24 53 82
25 54 91
23 50 83
25 50 71
26 45 64
24 45 49
25 49 40
26 49 38
23 45 21
18 42 2
15 41 5
20 39 1
19 34 0
23 45 17
22 50 50
15 44 75
3 15 43
0 4 26
0 0 25
0 5 33
9 18 46
17 30 56
20 33 63
13 25 52
7 17 41
0 3 25
0 4 22
0 0 20
0 0 22
0 0 17
0 0 29
0 2 27
0 3 29
2 13 38
12 28 42
17 34 36
11 28 36
5 23 53
11 30 80
11 36 79
14 41 84
18 43 84
15 37 71
19 38 68
30 43 72
39 51 59
52 64 44
42 53 25
32 43 23
19 35 15
15 42 21
17 43 32
24 49 55
27 48 77
21 40 82
10 20 65
20 33 69
16 31 58
18 33 70
21 35 93
24 41 84
11 26 59
4 12 40
3 8 30
0 0 19
0 0 4
0 0 0
0 0 0
0 0 0
0 0 0
0 0 0
0 0 0
0 0 8
0 0 13
0 0 15
0 0 16
0 0 16
0 0 16
0 0 15
0 0 16
0 0 16
0 0 14
0 0 16
0 0 22
0 0 29
0 7 38
0 14 50
1 16 52
6 20 56
0 19 54
0 14 46
0 9 38
0 0 26
0 0 17
0 0 13
0 0 13
0 0 9
0 0 7
0 0 3
0 0 0
0 0 11
0 0 15
0 0 18
0 0 27
0 0 17
0 0 16
0 0 18
0 0 30
0 13 49
121 118 116
212 224 242
219 234 255
219 234 255
219 234 255
219 234 255
219 234 255
219 234 255
219 234 255
219 234 255
219 234 255
219 234 255
219 234 255
219 234 255
219 234 255
219 234 255
219 234 255
219 234 255
219 234 255
219 234 255
219 234 255
219 234 255
219 234 255
219 234 255
219 234 255
219 234 255
219 234 255
219 234 255
219 234 255
219 234 255
219 234 255
219 234 255
219 234 255
219 234 255
219 234 255
219 234 255
219 234 255
219 234 255
219 234 255
219 234 255
219 234 255
219 234 255
219 234 255
219 234 255
219 234 255
219 234 255
219 234 255
219 234 255
219 234 255
219 234 255
219 234 255
219 234 255
219 234 255
219 234 255
219 234 255
219 234 255
219 234 255
219 234 255
219 234 255
219 234 255
219 234 255
219 234 255
219 234 255
219 234 255
219 234 255
219 234 255
219 234 255
219 234 255
219 234 255
219 234 255
219 234 255
219 234 255
219 234 255
219 234 255
219 234 255
219 234 255
219 234 255
219 234 255
219 234 255
219 234 255
219 234 255
219 234 255
219 234 255
219 234 255
219 234 255
219 234 255
219 234 255
219 234 255
219 234 255
219 234 255
219 234 255
219 234 255
219 234 255
219 234 255
219 234 255
219 234 255
219 234 255
219 234 255
219 234 255
219 234 255
219 234 255
219 234 255
219 234 255
219 234 255
219 234 255
219 234 255
219 234 255
219 234 255
219 234 255
219 234 255
219 234 255
219 234 255
219 234 255
219 234 255
219 234 255
219 234 255
219 234 255
219 234 255
219 234 255
219 234 255
219 234 255
219 234 255
219 234 255
219 234 255
219 234 255
219 234 255
219 234 255
219 234 255
219 234 255
219 234 255
219 234 255
219 234 255
219 234 255
219 234 255
219 234 255
219 234 255
219 234 255
219 234 255
219 234 255
219 234 255
219 234 255
219 234 255
219 234 255
219 234 255
219 234 255
219 234 255
219 234 255
219 234 255
219 234 255
219 234 255
219 234 255
219 234 255
219 234 255
219 234 255
219 234 255
219 234 255
219 234 255
219 234 255
219 234 255
219 234 255
219 234 255
219 234 255
219 234 255
219 234 255
219 234 255
219 234 255
219 234 255
219 234 255
219 234 255
219 234 255
219 234 255
219 234 255
219 234 255
219 234 255
219 234 255
219 234 255
219 234 255
219 234 255
219 234 255
219 234 255
219 234 255
219 234 255
219 234 255
219 234 255
219 234 255
219 234 255
219 234 255
219 234 255
219 234 255
219 234 255
219 234 255
219 234 255
219 234 255
219 234 255
219 234 255
219 234 255
219 234 255
219 234 255
219 234 255
219 234 255
140 150 164
0 0 19
0 5 32
26 37 58
2 4 16
0 0 14
0 0 0
0 0 5
0 0 15
0 0 16
0 0 16
0 0 10
0 0 0
0 0 0
0 0 14
0 0 16
0 0 7
0 0 0
0 0 0
0 0 0
0 0 3
0 0 15
0 0 16
0 0 11
0 0 0
0 0 4
0 0 16
0 0 16
0 0 16
0 0 16
0 0 17
0 0 22
0 0 24
0 0 26
0 0 33
0 0 34
0 0 34
0 0 37
0 0 38
0 0 36
0 2 37
0 5 40
0 4 40
0 0 40
0 6 41
0 11 42
0 12 43
0 14 45
0 11 44
0 12 43
0 14 46
0 14 49
0 14 50
0 14 51
0 14 53
0 15 54
0 19 57
0 20 59
0 20 59
0 19 57
0 16 56
0 15 55
0 14 51
0 14 51
0 15 50
0 14 52
0 14 52
0 22 63
0 23 64
0 22 62
0 16 54
1 8 45
7 22 49
13 31 54
22 37 52
24 36 42
21 35 30
12 29 13
17 35 10
19 38 6
21 38 0
26 42 5
24 37 0
30 43 0
45 56 23
50 59 34
31 38 16
18 31 5
24 46 9
23 50 13
18 46 19
19 48 40
15 41 35
15 40 27
22 46 26
30 50 23
37 56 17
41 59 22
36 53 26
27 44 20
17 34 4
18 39 12
17 35 3
19 36 1
22 44 26
26 54 66
4 29 61
0 6 39
0 7 30
3 12 36
8 14 45
7 12 45
0 8 29
0 4 23
0 0 18
0 0 17
0 2 21
0 3 24
0 2 30
0 6 35
0 8 37
0 1 40
2 15 55
10 33 77
11 38 89
20 46 84
17 42 62
18 43 54
13 38 65
9 34 78
1 34 82
2 36 85
6 35 77
10 31 63
21 39 62
20 34 62
22 33 55
26 38 31
34 49 38
26 42 35
20 38 38
22 42 62
19 43 56
23 48 65
17 40 72
19 42 92
25 47 84
23 44 62
20 46 51
26 51 68
31 52 96
20 40 87
7 30 73
21 45 90
24 44 82
5 12 40
0 0 21
0 0 14
0 0 6
0 0 7
0 0 14
0 0 7
0 0 5
0 0 3
0 0 0
0 0 12
0 0 16
0 0 16
0 0 16
0 0 16
0 0 14
0 0 16
0 0 16
0 0 16
0 0 23
0 0 31
0 0 34
0 8 44
0 18 53
1 18 54
0 17 53
0 14 48
0 5 38
0 0 32
0 0 23
0 0 16
0 0 14
0 0 14
0 0 16
0 0 13
0 0 0
0 0 14
0 0 16
0 0 14
0 0 20
0 0 17
0 0 15
0 0 20
0 0 30
0 7 42
59 63 85
186 189 194
219 234 255
219 234 255
219 234 255
219 234 255
219 234 255
219 234 255
219 234 255
219 234 255
219 234 255
219 234 255
219 234 255
219 234 255
219 234 255
219 234 255
219 234 255
219 234 255
219 234 255
219 234 255
219 234 255
219 234 255
219 234 255
219 234 255
219 234 255
219 234 255
219 234 255
219 234 255
219 234 255
219 234 255
219 234 255
219 234 255
219 234 255
219 234 255
219 234 255
219 234 255
219 234 255
219 234 255
219 234 255
219 234 255
219 234 255
219 234 255
219 234 255
219 234 255
219 234 255
219 234 255
219 234 255
219 234 255
219 234 255
219 234 255
219 234 255
219 234 255
219 234 255
219 234 255
219 234 255
219 234 255
219 234 255
219 234 255
219 234 255
219 234 255
219 234 255
219 234 255
219 234 255
219 234 255
219 234 255
219 234 255
219 234 255
219 234 255
219 234 255
219 234 255
219 234 255
219 234 255
219 234 255
219 234 255
219 234 255
219 234 255
219 234 255
219 234 255
219 234 255
219 234 255
219 234 255
219 234 255
219 234 255
219 234 255
219 234 255
219 234 255
219 234 255
219 234 255
219 234 255
219 234 255
219 234 255
219 234 255
219 234 255
219 234 255
219 234 255
219 234 255
219 234 255
219 234 255
219 234 255
219 234 255
219 234 255
219 234 255
219 234 255
219 234 255
219 234 255
219 234 255
219 234 255
219 234 255
219 234 255
219 234 255
219 234 255
219 234 255
219 234 255
219 234 255
219 234 255
219 234 255
219 234 255
219 234 255
219 234 255
219 234 255
219 234 255
219 234 255
219 234 255
219 234 255
219 234 255
219 234 255
219 234 255
219 234 255
219 234 255
219 234 255
219 234 255
219 234 255
219 234 255
219 234 255
219 234 255
219 234 255
219 234 255
219 234 255
219 234 255
219 234 255
219 234 255
219 234 255
219 234 255
219 234 255
219 234 255
219 234 255
219 234 255
219 234 255
219 234 255
219 234 255
219 234 255
219 234 255
219 234 255
219 234 255
219 234 255
219 234 255
219 234 255
219 234 255
219 234 255
219 234 255
219 234 255
219 234 255
219 234 255
219 234 255
219 234 255
219 234 255
219 234 255
219 234 255
219 234 255
219 234 255
219 234 255
219 234 255
219 234 255
219 234 255
219 234 255
219 234 255
219 234 255
219 234 255
219 234 255
219 234 255
219 234 255
219 234 255
219 234 255
219 234 255
219 234 255
219 234 255
219 234 255
219 234 255
219 234 255
219 234 255
219 234 255
219 234 255
219 234 255
219 234 255
219 234 255
219 234 255
219 234 255
219 234 255
219 234 255
218 233 254
53 57 64
0 0 19
0 6 32
19 25 39
0 0 15
0 0 9
0 0 0
0 0 7
0 0 16
0 0 16
0 0 16
0 0 5
0 0 0
0 0 7
0 0 16
0 0 15
0 0 0
0 0 0
0 0 0
0 0 2
0 0 10
0 0 16
0 0 16
0 0 9
0 0 6
0 0 10
0 0 16
0 0 16
0 0 18
0 0 17
0 0 21
0 0 24
0 0 27
0 0 30
0 0 35
0 7 36
0 5 39
0 0 39
0 0 39
0 0 38
0 10 41
0 10 43
0 3 42
0 0 42
0 4 42
0 12 44
0 8 42
0 14 44
0 14 45
0 14 45
0 14 46
0 14 48
0 14 49
0 14 51
0 14 53
0 15 55
0 17 56
0 20 58
0 23 60
0 20 58
0 15 55
0 14 52
0 14 50
0 15 48
0 15 50
0 14 52
0 13 54
0 19 60
0 22 60
0 23 61
0 23 62
0 15 52
0 5 40
1 9 39
15 24 48
23 35 55
25 42 59
22 39 51
11 27 25
5 23 5
11 27 0
22 37 0
24 38 8
27 42 13
34 46 16
53 60 38
39 44 24
13 22 0
20 34 0
22 41 0
26 49 14
21 44 13
17 42 10
20 43 9
21 42 3
27 47 2
31 51 0
36 52 15
34 46 17
26 40 12
19 34 0
17 34 5
14 35 0
8 34 6
21 47 44
21 45 65
5 24 57
0 8 43
0 12 36
0 4 28
0 0 31
0 0 26
0 5 34
6 13 46
4 12 44
0 12 42
6 17 50
7 22 60
10 30 71
10 37 78
11 37 80
7 33 78
4 35 87
14 47 106
19 51 118
16 47 104
17 48 89
19 47 77
7 36 68
5 36 78
4 40 93
5 38 90
7 35 82
0 22 58
0 13 41
0 7 38
0 16 48
0 9 29
17 35 55
9 24 47
0 12 31
11 21 61
13 22 60
10 24 58
9 25 59
5 21 63
8 24 61
12 28 49
12 32 42
8 29 43
2 18 51
2 22 65
10 34 81
11 42 91
19 49 100
16 43 87
21 41 78
2 7 32
0 0 14
0 0 3
0 0 14
0 0 16
0 0 16
0 0 10
0 0 1
0 0 11
0 0 16
0 0 16
0 0 16
0 0 16
0 0 16
0 0 16
0 0 13
0 0 16
0 0 18
0 0 28
0 0 36
0 8 43
0 17 52
0 15 51
0 14 50
0 13 46
0 6 38
0 0 29
0 0 24
0 0 16
0 0 14
0 0 16
0 0 16
0 0 16
0 0 5
0 0 12
0 0 16
0 0 13
0 0 15
0 0 15
0 0 17
0 0 25
0 0 33
0 10 42
5 25 68
136 130 125
219 234 255
219 234 255
219 234 255
219 234 255
219 234 255
219 234 255
219 234 255
219 234 255
219 234 255
219 234 255
219 234 255
219 234 255
219 234 255
219 234 255
219 234 255
219 234 255
219 234 255
219 234 255
219 234 255
219 234 255
219 234 255
219 234 255
219 234 255
219 234 255
219 234 255
219 234 255
219 234 255
219 234 255
219 234 255
219 234 255
219 234 255
219 234 255
219 234 255
219 234 255
219 234 255
219 234 255
219 234 255
219 234 255
219 234 255
219 234 255
219 234 255
219 234 255
219 234 255
219 234 255
219 234 255
219 234 255
219 234 255
219 234 255
219 234 255
219 234 255
219 234 255
219 234 255
219 234 255
219 234 255
219 234 255
219 234 255
219 234 255
219 234 255
219 234 255
219 234 255
219 234 255
219 234 255
219 234 255
219 234 255
219 234 255
219 234 255
219 234 255
219 234 255
219 234 255
219 234 255
219 234 255
219 234 255
219 234 255
219 234 255
219 234 255
219 234 255
219 234 255
219 234 255
219 234 255
219 234 255
219 234 255
219 234 255
219 234 255
219 234 255
219 234 255
219 234 255
219 234 255
219 234 255
219 234 255
219 234 255
219 234 255
219 234 255
219 234 255
219 234 255
219 234 255
219 234 255
219 234 255
219 234 255
219 234 255
219 234 255
219 234 255
219 234 255
219 234 255
219 234 255
219 234 255
219 234 255
219 234 255
219 234 255
219 234 255
219 234 255
219 234 255
219 234 255
219 234 255
219 234 255
219 234 255
219 234 255
219 234 255
219 234 255
219 234 255
219 234 255
219 234 255
219 234 255
219 234 255
219 234 255
219 234 255
219 234 255
219 234 255
219 234 255
219 234 255
219 234 255
219 234 255
219 234 255
219 234 255
219 234 255
219 234 255
219 234 255
219 234 255
219 234 255
219 234 255
219 234 255
219 234 255
219 234 255
219 234 255
219 234 255
219 234 255
219 234 255
219 234 255
219 234 255
219 234 255
219 234 255
219 234 255
219 234 255
219 234 255
219 234 255
219 234 255
219 234 255
219 234 255
219 234 255
219 234 255
219 234 255
219 234 255
219 234 255
219 234 255
219 234 255
219 234 255
219 234 255
219 234 255
219 234 255
219 234 255
219 234 255
219 234 255
219 234 255
219 234 255
219 234 255
219 234 255
219 234 255
219 234 255
219 234 255
219 234 255
219 234 255
219 234 255
219 234 255
219 234 255
219 234 255
219 234 255
219 234 255
219 234 255
219 234 255
219 234 255
219 234 255
219 234 255
219 234 255
219 234 255
219 234 255
219 234 255
219 234 255
219 234 255
186 199 217
0 0 6
0 2 22
8 11 35
8 12 24
0 0 15
0 0 5
0 0 0
0 0 13
0 0 16
0 0 16
0 0 15
0 0 0
0 0 0
0 0 11
0 0 15
0 0 15
0 0 14
0 0 5
0 0 1
0 0 9
0 0 14
0 0 16
0 0 13
0 0 5
0 0 10
0 0 13
0 0 16
0 0 16
0 0 18
0 0 22
0 0 23
0 0 28
0 0 28
0 0 32
0 0 33
0 9 36
0 3 37
0 0 37
0 0 38
0 0 38
0 13 43
0 9 44
0 5 44
0 12 44
0 13 45
0 14 44
0 10 43
0 14 45
0 14 45
0 14 45
0 14 47
0 14 48
0 14 48
0 14 51
0 14 53
0 14 54
0 16 56
0 17 56
0 17 56
0 20 57
0 15 54
0 14 52
0 14 47
0 14 44
0 12 46
0 13 48
0 15 58
0 21 63
0 22 61
0 24 60
0 23 61
4 22 59
0 14 49
0 9 43
0 3 38
3 9 39
10 23 52
19 35 58
25 42 51
24 42 40
20 36 26
23 38 20
17 31 13
14 30 9
23 34 14
36 42 24
39 42 26
40 46 29
16 26 0
19 30 3
23 36 10
16 32 1
14 33 0
17 38 0
20 41 0
17 39 0
18 37 0
18 33 0
19 33 0
24 43 0
29 49 0
26 41 0
22 44 9
11 39 14
13 39 44
26 46 75
10 22 56
0 15 50
0 7 35
0 4 31
2 9 42
6 19 56
13 26 68
15 31 81
15 35 85
13 37 87
16 42 98
19 48 109
20 50 110
16 49 103
18 50 100
18 49 100
12 42 97
10 43 104
17 52 114
18 53 111
16 48 102
10 39 89
2 35 83
1 35 85
1 38 91
2 35 88
0 28 78
0 22 62
0 15 50
0 1 35
0 3 37
0 6 37
10 24 64
2 15 56
0 10 42
0 3 28
0 0 22
0 1 26
0 4 30
0 4 30
0 5 35
0 0 26
0 0 26
0 6 30
4 14 44
6 17 51
5 24 66
20 51 105
13 50 107
15 49 102
27 55 104
9 25 63
0 5 25
0 0 2
0 0 1
0 0 13
0 0 16
0 0 15
0 0 5
0 0 5
0 0 16
0 0 16
0 0 15
0 0 14
0 0 16
0 0 16
0 0 16
0 0 16
0 0 18
0 0 26
0 0 35
0 5 40
0 12 48
0 15 50
0 15 50
0 13 45
0 7 39
0 5 32
0 0 20
0 0 16
0 0 15
0 0 14
0 0 14
0 0 15
0 0 11
0 0 8
0 0 15
0 0 15
0 0 15
0 0 13
0 0 21
0 0 29
0 0 37
0 12 44
0 19 59
93 88 97
204 214 228
219 234 255
219 234 255
219 234 255
219 234 255
219 234 255
219 234 255
219 234 255
219 234 255
219 234 255
219 234 255
219 234 255
219 234 255
219 234 255
219 234 255
219 234 255
219 234 255
219 234 255
219 234 255
219 234 255
219 234 255
219 234 255
219 234 255
219 234 255
219 234 255
219 234 255
219 234 255
219 234 255
219 234 255
219 234 255
219 234 255
219 234 255
219 234 255
219 234 255
219 234 255
219 234 255
219 234 255
219 234 255
219 234 255
219 234 255
219 234 255
219 234 255
219 234 255
219 234 255
219 234 255
219 234 255
219 234 255
219 234 255
219 234 255
219 234 255
219 234 255
219 234 255
219 234 255
219 234 255
219 234 255
219 234 255
219 234 255
219 234 255
219 234 255
219 234 255
219 234 255
219 234 255
219 234 255
219 234 255
219 234 255
219 234 255
219 234 255
219 234 255
219 234 255
219 234 255
219 234 255
219 234 255
219 234 255
219 234 255
219 234 255
219 234 255
219 234 255
219 234 255
219 234 255
219 234 255
219 234 255
219 234 255
219 234 255
219 234 255
219 234 255
219 234 255
219 234 255
219 234 255
219 234 255
219 234 255
219 234 255
219 234 255
219 234 255
219 234 255
219 234 255
219 234 255
219 234 255
219 234 255
219 234 255
219 234 255
219 234 255
219 234 255
219 234 255
219 234 255
219 234 255
219 234 255
219 234 255
219 234 255
219 234 255
219 234 255
219 234 255
219 234 255
219 234 255
219 234 255
219 234 255
219 234 255
219 234 255
219 234 255
219 234 255
219 234 255
219 234 255
219 234 255
219 234 255
219 234 255
219 234 255
219 234 255
219 234 255
219 234 255
219 234 255
219 234 255
219 234 255
219 234 255
219 234 255
219 234 255
219 234 255
219 234 255
219 234 255
219 234 255
219 234 255
219 234 255
219 234 255
219 234 255
219 234 255
219 234 255
219 234 255
219 234 255
219 234 255
219 234 255
219 234 255
219 234 255
219 234 255
219 234 255
219 234 255
219 234 255
219 234 255
219 234 255
219 234 255
219 234 255
219 234 255
219 234 255
219 234 255
219 234 255
219 234 255
219 234 255
219 234 255
219 234 255
219 234 255
219 234 255
219 234 255
219 234 255
219 234 255
219 234 255
219 234 255
219 234 255
219 234 255
219 234 255
219 234 255
219 234 255
219 234 255
219 234 255
219 234 255
219 234 255
219 234 255
219 234 255
219 234 255
219 234 255
219 234 255
219 234 255
219 234 255
219 234 255
219 234 255
219 234 255
219 234 255
219 234 255
219 234 255
219 234 255
219 234 255
133 142 155
0 0 6
0 2 27
2 4 25
0 0 14
0 0 13
0 0 0
0 0 10
0 0 15
0 0 16
0 0 16
0 0 12
0 0 0
0 0 5
0 0 12
0 0 16
0 0 16
0 0 15
0 0 0
0 0 7
0 0 10
0 0 7
0 0 6
0 0 4
0 0 8
0 0 6
0 0 15
0 0 16
0 0 16
0 0 22
0 0 26
0 0 27
0 0 28
0 0 27
0 0 29
0 0 31
0 0 33
0 0 36
0 0 36
0 0 38
0 4 40
0 14 45
0 14 45
0 14 44
0 14 44
0 12 43
0 14 46
0 14 49
0 14 46
0 13 45
0 13 45
0 14 46
0 14 47
0 14 49
0 14 51
0 14 53
0 14 53
0 19 56
0 19 55
0 20 56
0 19 56
0 14 49
0 14 46
0 16 49
0 14 47
0 14 46
0 14 45
0 18 54
0 21 61
0 21 64
0 22 65
0 22 62
0 24 62
0 17 52
0 15 50
0 15 50
0 10 40
0 8 36
0 7 24
5 17 29
13 25 37
23 39 49
24 42 47
26 45 47
26 46 38
20 35 20
19 28 5
33 40 17
48 59 35
20 33 10
21 34 23
31 47 39
25 41 31
19 37 15
22 43 13
22 44 2
25 41 13
20 37 5
14 34 0
9 32 0
13 39 0
19 46 0
27 48 0
23 47 13
6 32 21
17 43 58
14 36 70
7 24 67
0 17 49
3 17 47
13 34 67
15 39 79
12 43 89
11 44 95
6 41 91
5 43 97
13 49 110
18 53 121
21 55 125
19 52 122
14 50 118
18 52 119
16 49 112
10 41 99
13 43 99
7 40 92
5 41 94
5 36 94
6 34 94
8 35 94
9 35 89
13 38 92
4 30 80
9 26 73
4 23 60
0 9 39
0 8 33
0 8 34
8 20 54
10 24 66
0 12 53
0 2 39
0 7 35
0 0 30
0 0 25
0 0 20
0 0 14
0 0 16
0 0 22
0 0 25
0 0 24
0 0 27
0 8 37
1 18 58
10 40 90
4 42 98
7 44 99
16 47 99
16 38 83
0 7 34
0 0 14
0 0 5
0 0 12
0 0 16
0 0 14
0 0 9
0 0 4
0 0 14
0 0 12
0 0 9
0 0 11
0 0 17
0 0 16
0 0 14
0 0 16
0 0 18
0 0 24
0 2 32
0 12 42
0 11 46
0 17 52
0 15 50
0 11 46
0 4 36
0 3 32
0 0 21
0 0 19
0 0 16
0 0 13
0 0 15
0 0 15
0 0 14
0 0 0
0 0 10
0 0 15
0 0 16
0 0 15
0 0 20
0 0 34
0 7 42
0 14 47
0 19 59
31 39 76
176 175 179
219 234 255
219 234 255
219 234 255
219 234 255
219 234 255
219 234 255
219 234 255
219 234 255
219 234 255
219 234 255
219 234 255
219 234 255
219 234 255
219 234 255
219 234 255
219 234 255
219 234 255
219 234 255
219 234 255
219 234 255
219 234 255
219 234 255
219 234 255
219 234 255
219 234 255
219 234 255
219 234 255
219 234 255
219 234 255
219 234 255
219 234 255
219 234 255
219 234 255
219 234 255
219 234 255
219 234 255
219 234 255
219 234 255
219 234 255
219 234 255
219 234 255
219 234 255
219 234 255
219 234 255
219 234 255
219 234 255
219 234 255
219 234 255
219 234 255
219 234 255
219 234 255
219 234 255
219 234 255
219 234 255
219 234 255
219 234 255
219 234 255
219 234 255
219 234 255
219 234 255
219 234 255
219 234 255
219 234 255
219 234 255
219 234 255
219 234 255
219 234 255
219 234 255
219 234 255
219 234 255
219 234 255
219 234 255
219 234 255
219 234 255
219 234 255
219 234 255
219 234 255
219 234 255
219 234 255
219 234 255
219 234 255
219 234 255
219 234 255
219 234 255
219 234 255
219 234 255
219 234 255
219 234 255
219 234 255
219 234 255
219 234 255
219 234 255
219 234 255
219 234 255
219 234 255
219 234 255
219 234 255
219 234 255
219 234 255
219 234 255
219 234 255
219 234 255
219 234 255
219 234 255
219 234 255
219 234 255
219 234 255
219 234 255
219 234 255
219 234 255
219 234 255
219 234 255
219 234 255
219 234 255
219 234 255
219 234 255
219 234 255
219 234 255
219 234 255
219 234 255
219 234 255
219 234 255
219 234 255
219 234 255
219 234 255
219 234 255
219 234 255
219 234 255
219 234 255
219 234 255
219 234 255
219 234 255
219 234 255
219 234 255
219 234 255
219 234 255
219 234 255
219 234 255
219 234 255
219 234 255
219 234 255
219 234 255
219 234 255
219 234 255
219 234 255
219 234 255
219 234 255
219 234 255
219 234 255
219 234 255
219 234 255
219 234 255
219 234 255
219 234 255
219 234 255
219 234 255
219 234 255
219 234 255
219 234 255
219 234 255
219 234 255
219 234 255
219 234 255
219 234 255
219 234 255
219 234 255
219 234 255
219 234 255
219 234 255
219 234 255
219 234 255
219 234 255
219 234 255
219 234 255
219 234 255
219 234 255
219 234 255
219 234 255
219 234 255
219 234 255
219 234 255
219 234 255
219 234 255
219 234 255
219 234 255
219 234 255
219 234 255
219 234 255
219 234 255
219 234 255
219 234 255
219 234 255
219 234 255
219 234 255
219 234 255
211 226 246
53 57 63
0 0 14
0 3 23
0 0 17
0 0 15
0 0 10
0 0 9
0 0 14
0 0 11
0 0 12
0 0 16
0 0 8
0 0 0
0 0 10
0 0 12
0 0 16
0 0 16
0 0 13
0 0 4
0 0 3
0 0 4
0 0 10
0 0 8
0 0 8
0 0 15
0 0 9
0 0 12
0 0 14
0 0 16
0 0 16
0 0 17
0 0 23
0 0 26
0 0 27
0 0 32
0 0 32
0 0 34
0 0 34
0 0 36
0 0 37
0 0 40
0 13 44
0 14 45
0 13 43
0 11 42
0 8 43
0 13 45
0 12 45
0 14 46
0 7 44
0 4 42
0 14 43
0 14 45
0 14 48
0 14 50
0 14 51
0 15 51
0 20 57
0 19 56
0 16 54
0 14 52
0 14 49
0 18 51
0 21 53
0 12 45
0 9 43
0 14 49
0 20 56
0 20 59
0 24 67
0 24 66
0 20 60
0 20 57
0 18 54
0 15 53
0 16 54
0 14 51
0 14 51
0 15 47
0 11 45
0 8 38
0 3 32
4 13 34
23 38 54
26 43 47
31 46 42
25 36 28
28 38 29
22 36 28
13 31 29
19 44 58
26 56 77
20 52 73
17 46 53
13 35 25
21 35 10
26 36 17
31 44 23
26 39 15
17 34 0
16 37 0
17 40 0
20 45 0
15 42 10
16 46 36
23 53 66
13 39 71
26 49 91
25 47 70
24 46 68
25 48 73
21 49 78
19 50 82
22 55 92
21 57 100
17 57 107
15 57 116
14 56 122
14 55 124
14 53 122
18 53 122
14 49 115
15 47 109
19 49 108
11 40 95
11 41 94
6 37 90
0 31 86
0 32 88
5 32 85
7 31 81
4 27 74
0 26 70
6 26 65
7 19 53
0 4 35
0 8 33
1 15 46
5 24 60
2 17 58
0 14 50
0 7 40
0 9 39
0 3 39
0 1 35
0 0 31
0 0 26
0 0 23
0 0 23
0 0 23
0 0 22
0 0 27
0 6 35
0 12 50
9 35 83
8 41 95
7 40 93
13 42 92
19 46 92
7 21 53
2 7 26
0 0 16
0 0 12
0 0 16
0 0 14
0 0 7
0 0 11
0 0 6
0 0 5
0 0 8
0 0 0
0 0 8
0 0 10
0 0 18
0 0 20
0 0 20
0 0 32
0 2 32
0 11 37
0 10 43
0 15 50
0 16 53
0 13 52
0 11 41
0 0 30
0 0 22
0 0 19
0 0 16
0 0 14
0 0 14
0 0 16
0 0 15
0 0 4
0 0 12
0 0 8
0 0 15
0 0 16
0 0 21
0 0 31
0 3 39
0 14 50
0 19 58
0 20 64
131 123 122
216 230 250
219 234 255
219 234 255
219 234 255
219 234 255
219 234 255
219 234 255
219 234 255
219 234 255
219 234 255
219 234 255
219 234 255
219 234 255
219 234 255
219 234 255
219 234 255
219 234 255
219 234 255
219 234 255
219 234 255
219 234 255
219 234 255
219 234 255
219 234 255
219 234 255
219 234 255
219 234 255
219 234 255
219 234 255
219 234 255
219 234 255
219 234 255
219 234 255
219 234 255
219 234 255
219 234 255
219 234 255
219 234 255
219 234 255
219 234 255
219 234 255
219 234 255
219 234 255
219 234 255
219 234 255
219 234 255
219 234 255
219 234 255
219 234 255
219 234 255
219 234 255
219 234 255
219 234 255
219 234 255
219 234 255
219 234 255
219 234 255
219 234 255
219 234 255
219 234 255
219 234 255
219 234 255
219 234 255
219 234 255
219 234 255
219 234 255
219 234 255
219 234 255
219 234 255
219 234 255
219 234 255
219 234 255
219 234 255
219 234 255
219 234 255
219 234 255
219 234 255
219 234 255
219 234 255
219 234 255
219 234 255
219 234 255
219 234 255
219 234 255
219 234 255
219 234 255
219 234 255
219 234 255
219 234 255
219 234 255
219 234 255
219 234 255
219 234 255
219 234 255
219 234 255
219 234 255
219 234 255
219 234 255
219 234 255
219 234 255
219 234 255
219 234 255
219 234 255
219 234 255
219 234 255
219 234 255
219 234 255
219 234 255
219 234 255
219 234 255
219 234 255
219 234 255
219 234 255
219 234 255
219 234 255
219 234 255
219 234 255
219 234 255
219 234 255
219 234 255
219 234 255
219 234 255
219 234 255
219 234 255
219 234 255
219 234 255
219 234 255
219 234 255
219 234 255
219 234 255
219 234 255
219 234 255
219 234 255
219 234 255
219 234 255
219 234 255
219 234 255
219 234 255
219 234 255
219 234 255
219 234 255
219 234 255
219 234 255
219 234 255
219 234 255
219 234 255
219 234 255
219 234 255
219 234 255
219 234 255
219 234 255
219 234 255
219 234 255
219 234 255
219 234 255
219 234 255
219 234 255
219 234 255
219 234 255
219 234 255
219 234 255
219 234 255
219 234 255
219 234 255
219 234 255
219 234 255
219 234 255
219 234 255
219 234 255
219 234 255
219 234 255
219 234 255
219 234 255
219 234 255
219 234 255
219 234 255
219 234 255
219 234 255
219 234 255
219 234 255
219 234 255
219 234 255
219 234 255
219 234 255
219 234 255
219 234 255
219 234 255
219 234 255
219 234 255
219 234 255
219 234 255
219 234 255
219 234 255
219 234 255
219 234 255
187 200 218
0 0 12
0 0 15
0 0 18
0 0 16
0 0 16
0 0 6
0 0 15
0 0 14
0 0 4
0 0 14
0 0 15
0 0 3
0 0 0
0 0 4
0 0 7
0 0 8
0 0 12
0 0 14
0 0 13
0 0 14
0 0 15
0 0 16
0 0 16
0 0 16
0 0 17
0 0 3
0 0 10
0 0 16
0 0 16
0 0 16
0 0 16
0 0 22
0 0 27
0 0 27
0 0 30
0 0 32
0 0 32
0 0 33
0 0 36
0 0 36
0 0 38
0 7 40
0 2 39
0 10 41
0 13 41
0 14 43
0 12 44
0 12 44
0 13 45
0 7 43
0 8 43
0 14 44
0 14 45
0 14 49
0 14 49
0 14 48
0 16 52
0 21 57
0 20 55
0 16 51
0 16 52
0 15 48
0 14 44
0 12 44
0 3 40
0 9 42
0 11 45
0 15 53
0 18 60
0 24 67
0 24 66
0 21 61
0 18 57
0 16 56
0 14 55
0 17 59
0 14 58
0 14 58
0 15 56
0 14 54
0 14 53
0 15 50
0 12 44
0 7 35
0 5 24
4 12 22
11 21 30
17 27 38
8 24 34
14 33 48
16 42 69
16 50 88
17 57 102
20 59 98
20 51 77
15 35 45
14 25 9
26 37 16
28 38 8
22 33 0
17 32 0
18 36 0
17 37 0
8 33 5
12 37 22
18 45 40
20 43 48
15 35 45
25 40 40
24 40 38
20 39 42
16 35 40
7 28 34
9 34 45
15 43 69
21 54 94
18 56 108
15 56 119
14 55 124
14 55 123
19 54 119
9 43 103
12 43 102
10 38 95
0 30 83
1 29 82
0 27 80
7 33 84
3 30 78
0 22 67
0 22 65
0 18 57
0 18 53
0 14 47
0 7 39
0 4 34
0 15 39
8 25 63
8 24 64
0 12 55
0 13 48
0 9 38
0 11 38
0 9 42
0 10 41
0 0 39
0 0 35
0 0 30
0 0 20
0 0 18
0 0 19
0 0 26
0 7 34
0 6 45
7 28 71
0 33 84
0 35 86
7 32 82
15 41 86
20 42 82
9 20 50
0 0 27
0 0 21
0 0 16
0 0 15
0 0 15
0 0 16
0 0 15
0 0 8
0 0 0
0 0 0
0 0 0
0 0 10
0 0 16
0 0 20
0 0 24
0 0 34
0 6 36
0 14 43
0 16 49
0 18 54
0 20 58
0 13 54
0 6 42
0 0 33
0 0 26
0 0 18
0 0 16
0 0 13
0 0 11
0 0 16
0 0 14
0 0 12
0 0 14
0 0 12
0 0 13
0 0 13
0 0 24
0 0 25
0 0 35
10 22 57
1 18 58
0 19 58
61 62 85
201 208 219
219 234 255
219 234 255
219 234 255
219 234 255
219 234 255
219 234 255
219 234 255
219 234 255
219 234 255
219 234 255
219 234 255
219 234 255
219 234 255
219 234 255
219 234 255
219 234 255
219 234 255
219 234 255
219 234 255
219 234 255
219 234 255
219 234 255
219 234 255
219 234 255
219 234 255
219 234 255
219 234 255
219 234 255
219 234 255
219 234 255
219 234 255
219 234 255
219 234 255
219 234 255
219 234 255
219 234 255
219 234 255
219 234 255
219 234 255
219 234 255
219 234 255
219 234 255
219 234 255
219 234 255
219 234 255
219 234 255
219 234 255
219 234 255
219 234 255
219 234 255
219 234 255
219 234 255
219 234 255
219 234 255
219 234 255
219 234 255
219 234 255
219 234 255
219 234 255
219 234 255
219 234 255
219 234 255
219 234 255
219 234 255
219 234 255
219 234 255
219 234 255
219 234 255
219 234 255
219 234 255
219 234 255
219 234 255
219 234 255
219 234 255
219 234 255
219 234 255
219 234 255
219 234 255
219 234 255
219 234 255
219 234 255
219 234 255
219 234 255
219 234 255
219 234 255
219 234 255
219 234 255
219 234 255
219 234 255
219 234 255
219 234 255
219 234 255
219 234 255
219 234 255
219 234 255
219 234 255
219 234 255
219 234 255
219 234 255
219 234 255
219 234 255
219 234 255
219 234 255
219 234 255
219 234 255
219 234 255
219 234 255
219 234 255
219 234 255
219 234 255
219 234 255
219 234 255
219 234 255
219 234 255
219 234 255
219 234 255
219 234 255
219 234 255
219 234 255
219 234 255
219 234 255
219 234 255
219 234 255
219 234 255
219 234 255
219 234 255
219 234 255
219 234 255
219 234 255
219 234 255
219 234 255
219 234 255
219 234 255
219 234 255
219 234 255
219 234 255
219 234 255
219 234 255
219 234 255
219 234 255
219 234 255
219 234 255
219 234 255
219 234 255
219 234 255
219 234 255
219 234 255
219 234 255
219 234 255
219 234 255
219 234 255
219 234 255
219 234 255
219 234 255
219 234 255
219 234 255
219 234 255
219 234 255
219 234 255
219 234 255
219 234 255
219 234 255
219 234 255
219 234 255
219 234 255
219 234 255
219 234 255
219 234 255
219 234 255
219 234 255
219 234 255
219 234 255
219 234 255
219 234 255
219 234 255
219 234 255
219 234 255
219 234 255
219 234 255
219 234 255
219 234 255
219 234 255
219 234 255
219 234 255
219 234 255
219 234 255
219 234 255
219 234 255
219 234 255
219 234 255
219 234 255
219 234 255
219 234 255
219 234 255
126 134 147
0 0 14
0 0 12
0 0 13
0 0 10
0 0 5
0 0 6
0 0 16
0 0 8
0 0 3
0 0 16
0 0 13
0 0 0
0 0 0
0 0 0
0 0 15
0 0 16
0 0 16
0 0 16
0 0 16
0 0 16
0 0 16
0 0 16
0 0 15
0 0 16
0 0 7
0 0 10
0 0 13
0 0 16
0 0 16
0 0 16
0 0 16
0 0 22
0 0 23
0 0 25
0 0 27
0 0 30
0 0 32
0 0 32
0 0 34
0 0 35
0 0 36
0 0 39
0 0 37
0 0 38
0 4 39
0 6 40
0 3 40
0 8 41
0 3 41
0 4 42
0 13 42
0 14 42
0 14 43
0 14 46
0 14 47
0 14 48
0 14 52
0 16 52
0 21 57
0 19 54
0 14 50
0 14 45
0 14 44
0 14 43
0 11 43
0 11 43
0 14 46
0 14 52
0 15 58
0 20 63
0 21 64
0 22 61
0 20 61
0 19 61
0 17 60
0 14 59
0 14 59
0 14 59
0 14 55
0 14 52
0 14 48
0 14 48
0 14 47
0 14 46
0 13 43
0 10 40
0 5 34
0 7 33
0 5 31
0 4 30
0 11 32
4 24 58
13 42 88
18 53 104
22 59 107
22 56 94
17 38 41
16 33 18
27 41 15
28 39 5
19 34 0
19 34 3
20 34 9
21 35 12
25 43 16
20 39 9
23 38 13
23 35 11
25 33 3
21 30 7
21 33 13
20 33 14
15 27 5
17 30 15
11 27 27
12 33 50
18 45 84
22 54 112
19 53 121
20 53 122
17 51 111
7 43 99
4 37 92
0 31 85
7 32 86
4 32 85
8 30 84
9 31 80
6 24 66
0 14 51
0 17 52
0 17 49
0 9 39
0 0 35
0 0 36
0 7 37
0 16 47
0 20 60
0 19 62
0 13 54
0 0 44
0 1 35
0 1 36
0 12 43
0 13 43
0 2 39
0 0 32
0 0 28
0 0 18
0 0 15
0 0 18
0 0 24
0 0 32
0 7 44
9 27 68
8 33 82
0 29 80
7 28 76
6 32 76
11 36 77
6 25 60
0 1 35
0 6 37
0 0 28
0 0 20
0 0 16
0 0 13
0 0 11
0 0 2
0 0 0
0 0 0
0 0 0
0 0 5
0 0 13
0 0 16
0 0 26
0 0 33
0 7 40
0 6 40
0 6 41
0 14 53
0 19 57
0 15 51
0 13 46
0 4 36
0 0 28
0 0 20
0 0 16
0 0 11
0 0 9
0 0 16
0 0 13
0 0 12
0 0 16
0 0 16
0 0 4
0 0 14
0 0 16
0 0 16
0 0 23
12 23 53
9 26 66
3 17 54
32 38 69
169 167 167
219 234 255
219 234 255
219 234 255
219 234 255
219 234 255
219 234 255
219 234 255
219 234 255
219 234 255
219 234 255
219 234 255
219 234 255
219 234 255
219 234 255
219 234 255
219 234 255
219 234 255
219 234 255
219 234 255
219 234 255
219 234 255
219 234 255
219 234 255
219 234 255
219 234 255
219 234 255
219 234 255
219 234 255
219 234 255
219 234 255
219 234 255
219 234 255
219 234 255
219 234 255
219 234 255
219 234 255
219 234 255
219 234 255
219 234 255
219 234 255
219 234 255
219 234 255
219 234 255
219 234 255
219 234 255
219 234 255
219 234 255
219 234 255
219 234 255
219 234 255
219 234 255
219 234 255
219 234 255
219 234 255
219 234 255
219 234 255
219 234 255
219 234 255
219 234 255
219 234 255
219 234 255
219 234 255
219 234 255
219 234 255
219 234 255
219 234 255
219 234 255
219 234 255
219 234 255
219 234 255
219 234 255
219 234 255
219 234 255
219 234 255
219 234 255
219 234 255
219 234 255
219 234 255
219 234 255
219 234 255
219 234 255
219 234 255
219 234 255
219 234 255
219 234 255
219 234 255
219 234 255
219 234 255
219 234 255
219 234 255
219 234 255
219 234 255
219 234 255
219 234 255
219 234 255
219 234 255
219 234 255
219 235 255
219 235 255
219 235 255
219 235 255
219 235 255
219 235 255
219 235 255
219 235 255
219 235 255
219 235 255
219 235 255
219 235 255
219 235 255
219 235 255
219 235 255
219 235 255
219 235 255
219 235 255
219 235 255
219 235 255
219 235 255
219 235 255
219 235 255
219 235 255
219 235 255
219 235 255
219 235 255
219 235 255
219 235 255
219 235 255
219 235 255
219 235 255
219 235 255
219 235 255
219 235 255
219 235 255
219 235 255
219 235 255
219 235 255
219 235 255
219 235 255
219 235 255
219 235 255
219 235 255
219 235 255
219 235 255
219 235 255
219 235 255
219 235 255
219 235 255
219 235 255
219 234 255
219 234 255
219 234 255
219 234 255
219 234 255
219 234 255
219 235 255
219 234 255
219 234 255
219 234 255
219 234 255
219 234 255
219 234 255
219 234 255
219 234 255
219 234 255
219 234 255
219 234 255
219 234 255
219 234 255
219 234 255
219 234 255
219 234 255
219 234 255
219 234 255
219 234 255
219 234 255
219 234 255
219 234 255
219 234 255
219 234 255
219 234 255
219 234 255
219 234 255
219 234 255
219 234 255
219 234 255
219 234 255
219 234 255
219 234 255
219 234 255
219 234 255
219 234 255
219 234 255
219 234 255
217 232 253
31 33 38
0 0 11
0 0 0
0 0 3
0 0 0
0 0 0
0 0 10
0 0 16
0 0 3
0 0 9
0 0 16
0 0 11
0 0 0
0 0 2
0 0 6
0 0 16
0 0 16
0 0 16
0 0 16
0 0 16
0 0 16
0 0 16
0 0 16
0 0 14
0 0 14
0 0 2
0 0 3
0 0 14
0 0 16
0 0 16
0 0 16
0 0 18
0 0 22
0 0 22
0 0 24
0 0 28
0 0 31
0 0 28
0 0 29
0 0 30
0 0 32
0 0 34
0 0 35
0 0 35
0 0 36
0 0 36
0 0 37
0 0 38
0 0 38
0 0 38
0 0 41
0 10 41
0 14 41
0 14 42
0 13 42
0 14 45
0 14 48
0 14 48
0 13 47
0 19 53
0 16 51
0 10 46
0 9 42
0 14 44
0 8 42
0 6 42
0 14 46
0 14 49
0 14 54
0 14 58
0 16 60
0 20 62
0 21 61
0 21 63
0 20 63
0 15 59
0 14 57
0 14 56
0 14 55
0 14 55
0 14 53
0 14 51
0 14 50
0 15 53
0 17 56
0 14 55
0 14 53
0 14 52
0 13 48
0 12 44
7 14 44
0 9 32
0 2 25
0 10 40
12 32 72
18 48 92
22 56 100
24 56 82
21 48 55
21 40 23
18 32 5
19 35 3
21 37 13
22 41 13
22 41 10
22 42 7
20 39 0
21 35 7
27 39 9
27 37 0
21 33 0
23 39 12
19 35 10
18 31 0
21 31 0
19 34 7
14 33 24
19 44 65
24 54 103
19 54 116
17 53 119
15 49 106
8 40 95
3 35 88
4 34 87
4 31 84
1 31 84
10 31 84
16 34 82
8 23 60
0 12 41
0 8 39
0 9 38
0 0 35
0 0 35
0 0 38
0 5 41
4 21 54
7 23 65
0 14 58
0 18 57
0 9 45
0 2 40
0 6 40
0 8 39
0 5 36
0 0 32
0 0 25
0 0 21
0 0 15
0 0 9
0 0 13
0 0 22
0 0 34
0 13 46
5 26 67
12 36 87
5 34 88
0 23 75
0 27 70
9 34 77
15 40 83
0 12 51
0 7 43
0 11 40
0 8 34
0 0 18
0 0 16
0 0 11
0 0 0
0 0 0
0 0 0
0 0 0
0 0 0
0 0 8
0 0 16
5 9 30
5 13 41
4 9 41
0 12 47
0 7 46
0 12 51
0 13 49
0 14 47
0 9 43
0 5 42
0 6 36
0 0 24
0 0 17
0 0 16
0 0 14
0 0 15
0 0 15
0 0 14
0 0 17
0 0 15
0 0 8
0 0 3
0 0 13
0 0 15
0 0 16
1 4 31
6 19 55
16 32 71
0 18 59
118 114 113
219 234 254
219 234 255
219 234 255
219 234 255
219 234 255
219 234 255
219 234 255
219 234 255
219 234 255
219 234 255
219 234 255
219 234 255
219 234 255
219 234 255
219 234 255
219 234 255
219 234 255
219 234 255
219 234 255
219 234 255
219 234 255
219 234 255
219 234 255
219 234 255
219 234 255
219 234 255
219 234 255
219 234 255
219 234 255
219 234 255
219 234 255
219 234 255
219 234 255
219 234 255
219 234 255
219 234 255
219 234 255
219 234 255
219 234 255
219 235 255
219 235 255
219 234 255
219 234 255
219 235 255
219 235 255
219 235 255
219 235 255
219 235 255
219 235 255
219 235 255
219 235 255
219 235 255
219 235 255
219 235 255
219 235 255
219 235 255
219 235 255
219 235 255
219 235 255
219 235 255
219 235 255
219 235 255
219 235 255
219 235 255
219 235 255
219 235 255
219 235 255
219 235 255
219 235 255
219 235 255
219 235 255
219 235 255
219 235 255
219 235 255
219 235 255
219 235 255
219 235 255
219 235 255
219 235 255
219 235 255
219 235 255
219 235 255
219 235 255
219 235 255
219 235 255
219 235 255
219 235 255
219 235 255
219 235 255
219 235 255
219 235 255
219 235 255
219 235 255
219 235 255
219 235 255
219 235 255
219 235 255
219 235 255
219 235 255
219 235 255
219 235 255
219 235 255
219 235 255
219 235 255
219 235 255
219 235 255
219 235 255
219 235 255
219 235 255
219 235 255
219 235 255
219 235 255
219 235 255
219 235 255
219 235 255
219 235 255
219 235 255
219 235 255
219 235 255
219 235 255
219 235 255
219 235 255
219 235 255
219 235 255
219 235 255
219 235 255
219 235 255
219 235 255
219 235 255
219 235 255
219 235 255
219 235 255
219 235 255
219 235 255
219 235 255
219 235 255
219 235 255
219 235 255
219 235 255
219 235 255
219 235 255
219 235 255
219 235 255
219 235 255
219 235 255
219 235 255
219 235 255
219 235 255
219 235 255
219 235 255
219 235 255
219 235 255
219 235 255
219 235 255
219 235 255
219 235 255
219 235 255
219 235 255
219 235 255
219 235 255
219 235 255
219 235 255
219 235 255
219 235 255
219 235 255
219 235 255
219 235 255
219 235 255
219 235 255
219 235 255
219 235 255
219 235 255
219 235 255
219 235 255
219 235 255
219 235 255
219 235 255
219 235 255
219 235 255
219 235 255
219 235 255
219 235 255
219 235 255
219 235 255
219 235 255
219 235 255
219 235 255
219 235 255
219 235 255
219 235 255
219 235 255
219 235 255
219 235 255
192 206 224
0 0 12
0 0 8
0 0 0
0 0 0
0 0 0
0 0 0
0 0 9
0 0 11
0 0 10
0 0 12
0 0 10
0 0 2
0 0 0
0 0 13
0 0 16
0 0 16
0 0 16
0 0 16
0 0 16
0 0 16
0 0 16
0 0 16
0 0 16
0 0 16
0 0 12
0 0 0
0 0 3
0 0 15
0 0 16
0 0 16
0 0 16
0 0 20
0 0 22
0 0 22
0 0 24
0 0 27
0 0 28
0 0 27
0 0 28
0 0 31
0 0 33
0 0 35
0 0 35
0 0 35
0 0 35
0 0 35
0 0 35
0 0 35
0 0 35
0 0 36
0 0 39
0 11 39
0 14 39
0 11 40
0 14 43
0 14 44
0 13 45
0 10 45
0 12 46
0 16 52
0 16 51
0 9 45
0 12 44
0 14 47
0 11 44
0 13 45
0 14 47
0 14 47
0 14 53
0 14 57
0 19 61
0 21 63
0 24 63
0 23 66
0 21 65
0 20 62
0 21 60
0 16 55
0 14 53
0 14 59
0 15 58
0 16 56
0 16 56
0 14 56
0 14 57
0 19 60
0 16 59
0 14 52
0 12 46
0 10 42
0 8 39
0 9 40
0 6 35
0 0 27
0 0 28
3 16 44
11 32 69
21 50 91
30 58 85
27 53 63
21 43 43
19 39 38
18 37 32
17 40 14
23 45 13
20 42 6
18 38 0
22 39 11
26 41 19
24 38 10
20 36 2
19 38 11
15 35 8
13 32 0
17 33 0
19 35 3
10 35 14
15 45 60
21 56 104
18 57 117
11 51 109
11 48 103
11 45 99
6 39 91
3 35 86
0 27 76
2 25 75
16 34 84
12 28 72
5 15 49
0 10 38
0 5 36
0 3 36
0 0 36
0 0 36
0 2 38
0 6 44
1 9 48
2 17 57
0 14 55
0 16 55
0 13 49
0 6 44
0 6 42
0 0 34
0 0 29
0 0 22
0 0 17
0 0 12
0 0 2
0 0 5
0 0 4
0 0 19
0 0 34
0 12 47
0 23 66
9 37 89
5 36 92
0 27 81
0 24 70
3 31 73
7 37 82
0 23 67
0 19 59
0 14 47
0 14 41
0 4 26
0 0 16
0 0 10
0 0 0
0 0 0
0 0 0
0 0 0
0 0 0
0 0 4
0 0 16
0 2 19
0 6 25
4 14 40
1 17 48
8 20 57
0 16 52
0 14 50
0 10 45
0 16 51
0 13 48
0 4 38
0 0 28
0 0 22
0 0 18
0 0 14
0 0 16
0 0 15
0 0 16
0 0 15
0 0 15
0 0 11
0 0 8
0 0 6
0 0 15
0 0 16
0 0 23
0 7 40
19 35 72
0 12 49
76 74 80
201 211 226
219 235 255
219 235 255
219 235 255
219 235 255
219 235 255
219 235 255
219 235 255
219 235 255
219 235 255
219 235 255
219 235 255
219 235 255
219 235 255
219 235 255
219 235 255
219 235 255
219 235 255
219 235 255
219 235 255
219 235 255
219 235 255
219 235 255
219 235 255
219 235 255
219 235 255
219 235 255
219 235 255
219 235 255
219 235 255
219 235 255
219 235 255
219 235 255
219 235 255
219 235 255
219 235 255
219 235 255
219 235 255
219 235 255
219 235 255
219 235 255
219 235 255
219 235 255
219 235 255
219 235 255
219 235 255
219 235 255
219 235 255
219 235 255
219 235 255
219 235 255
219 235 255
219 235 255
219 235 255
219 235 255
219 235 255
219 235 255
219 235 255
219 235 255
219 235 255
219 235 255
219 235 255
219 235 255
219 235 255
219 235 255
219 235 255
219 235 255
219 235 255
219 235 255
219 235 255
219 235 255
219 235 255
219 235 255
219 235 255
219 235 255
219 235 255
219 235 255
219 235 255
219 235 255
219 235 255
219 235 255
219 235 255
219 235 255
219 235 255
219 235 255
219 235 255
219 235 255
219 235 255
219 235 255
219 235 255
219 235 255
219 235 255
219 235 255
219 235 255
219 235 255
219 235 255
219 235 255
220 235 255
220 235 255
220 235 255
220 235 255
220 235 255
220 235 255
220 235 255
220 235 255
220 235 255
220 235 255
220 235 255
220 235 255
220 235 255
220 235 255
220 235 255
220 235 255
220 235 255
220 235 255
220 235 255
220 235 255
220 235 255
220 235 255
220 235 255
220 235 255
220 235 255
220 235 255
220 235 255
220 235 255
220 235 255
220 235 255
220 235 255
220 235 255
220 235 255
220 235 255
220 235 255
220 235 255
220 235 255
220 235 255
220 235 255
220 235 255
220 235 255
220 235 255
220 235 255
220 235 255
220 235 255
220 235 255
220 235 255
220 235 255
220 235 255
220 235 255
220 235 255
220 235 255
220 235 255
220 235 255
220 235 255
220 235 255
220 235 255
219 235 255
220 235 255
219 235 255
219 235 255
219 235 255
220 235 255
219 235 255
219 235 255
219 235 255
219 235 255
219 235 255
219 235 255
219 235 255
219 235 255
219 235 255
219 235 255
219 235 255
219 235 255
219 235 255
219 235 255
219 235 255
219 235 255
219 235 255
219 235 255
219 235 255
219 235 255
219 235 255
219 235 255
219 235 255
219 235 255
219 235 255
219 235 255
219 235 255
219 235 255
219 235 255
219 235 255
219 235 255
219 235 255
219 235 255
152 162 177
0 0 11
0 0 8
0 0 0
0 0 0
0 0 0
0 0 0
0 0 0
0 0 0
0 0 4
0 0 0
0 0 2
0 0 0
0 0 2
0 0 15
0 0 16
0 0 16
0 0 16
0 0 20
0 0 17
0 0 16
0 0 16
0 0 16
0 0 16
0 0 16
0 0 9
0 0 0
0 0 6
0 0 16
0 0 16
0 0 16
0 0 16
0 0 21
0 0 21
0 0 22
0 0 22
0 0 24
0 0 27
0 0 27
0 0 27
0 0 29
0 0 29
0 0 29
0 0 31
0 0 35
0 0 35
0 0 35
0 0 37
0 0 38
0 0 37
0 0 35
0 0 36
0 5 38
0 8 39
0 13 41
0 4 39
0 4 39
0 5 40
0 8 41
0 14 46
0 14 47
0 10 45
0 4 43
0 14 46
0 14 48
0 14 46
0 14 48
0 14 48
0 14 48
0 15 53
0 17 56
0 16 57
0 20 62
0 22 66
0 25 66
0 24 65
0 20 62
0 19 58
0 15 55
0 16 56
0 14 57
0 14 57
0 14 56
0 14 56
0 14 53
0 14 53
0 16 54
0 14 51
0 14 48
0 16 47
0 12 41
0 1 37
0 8 42
0 5 42
0 0 38
0 0 33
0 0 26
0 2 28
4 14 50
16 36 71
23 52 85
27 57 87
26 51 79
28 50 75
20 43 51
21 44 38
24 44 27
24 41 18
27 42 23
28 42 27
28 43 24
24 40 9
14 35 0
17 41 7
18 41 8
17 42 5
22 35 15
10 34 27
19 51 77
18 57 120
16 55 128
13 50 110
5 45 103
2 38 93
11 42 95
12 39 86
0 21 64
3 24 64
8 25 66
2 12 51
0 2 42
0 1 40
0 9 39
0 8 40
0 1 44
0 0 38
0 7 36
0 8 41
0 6 48
0 4 44
0 5 41
0 5 46
0 6 45
0 0 38
0 0 30
0 0 28
0 0 27
0 0 23
0 0 15
0 0 8
0 0 8
0 0 4
0 0 0
0 0 18
0 2 36
0 12 48
0 22 65
11 38 92
10 41 93
0 29 77
0 25 76
3 29 73
10 37 81
12 36 86
12 33 80
0 14 49
0 16 48
0 8 32
0 0 16
0 0 12
0 0 0
0 0 0
0 0 0
0 0 0
0 0 4
0 0 7
0 0 13
0 0 16
0 0 19
0 0 18
0 2 29
0 9 41
0 12 43
0 14 45
0 15 48
0 23 59
0 22 59
0 14 49
0 9 37
0 5 27
0 0 20
0 0 18
0 0 16
0 0 12
0 0 15
0 0 13
0 0 5
0 0 13
0 0 2
0 0 2
0 0 8
0 0 10
0 0 17
0 6 31
18 32 67
0 11 44
45 52 76
170 175 180
219 235 255
219 235 255
219 235 255
219 235 255
219 235 255
219 235 255
219 235 255
219 235 255
219 235 255
219 235 255
219 235 255
219 235 255
219 235 255
219 235 255
219 235 255
219 235 255
219 235 255
219 235 255
219 235 255
219 235 255
219 235 255
219 235 255
219 235 255
219 235 255
219 235 255
219 235 255
219 235 255
219 235 255
219 235 255
219 235 255
219 235 255
219 235 255
219 235 255
219 235 255
219 235 255
220 235 255
220 235 255
219 235 255
220 235 255
220 235 255
219 235 255
220 235 255
220 235 255
220 235 255
220 235 255
220 235 255
220 235 255
220 235 255
220 235 255
220 235 255
220 235 255
220 235 255
220 235 255
220 235 255
220 235 255
220 235 255
220 235 255
220 235 255
220 235 255
220 235 255
220 235 255
220 235 255
220 235 255
220 235 255
220 235 255
220 235 255
220 235 255
220 235 255
220 235 255
220 235 255
220 235 255
220 235 255
220 235 255
220 235 255
220 235 255
220 235 255
220 235 255
220 235 255
220 235 255
220 235 255
220 235 255
220 235 255
220 235 255
220 235 255
220 235 255
220 235 255
220 235 255
220 235 255
220 235 255
220 235 255
220 235 255
220 235 255
220 235 255
220 235 255
220 235 255
220 235 255
220 235 255
220 235 255
220 235 255
220 235 255
220 235 255
220 235 255
220 235 255
220 235 255
220 235 255
220 235 255
220 235 255
220 235 255
220 235 255
220 235 255
220 235 255
220 235 255
220 235 255
220 235 255
220 235 255
220 235 255
220 235 255
220 235 255
220 235 255
220 235 255
220 235 255
220 235 255
220 235 255
220 235 255
220 235 255
220 235 255
220 235 255
220 235 255
220 235 255
220 235 255
220 235 255
220 235 255
220 235 255
220 235 255
220 235 255
220 235 255
220 235 255
220 235 255
220 235 255
220 235 255
220 235 255
220 235 255
220 235 255
220 235 255
220 235 255
220 235 255
220 235 255
220 235 255
220 235 255
220 235 255
220 235 255
220 235 255
220 235 255
220 235 255
220 235 255
220 235 255
220 235 255
220 235 255
220 235 255
220 235 255
220 235 255
220 235 255
220 235 255
220 235 255
220 235 255
220 235 255
220 235 255
220 235 255
220 235 255
220 235 255
220 235 255
220 235 255
220 235 255
220 235 255
220 235 255
220 235 255
220 235 255
220 235 255
220 235 255
220 235 255
220 235 255
220 235 255
220 235 255
220 235 255
220 235 255
220 235 255
220 235 255
220 235 255
220 235 255
220 235 255
220 235 255
220 235 255
107 115 126
0 0 7
0 0 14
0 0 0
0 0 0
0 0 0
0 0 0
0 0 0
0 0 0
0 0 0
0 0 8
0 0 3
0 0 4
0 0 10
0 0 16
0 0 16
0 0 16
0 0 18
0 0 21
0 0 20
0 0 16
0 0 16
0 0 16
0 0 16
0 0 13
0 0 13
0 0 7
0 0 10
0 0 16
0 0 16
0 0 16
0 0 22
0 0 22
0 0 17
0 0 19
0 0 22
0 0 22
0 0 27
0 0 27
0 0 28
0 0 31
0 0 28
0 0 29
0 0 32
0 0 35
0 0 37
0 0 38
0 0 39
0 0 39
0 0 37
0 0 35
0 0 35
0 0 38
0 0 39
0 5 39
0 0 39
0 0 39
0 10 40
0 9 41
0 11 43
0 9 44
0 2 43
0 11 46
0 14 45
0 14 45
0 14 46
0 10 44
0 9 44
0 13 49
0 17 55
0 20 58
0 19 59
0 20 64
0 23 67
0 25 66
0 24 64
0 20 62
0 20 59
0 20 57
0 20 57
0 14 57
0 14 56
0 14 55
0 14 54
0 14 53
0 14 51
0 15 52
0 14 50
0 15 48
0 11 42
0 5 34
0 8 38
0 7 42
0 0 40
0 0 40
0 0 36
0 0 37
0 0 34
0 0 29
0 5 31
8 24 51
16 36 68
22 42 77
30 49 88
29 56 97
24 54 87
21 51 77
18 46 59
26 45 52
30 42 43
29 45 28
25 42 11
19 39 0
17 40 2
19 44 12
23 49 15
20 32 14
14 34 33
21 52 87
18 55 121
14 52 128
7 43 109
0 37 93
0 33 87
7 36 86
7 29 75
0 18 61
0 18 59
0 14 51
0 6 44
0 13 44
0 13 42
0 14 40
0 13 41
0 13 46
0 0 41
0 4 37
0 6 40
0 10 47
0 18 50
0 27 58
5 27 65
6 26 69
6 27 74
6 25 70
4 26 65
0 16 53
2 12 49
0 6 35
0 6 28
0 0 19
0 0 12
0 0 8
0 0 16
0 8 33
0 14 47
0 21 65
13 38 92
17 46 97
0 28 72
0 25 76
7 33 79
17 44 87
8 33 83
17 43 94
8 31 73
5 26 64
0 13 45
0 0 22
0 0 14
0 0 7
0 0 0
0 0 8
0 0 6
0 0 9
0 0 16
0 0 14
0 0 11
0 0 12
0 0 16
0 0 21
0 0 23
0 6 34
0 7 43
0 15 51
0 20 61
0 24 66
0 17 54
0 8 41
0 8 34
0 0 23
0 0 17
0 0 17
0 0 13
0 0 16
0 0 15
0 0 14
0 0 15
0 0 5
0 0 0
0 0 5
0 0 0
0 0 10
0 2 22
12 23 52
0 6 40
19 31 64
122 127 119
220 235 255
220 235 255
220 235 255
220 235 255
220 235 255
220 235 255
220 235 255
220 235 255
220 235 255
220 235 255
220 235 255
220 235 255
220 235 255
220 235 255
220 235 255
220 235 255
220 235 255
220 235 255
220 235 255
220 235 255
220 235 255
220 235 255
220 235 255
220 235 255
220 235 255
220 235 255
220 235 255
220 235 255
220 235 255
220 235 255
220 235 255
220 235 255
220 235 255
220 235 255
220 235 255
220 235 255
220 235 255
220 235 255
220 235 255
220 235 255
220 235 255
220 235 255
220 235 255
220 235 255
220 235 255
220 235 255
220 235 255
220 235 255
220 235 255
220 235 255
220 235 255
220 235 255
220 235 255
220 235 255
220 235 255
220 235 255
220 235 255
220 235 255
220 235 255
220 235 255
220 235 255
220 235 255
220 235 255
220 235 255
220 235 255
220 235 255
220 235 255
220 235 255
220 235 255
220 235 255
220 235 255
220 235 255
220 235 255
220 235 255
220 235 255
220 235 255
220 235 255
220 235 255
220 235 255
220 235 255
220 235 255
220 235 255
220 235 255
220 235 255
220 235 255
220 235 255
220 235 255
220 235 255
220 235 255
220 235 255
220 235 255
220 235 255
220 235 255
220 235 255
220 235 255
220 235 255
220 235 255
220 235 255
220 235 255
220 235 255
220 235 255
220 235 255
220 235 255
220 235 255
220 235 255
220 235 255
220 235 255
220 235 255
220 235 255
220 235 255
220 235 255
220 235 255
220 235 255
220 235 255
220 235 255
220 235 255
220 235 255
220 235 255
220 235 255
220 235 255
220 235 255
220 235 255
220 235 255
220 235 255
220 235 255
220 235 255
220 235 255
220 235 255
220 235 255
220 235 255
220 235 255
220 235 255
220 235 255
220 235 255
220 235 255
220 235 255
220 235 255
220 235 255
220 235 255
220 235 255
220 235 255
220 235 255
220 235 255
220 235 255
220 235 255
220 235 255
220 235 255
220 235 255
220 235 255
220 235 255
220 235 255
220 235 255
220 235 255
220 235 255
220 235 255
220 235 255
220 235 255
220 235 255
220 235 255
220 235 255
220 235 255
220 235 255
220 235 255
220 235 255
220 235 255
220 235 255
220 235 255
220 235 255
220 235 255
220 235 255
220 235 255
220 235 255
220 235 255
220 235 255
220 235 255
220 235 255
220 235 255
220 235 255
220 235 255
220 235 255
220 235 255
220 235 255
220 235 255
220 235 255
220 235 255
220 235 255
220 235 255
220 235 255
220 235 255
220 235 255
220 235 255
211 225 245
0 1 16
0 0 7
0 0 5
0 0 0
0 0 0
0 0 0
0 0 0
0 0 0
0 0 0
0 0 6
0 0 7
0 0 0
0 0 14
0 0 16
0 0 16
0 0 16
0 0 16
0 0 19
0 0 17
0 0 16
0 0 16
0 0 16
0 0 16
0 0 16
0 0 11
0 0 15
0 0 0
0 0 12
0 0 18
0 0 16
0 0 16
0 0 22
0 0 22
0 0 16
0 0 22
0 0 22
0 0 23
0 0 27
0 0 27
0 0 27
0 0 27
0 0 27
0 0 27
0 0 29
0 0 32
0 0 35
0 0 35
0 0 39
0 0 39
0 0 37
0 0 35
0 0 35
0 0 39
0 0 39
0 0 39
0 0 39
0 0 39
0 3 38
0 4 39
0 13 44
0 12 46
0 5 43
0 14 48
0 14 47
0 14 47
0 14 48
0 14 48
0 14 50
0 14 49
0 14 52
0 17 55
0 16 58
0 20 62
0 20 65
0 24 65
0 24 63
0 21 62
0 21 61
0 20 57
0 20 57
0 14 57
0 14 55
0 14 54
0 16 54
0 15 53
0 14 50
0 14 49
0 14 49
0 11 43
0 0 36
0 3 37
0 5 36
0 0 37
0 0 38
0 0 40
0 0 38
0 0 39
0 7 39
0 0 35
0 0 35
0 0 36
0 4 38
2 10 49
12 22 66
16 32 79
23 48 95
23 56 103
21 56 96
27 57 88
23 49 71
26 47 37
33 54 25
26 48 4
19 40 0
18 44 3
19 45 5
24 40 13
13 35 34
22 54 87
17 55 114
13 52 118
10 46 105
2 36 89
0 36 86
0 28 76
0 23 67
0 21 62
0 19 59
0 19 54
0 13 45
0 14 45
0 14 46
0 14 44
0 14 43
0 14 46
0 7 42
0 0 40
0 3 42
0 18 53
0 32 72
2 35 79
10 42 84
15 44 87
14 45 92
19 54 105
14 46 98
11 38 89
4 30 79
3 23 66
0 15 51
0 8 38
0 6 31
0 0 23
0 0 21
0 2 30
0 11 43
0 21 66
11 33 85
13 40 90
0 24 68
0 25 78
5 32 83
11 41 85
0 31 78
15 41 95
11 36 84
6 29 79
0 18 58
0 2 32
0 0 18
0 0 15
0 0 12
0 0 10
0 0 15
0 0 9
0 0 16
0 0 16
0 0 6
0 0 6
0 0 15
0 0 16
0 0 20
0 0 27
0 9 40
0 8 45
0 10 51
0 22 63
0 17 56
0 10 43
0 4 33
0 0 26
0 0 17
0 0 22
0 0 16
0 0 13
0 0 5
0 0 9
0 0 1
0 0 1
0 0 0
0 0 3
0 0 8
0 0 13
0 0 18
0 5 31
0 0 35
2 14 50
68 78 74
211 226 245
220 235 255
220 235 255
220 235 255
220 235 255
220 235 255
220 235 255
220 235 255
220 235 255
220 235 255
220 235 255
220 235 255
220 235 255
220 235 255
220 235 255
220 235 255
220 235 255
220 235 255
220 235 255
220 235 255
220 235 255
220 235 255
220 235 255
220 235 255
220 235 255
220 235 255
220 235 255
220 235 255
220 235 255
220 235 255
220 235 255
220 235 255
220 235 255
220 235 255
220 235 255
220 235 255
220 235 255
220 235 255
220 235 255
220 235 255
220 235 255
220 235 255
220 235 255
220 235 255
220 235 255
220 235 255
220 235 255
220 235 255
220 235 255
220 235 255
220 235 255
220 235 255
220 235 255
220 235 255
220 235 255
220 235 255
220 235 255
220 235 255
220 235 255
220 235 255
220 235 255
220 235 255
220 235 255
220 235 255
220 235 255
220 235 255
220 235 255
220 235 255
220 235 255
220 235 255
220 235 255
220 235 255
220 235 255
220 235 255
220 235 255
220 235 255
220 235 255
220 235 255
220 235 255
220 235 255
220 235 255
220 235 255
220 235 255
220 235 255
220 235 255
220 235 255
220 235 255
220 235 255
220 235 255
220 235 255
220 235 255
220 235 255
220 235 255
220 235 255
220 235 255
220 235 255
220 235 255
220 235 255
220 235 255
220 235 255
220 235 255
220 235 255
220 235 255
220 235 255
220 235 255
220 235 255
220 235 255
220 235 255
220 235 255
220 235 255
220 235 255
220 235 255
220 235 255
220 235 255
220 235 255
220 235 255
220 235 255
220 235 255
220 235 255
220 235 255
220 235 255
220 235 255
220 235 255
220 235 255
220 235 255
220 235 255
220 235 255
220 235 255
220 235 255
220 235 255
220 235 255
220 235 255
220 235 255
220 235 255
220 235 255
220 235 255
220 235 255
220 235 255
220 235 255
220 235 255
220 235 255
220 235 255
220 235 255
220 235 255
220 235 255
220 235 255
220 235 255
220 235 255
220 235 255
220 235 255
220 235 255
220 235 255
220 235 255
220 235 255
220 235 255
220 235 255
220 235 255
220 235 255
220 235 255
220 235 255
220 235 255
220 235 255
220 235 255
220 235 255
220 235 255
220 235 255
220 235 255
220 235 255
220 235 255
220 235 255
220 235 255
220 235 255
220 235 255
220 235 255
220 235 255
220 235 255
220 235 255
220 235 255
220 235 255
220 235 255
220 235 255
220 235 255
220 235 255
220 235 255
220 235 255
220 235 255
220 235 255
220 235 255
220 235 255
220 235 255
220 235 255
171 183 200
0 0 10
0 0 2
0 0 0
0 0 0
0 0 0
0 0 0
0 0 0
0 0 0
0 0 0
0 0 8
0 0 7
0 0 3
0 0 16
0 0 16
0 0 16
0 0 16
0 0 16
0 0 16
0 0 16
0 0 16
0 0 16
0 0 21
0 0 16
0 0 16
0 0 11
0 0 13
0 0 2
0 0 14
0 0 17
0 0 16
0 0 17
0 0 20
0 0 20
0 0 16
0 0 22
0 0 22
0 0 24
0 0 27
0 0 27
0 0 28
0 0 27
0 0 27
0 0 28
0 0 31
0 0 33
0 0 35
0 0 35
0 0 36
0 0 36
0 0 38
0 0 36
0 0 36
0 0 39
0 0 39
0 0 39
0 0 39
0 0 39
0 9 40
0 8 41
0 8 42
0 15 49
0 6 43
0 12 47
0 13 46
0 13 46
0 14 50
0 15 48
0 19 53
0 15 52
0 14 53
0 16 55
0 17 58
0 20 62
0 20 65
0 21 63
0 23 63
0 21 62
0 20 60
0 20 57
0 19 57
0 15 57
0 15 55
0 14 55
0 14 53
0 14 51
0 15 50
0 14 49
0 8 42
0 0 37
0 0 37
0 0 35
0 0 34
0 0 35
0 0 38
0 0 39
0 0 39
0 0 40
0 0 40
0 8 38
0 12 41
0 11 45
0 11 48
0 8 47
0 3 43
0 0 35
6 18 54
7 29 67
9 42 84
16 55 97
18 58 98
25 52 65
31 56 43
32 54 23
23 43 1
22 42 0
17 42 0
24 46 10
13 39 34
22 57 89
20 57 105
12 48 96
13 45 94
12 39 88
0 29 77
0 22 67
0 24 67
0 18 60
0 16 57
0 16 52
0 14 46
0 14 47
0 14 50
0 14 52
0 15 53
0 16 52
0 13 48
0 10 47
0 15 51
0 27 64
4 34 78
17 47 101
26 53 96
46 75 110
35 70 104
15 58 96
23 54 102
20 46 95
11 40 89
7 34 82
7 24 68
7 14 54
0 7 45
0 2 36
0 0 34
0 0 37
0 4 43
0 13 59
11 32 86
11 34 86
0 27 72
0 24 79
8 38 93
14 45 91
0 31 78
11 37 93
10 32 86
11 34 90
8 27 75
0 8 44
0 0 27
0 0 23
0 0 21
0 0 18
0 0 16
0 0 16
0 0 16
0 0 13
0 0 6
0 0 6
0 0 10
0 0 15
0 0 16
0 0 18
0 2 29
0 9 40
0 13 48
0 19 58
0 15 56
0 14 50
0 8 39
0 0 27
0 0 17
0 0 14
0 0 15
0 0 15
0 0 9
0 0 10
0 0 6
0 0 0
0 0 0
0 0 0
0 0 4
0 0 14
0 0 15
0 0 23
0 0 28
0 5 33
46 57 66
177 190 203
220 235 255
220 235 255
220 235 255
220 235 255
220 235 255
220 235 255
220 235 255
220 235 255
220 235 255
220 235 255
220 235 255
220 235 255
220 235 255
220 235 255
220 235 255
220 235 255
220 235 255
220 235 255
220 235 255
220 235 255
220 235 255
220 235 255
220 235 255
220 235 255
220 235 255
220 235 255
220 235 255
220 235 255
220 235 255
220 235 255
220 235 255
220 235 255
220 235 255
220 235 255
220 235 255
220 235 255
220 235 255
220 235 255
220 235 255
220 235 255
220 235 255
220 235 255
220 235 255
220 235 255
220 235 255
220 235 255
220 235 255
220 235 255
220 235 255
220 235 255
220 235 255
220 235 255
220 235 255
220 235 255
220 235 255
220 235 255
220 235 255
220 235 255
220 235 255
220 235 255
220 235 255
220 235 255
220 235 255
220 235 255
220 235 255
220 235 255
220 235 255
220 235 255
220 235 255
220 235 255
220 235 255
220 235 255
220 235 255
220 235 255
220 235 255
220 235 255
220 235 255
220 235 255
220 235 255
220 235 255
220 235 255
220 235 255
220 235 255
220 235 255
220 235 255
220 235 255
220 235 255
220 235 255
220 235 255
220 235 255
220 235 255
220 235 255
220 235 255
220 235 255
220 235 255
220 235 255
220 235 255
220 235 255
220 235 255
220 235 255
220 235 255
220 235 255
220 235 255
220 235 255
220 235 255
220 235 255
220 235 255
220 235 255
220 235 255
220 235 255
220 235 255
220 235 255
220 235 255
220 235 255
220 235 255
220 235 255
220 235 255
220 235 255
220 235 255
220 235 255
220 235 255
220 235 255
220 235 255
220 235 255
220 235 255
220 235 255
220 235 255
220 235 255
220 235 255
220 235 255
220 235 255
220 235 255
220 235 255
220 235 255
220 235 255
220 235 255
220 235 255
220 235 255
220 235 255
220 235 255
220 235 255
220 235 255
220 235 255
220 235 255
220 235 255
220 235 255
220 235 255
220 235 255
220 235 255
220 235 255
220 235 255
220 235 255
220 235 255
220 235 255
220 235 255
220 235 255
220 235 255
220 235 255
220 235 255
220 235 255
220 235 255
220 235 255
220 235 255
220 235 255
220 235 255
220 235 255
220 235 255
220 235 255
220 235 255
220 235 255
220 235 255
220 235 255
220 235 255
220 235 255
220 235 255
220 235 255
220 235 255
220 235 255
220 235 255
220 235 255
220 235 255
220 235 255
220 235 255
220 235 255
220 235 255
220 235 255
220 235 255
220 235 255
220 235 255
220 235 255
135 144 158
0 0 0
0 0 2
0 0 0
0 0 0
0 0 0
0 0 0
0 0 0
0 0 0
0 0 0
0 0 0
0 0 0
0 0 5
0 0 12
0 0 15
0 0 16
0 0 16
0 0 16
0 0 16
0 0 16
0 0 16
0 0 16
0 0 18
0 0 16
0 0 16
0 0 16
0 0 12
0 0 6
0 0 16
0 0 19
0 0 16
0 0 16
0 0 16
0 0 16
0 0 17
0 0 22
0 0 22
0 0 24
0 0 27
0 0 27
0 0 27
0 0 27
0 0 27
0 0 30
0 0 32
0 0 33
0 0 35
0 0 35
0 0 35
0 0 35
0 0 36
0 0 35
0 0 36
0 0 39
0 0 39
0 0 39
0 0 39
0 0 39
0 4 38
0 12 44
0 9 43
0 9 45
0 10 45
0 12 46
0 16 49
0 12 47
0 12 47
0 14 49
0 14 49
0 14 50
0 15 55
0 17 55
0 19 60
0 20 63
0 20 64
0 24 65
0 25 64
0 20 62
0 20 60
0 20 57
0 20 57
0 20 55
0 16 55
0 14 53
0 14 53
0 14 51
0 13 47
0 7 45
0 0 41
0 0 36
0 0 35
0 0 32
0 0 34
0 0 35
0 0 36
0 0 37
0 0 40
0 0 42
0 4 42
0 14 44
0 14 47
0 14 48
0 14 49
0 14 50
0 14 48
0 13 48
0 4 38
0 4 34
0 11 41
4 29 66
17 49 98
27 57 106
21 47 65
19 39 33
8 21 3
19 32 8
25 43 17
16 42 9
10 41 47
25 59 100
12 47 95
0 33 75
8 33 78
10 33 79
5 27 72
0 21 64
0 23 66
10 27 67
0 19 58
0 14 49
0 14 50
0 14 52
0 14 55
0 14 60
0 18 63
0 20 63
0 20 60
0 26 64
3 38 77
6 39 81
14 44 88
29 56 96
49 70 96
85 109 132
63 93 118
16 56 89
47 70 104
46 65 100
17 46 84
10 42 85
16 40 88
20 40 89
19 39 88
17 34 83
15 31 77
0 12 55
0 25 67
11 37 88
17 44 104
7 35 88
7 36 86
9 38 99
14 48 111
6 39 88
0 34 78
9 36 92
5 33 89
10 34 90
10 31 81
0 17 55
0 0 32
0 0 28
0 0 27
0 0 23
0 0 19
0 0 16
0 0 16
0 0 8
0 0 6
0 0 14
0 0 0
0 0 13
0 0 16
0 0 16
0 0 21
0 2 31
0 5 41
0 10 47
0 15 51
0 12 47
0 10 43
0 0 30
0 0 22
0 0 15
0 0 15
0 0 16
0 0 6
0 0 0
0 0 10
0 0 11
0 0 0
0 0 0
0 0 0
0 0 5
0 0 5
0 0 17
0 0 22
0 0 25
21 35 70
134 148 153
220 235 255
220 235 255
220 235 255
220 235 255
220 235 255
220 235 255
220 235 255
220 235 255
220 235 255
220 235 255
220 235 255
220 235 255
220 235 255
220 235 255
220 235 255
220 235 255
220 235 255
220 235 255
220 235 255
220 235 255
220 235 255
220 235 255
220 235 255
220 235 255
220 235 255
220 235 255
220 235 255
220 235 255
220 235 255
220 235 255
220 235 255
220 235 255
220 235 255
220 235 255
220 235 255
220 235 255
220 235 255
220 235 255
220 235 255
220 235 255
220 235 255
220 235 255
220 235 255
220 235 255
220 235 255
220 235 255
220 235 255
220 235 255
220 235 255
220 235 255
220 235 255
220 235 255
220 235 255
220 235 255
220 235 255
220 235 255
220 235 255
220 235 255
220 235 255
220 235 255
220 235 255
220 235 255
220 235 255
220 235 255
220 235 255
220 235 255
220 235 255
220 235 255
220 235 255
220 235 255
220 235 255
220 235 255
220 235 255
220 235 255
220 235 255
220 235 255
220 235 255
220 235 255
220 235 255
220 235 255
220 235 255
220 235 255
220 235 255
220 235 255
220 235 255
220 235 255
220 235 255
220 235 255
220 235 255
220 235 255
220 235 255
220 235 255
220 235 255
220 235 255
220 235 255
220 235 255
220 235 255
220 235 255
220 235 255
220 235 255
220 235 255
220 235 255
220 235 255
220 235 255
220 235 255
220 235 255
220 235 255
220 235 255
220 235 255
220 235 255
220 235 255
220 235 255
220 235 255
220 235 255
220 235 255
220 235 255
220 235 255
220 235 255
220 235 255
220 235 255
220 235 255
220 235 255
220 235 255
220 235 255
220 235 255
220 235 255
220 235 255
220 235 255
220 235 255
220 235 255
220 235 255
220 235 255
220 235 255
220 235 255
220 235 255
220 235 255
220 235 255
220 235 255
220 235 255
220 235 255
220 235 255
220 235 255
220 235 255
220 235 255
220 235 255
220 235 255
220 235 255
220 235 255
220 235 255
220 235 255
220 235 255
220 235 255
220 235 255
220 235 255
220 235 255
220 235 255
220 235 255
220 235 255
220 235 255
220 235 255
220 235 255
220 235 255
220 235 255
220 235 255
220 235 255
220 235 255
220 235 255
220 235 255
220 235 255
220 235 255
220 235 255
220 235 255
220 235 255
220 235 255
220 235 255
220 235 255
220 235 255
220 235 255
220 235 255
220 235 255
220 235 255
220 235 255
220 235 255
220 235 255
220 235 255
220 235 255
220 235 255
220 235 255
220 235 255
220 235 255
82 88 96
0 0 8
0 0 13
0 0 0
0 0 0
0 0 0
0 0 6
0 0 13
0 0 0
0 0 0
0 0 0
0 0 0
0 0 0
0 0 0
0 0 4
0 0 14
0 0 16
0 0 16
0 0 16
0 0 16
0 0 16
0 0 16
0 0 16
0 0 16
0 0 16
0 0 16
0 0 10
0 0 8
0 0 16
0 0 19
0 0 16
0 0 16
0 0 16
0 0 16
0 0 18
0 0 22
0 0 22
0 0 25
0 0 27
0 0 27
0 0 27
0 0 27
0 0 27
0 0 30
0 0 32
0 0 32
0 0 35
0 0 35
0 0 35
0 0 35
0 0 35
0 0 35
0 0 36
0 0 39
0 0 39
0 0 39
0 0 39
0 2 40
0 13 41
0 10 42
0 13 45
0 8 44
0 14 47
0 13 47
0 15 49
0 14 50
0 13 47
0 14 47
0 14 48
0 16 52
0 14 53
0 17 56
0 17 59
0 20 63
0 23 65
0 25 66
0 24 64
0 20 62
0 20 60
0 20 57
0 20 57
0 20 55
0 15 53
0 14 52
0 14 50
0 14 48
0 11 45
0 5 41
0 0 39
0 0 36
0 0 33
0 0 33
0 4 36
0 3 38
0 0 37
0 0 38
0 0 40
0 0 41
0 5 43
0 14 48
0 14 48
0 14 46
0 14 46
0 14 45
0 15 46
0 17 52
0 17 50
4 15 48
5 7 42
0 2 42
4 23 65
24 51 119
29 55 104
27 48 69
10 26 25
4 14 0
19 32 15
14 39 19
17 46 60
18 50 95
0 33 87
0 27 73
0 25 68
0 23 65
0 23 64
0 17 60
0 16 60
4 19 62
1 17 59
0 18 50
0 16 51
0 17 56
0 17 57
0 18 64
0 21 74
11 29 80
10 38 82
12 51 89
18 58 94
16 51 86
27 55 87
35 58 68
60 76 82
57 70 74
37 56 73
26 57 90
55 69 90
72 83 98
29 51 72
23 56 88
14 45 86
10 36 86
6 37 91
13 44 98
17 47 100
14 44 91
4 37 80
17 49 105
23 52 118
20 51 111
21 53 110
16 51 117
15 51 118
8 44 94
12 47 92
11 38 95
4 31 90
11 37 89
9 33 81
0 20 58
0 0 36
0 0 32
0 0 29
0 0 25
0 0 20
0 0 16
0 0 16
0 0 9
0 0 10
0 0 6
0 0 9
0 0 10
0 0 16
0 0 18
0 0 22
0 0 27
0 6 37
0 13 45
0 12 50
2 15 50
0 10 45
0 9 41
0 6 36
0 0 24
0 0 16
0 0 13
0 0 8
0 0 5
0 0 0
0 0 0
0 0 0
0 0 0
0 0 14
0 0 6
0 0 3
0 0 13
0 0 16
0 0 18
10 23 57
80 93 95
220 235 255
220 235 255
220 235 255
220 235 255
220 235 255
220 235 255
220 235 255
220 235 255
220 235 255
220 235 255
220 235 255
220 235 255
220 235 255
220 235 255
220 235 255
220 235 255
220 235 255
220 235 255
220 235 255
220 235 255
220 235 255
220 235 255
220 235 255
220 235 255
220 235 255
220 235 255
220 235 255
220 235 255
220 235 255
220 235 255
220 235 255
220 235 255
220 235 255
220 235 255
220 235 255
220 235 255
220 235 255
220 235 255
220 235 255
220 235 255
220 235 255
220 235 255
220 235 255
220 235 255
220 235 255
220 235 255
220 235 255
220 235 255
220 235 255
220 235 255
220 235 255
220 235 255
220 235 255
220 235 255
220 235 255
220 235 255
220 235 255
220 235 255
220 235 255
220 235 255
220 235 255
220 235 255
220 235 255
220 235 255
220 235 255
220 235 255
220 235 255
220 235 255
220 235 255
220 235 255
220 235 255
220 235 255
220 235 255
220 235 255
220 235 255
220 235 255
220 235 255
220 235 255
220 235 255
220 235 255
220 235 255
220 235 255
220 235 255
220 235 255
220 235 255
220 235 255
220 235 255
220 235 255
220 235 255
220 235 255
220 235 255
220 235 255
220 235 255
220 235 255
220 235 255
220 235 255
220 235 255
220 235 255
220 235 255
220 235 255
220 235 255
220 235 255
220 235 255
220 235 255
220 235 255
220 235 255
220 235 255
220 235 255
220 235 255
220 235 255
220 235 255
220 235 255
220 235 255
220 235 255
220 235 255
220 235 255
220 235 255
220 235 255
220 235 255
220 235 255
220 235 255
220 235 255
220 235 255
220 235 255
220 235 255
220 235 255
220 235 255
220 235 255
220 235 255
220 235 255
220 235 255
220 235 255
220 235 255
220 235 255
220 235 255
220 235 255
220 235 255
220 235 255
220 235 255
220 235 255
220 235 255
220 235 255
220 235 255
220 235 255
220 235 255
220 235 255
220 235 255
220 235 255
220 235 255
220 235 255
220 235 255
220 235 255
220 235 255
220 235 255
220 235 255
220 235 255
220 235 255
220 235 255
220 235 255
220 235 255
220 235 255
220 235 255
220 235 255
220 235 255
220 235 255
220 235 255
220 235 255
220 235 255
220 235 255
220 235 255
220 235 255
220 235 255
220 235 255
220 235 255
220 235 255
220 235 255
220 235 255
220 235 255
220 235 255
220 235 255
220 235 255
220 235 255
220 235 255
220 235 255
220 235 255
220 235 255
220 235 255
220 235 255
220 235 255
206 220 240
0 0 12
0 0 13
0 0 11
0 0 0
0 0 0
0 0 0
0 0 10
0 0 11
0 0 0
0 0 0
0 0 0
0 0 0
0 0 0
0 0 0
0 0 10
0 0 15
0 0 16
0 0 16
0 0 16
0 0 16
0 0 16
0 0 16
0 0 16
0 0 16
0 0 16
0 0 16
0 0 10
0 0 13
0 0 16
0 0 17
0 0 18
0 0 19
0 0 19
0 0 19
0 0 21
0 0 22
0 0 22
0 0 24
0 0 27
0 0 27
0 0 28
0 0 30
0 0 30
0 0 31
0 0 32
0 0 33
0 0 32
0 0 34
0 0 35
0 0 35
0 0 35
0 0 35
0 0 35
0 0 37
0 0 39
0 0 41
0 0 42
0 1 42
0 12 44
0 14 45
0 14 46
0 14 47
0 14 46
0 14 49
0 14 48
0 14 50
0 15 52
0 14 50
0 14 51
0 16 54
0 14 54
0 17 56
0 20 58
0 20 61
0 22 63
0 25 67
0 24 65
0 20 61
0 19 58
0 18 57
0 18 57
0 17 54
0 14 51
0 14 50
0 14 48
0 12 45
0 14 44
0 12 39
0 0 37
0 0 35
0 0 34
0 0 35
0 0 36
0 0 39
0 1 39
0 11 41
0 11 41
0 11 41
0 10 43
0 14 48
0 14 48
0 14 47
0 14 45
0 14 44
0 14 43
0 14 38
0 14 47
1 14 57
13 19 62
10 19 57
2 8 41
10 26 73
26 48 99
30 55 89
20 44 50
10 32 12
21 37 9
16 36 17
14 39 42
15 41 74
2 33 85
0 30 80
0 29 69
0 20 63
0 18 63
0 16 60
0 15 57
0 15 56
0 17 55
0 21 47
0 18 52
0 20 56
0 25 52
0 26 60
0 25 80
11 36 94
24 56 94
19 53 70
19 50 57
10 35 32
17 38 26
31 47 26
30 39 20
40 53 43
35 57 57
50 79 81
64 76 65
67 69 46
27 37 20
24 46 38
27 55 70
16 43 86
16 48 106
18 52 106
21 56 105
18 51 100
17 50 105
20 54 113
26 57 112
24 56 105
23 56 110
20 54 121
20 54 119
23 59 111
16 52 100
7 40 97
8 38 95
11 39 89
10 34 82
0 21 60
0 4 41
0 0 35
0 0 29
0 0 25
0 0 22
0 0 20
0 0 16
0 0 15
0 0 14
0 0 9
0 0 12
0 0 11
0 0 16
0 0 16
0 0 17
0 0 21
0 0 27
0 7 37
0 11 46
10 20 57
0 16 52
0 11 46
0 11 45
0 0 32
0 0 21
0 0 16
0 0 11
0 0 9
0 0 0
0 0 0
0 0 3
0 0 0
0 0 12
0 0 8
0 0 0
0 0 3
0 0 14
0 0 15
0 5 26
25 44 51
204 218 237
220 235 255
220 235 255
220 235 255
220 235 255
220 235 255
220 235 255
220 235 255
220 235 255
220 235 255
220 235 255
220 235 255
220 235 255
220 235 255
220 235 255
220 235 255
220 235 255
220 235 255
220 235 255
220 235 255
220 235 255
220 235 255
220 235 255
220 235 255
220 235 255
220 235 255
220 235 255
220 235 255
220 235 255
220 235 255
220 235 255
220 235 255
220 235 255
220 235 255
220 235 255
220 235 255
220 235 255
220 235 255
220 235 255
220 235 255
220 235 255
220 235 255
220 235 255
220 235 255
220 235 255
220 235 255
220 235 255
220 235 255
220 235 255
220 235 255
220 235 255
220 235 255
220 235 255
220 235 255
220 235 255
220 235 255
220 235 255
220 235 255
220 235 255
220 235 255
220 235 255
220 235 255
220 235 255
220 235 255
220 235 255
220 235 255
220 235 255
220 235 255
220 235 255
220 235 255
220 235 255
220 235 255
220 235 255
220 235 255
220 235 255
220 235 255
220 235 255
220 235 255
220 235 255
220 235 255
220 235 255
220 235 255
220 235 255
220 235 255
220 235 255
220 235 255
220 235 255
220 235 255
220 235 255
220 235 255
220 235 255
220 235 255
220 235 255
220 235 255
220 235 255
220 235 255
220 235 255
220 235 255
220 235 255
220 235 255
220 235 255
220 235 255
220 235 255
220 235 255
220 235 255
220 235 255
220 235 255
220 235 255
220 235 255
220 235 255
220 235 255
220 235 255
220 235 255
220 235 255
220 235 255
220 235 255
220 235 255
220 235 255
220 235 255
220 235 255
220 235 255
220 235 255
220 235 255
220 235 255
220 235 255
220 235 255
220 235 255
220 235 255
220 235 255
220 235 255
220 235 255
220 235 255
220 235 255
220 235 255
220 235 255
220 235 255
220 235 255
220 235 255
220 235 255
220 235 255
220 235 255
220 235 255
220 235 255
220 235 255
220 235 255
220 235 255
220 235 255
220 235 255
220 235 255
220 235 255
220 235 255
220 235 255
220 235 255
220 235 255
220 235 255
220 235 255
220 235 255
220 235 255
220 235 255
220 235 255
220 235 255
220 235 255
220 235 255
220 235 255
220 235 255
220 235 255
220 235 255
220 235 255
220 235 255
220 235 255
220 235 255
220 235 255
220 235 255
220 235 255
220 235 255
220 235 255
220 235 255
220 235 255
220 235 255
220 235 255
220 235 255
220 235 255
220 235 255
220 235 255
220 235 255
220 235 255
220 235 255
220 235 255
220 235 255
184 196 214
0 0 13
0 0 16
0 0 10
0 0 0
0 0 0
0 0 0
0 0 11
0 0 9
0 0 0
0 0 0
0 0 0
0 0 8
0 0 11
0 0 11
0 0 14
0 0 16
0 0 16
0 0 16
0 0 16
0 0 16
0 0 16
0 0 16
0 0 16
0 0 16
0 0 16
0 0 16
0 0 16
0 0 16
0 0 16
0 0 16
0 0 21
0 0 22
0 0 22
0 0 22
0 0 22
0 0 22
0 0 22
0 0 23
0 0 27
0 0 27
0 0 29
0 0 32
0 0 32
0 0 32
0 0 32
0 0 34
0 0 32
0 0 32
0 0 34
0 0 35
0 0 35
0 0 35
0 0 37
0 4 39
0 13 41
0 5 42
0 11 45
0 13 47
0 13 47
0 14 50
0 13 48
0 14 50
3 17 53
6 20 55
4 19 54
0 15 49
0 8 47
0 13 47
0 16 52
0 17 55
0 14 53
0 16 55
0 20 58
0 20 61
0 22 63
0 21 64
0 20 60
0 18 59
0 14 57
0 14 56
0 15 55
0 14 52
0 14 48
0 14 48
0 12 46
0 10 45
0 14 46
0 11 39
0 0 39
0 0 39
0 0 38
0 2 37
0 2 38
0 0 41
0 0 41
0 12 44
0 11 43
0 11 43
0 11 44
0 14 48
0 14 48
0 14 47
0 14 46
0 14 45
0 14 43
0 14 43
0 14 52
0 14 60
4 16 62
6 18 59
5 21 55
0 11 42
10 24 60
31 55 87
19 43 52
19 43 23
18 40 10
20 41 12
16 35 25
22 45 64
17 41 80
6 34 83
0 30 78
9 22 72
0 14 64
0 14 61
0 17 59
0 24 60
0 24 59
0 26 61
0 23 64
0 20 64
0 24 59
0 25 58
3 33 77
22 49 90
25 49 66
29 47 35
33 45 25
24 35 15
28 42 18
37 49 21
24 33 16
44 59 52
31 51 51
27 43 36
45 49 26
63 62 31
34 41 15
24 43 16
24 52 40
24 52 62
18 48 67
20 52 68
14 46 68
18 48 81
20 48 96
19 48 88
35 65 91
24 53 72
17 47 68
14 46 81
21 53 92
14 44 85
19 53 103
14 49 114
8 42 104
7 38 91
2 30 79
0 19 60
0 5 43
0 4 39
0 0 32
0 0 29
0 0 26
0 0 23
0 0 20
0 0 17
0 0 15
0 0 15
0 0 10
0 0 16
0 0 16
0 0 16
0 0 16
0 0 16
0 0 17
0 0 21
0 0 31
1 8 38
0 11 43
0 11 42
0 6 40
0 2 34
0 0 23
0 0 17
0 0 16
0 0 3
0 0 6
0 0 3
0 0 12
0 0 9
0 0 11
0 0 12
0 0 3
0 0 0
0 0 0
0 0 4
0 0 19
24 41 58
184 198 214
220 235 255
220 235 255
220 235 255
220 235 255
220 235 255
220 235 255
220 235 255
220 235 255
220 235 255
220 235 255
220 235 255
220 235 255
220 235 255
220 235 255
220 235 255
220 235 255
220 235 255
220 235 255
220 235 255
220 235 255
220 235 255
220 235 255
220 235 255
220 235 255
220 235 255
220 235 255
220 235 255
220 235 255
220 235 255
220 235 255
220 235 255
220 235 255
220 235 255
220 235 255
220 235 255
220 235 255
220 235 255
220 235 255
220 235 255
220 235 255
220 235 255
220 235 255
220 235 255
220 235 255
220 235 255
220 235 255
220 235 255
220 235 255
220 235 255
220 235 255
220 235 255
220 235 255
220 235 255
220 235 255
220 235 255
220 235 255
220 235 255
220 235 255
220 235 255
220 235 255
220 235 255
220 235 255
220 235 255
220 235 255
220 235 255
220 235 255
220 235 255
220 235 255
220 235 255
220 235 255
220 235 255
220 235 255
220 235 255
220 235 255
220 235 255
220 235 255
220 235 255
220 235 255
220 235 255
220 235 255
220 235 255
220 235 255
220 235 255
220 235 255
220 235 255
220 235 255
220 235 255
220 235 255
220 235 255
220 235 255
220 235 255
220 235 255
220 235 255
220 235 255
220 235 255
220 235 255
220 235 255
220 235 255
220 235 255
220 235 255
220 235 255
220 235 255
220 235 255
220 235 255
220 235 255
220 235 255
220 235 255
220 235 255
220 235 255
220 235 255
220 235 255
220 235 255
220 235 255
220 235 255
220 235 255
220 235 255
220 235 255
220 235 255
220 235 255
220 235 255
220 235 255
220 235 255
220 235 255
220 235 255
220 235 255
220 235 255
220 235 255
220 235 255
220 235 255
220 235 255
220 235 255
220 235 255
220 235 255
220 235 255
220 235 255
220 235 255
220 235 255
220 235 255
220 235 255
220 235 255
220 235 255
220 235 255
220 235 255
220 235 255
220 235 255
220 235 255
220 235 255
220 235 255
220 235 255
220 235 255
220 235 255
220 235 255
220 235 255
220 235 255
220 235 255
220 235 255
220 235 255
220 235 255
220 235 255
220 235 255
220 235 255
220 235 255
220 235 255
220 235 255
220 235 255
220 235 255
220 235 255
220 235 255
220 235 255
220 235 255
220 235 255
220 235 255
220 235 255
220 235 255
220 235 255
220 235 255
220 235 255
220 235 255
220 235 255
220 235 255
220 235 255
220 235 255
220 235 255
220 235 255
220 235 255
220 235 255
220 235 255
220 235 255
147 157 172
0 0 13
0 0 15
0 0 6
0 0 0
0 0 0
0 0 0
0 0 0
0 0 0
0 0 0
0 0 0
0 0 0
0 0 13
0 0 16
0 0 10
0 0 13
0 0 16
0 0 16
0 0 16
0 0 16
0 0 16
0 0 16
0 0 16
0 0 16
0 0 16
0 0 16
0 0 16
0 0 16
0 0 16
0 0 16
0 0 16
0 0 22
0 0 22
0 0 22
0 0 22
0 0 22
0 0 22
0 0 22
0 0 24
0 0 27
0 0 27
0 0 29
0 0 32
0 0 32
0 0 32
0 0 33
0 0 33
0 0 32
0 0 34
0 0 35
0 0 35
0 0 35
0 0 35
0 0 35
0 0 37
0 10 40
0 2 42
0 14 46
0 13 48
0 10 49
0 18 56
0 12 50
0 13 50
3 16 54
6 19 55
3 22 56
0 22 56
0 19 56
0 17 53
0 17 53
0 19 56
0 17 55
0 20 57
0 20 60
0 22 62
0 23 64
0 20 63
0 20 58
0 20 59
0 19 58
0 16 57
0 15 55
0 14 50
0 11 48
0 14 47
0 14 46
0 4 45
0 6 41
0 6 38
0 7 37
0 0 38
0 3 39
0 12 40
0 13 42
0 7 43
0 8 43
0 12 45
0 14 45
0 14 45
0 14 46
0 14 48
0 14 48
0 14 48
0 14 48
0 14 48
0 14 46
0 14 51
0 14 57
0 14 60
0 16 61
0 22 61
0 21 56
0 22 47
0 11 44
14 30 67
20 42 65
11 38 37
14 42 36
13 36 19
20 39 25
17 36 38
22 44 65
16 42 80
3 32 81
0 23 68
0 25 66
8 33 74
6 30 74
11 33 81
13 35 89
10 32 83
11 34 89
2 27 81
0 22 74
3 31 76
19 51 93
25 57 82
20 45 40
36 50 20
41 47 13
40 49 21
40 55 27
21 35 8
28 44 29
31 52 53
28 54 61
26 40 35
48 50 28
68 70 47
54 63 39
24 41 4
18 42 7
23 48 23
19 47 23
13 42 19
8 36 24
17 42 45
28 52 70
29 54 67
19 43 38
16 38 22
10 34 21
11 38 28
28 55 65
20 45 66
19 50 92
20 53 123
8 45 115
0 38 93
0 30 77
0 20 62
0 13 49
0 11 44
0 3 38
0 6 37
0 0 32
0 0 27
0 0 20
0 0 21
0 0 16
0 0 15
0 0 15
0 0 16
0 0 16
0 0 16
0 0 16
0 0 16
0 0 16
0 0 16
0 0 25
0 0 34
0 0 32
0 0 33
0 11 42
0 13 43
0 5 35
0 0 29
0 0 21
0 0 13
0 0 13
0 0 14
0 0 13
0 0 13
0 0 12
0 0 15
0 0 13
0 0 0
0 0 12
0 0 0
0 0 13
10 34 67
155 167 179
220 235 255
220 235 255
220 235 255
220 235 255
220 235 255
220 235 255
220 235 255
220 235 255
220 235 255
220 235 255
220 235 255
220 235 255
220 235 255
220 235 255
220 235 255
220 235 255
220 235 255
220 235 255
220 235 255
220 235 255
220 235 255
220 235 255
220 235 255
220 235 255
220 235 255
220 235 255
220 235 255
220 235 255
220 235 255
220 235 255
220 235 255
220 235 255
220 235 255
220 235 255
220 235 255
220 235 255
220 235 255
220 235 255
220 235 255
220 235 255
220 235 255
220 235 255
220 235 255
220 235 255
220 235 255
220 235 255
220 235 255
220 235 255
220 235 255
220 235 255
220 235 255
220 235 255
220 235 255
220 235 255
220 235 255
220 235 255
220 235 255
220 235 255
220 235 255
220 235 255
220 235 255
220 235 255
220 235 255
220 235 255
220 235 255
220 235 255
220 235 255
220 235 255
220 235 255
220 235 255
220 235 255
220 235 255
220 235 255
220 235 255
220 235 255
220 235 255
220 235 255
220 235 255
220 235 255
220 235 255
220 235 255
220 235 255
220 235 255
220 235 255
220 235 255
220 235 255
220 235 255
220 235 255
220 235 255
220 235 255
220 235 255
220 235 255
220 235 255
220 235 255
220 235 255
220 235 255
220 235 255
220 235 255
220 235 255
220 235 255
220 235 255
220 235 255
220 235 255
220 235 255
220 235 255
220 235 255
220 235 255
220 235 255
220 235 255
220 235 255
220 235 255
220 235 255
220 235 255
220 235 255
220 235 255
220 235 255
220 235 255
220 235 255
220 235 255
220 235 255
220 235 255
220 235 255
220 235 255
220 235 255
220 235 255
220 235 255
220 235 255
220 235 255
220 235 255
220 235 255
220 235 255
220 235 255
220 235 255
220 235 255
220 235 255
220 235 255
220 235 255
220 235 255
220 235 255
220 235 255
220 235 255
220 235 255
220 235 255
220 235 255
220 235 255
220 235 255
220 235 255
220 235 255
220 235 255
220 235 255
220 235 255
220 235 255
220 235 255
220 235 255
220 235 255
220 235 255
220 235 255
220 235 255
220 235 255
220 235 255
220 235 255
220 235 255
220 235 255
220 235 255
220 235 255
220 235 255
220 235 255
220 235 255
220 235 255
220 235 255
220 235 255
220 235 255
220 235 255
220 235 255
220 235 255
220 235 255
220 235 255
220 235 255
220 235 255
220 235 255
220 235 255
220 235 255
220 235 255
220 235 255
220 235 255
220 235 255
220 235 255
220 235 255
101 107 118
0 0 10
0 0 14
0 0 1
0 0 0
0 0 0
0 0 0
0 0 0
0 0 0
0 0 0
0 0 0
0 0 0
0 0 14
0 0 16
0 0 15
0 0 12
0 0 16
0 0 16
0 0 16
0 0 16
0 0 16
0 0 16
0 0 16
0 0 16
0 0 16
0 0 16
0 0 16
0 0 16
0 0 16
0 0 16
0 0 19
0 0 22
0 0 22
0 0 22
0 0 22
0 0 22
0 0 22
0 0 22
0 0 25
0 0 27
0 0 27
0 0 30
0 0 32
0 0 32
0 0 32
0 0 32
0 0 35
0 0 33
0 0 35
0 0 35
0 0 35
0 0 35
0 0 35
0 0 38
0 3 39
0 13 42
0 8 43
0 14 45
0 8 46
0 14 50
0 15 52
6 20 57
0 14 52
0 13 49
0 14 48
0 14 51
0 18 53
0 14 53
0 16 52
0 16 52
0 15 53
0 15 53
0 19 57
0 20 61
0 22 62
0 24 65
0 20 63
0 20 61
0 17 58
0 17 58
0 18 57
0 16 55
0 14 53
0 14 51
0 14 50
0 13 46
0 4 44
0 0 42
0 12 41
0 13 42
0 4 39
0 12 41
0 14 44
0 14 46
0 14 47
0 14 46
0 13 46
0 14 46
0 14 47
0 14 48
0 14 48
0 14 48
0 14 49
0 14 48
0 14 50
0 14 52
0 14 56
0 14 58
0 14 58
0 20 60
0 21 59
0 20 54
0 22 54
0 19 60
1 10 60
13 30 67
18 42 71
23 51 76
17 46 55
5 31 29
1 26 18
13 33 34
18 43 62
12 40 74
3 35 88
5 43 94
13 49 91
21 54 87
16 44 74
19 43 76
23 45 83
23 45 93
15 39 91
2 26 84
7 34 86
24 56 95
24 59 72
17 49 33
29 48 11
37 51 15
43 58 31
32 52 25
13 34 8
22 44 29
21 47 52
25 54 65
29 49 42
34 42 19
33 37 21
30 39 20
29 45 15
27 48 7
29 49 13
26 47 14
21 42 6
26 47 15
22 42 9
20 40 19
23 41 21
31 45 25
31 45 17
28 43 12
14 34 5
12 33 19
20 41 43
23 51 72
22 54 108
17 52 118
6 41 98
0 31 78
0 25 67
0 17 55
0 13 49
0 10 46
0 14 47
0 9 42
0 0 33
0 0 28
0 0 24
0 0 16
0 0 16
0 0 17
0 0 16
0 0 16
0 0 16
0 0 16
0 0 16
0 0 19
0 0 18
0 0 20
0 0 28
0 0 31
0 5 36
0 12 45
0 16 49
0 12 46
0 0 38
0 0 34
0 0 25
0 0 15
0 0 16
0 0 12
0 0 13
0 0 13
0 0 14
0 0 15
0 0 0
0 0 13
0 0 5
0 0 11
8 30 69
125 138 153
220 235 255
220 235 255
220 235 255
220 235 255
220 235 255
220 235 255
220 235 255
220 235 255
220 235 255
220 235 255
220 235 255
220 235 255
220 235 255
220 235 255
220 235 255
220 235 255
220 235 255
220 235 255
220 235 255
220 235 255
220 235 255
220 235 255
220 235 255
220 235 255
220 235 255
220 235 255
220 235 255
220 235 255
220 235 255
220 235 255
220 235 255
220 235 255
220 235 255
220 235 255
220 235 255
220 235 255
220 235 255
220 235 255
220 235 255
220 235 255
220 235 255
220 235 255
220 235 255
220 235 255
220 235 255
220 235 255
220 235 255
220 235 255
220 235 255
220 235 255
220 235 255
220 235 255
220 235 255
220 235 255
220 235 255
220 235 255
220 235 255
220 235 255
220 235 255
220 235 255
220 235 255
220 235 255
220 235 255
220 235 255
220 235 255
220 235 255
220 235 255
220 235 255
220 235 255
220 235 255
220 235 255
220 235 255
220 235 255
220 235 255
220 235 255
220 235 255
220 235 255
220 235 255
220 235 255
220 235 255
220 235 255
220 235 255
220 235 255
220 235 255
220 235 255
220 235 255
220 235 255
220 235 255
220 235 255
220 235 255
220 235 255
220 235 255
220 235 255
220 235 255
220 235 255
220 235 255
220 235 255
220 235 255
220 235 255
220 235 255
220 235 255
220 235 255
220 235 255
220 235 255
220 235 255
220 235 255
220 235 255
220 235 255
220 235 255
220 235 255
220 235 255
220 235 255
220 235 255
220 235 255
220 235 255
220 235 255
220 235 255
220 235 255
220 235 255
220 235 255
220 235 255
220 235 255
220 235 255
220 235 255
220 235 255
220 235 255
220 235 255
220 235 255
220 235 255
220 235 255
220 235 255
220 235 255
220 235 255
220 235 255
220 235 255
220 235 255
220 235 255
220 235 255
220 235 255
220 235 255
220 235 255
220 235 255
220 235 255
220 235 255
220 235 255
220 235 255
220 235 255
220 235 255
220 235 255
220 235 255
220 235 255
220 235 255
220 235 255
220 235 255
220 235 255
220 235 255
220 235 255
220 235 255
220 235 255
220 235 255
220 235 255
220 235 255
220 235 255
220 235 255
220 235 255
220 235 255
220 235 255
220 235 255
220 235 255
220 235 255
220 235 255
220 235 255
220 235 255
220 235 255
220 235 255
220 235 255
220 235 255
220 235 255
220 235 255
220 235 255
220 235 255
220 235 255
220 235 255
220 235 255
220 235 255
220 235 255
220 235 255
220 235 255
69 74 84
0 0 14
0 0 15
0 0 0
0 0 0
0 0 0
0 0 0
0 0 0
0 0 0
0 0 0
0 0 0
0 0 2
0 0 15
0 0 16
0 0 15
0 0 15
0 0 16
0 0 16
0 0 16
0 0 16
0 0 16
0 0 16
0 0 16
0 0 16
0 0 16
0 0 16
0 0 16
0 0 16
0 0 18
0 0 18
0 0 22
0 0 22
0 0 22
0 0 22
0 0 22
0 0 22
0 0 22
0 0 22
0 0 26
0 0 27
0 0 27
0 0 30
0 0 32
0 0 32
0 0 33
0 0 34
0 0 35
0 0 35
0 0 34
0 0 35
0 7 38
0 7 38
0 5 37
0 0 38
0 4 39
0 13 42
0 9 43
0 14 45
0 1 45
0 9 45
0 13 48
2 17 52
0 14 47
0 14 47
0 14 48
0 14 50
0 15 52
0 14 53
0 14 52
0 14 52
0 14 53
0 15 53
0 18 57
0 20 61
0 23 63
0 23 64
0 20 62
0 20 60
0 15 57
0 14 55
0 14 54
0 14 54
0 16 54
0 15 54
0 14 51
0 14 46
0 14 47
0 11 45
0 14 42
0 14 43
0 13 43
0 14 45
0 14 47
0 14 47
0 14 48
0 14 48
0 14 49
0 14 48
0 14 48
0 14 49
0 14 49
0 14 48
0 14 50
0 14 51
0 15 52
0 18 56
0 14 57
0 15 57
0 19 57
0 20 56
0 20 53
0 21 55
0 21 60
0 18 65
0 17 66
0 18 61
0 21 67
9 30 82
17 53 97
19 55 77
12 38 35
6 28 12
6 28 25
17 44 57
20 51 90
22 54 95
16 50 76
11 43 53
4 39 39
10 44 44
4 32 43
9 32 51
16 42 73
20 46 94
22 49 94
28 58 81
17 48 42
22 51 23
26 52 16
21 42 9
24 43 15
19 40 9
7 29 0
21 38 15
20 35 27
23 45 44
24 46 33
21 36 9
20 34 11
26 41 20
30 50 20
24 43 1
27 43 9
34 49 21
30 46 13
34 51 14
30 48 1
30 48 0
29 45 8
41 51 26
39 47 18
43 53 25
25 36 10
12 27 0
14 30 9
14 38 27
26 55 70
24 55 102
19 49 101
2 36 85
0 28 76
0 23 67
0 19 60
0 14 55
0 14 52
0 15 53
3 19 56
3 11 45
0 0 28
0 0 21
0 0 16
0 0 22
0 0 16
0 0 16
0 0 16
0 0 16
0 0 17
0 0 16
0 0 18
0 0 18
0 0 26
0 0 31
0 9 38
0 12 44
0 18 52
0 20 54
0 11 46
0 6 41
0 0 34
0 0 27
0 0 21
0 0 17
0 0 18
0 0 18
0 0 16
0 0 16
0 0 4
0 0 10
0 0 10
0 0 12
7 20 54
71 88 118
220 235 255
220 235 255
220 235 255
220 235 255
220 235 255
220 235 255
220 235 255
220 235 255
220 235 255
220 235 255
220 235 255
220 235 255
220 235 255
220 235 255
220 235 255
220 235 255
220 235 255
220 235 255
220 235 255
220 235 255
220 235 255
220 235 255
220 235 255
220 235 255
220 235 255
220 235 255
220 235 255
220 235 255
220 235 255
220 235 255
220 235 255
220 235 255
220 235 255
220 235 255
220 235 255
220 235 255
220 235 255
220 235 255
220 235 255
220 235 255
220 235 255
220 235 255
220 235 255
220 235 255
220 235 255
220 235 255
220 235 255
220 235 255
220 235 255
220 235 255
220 235 255
220 235 255
220 235 255
220 235 255
220 235 255
220 235 255
220 235 255
220 235 255
220 235 255
220 235 255
220 235 255
220 235 255
220 235 255
220 235 255
220 235 255
220 235 255
220 235 255
220 235 255
220 235 255
220 235 255
220 235 255
220 235 255
220 235 255
220 235 255
220 235 255
220 235 255
220 235 255
220 235 255
220 235 255
220 235 255
220 235 255
220 235 255
220 235 255
220 235 255
220 235 255
220 235 255
220 235 255
220 235 255
220 235 255
220 235 255
220 235 255
220 235 255
220 235 255
220 235 255
220 235 255
220 235 255
220 235 255
220 235 255
220 235 255
220 235 255
220 235 255
220 235 255
220 235 255
220 235 255
220 235 255
220 235 255
220 235 255
220 235 255
220 235 255
220 235 255
220 235 255
220 235 255
220 235 255
220 235 255
220 235 255
220 235 255
220 235 255
220 235 255
220 235 255
220 235 255
220 235 255
220 235 255
220 235 255
220 235 255
220 235 255
220 235 255
220 235 255
220 235 255
220 235 255
220 235 255
220 235 255
220 235 255
220 235 255
220 235 255
220 235 255
220 235 255
220 235 255
220 235 255
220 235 255
220 235 255
220 235 255
220 235 255
220 235 255
220 235 255
220 235 255
220 235 255
220 235 255
220 235 255
220 235 255
220 235 255
220 235 255
220 235 255
220 235 255
220 235 255
220 235 255
220 235 255
220 235 255
220 235 255
220 235 255
220 235 255
220 235 255
220 235 255
220 235 255
220 235 255
220 235 255
220 235 255
220 235 255
220 235 255
220 235 255
220 235 255
220 235 255
220 235 255
220 235 255
220 235 255
220 235 255
220 235 255
220 235 255
220 235 255
220 235 255
220 235 255
220 235 255
220 235 255
220 235 255
220 235 255
220 235 255
220 235 255
220 235 255
208 222 241
5 9 33
0 4 19
0 0 14
0 0 0
0 0 0
0 0 0
0 0 0
0 0 0
0 0 0
0 0 0
0 0 0
0 0 5
0 0 14
0 0 12
0 0 16
0 0 16
0 0 16
0 0 16
0 0 16
0 0 16
0 0 16
0 0 16
0 0 16
0 0 16
0 0 16
0 0 16
0 0 16
0 0 16
0 0 17
0 0 18
0 0 22
0 0 22
0 0 22
0 0 22
0 0 22
0 0 22
0 0 22
0 0 22
0 0 27
0 0 27
0 0 29
0 0 31
0 0 32
0 0 34
0 0 35
0 0 34
0 0 35
0 0 35
0 11 40
0 14 43
0 13 42
0 12 42
0 10 39
0 0 39
0 5 39
0 13 42
0 11 44
0 12 45
0 0 43
0 12 44
0 9 42
0 14 44
0 14 44
0 14 44
0 12 46
0 14 47
0 14 48
0 14 49
0 14 52
0 15 53
0 14 53
0 14 54
0 20 58
0 20 61
0 23 63
0 24 65
0 23 63
0 22 62
0 19 61
0 18 59
0 18 58
0 19 57
0 20 57
0 17 55
0 14 50
0 14 48
0 14 48
0 14 47
0 14 45
0 14 45
0 14 46
0 14 45
0 14 45
0 14 47
0 14 48
0 14 50
0 14 50
0 14 50
0 14 50
0 14 50
0 14 50
0 14 49
0 14 49
0 14 53
0 20 57
0 20 57
0 15 56
0 15 54
0 18 52
0 20 53
0 20 53
0 19 54
0 21 62
0 20 63
0 21 66
0 24 65
0 26 73
0 23 82
1 37 96
11 50 91
8 39 55
15 38 35
12 35 26
3 32 28
11 33 33
14 36 32
10 34 24
7 37 36
18 52 64
21 60 83
17 48 55
11 38 28
5 34 33
22 50 75
28 54 80
19 47 49
27 49 25
25 47 10
19 43 3
17 41 10
24 46 15
24 42 9
13 30 0
29 39 11
39 46 24
29 42 24
17 33 13
18 36 1
27 48 10
27 48 17
22 44 9
21 41 0
20 36 0
30 44 11
40 54 22
35 49 16
31 45 9
34 48 8
33 46 9
58 68 39
51 59 31
33 38 12
39 47 25
31 42 22
17 29 0
16 38 7
33 61 49
23 49 71
27 54 99
11 47 100
2 34 86
0 28 78
0 24 71
0 17 62
0 18 61
0 19 63
9 34 82
10 36 84
0 11 42
0 0 25
0 0 18
0 0 25
0 0 23
0 0 21
0 0 21
0 0 21
0 0 22
0 0 20
0 0 21
0 0 20
0 0 28
0 0 28
0 4 35
0 13 41
0 14 46
0 14 48
0 15 47
0 13 47
0 12 40
0 12 37
0 0 27
0 0 18
0 0 17
0 0 18
0 0 16
0 0 16
0 0 8
0 0 3
0 0 15
0 0 19
2 10 39
18 51 98
209 223 242
220 235 255
220 235 255
220 235 255
220 235 255
220 235 255
220 235 255
220 235 255
220 235 255
220 235 255
220 235 255
220 235 255
220 235 255
220 235 255
220 235 255
220 235 255
220 235 255
220 235 255
220 235 255
220 235 255
220 235 255
220 235 255
220 235 255
220 235 255
220 235 255
220 235 255
220 235 255
220 235 255
220 235 255
220 235 255
220 235 255
220 235 255
220 235 255
220 235 255
220 235 255
220 235 255
220 235 255
220 235 255
220 235 255
220 235 255
220 235 255
220 235 255
220 235 255
220 235 255
220 235 255
220 235 255
220 235 255
220 235 255
220 235 255
220 235 255
220 235 255
220 235 255
220 235 255
220 235 255
220 235 255
220 235 255
220 235 255
220 235 255
220 235 255
220 235 255
220 235 255
220 235 255
220 235 255
220 235 255
220 235 255
220 235 255
220 235 255
220 235 255
220 235 255
220 235 255
220 235 255
220 235 255
220 235 255
220 235 255
220 235 255
220 235 255
220 235 255
220 235 255
220 235 255
220 235 255
220 235 255
220 235 255
220 235 255
220 235 255
220 235 255
220 235 255
220 235 255
220 235 255
220 235 255
220 235 255
220 235 255
220 235 255
220 235 255
220 235 255
220 235 255
220 235 255
220 235 255
220 235 255
220 235 255
220 235 255
220 235 255
220 235 255
220 235 255
220 235 255
220 235 255
220 235 255
220 235 255
220 235 255
220 235 255
220 235 255
220 235 255
220 235 255
220 235 255
220 235 255
220 235 255
220 235 255
220 235 255
220 235 255
220 235 255
220 235 255
220 235 255
220 235 255
220 235 255
220 235 255
220 235 255
220 235 255
220 235 255
220 235 255
220 235 255
220 235 255
220 235 255
220 235 255
220 235 255
220 235 255
220 235 255
220 235 255
220 235 255
220 235 255
220 235 255
220 235 255
220 235 255
220 235 255
220 235 255
220 235 255
220 235 255
220 235 255
220 235 255
220 235 255
220 235 255
220 235 255
220 235 255
220 235 255
220 235 255
220 235 255
220 235 255
220 235 255
220 235 255
220 235 255
220 235 255
220 235 255
220 235 255
220 235 255
220 235 255
220 235 255
220 235 255
220 235 255
220 235 255
220 235 255
220 235 255
220 235 255
220 235 255
220 235 255
220 235 255
220 235 255
220 235 255
220 235 255
220 235 255
220 235 255
220 235 255
220 235 255
220 235 255
220 235 255
220 235 255
220 235 255
220 235 255
220 235 255
220 235 255
183 195 212
3 7 30
0 3 23
3 6 24
0 0 0
0 0 0
0 0 0
0 0 8
0 0 5
0 0 0
0 0 0
0 0 0
0 0 7
0 0 10
0 0 8
0 0 16
0 0 16
0 0 16
0 0 16
0 0 16
0 0 16
0 0 16
0 0 16
0 0 16
0 0 16
0 0 16
0 0 16
0 0 16
0 0 16
0 0 16
0 0 17
0 0 20
0 0 22
0 0 22
0 0 22
0 0 24
0 0 25
0 0 26
0 0 26
0 0 27
0 0 28
0 0 31
0 0 32
0 0 32
0 0 32
0 0 35
0 0 35
0 0 37
0 4 40
0 14 44
0 9 43
0 3 41
0 1 42
0 0 42
0 0 39
0 3 39
0 2 39
0 3 38
0 2 40
0 9 42
0 14 45
0 12 43
0 12 43
0 13 43
0 10 43
0 0 43
0 14 44
0 14 45
0 14 43
0 14 45
0 14 48
0 14 50
0 14 52
0 15 54
0 16 56
0 19 58
0 21 59
0 22 60
0 23 64
0 22 66
0 20 62
0 20 57
0 20 56
0 20 57
0 19 57
0 14 52
0 14 51
0 14 50
0 14 48
0 14 48
0 14 48
0 14 48
0 14 48
0 14 48
0 14 48
0 14 48
0 14 48
0 14 48
0 14 48
0 14 49
0 14 50
0 14 50
0 14 50
0 14 50
0 14 51
0 17 53
0 20 53
0 14 54
0 14 53
0 14 53
0 16 54
0 20 53
0 18 53
0 20 62
0 20 64
0 23 67
0 26 69
0 28 70
0 34 76
0 39 85
7 41 88
11 39 81
21 43 78
23 44 64
24 46 58
16 42 40
17 39 30
24 46 39
24 54 64
20 59 92
16 56 104
22 56 87
16 45 48
13 37 22
15 32 18
21 39 27
17 42 10
26 50 18
25 47 15
25 47 14
16 38 0
22 42 7
29 48 14
23 37 7
28 41 15
27 39 13
22 36 8
19 35 4
25 43 9
25 47 10
23 44 0
21 43 0
23 42 0
24 42 0
20 37 2
29 43 9
34 44 12
54 64 33
48 58 27
50 61 29
39 48 16
48 54 21
46 50 23
40 45 21
22 29 7
12 30 0
14 29 0
16 32 8
13 34 26
20 46 56
21 57 106
13 51 116
2 43 112
0 34 89
0 27 70
0 25 75
0 25 78
8 37 96
13 42 100
11 34 76
1 15 47
0 2 26
0 0 26
0 0 28
0 0 26
0 0 26
0 0 24
0 0 24
0 0 24
0 0 23
0 0 22
0 0 23
0 0 26
0 0 29
0 0 34
0 8 38
0 12 43
0 10 43
0 12 45
0 14 42
0 9 37
0 0 30
0 0 22
0 0 20
0 0 22
0 0 17
0 0 16
0 0 8
0 0 0
0 0 13
0 3 23
2 9 36
16 41 87
191 205 222
220 235 255
220 235 255
220 235 255
220 235 255
220 235 255
220 235 255
220 235 255
220 235 255
220 235 255
220 235 255
220 235 255
220 235 255
220 235 255
220 235 255
220 235 255
220 235 255
220 235 255
220 235 255
220 235 255
220 235 255
220 235 255
220 235 255
220 235 255
220 235 255
220 235 255
220 235 255
220 235 255
220 235 255
220 235 255
220 235 255
220 235 255
220 235 255
220 235 255
220 235 255
220 235 255
220 235 255
220 235 255
220 235 255
220 235 255
220 235 255
220 235 255
220 235 255
220 235 255
220 235 255
220 235 255
220 235 255
220 235 255
220 235 255
220 235 255
220 235 255
220 235 255
220 235 255
220 235 255
220 235 255
220 235 255
220 235 255
220 235 255
220 235 255
220 235 255
220 235 255
220 235 255
220 235 255
220 235 255
220 235 255
220 235 255
220 235 255
220 235 255
220 235 255
220 235 255
220 235 255
220 235 255
220 235 255
220 235 255
220 235 255
220 235 255
220 235 255
220 235 255
220 235 255
220 235 255
220 235 255
220 235 255
220 235 255
220 235 255
220 235 255
220 235 255
220 235 255
220 235 255
220 235 255
220 235 255
220 235 255
220 235 255
220 235 255
220 235 255
220 235 255
220 235 255
220 235 255
220 235 255
220 235 255
220 235 255
220 235 255
220 235 255
220 235 255
220 235 255
220 235 255
220 235 255
220 235 255
220 235 255
220 235 255
220 235 255
220 235 255
220 235 255
220 235 255
220 235 255
220 235 255
220 235 255
220 235 255
220 235 255
220 235 255
220 235 255
220 235 255
220 235 255
220 235 255
220 235 255
220 235 255
220 235 255
220 235 255
220 235 255
220 235 255
220 235 255
220 235 255
220 235 255
220 235 255
220 235 255
220 235 255
220 235 255
220 235 255
220 235 255
220 235 255
220 235 255
220 235 255
220 235 255
220 235 255
220 235 255
220 235 255
220 235 255
220 235 255
220 235 255
220 235 255
220 235 255
220 235 255
220 235 255
220 235 255
220 235 255
220 235 255
220 235 255
220 235 255
220 235 255
220 235 255
220 235 255
220 235 255
220 235 255
220 235 255
220 235 255
220 235 255
220 235 255
220 235 255
220 235 255
220 235 255
220 235 255
220 235 255
220 235 255
220 235 255
220 235 255
220 235 255
220 235 255
220 235 255
220 235 255
220 235 255
220 235 255
220 235 255
220 235 255
220 235 255
220 235 255
220 235 255
220 235 255
220 235 255
166 177 193
0 3 24
0 0 24
0 0 16
0 0 0
0 0 0
0 0 0
0 0 15
0 0 14
0 0 13
0 0 11
0 0 0
0 0 4
0 0 3
0 0 0
0 0 3
0 0 7
0 0 10
0 0 13
0 0 16
0 0 16
0 0 17
0 0 19
0 0 16
0 0 16
0 0 16
0 0 16
0 0 16
0 0 16
0 0 16
0 0 20
0 0 22
0 0 22
0 0 22
0 0 24
0 0 27
0 0 27
0 0 27
0 0 27
0 0 28
0 0 29
0 0 32
0 0 33
0 0 36
0 0 34
0 0 35
0 0 36
0 0 38
0 4 40
0 9 42
0 2 41
0 0 41
0 0 41
0 0 41
0 0 39
0 0 39
0 0 39
0 0 38
0 8 40
0 2 41
0 14 43
0 14 45
0 14 46
0 14 42
0 9 43
0 12 42
0 14 44
0 14 45
0 14 42
0 14 43
0 14 47
0 14 49
0 14 50
0 14 53
0 14 54
0 17 56
0 20 57
0 21 60
0 22 64
0 22 66
0 20 62
0 20 57
0 20 56
0 20 57
0 19 57
0 14 53
0 18 53
0 14 53
0 14 50
0 14 48
0 14 48
0 14 48
0 14 48
0 14 48
0 14 47
0 14 49
0 14 49
0 14 48
0 14 48
0 14 48
0 14 49
0 14 50
0 14 50
0 14 50
0 14 49
0 14 51
0 15 52
0 14 54
0 14 53
0 14 53
0 15 53
0 19 54
0 20 55
0 20 61
0 20 63
0 23 66
0 27 72
6 36 82
9 41 88
3 45 87
10 45 87
12 41 84
10 33 78
22 42 84
32 54 92
19 48 63
15 45 44
14 39 41
22 52 72
22 57 100
15 50 105
28 57 101
22 46 67
9 31 22
12 29 5
17 33 12
17 38 10
14 35 4
23 44 11
28 50 16
14 32 0
19 37 6
31 48 16
24 37 11
27 39 13
20 33 7
18 33 5
24 41 6
21 38 5
19 40 0
20 39 0
19 39 0
18 35 0
22 37 0
27 43 10
22 35 0
21 30 1
40 48 19
45 55 26
50 63 33
40 52 21
41 48 15
46 52 23
25 31 3
29 39 16
15 35 7
14 29 0
16 29 0
11 28 0
2 28 13
13 42 63
20 56 103
16 56 121
9 50 110
4 39 86
0 35 82
1 35 88
12 46 102
13 46 100
15 45 95
11 34 81
0 12 49
0 0 33
0 0 31
0 0 32
0 0 32
0 0 30
0 0 31
0 0 31
0 0 27
0 0 27
0 0 23
0 0 22
0 0 22
0 0 24
0 4 30
0 8 35
0 7 36
0 12 44
0 11 41
0 11 39
0 0 33
0 0 28
0 0 28
0 0 25
0 0 21
0 0 17
0 0 14
0 0 10
0 0 12
0 0 24
0 6 34
5 18 53
159 172 191
220 235 255
220 235 255
220 235 255
220 235 255
220 235 255
220 235 255
220 235 255
220 235 255
220 235 255
220 235 255
220 235 255
220 235 255
220 235 255
220 235 255
220 235 255
220 235 255
220 235 255
220 235 255
220 235 255
220 235 255
220 235 255
220 235 255
220 235 255
220 235 255
220 235 255
220 235 255
220 235 255
220 235 255
220 235 255
220 235 255
220 235 255
220 235 255
220 235 255
220 235 255
220 235 255
220 235 255
220 235 255
220 235 255
220 235 255
220 235 255
220 235 255
220 235 255
220 235 255
220 235 255
220 235 255
220 235 255
220 235 255
220 235 255
220 235 255
220 235 255
220 235 255
220 235 255
220 235 255
220 235 255
220 235 255
220 235 255
220 235 255
220 235 255
220 235 255
220 235 255
220 235 255
220 235 255
220 235 255
220 235 255
220 235 255
220 235 255
220 235 255
220 235 255
220 235 255
220 235 255
220 235 255
220 235 255
220 235 255
220 235 255
220 235 255
220 235 255
220 235 255
220 235 255
220 235 255
220 235 255
220 235 255
220 235 255
220 235 255
220 235 255
220 235 255
220 235 255
220 235 255
220 235 255
220 235 255
220 235 255
220 235 255
220 235 255
220 235 255
220 235 255
220 235 255
220 235 255
220 235 255
220 235 255
220 235 255
220 235 255
220 235 255
220 235 255
220 235 255
220 235 255
220 235 255
220 235 255
220 235 255
220 235 255
220 235 255
220 235 255
220 235 255
220 235 255
220 235 255
220 235 255
220 235 255
220 235 255
220 235 255
220 235 255
220 235 255
220 235 255
220 235 255
220 235 255
220 235 255
220 235 255
220 235 255
220 235 255
220 235 255
220 235 255
220 235 255
220 235 255
220 235 255
220 235 255
220 235 255
220 235 255
220 235 255
220 235 255
220 235 255
220 235 255
220 235 255
220 235 255
220 235 255
220 235 255
220 235 255
220 235 255
220 235 255
220 235 255
220 235 255
220 235 255
220 235 255
220 235 255
220 235 255
220 235 255
220 235 255
220 235 255
220 235 255
220 235 255
220 235 255
220 235 255
220 235 255
220 235 255
220 235 255
220 235 255
220 235 255
220 235 255
220 235 255
220 235 255
220 235 255
220 235 255
220 235 255
220 235 255
220 235 255
220 235 255
220 235 255
220 235 255
220 235 255
220 235 255
220 235 255
220 235 255
220 235 255
220 235 255
220 235 255
220 235 255
220 235 255
220 235 255
220 235 255
220 235 255
151 161 175
2 6 27
0 0 25
0 0 15
0 0 0
0 0 0
0 0 0
0 0 16
0 0 15
0 0 16
0 0 11
0 0 0
0 0 0
0 0 0
0 0 0
0 0 0
0 0 0
0 0 0
0 0 13
0 0 16
0 0 17
0 0 21
0 0 19
0 0 17
0 0 18
0 0 16
0 0 16
0 0 16
0 0 16
0 0 18
0 0 22
0 0 23
0 0 23
0 0 22
0 0 23
0 0 25
0 0 27
0 0 27
0 0 27
0 0 31
0 0 32
0 0 35
0 0 35
0 0 37
0 0 35
0 0 35
0 0 35
0 0 36
0 4 38
0 3 39
0 1 39
0 9 40
0 0 39
0 0 39
0 0 39
0 0 39
0 0 39
0 8 40
0 13 41
0 10 42
0 7 42
0 14 45
0 14 45
0 11 42
0 14 44
0 14 43
0 14 45
0 14 45
0 13 43
0 9 42
0 14 44
0 14 47
0 14 48
0 14 50
0 14 53
0 16 55
0 20 57
0 20 58
0 21 64
0 21 65
0 20 62
0 20 56
0 20 57
0 20 57
0 18 57
0 14 53
0 14 52
0 14 52
0 14 50
0 14 50
0 14 50
0 14 50
0 14 50
0 14 48
0 14 47
0 14 50
0 14 50
0 14 48
0 14 48
0 14 48
0 14 48
0 14 50
0 14 50
0 14 50
0 14 48
0 14 49
0 14 50
0 14 54
0 14 53
0 14 53
0 15 55
0 17 56
0 20 58
0 20 61
0 19 63
0 23 69
0 28 75
1 32 82
6 40 92
6 43 95
7 42 93
10 39 89
4 24 72
4 21 70
8 31 81
18 50 88
20 52 72
9 36 54
13 41 67
10 38 77
0 27 69
2 20 61
15 32 64
16 33 42
12 27 11
18 32 8
18 34 9
5 25 0
16 34 0
17 35 0
10 28 0
17 32 0
26 42 9
24 37 11
18 29 0
16 29 4
28 43 15
25 40 5
20 36 0
19 34 0
17 33 0
19 33 0
22 35 0
18 31 0
19 32 0
20 32 0
22 32 0
29 37 8
34 44 19
24 36 5
24 38 9
23 33 4
44 53 24
19 28 7
36 48 27
23 44 15
16 34 3
15 30 0
14 31 0
7 27 0
7 29 19
24 51 67
22 56 101
18 56 116
13 54 114
3 49 98
10 55 107
13 57 109
14 55 108
14 50 111
15 44 104
0 21 69
0 0 40
0 0 32
0 0 32
0 0 34
0 0 34
0 0 35
0 0 35
0 0 33
0 0 28
0 0 26
0 0 22
0 0 23
0 0 26
0 0 26
0 0 29
0 0 32
0 7 38
0 11 41
0 12 41
0 12 44
0 12 41
0 3 31
0 0 26
0 0 24
0 0 26
0 0 18
0 0 16
0 0 14
0 0 26
0 6 39
0 0 28
148 160 177
220 235 255
220 235 255
220 235 255
220 235 255
220 235 255
220 235 255
220 235 255
220 235 255
220 235 255
220 235 255
220 235 255
220 235 255
220 235 255
220 235 255
220 235 255
220 235 255
220 235 255
220 235 255
220 235 255
220 235 255
220 235 255
220 235 255
220 235 255
220 235 255
220 235 255
220 235 255
220 235 255
220 235 255
220 235 255
220 235 255
220 235 255
220 235 255
220 235 255
220 235 255
220 235 255
220 235 255
220 235 255
220 235 255
220 235 255
220 235 255
220 235 255
220 235 255
220 235 255
220 235 255
220 235 255
220 235 255
220 235 255
220 235 255
220 235 255
220 235 255
220 235 255
220 235 255
220 235 255
220 235 255
220 235 255
220 235 255
220 235 255
220 235 255
220 235 255
220 235 255
220 235 255
220 235 255
220 235 255
220 235 255
220 235 255
220 235 255
220 235 255
220 235 255
220 235 255
220 235 255
220 235 255
220 235 255
220 235 255
220 235 255
220 235 255
220 235 255
220 235 255
220 235 255
220 235 255
220 235 255
220 235 255
220 235 255
220 235 255
220 235 255
220 235 255
220 235 255
220 235 255
220 235 255
220 235 255
220 235 255
220 235 255
220 235 255
220 235 255
220 235 255
220 235 255
220 235 255
220 235 255
220 235 255
220 235 255
220 235 255
220 235 255
220 235 255
220 235 255
220 235 255
220 235 255
220 235 255
220 235 255
220 235 255
220 235 255
220 235 255
220 235 255
220 235 255
220 235 255
220 235 255
220 235 255
220 235 255
220 235 255
220 235 255
220 235 255
220 235 255
220 235 255
220 235 255
220 235 255
220 235 255
220 235 255
220 235 255
220 235 255
220 235 255
220 235 255
220 235 255
220 235 255
220 235 255
220 235 255
220 235 255
220 235 255
220 235 255
220 235 255
220 235 255
220 235 255
220 235 255
220 235 255
220 235 255
220 235 255
220 235 255
220 235 255
220 235 255
220 235 255
220 235 255
220 235 255
220 235 255
220 235 255
220 235 255
220 235 255
220 235 255
220 235 255
220 235 255
220 235 255
220 235 255
220 235 255
220 235 255
220 235 255
220 235 255
220 235 255
220 235 255
220 235 255
220 235 255
220 235 255
220 235 255
220 235 255
220 235 255
220 235 255
220 235 255
220 235 255
220 235 255
220 235 255
220 235 255
220 235 255
220 235 255
220 235 255
220 235 255
220 235 255
220 235 255
220 235 255
220 235 255
220 235 255
220 235 255
116 124 136
1 4 30
0 0 28
0 0 17
0 0 6
0 0 10
0 0 5
0 0 17
0 0 16
0 0 16
0 0 10
0 0 0
0 0 0
0 0 3
0 0 2
0 0 5
0 0 14
0 0 15
0 0 15
0 0 16
0 0 18
0 0 22
0 0 20
0 0 21
0 0 24
0 0 23
0 0 23
0 0 22
0 0 21
0 0 24
0 0 25
0 0 25
0 0 26
0 0 26
0 0 26
0 0 27
0 0 27
0 0 27
0 0 27
0 0 30
0 0 32
0 0 35
0 0 35
0 0 35
0 0 35
0 0 35
0 0 35
0 0 35
0 0 35
0 0 36
0 0 36
0 3 36
0 0 36
0 0 36
0 0 39
0 0 39
0 0 39
0 2 39
0 13 41
0 14 44
0 4 42
0 12 43
0 9 41
0 12 44
0 14 46
0 14 44
0 14 45
0 14 44
0 14 42
0 14 42
0 14 43
0 14 45
0 14 48
0 14 48
0 14 51
0 17 53
0 20 55
0 20 57
0 20 62
0 20 64
0 20 60
0 20 57
0 20 58
0 20 58
0 20 57
0 17 55
0 14 53
0 14 52
0 14 52
0 14 52
0 14 51
0 14 51
0 14 51
0 14 51
0 14 49
0 14 48
0 14 48
0 14 48
0 14 48
0 14 48
0 14 48
0 14 50
0 14 50
0 14 50
0 14 48
0 14 48
0 14 50
0 15 54
0 14 53
0 15 55
0 20 59
0 20 62
0 20 62
0 22 66
0 24 69
0 26 74
0 29 79
0 33 85
11 39 94
12 39 103
5 36 98
0 32 87
0 26 70
0 22 64
0 31 74
9 40 90
0 28 72
0 20 56
0 17 52
0 22 53
0 23 46
0 16 46
0 13 52
19 35 57
18 34 36
10 26 4
14 29 0
14 28 0
17 33 0
19 34 0
18 34 0
24 38 4
24 37 6
35 46 23
21 31 8
21 32 4
29 41 14
24 38 0
23 37 0
22 32 0
21 31 0
25 34 0
29 37 3
36 44 15
37 47 20
34 47 19
24 33 6
25 33 6
15 26 0
13 26 0
14 30 0
13 28 0
35 46 19
20 31 7
17 31 8
18 36 8
15 32 3
14 30 0
16 31 0
15 31 0
10 28 0
29 48 42
24 50 72
21 54 106
15 55 123
12 58 121
13 60 119
14 58 115
15 55 120
15 54 119
17 52 112
3 28 75
0 12 45
0 6 33
0 0 36
0 0 35
0 0 37
0 0 38
0 0 36
0 0 35
0 0 32
0 0 32
0 0 28
0 0 23
0 0 22
0 0 26
0 0 26
0 0 28
0 0 33
0 2 33
0 6 39
0 10 46
0 7 43
0 11 42
0 9 39
0 6 32
0 0 29
0 0 23
0 0 22
0 0 20
0 0 32
3 13 47
0 0 27
108 118 133
220 235 255
220 235 255
220 235 255
220 235 255
220 235 255
220 235 255
220 235 255
220 235 255
220 235 255
220 235 255
220 235 255
220 235 255
220 235 255
220 235 255
220 235 255
220 235 255
220 235 255
220 235 255
220 235 255
220 235 255
220 235 255
220 235 255
220 235 255
220 235 255
220 235 255
220 235 255
220 235 255
220 235 255
220 235 255
220 235 255
220 235 255
220 235 255
220 235 255
220 235 255
220 235 255
220 235 255
220 235 255
220 235 255
220 235 255
220 235 255
220 235 255
220 235 255
220 235 255
220 235 255
220 235 255
220 235 255
220 235 255
220 235 255
220 235 255
220 235 255
220 235 255
220 235 255
220 235 255
220 235 255
220 235 255
220 235 255
220 235 255
220 235 255
220 235 255
220 235 255
220 235 255
220 235 255
220 235 255
220 235 255
220 235 255
220 235 255
220 235 255
220 235 255
220 235 255
220 235 255
220 235 255
220 235 255
220 235 255
220 235 255
220 235 255
220 235 255
220 235 255
220 235 255
220 235 255
220 235 255
220 235 255
220 235 255
220 235 255
220 235 255
220 235 255
220 235 255
220 235 255
220 235 255
220 235 255
220 235 255
220 235 255
220 235 255
220 235 255
220 235 255
220 235 255
220 235 255
220 235 255
220 235 255
220 235 255
220 235 255
220 235 255
220 235 255
220 235 255
220 235 255
220 235 255
220 235 255
220 235 255
220 235 255
220 235 255
220 235 255
220 235 255
220 235 255
220 235 255
220 235 255
220 235 255
220 235 255
220 235 255
220 235 255
220 235 255
220 235 255
220 235 255
220 235 255
220 235 255
220 235 255
220 235 255
220 235 255
220 235 255
220 235 255
220 235 255
220 235 255
220 235 255
220 235 255
220 235 255
220 235 255
220 235 255
220 235 255
220 235 255
220 235 255
220 235 255
220 235 255
220 235 255
220 235 255
220 235 255
220 235 255
220 235 255
220 235 255
220 235 255
220 235 255
220 235 255
220 235 255
220 235 255
220 235 255
220 235 255
220 235 255
220 235 255
220 235 255
220 235 255
220 235 255
220 235 255
220 235 255
220 235 255
220 235 255
220 235 255
220 235 255
220 235 255
220 235 255
220 235 255
220 235 255
220 235 255
220 235 255
220 235 255
220 235 255
220 235 255
220 235 255
220 235 255
220 235 255
220 235 255
220 235 255
220 235 255
220 235 255
220 235 255
220 235 255
220 235 255
220 235 255
220 235 255
220 235 255
49 52 60
3 11 42
0 0 29
0 0 17
0 0 13
0 0 16
0 0 9
0 0 18
0 0 16
0 0 15
0 0 10
0 0 0
0 0 4
0 0 16
0 0 10
0 0 7
0 0 16
0 0 16
0 0 16
0 0 16
0 0 16
0 0 21
0 0 23
0 0 26
0 0 27
0 0 27
0 0 28
0 0 26
0 0 26
0 0 27
0 0 27
0 0 27
0 0 27
0 0 27
0 0 27
0 0 27
0 0 27
0 0 27
0 0 28
0 0 31
0 0 33
0 0 35
0 0 35
0 0 37
0 0 38
0 0 36
0 0 35
0 0 35
0 0 35
0 0 35
0 0 35
0 0 35
0 0 35
0 0 36
0 0 39
0 0 39
0 0 39
0 0 39
0 13 41
0 12 43
0 0 40
0 0 39
0 0 38
0 12 45
0 14 47
0 14 47
0 14 45
0 14 44
0 14 42
0 14 42
0 14 44
0 14 45
0 14 47
0 14 48
0 14 50
0 16 53
0 20 55
0 20 58
0 20 62
0 20 64
0 20 60
0 20 57
0 20 57
0 20 57
0 19 56
0 15 55
0 14 53
0 14 52
0 14 52
0 14 53
0 14 53
0 14 53
0 14 53
0 14 53
0 14 51
0 14 48
0 14 48
0 14 48
0 14 48
0 14 48
0 14 48
0 14 50
0 14 49
0 14 48
0 14 49
0 14 50
0 14 50
0 14 49
0 14 52
0 17 55
0 20 60
0 22 63
0 22 66
2 23 71
6 32 82
2 33 82
7 38 88
10 39 91
12 37 91
8 33 96
0 28 87
0 26 71
0 23 59
0 22 56
9 33 74
10 40 91
0 28 79
0 17 60
0 19 59
0 21 57
0 22 48
0 21 47
0 12 48
10 23 59
21 38 57
8 28 16
13 28 2
15 29 4
24 38 15
21 35 2
26 39 7
28 40 6
21 32 3
27 37 13
31 41 17
24 35 11
26 38 7
24 37 0
25 38 3
27 35 2
26 33 0
32 38 3
32 37 6
39 42 16
39 46 19
32 45 17
22 31 4
16 24 0
11 22 0
7 25 0
13 28 0
15 28 0
19 29 0
17 29 0
9 25 0
11 26 0
15 29 0
13 26 0
16 32 0
16 34 0
12 28 0
16 31 10
21 39 39
26 52 77
21 55 106
18 56 111
20 56 104
21 55 104
22 55 116
17 54 115
17 58 111
9 41 90
0 20 55
0 14 42
0 5 45
0 0 43
0 0 42
0 5 41
0 8 39
0 0 36
0 0 33
0 0 33
0 0 31
0 0 25
0 0 23
0 0 24
0 0 26
0 0 25
0 0 27
0 5 36
0 12 41
0 12 48
0 11 49
0 17 51
0 14 46
0 13 41
0 7 37
0 0 31
0 0 27
0 0 29
0 7 41
0 16 50
0 4 27
88 96 110
220 235 255
220 235 255
220 235 255
220 235 255
220 235 255
220 235 255
220 235 255
220 235 255
220 235 255
220 235 255
220 235 255
220 235 255
220 235 255
220 235 255
220 235 255
220 235 255
220 235 255
220 235 255
220 235 255
220 235 255
220 235 255
220 235 255
220 235 255
220 235 255
220 235 255
220 235 255
220 235 255
220 235 255
220 235 255
220 235 255
220 235 255
220 235 255
220 235 255
220 235 255
220 235 255
220 235 255
220 235 255
220 235 255
220 235 255
220 235 255
220 235 255
220 235 255
220 235 255
220 235 255
220 235 255
220 235 255
220 235 255
220 235 255
220 235 255
220 235 255
220 235 255
220 235 255
220 235 255
220 235 255
220 235 255
220 235 255
220 235 255
220 235 255
220 235 255
220 235 255
220 235 255
220 235 255
220 235 255
220 235 255
220 235 255
220 235 255
220 235 255
220 235 255
220 235 255
220 235 255
220 235 255
220 235 255
220 235 255
220 235 255
220 235 255
220 235 255
220 235 255
220 235 255
220 235 255
220 235 255
220 235 255
220 235 255
220 235 255
220 235 255
220 235 255
220 235 255
220 235 255
220 235 255
220 235 255
220 235 255
220 235 255
220 235 255
220 235 255
220 235 255
220 235 255
220 235 255
220 235 255
220 235 255
220 235 255
220 235 255
220 235 255
220 235 255
220 235 255
220 235 255
220 235 255
220 235 255
220 235 255
220 235 255
220 235 255
220 235 255
220 235 255
220 235 255
220 235 255
220 235 255
220 235 255
220 235 255
220 235 255
220 235 255
220 235 255
220 235 255
220 235 255
220 235 255
220 235 255
220 235 255
220 235 255
220 235 255
220 235 255
220 235 255
220 235 255
220 235 255
220 235 255
220 235 255
220 235 255
220 235 255
220 235 255
220 235 255
220 235 255
220 235 255
220 235 255
220 235 255
220 235 255
220 235 255
220 235 255
220 235 255
220 235 255
220 235 255
220 235 255
220 235 255
220 235 255
220 235 255
220 235 255
220 235 255
220 235 255
220 235 255
220 235 255
220 235 255
220 235 255
220 235 255
220 235 255
220 235 255
220 235 255
220 235 255
220 235 255
220 235 255
220 235 255
220 235 255
220 235 255
220 235 255
220 235 255
220 235 255
220 235 255
220 235 255
220 235 255
220 235 255
220 235 255
220 235 255
220 235 255
220 235 255
220 235 255
220 235 255
220 235 255
220 235 255
220 235 255
220 235 255
220 235 255
218 233 253
0 5 24
7 19 55
0 6 33
0 0 17
0 0 16
0 0 15
0 0 9
0 0 16
0 0 15
0 0 16
0 0 7
0 0 0
0 0 7
0 0 16
0 0 13
0 0 12
0 0 16
0 0 16
0 0 16
0 0 16
0 0 18
0 0 24
0 0 26
0 0 27
0 0 28
0 0 28
0 0 32
0 0 31
0 0 30
0 0 30
0 0 27
0 0 27
0 0 27
0 0 27
0 0 27
0 0 27
0 0 27
0 0 27
0 0 29
0 0 32
0 0 33
0 0 35
0 0 35
0 0 36
0 0 38
0 0 36
0 0 35
0 0 33
0 0 33
0 0 35
0 0 35
0 0 35
0 0 35
0 0 36
0 0 39
0 0 39
0 0 39
0 0 39
0 13 42
0 9 42
0 0 40
0 6 41
0 2 41
0 14 44
0 11 43
0 14 44
0 14 45
0 14 44
0 14 42
0 14 42
0 14 43
0 14 45
0 14 46
0 14 48
0 14 50
0 17 53
0 20 55
0 20 58
0 20 62
0 20 64
0 20 60
0 20 57
0 20 58
0 20 57
0 18 56
0 14 55
0 14 53
0 14 52
0 14 52
0 14 53
0 14 53
0 14 52
0 14 52
0 14 53
0 14 50
0 14 48
0 14 48
0 14 48
0 14 50
0 14 50
0 14 50
0 14 49
0 14 48
0 14 48
0 14 50
0 14 50
0 14 50
0 15 51
0 18 54
0 22 59
0 25 66
0 25 70
5 30 77
9 33 86
8 34 87
7 37 89
7 38 90
8 35 86
4 26 78
0 24 73
0 22 65
0 20 55
0 21 51
0 19 54
13 35 81
18 44 92
0 25 64
0 20 58
0 23 64
0 20 64
0 16 56
0 19 50
0 23 57
0 11 57
20 39 68
5 27 25
12 28 2
14 29 2
24 37 12
16 30 0
30 42 12
20 31 3
26 36 9
26 34 10
27 36 12
17 26 4
25 37 0
28 39 8
25 36 3
33 39 9
35 39 11
33 37 7
37 40 14
36 38 12
39 45 19
26 37 14
13 23 0
13 24 0
7 21 0
0 21 0
13 26 0
13 26 0
14 22 0
14 26 0
7 22 0
10 21 0
15 24 6
13 26 0
12 29 0
14 33 0
13 34 0
12 29 0
20 34 11
27 48 45
21 50 67
23 52 74
24 50 65
22 48 61
20 49 82
22 55 101
16 57 111
17 54 112
7 34 85
0 20 63
0 14 58
0 14 54
0 14 48
0 14 44
0 14 42
0 12 39
0 6 37
0 3 36
0 3 37
0 0 29
0 0 24
0 0 22
0 0 23
0 0 22
0 0 22
0 0 28
0 2 37
0 5 44
0 14 50
0 20 56
0 17 52
0 14 47
0 9 43
0 3 37
0 0 29
0 2 33
0 5 40
0 15 52
0 9 34
22 26 39
219 234 254
220 235 255
220 235 255
220 235 255
220 235 255
220 235 255
220 235 255
220 235 255
220 235 255
220 235 255
220 235 255
220 235 255
220 235 255
220 235 255
220 235 255
220 235 255
220 235 255
220 235 255
220 235 255
220 235 255
220 235 255
220 235 255
220 235 255
220 235 255
220 235 255
220 235 255
220 235 255
220 235 255
220 235 255
220 235 255
220 235 255
220 235 255
220 235 255
220 235 255
220 235 255
220 235 255
220 235 255
220 235 255
220 235 255
220 235 255
220 235 255
220 235 255
220 235 255
220 235 255
220 235 255
220 235 255
220 235 255
220 235 255
220 235 255
220 235 255
220 235 255
220 235 255
220 235 255
220 235 255
220 235 255
220 235 255
220 235 255
220 235 255
220 235 255
220 235 255
220 235 255
220 235 255
220 235 255
220 235 255
220 235 255
220 235 255
220 235 255
220 235 255
220 235 255
220 235 255
220 235 255
220 235 255
220 235 255
220 235 255
220 235 255
220 235 255
220 235 255
220 235 255
220 235 255
220 235 255
220 235 255
220 235 255
220 235 255
220 235 255
220 235 255
220 235 255
220 235 255
220 235 255
220 235 255
220 235 255
220 235 255
220 235 255
220 235 255
221 235 255
221 235 255
221 235 255
221 235 255
221 235 255
221 235 255
221 235 255
221 235 255
221 235 255
221 235 255
221 235 255
221 235 255
221 235 255
221 235 255
221 235 255
221 235 255
221 235 255
221 235 255
221 235 255
221 235 255
221 235 255
221 235 255
221 235 255
221 235 255
221 235 255
221 235 255
221 235 255
221 235 255
221 235 255
221 235 255
221 235 255
221 235 255
221 235 255
221 235 255
221 235 255
221 235 255
221 235 255
221 235 255
221 235 255
221 235 255
221 235 255
221 235 255
221 235 255
221 235 255
221 235 255
221 235 255
221 235 255
221 235 255
221 235 255
221 235 255
221 235 255
221 235 255
221 235 255
221 235 255
221 235 255
221 235 255
221 235 255
221 235 255
221 235 255
221 235 255
221 235 255
221 235 255
221 235 255
221 235 255
221 235 255
221 235 255
221 235 255
221 235 255
221 235 255
221 235 255
221 235 255
221 235 255
221 235 255
221 235 255
221 235 255
221 235 255
221 235 255
221 235 255
221 235 255
221 235 255
221 235 255
221 235 255
221 235 255
221 235 255
221 235 255
221 235 255
221 235 255
221 235 255
221 235 255
221 235 255
221 235 255
221 235 255
200 213 231
1 7 32
2 20 60
0 4 31
0 0 19
0 0 16
0 0 15
0 0 9
0 0 16
0 0 15
0 0 15
0 0 3
0 0 0
0 0 8
0 0 16
0 0 13
0 0 17
0 0 17
0 0 17
0 0 19
0 0 20
0 0 22
0 0 23
0 0 26
0 0 27
0 0 30
0 0 32
0 0 33
0 0 32
0 0 34
0 0 32
0 0 27
0 0 27
0 0 29
0 0 29
0 0 27
0 0 27
0 0 27
0 0 29
0 0 30
0 0 32
0 0 35
0 0 34
0 0 34
0 0 34
0 0 34
0 0 35
0 0 36
0 0 37
0 0 35
0 0 35
0 0 35
0 0 35
0 0 35
0 0 35
0 0 36
0 0 36
0 0 38
0 0 39
0 4 39
0 1 40
0 0 40
0 8 42
0 4 42
0 5 42
0 10 43
0 8 43
0 5 42
0 2 42
0 4 42
0 8 43
0 14 46
0 14 47
0 14 48
0 14 48
0 14 53
0 14 53
0 17 57
0 16 58
0 20 61
0 20 62
0 20 62
0 20 60
0 20 58
0 18 57
0 14 57
0 14 57
0 14 55
0 14 55
0 14 55
0 14 50
0 14 48
0 14 48
0 14 49
0 14 50
0 14 50
0 14 49
0 14 49
0 14 49
0 14 48
0 14 50
0 14 49
0 14 48
0 14 48
0 14 50
0 14 52
0 14 53
0 15 54
0 20 53
0 21 56
0 23 61
0 26 67
0 32 77
2 38 84
5 35 86
3 35 89
10 42 98
4 36 90
0 26 75
0 21 66
0 19 59
0 15 57
0 20 59
0 19 59
0 20 61
3 25 69
5 24 60
0 15 45
0 14 55
0 12 57
0 13 57
0 14 57
0 20 55
0 21 59
8 22 68
24 41 74
13 28 25
15 26 4
15 23 0
22 33 0
19 30 8
32 43 22
20 30 0
27 39 10
30 42 12
27 37 6
27 37 8
29 37 0
33 40 13
33 39 12
39 41 15
38 41 14
36 39 12
40 43 16
37 41 13
33 40 13
16 27 3
12 23 0
15 26 0
12 24 0
4 19 0
13 25 0
13 23 0
9 22 0
10 22 0
13 25 0
10 21 0
25 32 10
14 21 0
13 25 0
12 30 0
11 29 0
15 32 0
23 37 10
17 34 11
15 35 21
12 29 17
14 32 17
11 31 17
4 28 27
16 41 58
25 51 94
22 55 115
21 55 116
9 35 90
0 21 68
0 17 59
0 17 55
0 16 54
0 14 48
0 14 44
0 10 41
0 10 41
0 13 43
0 3 33
0 0 24
0 0 22
0 0 23
0 0 26
0 0 25
0 0 28
0 0 36
0 4 42
0 10 44
0 17 53
0 18 54
0 13 49
0 11 45
0 5 41
0 2 35
0 3 36
0 5 39
0 13 51
0 12 40
0 2 21
194 207 226
221 235 255
221 235 255
221 235 255
221 235 255
221 235 255
221 235 255
221 235 255
221 235 255
221 235 255
221 235 255
221 235 255
221 235 255
221 235 255
221 235 255
221 235 255
221 235 255
221 235 255
221 235 255
221 235 255
221 235 255
221 235 255
221 235 255
221 235 255
221 235 255
221 235 255
221 235 255
221 235 255
221 235 255
221 235 255
221 235 255
221 235 255
221 235 255
221 235 255
221 235 255
221 235 255
221 235 255
221 235 255
221 235 255
221 235 255
221 235 255
221 235 255
221 235 255
221 235 255
221 235 255
221 235 255
221 235 255
221 235 255
221 235 255
221 235 255
221 235 255
221 235 255
221 235 255
221 235 255
221 235 255
221 235 255
221 235 255
221 235 255
221 235 255
221 235 255
221 235 255
221 235 255
221 235 255
221 235 255
221 235 255
221 235 255
221 235 255
221 235 255
221 235 255
221 235 255
221 235 255
221 235 255
221 235 255
221 235 255
221 235 255
221 235 255
221 235 255
221 235 255
221 235 255
221 235 255
221 235 255
221 235 255
221 235 255
221 235 255
221 235 255
221 235 255
221 235 255
221 235 255
221 235 255
221 235 255
221 235 255
221 235 255
221 235 255
221 235 255
221 235 255
221 235 255
221 235 255
221 235 255
221 235 255
221 235 255
221 235 255
221 235 255
221 235 255
221 235 255
221 235 255
221 235 255
221 235 255
221 235 255
221 235 255
221 235 255
221 235 255
221 235 255
221 235 255
221 235 255
221 235 255
221 235 255
221 235 255
221 235 255
221 235 255
221 235 255
221 235 255
221 235 255
221 235 255
221 235 255
221 235 255
221 235 255
221 235 255
221 235 255
221 235 255
221 235 255
221 235 255
221 235 255
221 235 255
221 235 255
221 235 255
221 235 255
221 235 255
221 235 255
221 235 255
221 235 255
221 235 255
221 235 255
221 235 255
221 235 255
221 235 255
221 235 255
221 235 255
221 235 255
221 235 255
221 235 255
221 235 255
221 235 255
221 235 255
221 235 255
221 235 255
221 235 255
221 235 255
221 235 255
221 235 255
221 235 255
221 235 255
221 235 255
221 235 255
221 235 255
221 235 255
221 235 255
221 235 255
221 235 255
221 235 255
221 235 255
221 235 255
221 235 255
221 235 255
221 235 255
221 235 255
221 235 255
221 235 255
221 235 255
221 235 255
221 235 255
221 235 255
221 235 255
221 235 255
221 235 255
221 235 255
196 209 227
2 10 36
5 20 59
0 0 31
0 0 21
0 0 18
0 0 14
0 0 15
0 0 14
0 0 13
0 0 11
0 0 0
0 0 0
0 0 9
0 0 16
0 0 16
0 0 22
0 0 24
0 0 27
0 0 27
0 0 23
0 0 22
0 0 23
0 0 27
0 0 27
0 0 30
0 0 32
0 0 35
0 0 34
0 0 32
0 0 32
0 0 27
0 0 27
0 0 30
0 0 31
0 0 27
0 0 27
0 0 27
0 0 27
0 0 30
0 0 32
0 0 35
0 0 35
0 0 35
0 0 34
0 0 32
0 0 34
0 0 34
0 0 34
0 0 35
0 0 35
0 0 35
0 0 35
0 0 35
0 0 35
0 0 36
0 0 38
0 0 39
0 0 40
0 0 41
0 5 41
0 0 40
0 7 42
0 14 43
0 14 44
0 14 45
0 10 43
0 7 42
0 0 42
0 7 42
0 11 43
0 14 47
0 14 48
0 14 48
0 14 48
0 14 52
0 14 53
0 17 57
0 16 58
0 20 61
0 20 62
0 20 62
0 20 60
0 20 58
0 19 57
0 14 57
0 14 57
0 14 55
0 14 55
0 14 54
0 14 50
0 14 50
0 14 50
0 14 50
0 14 51
0 14 52
0 14 51
0 14 51
0 14 51
0 14 51
0 14 52
0 14 52
0 15 51
0 15 52
0 17 55
0 18 56
0 19 58
0 20 59
0 20 57
0 21 59
0 22 64
0 25 71
0 29 77
3 33 82
4 33 85
14 44 97
9 40 93
0 33 86
0 21 69
0 20 64
0 16 57
0 19 59
0 20 61
0 17 58
0 19 61
0 20 63
0 20 58
0 17 51
4 24 63
1 20 62
0 16 58
0 18 57
0 20 54
0 15 53
14 28 75
27 46 79
13 30 21
13 26 5
16 25 2
24 34 6
25 34 15
31 41 23
26 35 11
21 33 1
26 37 0
27 37 3
34 44 14
25 33 2
29 35 3
33 39 8
36 41 14
37 41 16
39 44 17
37 44 16
36 43 15
23 31 4
7 20 0
11 24 0
13 25 0
13 26 0
8 22 0
13 24 0
7 21 0
0 20 0
9 21 0
6 21 0
15 23 0
34 39 17
34 37 14
19 26 5
8 24 0
13 28 0
13 29 0
15 30 3
13 29 0
6 24 0
15 27 0
13 28 0
8 25 0
8 28 0
3 25 10
8 24 34
24 49 84
22 54 101
23 56 116
8 39 88
0 24 65
0 24 65
0 21 66
0 19 61
0 16 53
0 9 46
0 6 45
0 13 45
0 11 40
0 0 28
0 0 23
0 0 23
0 0 23
0 0 26
0 0 27
0 0 33
0 9 40
0 9 43
0 16 55
0 21 61
0 18 59
0 14 51
0 11 46
0 7 40
0 2 37
0 6 37
0 13 51
0 16 47
0 0 16
195 208 227
221 235 255
221 235 255
221 235 255
221 235 255
221 235 255
221 235 255
221 235 255
221 235 255
221 235 255
221 235 255
221 235 255
221 235 255
221 235 255
221 235 255
221 235 255
221 235 255
221 235 255
221 235 255
221 235 255
221 235 255
221 235 255
221 235 255
221 235 255
221 235 255
221 235 255
221 235 255
221 235 255
221 235 255
221 235 255
221 235 255
221 235 255
221 235 255
221 235 255
221 235 255
221 235 255
221 235 255
221 235 255
221 235 255
221 235 255
221 235 255
221 235 255
221 235 255
221 235 255
221 235 255
221 235 255
221 235 255
221 235 255
221 235 255
221 235 255
221 235 255
221 235 255
221 235 255
221 235 255
221 235 255
221 235 255
221 235 255
221 235 255
221 235 255
221 235 255
221 235 255
221 235 255
221 235 255
221 235 255
221 235 255
221 235 255
221 235 255
221 235 255
221 235 255
221 235 255
221 235 255
221 235 255
221 235 255
221 235 255
221 235 255
221 235 255
221 235 255
221 235 255
221 235 255
221 235 255
221 235 255
221 235 255
221 235 255
221 235 255
221 235 255
221 235 255
221 235 255
221 235 255
221 235 255
221 235 255
221 235 255
221 235 255
221 235 255
221 235 255
221 235 255
221 235 255
221 235 255
221 235 255
221 235 255
221 235 255
221 235 255
221 235 255
221 235 255
221 235 255
221 235 255
221 235 255
221 235 255
221 235 255
221 235 255
221 235 255
221 235 255
221 235 255
221 235 255
221 235 255
221 235 255
221 235 255
221 235 255
221 235 255
221 235 255
221 235 255
221 235 255
221 235 255
221 235 255
221 235 255
221 235 255
221 235 255
221 235 255
221 235 255
221 235 255
221 235 255
221 235 255
221 235 255
221 235 255
221 235 255
221 235 255
221 235 255
221 235 255
221 235 255
221 235 255
221 235 255
221 235 255
221 235 255
221 235 255
221 235 255
221 235 255
221 235 255
221 235 255
221 235 255
221 235 255
221 235 255
221 235 255
221 235 255
221 235 255
221 235 255
221 235 255
221 235 255
221 235 255
221 235 255
221 235 255
221 235 255
221 235 255
221 235 255
221 235 255
221 235 255
221 235 255
221 235 255
221 235 255
221 235 255
221 235 255
221 235 255
221 235 255
221 235 255
221 235 255
221 235 255
221 235 255
221 235 255
221 235 255
221 235 255
221 235 255
221 235 255
221 235 255
221 235 255
221 235 255
221 235 255
221 235 255
181 192 209
0 5 31
2 17 54
0 0 28
0 0 22
0 0 18
0 0 14
0 0 16
0 0 15
0 0 9
0 0 12
0 0 13
0 0 14
0 0 15
0 0 19
0 0 22
0 0 26
0 0 28
0 0 28
0 0 27
0 0 24
0 0 23
0 0 26
0 0 27
0 0 27
0 0 29
0 0 32
0 0 34
0 0 32
0 0 33
0 0 33
0 0 27
0 0 27
0 0 28
0 0 28
0 0 27
0 0 27
0 0 26
0 0 27
0 0 30
0 0 34
0 0 32
0 0 32
0 0 33
0 0 32
0 0 32
0 0 32
0 0 32
0 0 32
0 0 34
0 0 35
0 0 35
0 0 35
0 0 35
0 0 36
0 0 38
0 0 41
0 9 42
0 6 42
0 10 42
0 14 43
0 6 42
0 8 42
0 13 43
0 14 44
0 14 45
0 14 43
0 12 42
0 0 42
0 13 42
0 14 43
0 14 47
0 14 48
0 14 48
0 14 48
0 14 53
0 14 53
0 19 57
0 19 58
0 20 59
0 20 60
0 20 60
0 20 58
0 20 58
0 19 57
0 14 57
0 14 57
0 14 55
0 14 55
0 14 54
0 14 52
0 14 52
0 14 52
0 14 54
0 15 54
0 15 54
0 14 53
0 14 53
0 14 53
0 14 53
0 17 53
0 19 55
0 20 57
0 20 57
0 20 59
0 20 62
0 23 64
0 23 65
0 23 66
0 26 71
0 29 77
0 30 78
5 32 84
8 37 90
10 38 91
14 44 95
10 40 90
0 29 79
0 25 70
0 22 65
0 17 59
0 17 58
0 21 62
0 22 62
0 23 63
0 15 58
0 23 63
7 34 73
14 41 83
8 31 72
0 16 53
0 20 56
0 19 53
0 12 52
16 32 78
31 48 77
12 30 21
9 24 2
31 43 19
25 34 11
24 34 16
34 44 24
32 43 22
26 37 11
27 39 5
32 45 11
29 40 8
30 39 9
33 42 11
35 42 14
29 37 5
28 35 10
30 39 12
26 36 9
20 30 2
14 26 0
10 23 0
9 22 0
13 26 0
15 28 0
13 26 0
7 22 0
5 21 0
5 21 0
12 24 0
5 21 0
16 24 0
26 30 8
45 48 25
47 53 30
25 34 11
14 28 0
13 28 0
13 27 0
13 27 0
10 25 0
14 27 0
12 26 0
3 24 0
5 27 0
0 25 0
0 22 0
11 28 29
25 50 67
21 54 103
17 55 110
4 36 86
6 35 83
0 28 76
0 23 71
0 18 59
0 12 47
0 0 43
0 3 43
2 16 47
0 3 31
0 0 29
0 0 28
0 0 29
0 0 27
0 0 28
0 7 36
0 11 40
0 12 44
0 16 52
0 19 60
0 19 60
0 14 54
0 13 48
0 7 42
0 4 37
0 0 36
0 13 47
0 16 48
0 0 15
179 191 209
221 235 255
221 235 255
221 235 255
221 235 255
221 235 255
221 235 255
221 235 255
221 235 255
221 235 255
221 235 255
221 235 255
221 235 255
221 235 255
221 235 255
221 235 255
221 235 255
221 235 255
221 235 255
221 235 255
221 235 255
221 235 255
221 235 255
221 235 255
221 235 255
221 235 255
221 235 255
221 235 255
221 235 255
221 235 255
221 235 255
221 235 255
221 235 255
221 235 255
221 235 255
221 235 255
221 235 255
221 235 255
221 235 255
221 235 255
221 235 255
221 235 255
221 235 255
221 235 255
221 235 255
221 235 255
221 235 255
221 235 255
221 235 255
221 235 255
221 235 255
221 235 255
221 235 255
221 235 255
221 235 255
221 235 255
221 235 255
221 235 255
221 235 255
221 235 255
221 235 255
221 235 255
221 235 255
221 235 255
221 235 255
221 235 255
221 235 255
221 235 255
221 235 255
221 235 255
221 235 255
221 235 255
221 235 255
221 235 255
221 235 255
221 235 255
221 235 255
221 235 255
221 235 255
221 235 255
221 235 255
221 235 255
221 235 255
221 235 255
221 235 255
221 235 255
221 235 255
221 235 255
221 235 255
221 235 255
221 235 255
221 235 255
221 235 255
221 235 255
221 235 255
221 235 255
221 235 255
221 235 255
221 235 255
221 235 255
221 235 255
221 235 255
221 235 255
221 235 255
221 235 255
221 235 255
221 235 255
221 235 255
221 235 255
221 235 255
221 235 255
221 235 255
221 235 255
221 235 255
221 235 255
221 235 255
221 235 255
221 235 255
221 235 255
221 235 255
221 235 255
221 235 255
221 235 255
221 235 255
221 235 255
221 235 255
221 235 255
221 235 255
221 235 255
221 235 255
221 235 255
221 235 255
221 235 255
221 235 255
221 235 255
221 235 255
221 235 255
221 235 255
221 235 255
221 235 255
221 235 255
221 235 255
221 235 255
221 235 255
221 235 255
221 235 255
221 235 255
221 235 255
221 235 255
221 235 255
221 235 255
221 235 255
221 235 255
221 235 255
221 235 255
221 235 255
221 235 255
221 235 255
221 235 255
221 235 255
221 235 255
221 235 255
221 235 255
221 235 255
221 235 255
221 235 255
221 235 255
221 235 255
221 235 255
221 235 255
221 235 255
221 235 255
221 235 255
221 235 255
221 235 255
221 235 255
221 235 255
221 235 255
221 235 255
221 235 255
221 235 255
221 235 255
221 235 255
221 235 255
221 235 255
176 188 204
0 4 31
5 21 57
0 0 27
0 0 22
0 0 17
0 0 15
0 0 16
0 0 16
0 0 14
0 0 15
0 0 16
0 0 17
0 0 22
0 0 25
0 0 28
0 0 30
0 0 32
0 0 32
0 0 29
0 0 27
0 0 27
0 0 27
0 0 29
0 0 27
0 0 29
0 0 32
0 0 31
0 0 28
0 0 28
0 0 29
0 0 27
0 0 27
0 0 27
0 0 27
0 0 27
0 0 27
0 0 26
0 0 27
0 0 28
0 0 29
0 0 29
0 0 29
0 0 29
0 0 30
0 0 31
0 0 32
0 0 35
0 0 35
0 0 35
0 0 35
0 0 35
0 0 35
0 0 35
0 0 37
0 0 39
0 1 41
0 5 42
0 5 43
0 6 44
0 6 42
0 3 42
0 2 42
0 4 42
0 7 42
0 10 42
0 14 42
0 14 42
0 14 42
0 14 43
0 14 45
0 14 47
0 14 48
0 14 48
0 14 48
0 14 52
0 14 53
0 19 56
0 19 56
0 21 58
0 22 60
0 20 59
0 20 57
0 20 57
0 20 57
0 20 57
0 17 57
0 15 56
0 15 56
0 14 55
0 14 55
0 14 54
0 16 54
0 18 55
0 14 55
0 14 55
0 18 57
0 18 57
0 21 58
0 20 58
0 20 58
0 21 60
0 21 62
0 23 64
0 24 66
0 23 67
0 23 68
0 24 70
0 26 74
4 31 81
0 32 82
12 38 91
12 41 95
10 40 94
12 41 93
13 38 89
4 30 78
0 26 71
0 21 64
0 15 60
0 17 58
0 19 59
0 19 60
0 21 62
0 21 62
0 20 63
9 36 81
13 43 89
5 36 78
5 29 68
0 19 56
0 22 57
0 14 49
1 16 59
21 39 89
24 43 69
9 29 17
17 30 5
29 39 15
17 24 2
44 52 36
43 50 34
23 31 10
30 38 11
40 50 20
37 48 16
38 49 20
33 45 16
36 46 15
31 42 11
23 33 0
10 23 0
16 27 0
15 28 0
15 31 0
15 30 0
16 30 0
14 27 0
13 25 0
6 22 0
2 21 0
2 20 0
13 25 0
13 24 0
12 24 0
11 25 0
15 24 0
23 27 4
39 42 16
41 46 18
32 39 15
17 29 4
13 27 0
13 29 0
14 29 0
13 25 0
13 26 0
13 27 0
13 28 0
13 29 0
1 26 0
8 23 0
13 25 1
17 36 30
19 49 74
19 56 108
14 54 110
13 48 105
11 39 92
0 30 83
0 22 66
0 14 49
0 4 43
0 2 43
5 17 51
0 11 44
0 8 39
0 8 37
0 0 35
0 0 31
0 0 28
0 5 35
0 7 37
0 6 42
0 14 50
0 19 58
0 18 57
0 14 54
0 14 48
0 2 41
0 4 37
0 1 36
0 12 46
0 12 43
0 0 14
166 178 194
221 235 255
221 235 255
221 235 255
221 235 255
221 235 255
221 235 255
221 235 255
221 235 255
221 235 255
221 235 255
221 235 255
221 235 255
221 235 255
221 235 255
221 235 255
221 235 255
221 235 255
221 235 255
221 235 255
221 235 255
221 235 255
221 235 255
221 235 255
221 235 255
221 235 255
221 235 255
221 235 255
221 235 255
221 235 255
221 235 255
221 235 255
221 235 255
221 235 255
221 235 255
221 235 255
221 235 255
221 235 255
221 235 255
221 235 255
221 235 255
221 235 255
221 235 255
221 235 255
221 235 255
221 235 255
221 235 255
221 235 255
221 235 255
221 235 255
221 235 255
221 235 255
221 235 255
221 235 255
221 235 255
221 235 255
221 235 255
221 235 255
221 235 255
221 235 255
221 235 255
221 235 255
221 235 255
221 235 255
221 235 255
221 235 255
221 235 255
221 235 255
221 235 255
221 235 255
221 235 255
221 235 255
221 235 255
221 235 255
221 235 255
221 235 255
221 235 255
221 235 255
221 235 255
221 235 255
221 235 255
221 235 255
221 235 255
221 235 255
221 235 255
221 235 255
221 235 255
221 235 255
221 235 255
221 235 255
221 235 255
221 235 255
221 235 255
221 235 255
221 235 255
221 235 255
221 235 255
221 235 255
221 235 255
221 235 255
221 235 255
221 235 255
221 235 255
221 235 255
221 235 255
221 235 255
221 235 255
221 235 255
221 235 255
221 235 255
221 235 255
221 235 255
221 235 255
221 235 255
221 235 255
221 235 255
221 235 255
221 235 255
221 235 255
221 235 255
221 235 255
221 235 255
221 235 255
221 235 255
221 235 255
221 235 255
221 235 255
221 235 255
221 235 255
221 235 255
221 235 255
221 235 255
221 235 255
221 235 255
221 235 255
221 235 255
221 235 255
221 235 255
221 235 255
221 235 255
221 235 255
221 235 255
221 235 255
221 235 255
221 235 255
221 235 255
221 235 255
221 235 255
221 235 255
221 235 255
221 235 255
221 235 255
221 235 255
221 235 255
221 235 255
221 235 255
221 235 255
221 235 255
221 235 255
221 235 255
221 235 255
221 235 255
221 235 255
221 235 255
221 235 255
221 235 255
221 235 255
221 235 255
221 235 255
221 235 255
221 235 255
221 235 255
221 235 255
221 235 255
221 235 255
221 235 255
221 235 255
221 235 255
221 235 255
221 235 255
221 235 255
221 235 255
221 235 255
221 235 255
221 235 255
167 177 193
0 0 26
5 18 54
0 0 26
0 0 22
0 0 16
0 0 15
0 0 16
0 0 16
0 0 16
0 0 16
0 0 20
0 0 22
0 0 26
0 0 27
0 0 30
0 0 32
0 0 34
0 0 32
0 0 31
0 0 30
0 0 30
0 0 30
0 0 31
0 0 27
0 0 31
0 0 31
0 0 28
0 0 27
0 0 27
0 0 27
0 0 27
0 0 27
0 0 27
0 0 27
0 0 27
0 0 27
0 0 27
0 0 27
0 0 27
0 0 27
0 0 27
0 0 27
0 0 27
0 0 27
0 0 31
0 0 32
0 0 35
0 0 35
0 0 35
0 0 35
0 0 35
0 0 35
0 0 35
0 0 37
0 5 40
0 12 43
0 14 43
0 14 45
0 14 45
0 14 42
0 14 42
0 14 42
0 14 42
0 14 42
0 14 43
0 14 44
0 14 44
0 14 44
0 14 45
0 14 45
0 14 47
0 14 48
0 14 48
0 14 49
0 14 53
0 14 53
0 19 54
0 18 54
0 20 56
0 20 57
0 20 57
0 20 57
0 20 57
0 20 57
0 17 57
0 18 56
0 17 57
0 15 56
0 14 55
0 14 55
0 14 56
0 17 56
0 16 56
0 14 54
0 15 55
0 20 61
0 20 62
0 24 64
0 24 63
0 25 65
0 25 66
0 27 70
0 26 70
0 25 71
0 26 74
0 27 75
0 27 77
0 32 82
0 30 79
0 31 81
11 38 88
5 35 87
3 36 87
8 37 88
6 32 81
0 26 71
0 20 63
0 20 61
0 20 63
0 21 61
0 24 64
0 23 63
0 18 60
0 21 63
0 27 71
12 36 83
5 33 80
0 26 67
6 30 68
0 21 58
0 19 55
0 13 53
9 32 81
21 42 95
31 51 79
11 28 20
29 38 17
25 29 11
22 28 11
50 58 42
34 41 24
17 24 4
37 45 19
35 43 14
35 46 14
37 49 18
36 49 17
30 42 12
19 30 0
15 25 0
11 23 0
16 27 0
17 29 0
14 28 0
11 25 0
16 29 0
14 27 0
13 25 0
9 23 0
4 21 0
6 21 0
10 23 0
13 25 0
13 26 0
13 25 0
16 28 4
33 42 16
48 55 26
50 58 28
47 55 30
20 30 8
13 28 0
13 28 0
13 28 0
13 25 0
13 25 0
13 28 0
13 27 0
13 25 0
7 25 0
13 24 3
13 25 0
10 26 3
20 43 51
22 54 98
17 55 111
13 56 121
13 47 105
5 35 92
0 24 71
0 16 52
0 14 46
0 9 42
0 6 39
0 13 44
0 16 47
0 14 45
0 2 39
0 0 32
0 0 28
0 0 31
0 0 32
0 0 39
0 6 44
0 13 51
0 13 51
0 15 51
0 14 47
0 9 42
0 0 36
0 0 31
0 11 40
0 8 38
0 0 14
148 158 172
221 235 255
221 235 255
221 235 255
221 235 255
221 235 255
221 235 255
221 235 255
221 235 255
221 235 255
221 235 255
221 235 255
221 235 255
221 235 255
221 235 255
221 235 255
221 235 255
221 235 255
221 235 255
221 235 255
221 235 255
221 235 255
221 235 255
221 235 255
221 235 255
221 235 255
221 235 255
221 235 255
221 235 255
221 235 255
221 235 255
221 235 255
221 235 255
221 235 255
221 235 255
221 235 255
221 235 255
221 235 255
221 235 255
221 235 255
221 235 255
221 235 255
221 235 255
221 235 255
221 235 255
221 235 255
221 235 255
221 235 255
221 235 255
221 235 255
221 235 255
221 235 255
221 235 255
221 235 255
221 235 255
221 235 255
221 235 255
221 235 255
221 235 255
221 235 255
221 235 255
221 235 255
221 235 255
221 235 255
221 235 255
221 235 255
221 235 255
221 235 255
221 235 255
221 235 255
221 235 255
221 235 255
221 235 255
221 235 255
221 235 255
221 235 255
221 235 255
221 235 255
221 235 255
221 235 255
221 235 255
221 235 255
221 235 255
221 235 255
221 235 255
221 235 255
221 235 255
221 235 255
221 235 255
221 235 255
221 235 255
221 235 255
221 235 255
221 235 255
221 235 255
221 235 255
221 235 255
221 235 255
221 235 255
221 235 255
221 235 255
221 235 255
221 235 255
221 235 255
221 235 255
221 235 255
221 235 255
221 235 255
221 235 255
221 235 255
221 235 255
221 235 255
221 235 255
221 235 255
221 235 255
221 235 255
221 235 255
221 235 255
221 235 255
221 235 255
221 235 255
221 235 255
221 235 255
221 235 255
221 235 255
221 235 255
221 235 255
221 235 255
221 235 255
221 235 255
221 235 255
221 235 255
221 235 255
221 235 255
221 235 255
221 235 255
221 235 255
221 235 255
221 235 255
221 235 255
221 235 255
221 235 255
221 235 255
221 235 255
221 235 255
221 235 255
221 235 255
221 235 255
221 235 255
221 235 255
221 235 255
221 235 255
221 235 255
221 235 255
221 235 255
221 235 255
221 235 255
221 235 255
221 235 255
221 235 255
221 235 255
221 235 255
221 235 255
221 235 255
221 235 255
221 235 255
221 235 255
221 235 255
221 235 255
221 235 255
221 235 255
221 235 255
221 235 255
221 235 255
221 235 255
221 235 255
221 235 255
221 235 255
221 235 255
221 235 255
221 235 255
221 235 255
221 235 255
221 235 255
221 235 255
151 161 175
0 0 23
6 17 52
0 0 27
0 0 21
0 0 16
0 0 16
0 0 16
0 0 16
0 0 16
0 0 18
0 0 24
0 0 26
0 0 27
0 0 28
0 0 31
0 0 32
0 0 35
0 0 34
0 0 33
0 0 32
0 0 32
0 0 32
0 0 32
0 0 30
0 0 31
0 0 30
0 0 27
0 0 27
0 0 27
0 0 27
0 0 27
0 0 27
0 0 27
0 0 27
0 0 27
0 0 27
0 0 27
0 0 27
0 0 27
0 0 27
0 0 27
0 0 27
0 0 27
0 0 27
0 0 31
0 0 33
0 0 35
0 0 35
0 0 35
0 0 35
0 0 35
0 0 35
0 0 37
0 8 40
0 9 43
0 14 45
0 14 45
0 14 46
0 14 47
0 14 44
0 14 44
0 14 45
0 14 44
0 14 45
0 14 45
0 14 45
0 14 45
0 14 45
0 14 45
0 14 45
0 14 47
0 14 48
0 14 49
0 14 50
0 14 53
0 14 53
0 19 54
0 18 54
0 20 56
0 20 57
0 20 57
0 20 57
0 20 57
0 17 57
0 14 55
0 14 55
0 14 55
0 18 57
0 15 55
0 15 55
0 18 57
0 16 55
0 14 54
0 17 56
0 20 61
0 26 68
0 26 68
0 26 68
0 28 69
0 28 69
0 28 71
0 28 73
0 29 75
0 29 77
0 29 78
0 29 79
0 29 80
0 31 79
9 37 86
12 39 89
7 37 86
14 43 93
5 33 82
0 27 75
0 24 71
0 25 67
0 22 62
0 20 59
0 20 63
0 15 56
0 24 64
0 23 64
0 18 59
6 26 68
9 31 75
1 25 71
0 22 68
0 21 64
6 28 65
0 17 57
0 12 54
13 32 78
21 48 102
29 52 107
19 36 65
6 18 13
32 38 22
25 27 14
25 31 13
45 52 34
22 27 11
25 31 7
35 44 18
39 48 20
38 48 15
32 44 14
24 35 3
15 29 0
13 28 0
19 30 0
18 26 0
14 22 0
13 21 0
13 23 0
13 26 0
3 21 0
9 23 0
9 23 0
12 24 0
13 25 0
13 25 0
5 21 0
13 25 0
13 25 0
14 27 0
14 29 0
27 39 11
51 62 30
58 68 36
40 50 25
13 23 3
13 26 0
13 25 0
13 25 0
13 25 0
12 24 0
13 29 0
13 25 0
13 25 0
13 25 0
13 25 0
6 26 0
5 27 0
17 29 26
21 41 74
19 55 108
13 56 123
14 50 111
14 42 99
5 28 76
0 16 57
0 14 49
0 4 36
0 0 35
0 1 35
0 7 36
0 8 40
0 0 36
0 0 33
0 0 28
0 0 31
0 0 35
0 0 38
0 11 46
0 14 52
0 19 56
0 19 54
0 15 51
0 12 44
0 7 39
0 0 32
0 4 32
0 4 31
0 0 13
125 133 146
221 235 255
221 235 255
221 235 255
221 235 255
221 235 255
221 235 255
221 235 255
221 235 255
221 235 255
221 235 255
221 235 255
221 235 255
221 235 255
221 235 255
221 235 255
221 235 255
221 235 255
221 235 255
221 235 255
221 235 255
221 235 255
221 235 255
221 235 255
221 235 255
221 235 255
221 235 255
221 235 255
221 235 255
221 235 255
221 235 255
221 235 255
221 235 255
221 235 255
221 235 255
221 235 255
221 235 255
221 235 255
221 235 255
221 235 255
221 235 255
221 235 255
221 235 255
221 235 255
221 235 255
221 235 255
221 235 255
221 235 255
221 235 255
221 235 255
221 235 255
221 235 255
221 235 255
221 235 255
221 235 255
221 235 255
221 235 255
221 235 255
221 235 255
221 235 255
221 235 255
221 235 255
221 235 255
221 235 255
221 235 255
221 235 255
221 235 255
221 235 255
221 235 255
221 235 255
221 235 255
221 235 255
221 235 255
221 235 255
221 235 255
221 235 255
221 235 255
221 235 255
221 235 255
221 235 255
221 235 255
221 235 255
221 235 255
221 235 255
221 235 255
221 235 255
221 235 255
221 235 255
221 235 255
221 235 255
221 235 255
221 235 255
221 235 255
221 235 255
221 235 255
221 235 255
221 235 255
221 235 255
221 235 255
221 235 255
221 235 255
221 235 255
221 235 255
221 235 255
221 235 255
221 235 255
221 235 255
221 235 255
221 235 255
221 235 255
221 235 255
221 235 255
221 235 255
221 235 255
221 235 255
221 235 255
221 235 255
221 235 255
221 235 255
221 235 255
221 235 255
221 235 255
221 235 255
221 235 255
221 235 255
221 235 255
221 235 255
221 235 255
221 235 255
221 235 255
221 235 255
221 235 255
221 235 255
221 235 255
221 235 255
221 235 255
221 235 255
221 235 255
221 235 255
221 235 255
221 235 255
221 235 255
221 235 255
221 235 255
221 235 255
221 235 255
221 235 255
221 235 255
221 235 255
221 235 255
221 235 255
221 235 255
221 235 255
221 235 255
221 235 255
221 235 255
221 235 255
221 235 255
221 235 255
221 235 255
221 235 255
221 235 255
221 235 255
221 235 255
221 235 255
221 235 255
221 235 255
221 235 255
221 235 255
221 235 255
221 235 255
221 235 255
221 235 255
221 235 255
221 235 255
221 235 255
221 235 255
221 235 255
221 235 255
221 235 255
221 235 255
221 235 255
221 235 255
221 235 255
221 235 255
129 137 149
0 0 19
7 20 56
0 0 27
0 0 20
0 0 16
0 0 16
0 0 16
0 0 16
0 0 17
0 0 19
0 0 24
0 0 26
0 0 27
0 0 28
0 0 31
0 0 32
0 0 33
0 0 33
0 0 33
0 0 32
0 0 32
0 0 32
0 0 33
0 0 32
0 0 31
0 0 32
0 0 30
0 0 29
0 0 27
0 0 27
0 0 27
0 0 27
0 0 27
0 0 27
0 0 27
0 0 27
0 0 25
0 0 24
0 0 26
0 0 24
0 0 24
0 0 25
0 0 26
0 0 29
0 0 31
0 0 33
0 0 35
0 0 35
0 0 35
0 0 37
0 0 38
0 0 38
0 0 39
0 9 40
0 13 44
0 14 45
0 14 45
0 14 45
0 14 45
0 14 43
0 14 43
0 14 43
0 14 45
0 14 45
0 14 45
0 14 45
0 14 45
0 14 45
0 14 46
0 14 47
0 14 47
0 14 48
0 14 50
0 14 50
0 14 53
0 14 53
0 16 55
0 19 56
0 20 57
0 20 57
0 20 58
0 20 57
0 19 57
0 19 57
0 19 57
0 20 57
0 20 58
0 20 59
0 20 62
0 22 64
0 22 64
0 22 63
0 21 62
0 25 67
0 27 69
0 29 74
0 29 74
0 29 75
0 29 75
0 29 76
0 29 75
0 28 77
0 28 78
0 29 79
0 29 79
0 30 82
1 33 84
9 37 86
9 37 87
6 34 84
9 36 86
6 32 80
0 22 68
0 25 69
0 23 66
0 23 65
0 22 64
0 20 61
0 19 59
0 15 54
0 20 58
0 20 58
0 15 54
5 25 66
8 30 71
0 22 65
0 20 64
0 24 62
0 19 52
0 18 56
1 19 64
20 49 100
25 54 93
22 46 69
6 22 22
14 23 7
24 31 14
15 24 6
26 35 15
34 44 24
17 28 4
18 30 0
21 33 3
26 39 7
29 41 10
28 41 10
19 33 0
16 29 0
14 29 0
17 29 0
15 27 0
11 23 0
11 22 0
12 23 0
12 21 0
11 24 0
7 22 0
0 20 0
6 22 0
13 25 0
13 26 0
12 24 0
13 25 0
12 25 0
14 27 0
16 31 0
23 37 6
46 57 28
38 47 16
37 47 17
35 46 22
7 23 0
12 26 0
13 27 0
11 25 0
8 25 0
12 27 0
12 25 0
13 25 0
13 26 0
14 25 0
2 26 0
0 27 0
18 29 15
29 40 46
16 43 73
16 54 114
19 57 119
17 47 105
4 29 78
0 17 58
0 14 51
0 10 39
0 0 35
0 0 34
0 0 32
0 0 35
0 0 35
0 0 32
0 0 29
0 0 33
0 0 35
0 4 38
0 6 42
0 14 51
0 17 55
0 21 58
0 15 51
0 14 48
0 5 41
0 2 34
0 0 28
0 0 26
0 0 15
136 145 158
221 235 255
221 235 255
221 235 255
221 235 255
221 235 255
221 235 255
221 235 255
221 235 255
221 235 255
221 235 255
221 235 255
221 235 255
221 235 255
221 235 255
221 235 255
221 235 255
221 235 255
221 235 255
221 235 255
221 235 255
221 235 255
221 235 255
221 235 255
221 235 255
221 235 255
221 235 255
221 235 255
221 235 255
221 235 255
221 235 255
221 235 255
221 235 255
221 235 255
221 235 255
221 235 255
221 235 255
221 235 255
221 235 255
221 235 255
221 235 255
221 235 255
221 235 255
221 235 255
221 235 255
221 235 255
221 235 255
221 235 255
221 235 255
221 235 255
221 235 255
221 235 255
221 235 255
221 235 255
221 235 255
221 235 255
221 235 255
221 235 255
221 235 255
221 235 255
221 235 255
221 235 255
221 235 255
221 235 255
221 235 255
221 235 255
221 235 255
221 235 255
221 235 255
221 235 255
221 235 255
221 235 255
221 235 255
221 235 255
221 235 255
221 235 255
221 235 255
221 235 255
221 235 255
221 235 255
221 235 255
221 235 255
221 235 255
221 235 255
221 235 255
221 235 255
221 235 255
221 235 255
221 235 255
221 235 255
221 235 255
221 235 255
221 235 255
221 235 255
221 235 255
221 235 255
221 235 255
221 235 255
221 235 255
221 235 255
221 235 255
221 235 255
221 235 255
221 235 255
221 235 255
221 235 255
221 235 255
221 235 255
221 235 255
221 235 255
221 235 255
221 235 255
221 235 255
221 235 255
221 235 255
221 235 255
221 235 255
221 235 255
221 235 255
221 235 255
221 235 255
221 235 255
221 235 255
221 235 255
221 235 255
221 235 255
221 235 255
221 235 255
221 235 255
221 235 255
221 235 255
221 235 255
221 235 255
221 235 255
221 235 255
221 235 255
221 235 255
221 235 255
221 235 255
221 235 255
221 235 255
221 235 255
221 235 255
221 235 255
221 235 255
221 235 255
221 235 255
221 235 255
221 235 255
221 235 255
221 235 255
221 235 255
221 235 255
221 235 255
221 235 255
221 235 255
221 235 255
221 235 255
221 235 255
221 235 255
221 235 255
221 235 255
221 235 255
221 235 255
221 235 255
221 235 255
221 235 255
221 235 255
221 235 255
221 235 255
221 235 255
221 235 255
221 235 255
221 235 255
221 235 255
221 235 255
221 235 255
221 235 255
221 235 255
221 235 255
221 235 255
221 235 255
221 235 255
221 235 255
221 235 255
119 127 138
0 0 13
5 18 51
0 4 32
0 0 17
0 0 16
0 0 20
0 0 20
0 0 16
0 0 19
0 0 22
0 0 22
0 0 26
0 0 27
0 0 27
0 0 29
0 0 32
0 0 32
0 0 32
0 0 32
0 0 32
0 0 32
0 0 32
0 0 32
0 0 32
0 0 32
0 0 33
0 0 32
0 0 31
0 0 27
0 0 27
0 0 27
0 0 27
0 0 27
0 0 27
0 0 23
0 0 23
0 0 22
0 0 22
0 0 22
0 0 22
0 0 23
0 0 26
0 0 27
0 0 31
0 0 32
0 0 33
0 0 35
0 0 35
0 0 38
0 0 39
0 0 39
0 0 39
0 0 39
0 10 40
0 14 44
0 14 45
0 14 45
0 14 45
0 14 45
0 14 42
0 14 42
0 14 43
0 14 45
0 14 45
0 14 45
0 14 45
0 14 46
0 14 46
0 14 48
0 14 48
0 14 48
0 14 48
0 14 50
0 14 50
0 14 53
0 14 53
0 14 55
0 19 57
0 20 57
0 20 57
0 20 57
0 16 55
0 15 55
0 20 58
0 25 62
0 25 62
0 20 59
0 21 59
0 23 64
0 25 66
0 25 67
0 26 68
0 25 68
0 29 71
0 28 71
0 28 72
0 29 74
0 29 74
0 28 75
0 29 77
0 29 77
0 29 79
0 32 80
0 32 81
0 33 83
0 34 86
1 35 86
4 34 84
2 29 79
4 30 80
0 26 75
0 28 75
0 25 73
0 25 69
0 24 65
0 24 66
0 25 65
0 25 65
0 23 61
0 20 58
0 20 56
0 15 54
0 16 54
0 22 61
0 25 65
0 20 62
0 17 61
0 23 60
0 20 57
2 21 60
11 42 90
23 54 100
12 38 55
5 26 17
13 25 0
24 33 10
27 38 15
22 34 8
39 51 30
34 45 24
24 36 13
26 41 13
21 34 2
20 33 0
28 42 12
23 36 3
15 30 0
18 31 0
17 30 0
13 28 0
13 27 0
4 21 0
8 22 0
12 23 0
5 20 0
13 25 0
9 23 0
9 23 0
11 24 0
13 25 0
13 25 0
13 25 0
5 21 0
12 24 0
13 25 0
14 27 0
19 32 0
25 34 7
21 29 2
39 50 23
29 40 16
10 24 0
13 28 0
13 28 0
11 26 0
10 26 0
15 30 4
14 25 0
13 25 0
13 25 0
14 25 0
6 25 0
8 26 0
10 24 0
50 63 44
32 49 36
17 40 71
22 56 117
18 52 114
2 31 82
0 18 58
0 11 50
0 7 41
0 0 34
0 0 33
0 0 31
0 0 32
0 0 35
0 0 33
0 0 35
0 0 35
0 0 36
0 11 41
0 5 39
0 14 50
0 18 57
0 23 66
0 20 59
0 14 50
0 11 45
0 3 39
0 0 30
0 0 23
0 0 13
132 141 154
221 235 255
221 235 255
221 235 255
221 235 255
221 235 255
221 235 255
221 235 255
221 235 255
221 235 255
221 235 255
221 235 255
221 235 255
221 235 255
221 235 255
221 235 255
221 235 255
221 235 255
221 235 255
221 235 255
221 235 255
221 235 255
221 235 255
221 235 255
221 235 255
221 235 255
221 235 255
221 235 255
221 235 255
221 235 255
221 235 255
221 235 255
221 235 255
221 235 255
221 235 255
221 235 255
221 235 255
221 235 255
221 235 255
221 235 255
221 235 255
221 235 255
221 235 255
221 235 255
221 235 255
221 235 255
221 235 255
221 235 255
221 235 255
221 235 255
221 235 255
221 235 255
221 235 255
221 235 255
221 235 255
221 235 255
221 235 255
221 235 255
221 235 255
221 235 255
221 235 255
221 235 255
221 235 255
221 235 255
221 235 255
221 235 255
221 235 255
221 235 255
221 235 255
221 235 255
221 235 255
221 235 255
221 235 255
221 235 255
221 235 255
221 235 255
221 235 255
221 235 255
221 235 255
221 235 255
221 235 255
221 235 255
221 235 255
221 235 255
221 235 255
221 235 255
221 235 255
221 235 255
221 235 255
221 235 255
221 235 255
221 235 255
221 235 255
221 235 255
221 235 255
221 235 255
221 235 255
221 235 255
221 235 255
221 235 255
221 235 255
221 235 255
221 235 255
221 235 255
221 235 255
221 235 255
221 235 255
221 235 255
221 235 255
221 235 255
221 235 255
221 235 255
221 235 255
221 235 255
221 235 255
221 235 255
221 235 255
221 235 255
221 235 255
221 235 255
221 235 255
221 235 255
221 235 255
221 235 255
221 235 255
221 235 255
221 235 255
221 235 255
221 235 255
221 235 255
221 235 255
221 235 255
221 235 255
221 235 255
221 235 255
221 235 255
221 235 255
221 235 255
221 235 255
221 235 255
221 235 255
221 235 255
221 235 255
221 235 255
221 235 255
221 235 255
221 235 255
221 235 255
221 235 255
221 235 255
221 235 255
221 235 255
221 235 255
221 235 255
221 235 255
221 235 255
221 235 255
221 235 255
221 235 255
221 235 255
221 235 255
221 235 255
221 235 255
221 235 255
221 235 255
221 235 255
221 235 255
221 235 255
221 235 255
221 235 255
221 235 255
221 235 255
221 235 255
221 235 255
221 235 255
221 235 255
221 235 255
221 235 255
221 235 255
221 235 255
221 235 255
221 235 255
221 235 255
221 235 255
221 235 255
129 137 149
0 0 14
4 12 43
9 15 42
0 0 18
0 0 18
0 0 25
0 0 23
0 0 20
0 0 22
0 0 23
0 0 23
0 0 27
0 0 29
0 0 29
0 0 29
0 0 29
0 0 31
0 0 32
0 0 32
0 0 32
0 0 30
0 0 31
0 0 32
0 0 32
0 0 32
0 0 34
0 0 32
0 0 32
0 0 27
0 0 27
0 0 27
0 0 27
0 0 27
0 0 27
0 0 22
0 0 22
0 0 22
0 0 22
0 0 22
0 0 23
0 0 25
0 0 24
0 0 25
0 0 31
0 0 32
0 0 33
0 0 35
0 0 35
0 0 38
0 0 39
0 0 39
0 0 39
0 0 39
0 10 40
0 14 43
0 14 45
0 14 45
0 14 45
0 14 45
0 14 42
0 14 42
0 14 43
0 14 45
0 14 45
0 14 46
0 14 48
0 14 48
0 14 48
0 14 48
0 14 48
0 14 48
0 14 48
0 14 50
0 14 50
0 14 53
0 14 53
0 14 55
0 19 57
0 20 57
0 21 57
0 20 57
0 18 56
0 15 55
0 18 57
0 22 59
0 22 59
0 20 57
0 18 56
0 19 59
0 21 62
0 24 64
0 25 64
0 23 63
0 24 63
0 23 64
0 23 66
0 26 68
0 25 70
0 26 73
0 28 74
0 29 74
0 30 78
0 32 81
0 30 79
0 33 82
0 36 87
0 35 86
0 36 85
0 30 78
0 27 77
0 28 77
0 28 75
0 26 75
0 28 72
0 25 68
0 22 65
0 25 67
0 25 67
0 22 62
0 18 57
0 15 55
0 14 54
0 14 54
0 19 58
0 20 61
0 18 59
0 18 62
0 19 62
0 18 59
8 36 81
17 52 101
17 49 86
16 34 34
15 30 10
21 30 6
36 46 21
24 34 9
20 33 7
22 32 8
23 33 10
30 43 16
30 44 16
25 40 10
18 32 0
22 36 5
21 34 1
18 32 0
17 30 0
14 29 0
14 27 0
13 26 0
5 21 0
12 24 0
10 23 0
4 21 0
13 25 0
13 25 0
13 25 0
13 25 0
13 25 0
13 25 0
14 25 0
13 25 0
12 24 0
12 24 0
13 26 0
17 31 0
19 30 0
20 27 0
19 28 0
17 27 0
13 28 0
13 29 0
13 27 0
13 28 0
11 27 5
29 44 19
11 26 0
13 25 0
13 26 0
7 25 0
12 24 0
13 22 0
10 24 0
37 53 21
75 86 43
51 58 43
25 48 102
17 56 123
13 47 101
1 25 66
0 17 53
0 13 44
0 4 36
0 1 31
0 0 31
0 0 33
0 0 32
0 0 32
0 0 33
0 0 35
0 7 38
0 6 40
0 6 42
0 14 49
0 21 59
0 24 67
0 21 63
0 15 52
0 14 48
0 14 45
0 4 36
0 0 25
0 0 12
125 133 145
221 235 255
221 235 255
221 235 255
221 235 255
221 235 255
221 235 255
221 235 255
221 235 255
221 235 255
221 235 255
221 235 255
221 235 255
221 235 255
221 235 255
221 235 255
221 235 255
221 235 255
221 235 255
221 235 255
221 235 255
221 235 255
221 235 255
221 235 255
221 235 255
221 235 255
221 235 255
221 235 255
221 235 255
221 235 255
221 235 255
221 235 255
221 235 255
221 235 255
221 235 255
221 235 255
221 235 255
221 235 255
221 235 255
221 235 255
221 235 255
221 235 255
221 235 255
221 235 255
221 235 255
221 235 255
221 235 255
221 235 255
221 235 255
221 235 255
221 235 255
221 235 255
221 235 255
221 235 255
221 235 255
221 235 255
221 235 255
221 235 255
221 235 255
221 235 255
221 235 255
221 235 255
221 235 255
221 235 255
221 235 255
221 235 255
221 235 255
221 235 255
221 235 255
221 235 255
221 235 255
221 235 255
221 235 255
221 235 255
221 235 255
221 235 255
221 235 255
221 235 255
221 235 255
221 235 255
221 235 255
221 235 255
221 235 255
221 235 255
221 235 255
221 235 255
221 235 255
221 235 255
221 235 255
221 235 255
221 235 255
221 235 255
221 235 255
221 235 255
221 235 255
221 235 255
221 235 255
221 235 255
221 235 255
221 235 255
221 235 255
221 235 255
221 235 255
221 235 255
221 235 255
221 235 255
221 235 255
221 235 255
221 235 255
221 235 255
221 235 255
221 235 255
221 235 255
221 235 255
221 235 255
221 235 255
221 235 255
221 235 255
221 235 255
221 235 255
221 235 255
221 235 255
221 235 255
221 235 255
221 235 255
221 235 255
221 235 255
221 235 255
221 235 255
221 235 255
221 235 255
221 235 255
221 235 255
221 235 255
221 235 255
221 235 255
221 235 255
221 235 255
221 235 255
221 235 255
221 235 255
221 235 255
221 235 255
221 235 255
221 235 255
221 235 255
221 235 255
221 235 255
221 235 255
221 235 255
221 235 255
221 235 255
221 235 255
221 235 255
221 235 255
221 235 255
221 235 255
221 235 255
221 235 255
221 235 255
221 235 255
221 235 255
221 235 255
221 235 255
221 235 255
221 235 255
221 235 255
221 235 255
221 235 255
221 235 255
221 235 255
221 235 255
221 235 255
221 235 255
221 235 255
221 235 255
221 235 255
221 235 255
221 235 255
221 235 255
221 235 255
221 235 255
221 235 255
221 235 255
221 235 255
127 135 147
0 0 13
1 9 37
10 17 45
0 0 20
0 0 26
0 0 32
0 0 28
0 0 24
0 0 27
0 0 29
0 0 27
0 0 27
0 0 31
0 0 30
0 0 28
0 0 27
0 0 29
0 0 29
0 0 32
0 0 32
0 0 29
0 0 31
0 0 32
0 0 32
0 0 32
0 0 32
0 0 32
0 0 32
0 0 27
0 0 27
0 0 27
0 0 27
0 0 27
0 0 27
0 0 23
0 0 22
0 0 22
0 0 22
0 0 23
0 0 25
0 0 27
0 0 27
0 0 27
0 0 29
0 0 31
0 0 34
0 0 35
0 0 35
0 0 38
0 0 39
0 4 39
0 11 41
0 11 41
0 10 42
0 8 43
0 9 43
0 8 43
0 9 43
0 10 43
0 14 42
0 14 42
0 14 43
0 14 45
0 14 45
0 14 47
0 14 48
0 14 48
0 14 48
0 14 48
0 14 48
0 14 48
0 14 48
0 14 50
0 14 50
0 14 53
0 14 53
0 14 55
0 16 56
0 20 57
0 20 58
0 20 59
0 20 58
0 15 55
0 14 55
0 14 55
0 14 55
0 14 55
0 14 54
0 14 56
0 17 58
0 20 60
0 21 61
0 20 59
0 20 60
0 20 60
0 20 62
0 23 64
0 25 66
0 25 69
0 27 72
0 29 74
0 29 76
0 32 80
3 31 80
3 31 82
0 34 84
0 35 86
0 35 84
0 32 81
0 31 80
0 27 76
0 29 76
0 29 75
0 28 73
0 25 70
0 25 69
0 28 71
0 25 67
0 21 61
0 14 56
0 14 55
0 14 56
0 15 57
0 17 59
0 17 59
0 16 58
0 19 61
0 17 61
6 25 69
22 51 94
28 61 99
15 41 63
19 28 19
17 25 3
28 35 9
29 36 16
23 32 14
15 27 4
23 34 9
28 41 17
24 37 11
22 35 6
21 37 6
17 32 0
14 28 0
18 30 0
19 31 0
18 29 0
14 29 0
13 27 0
13 25 0
13 25 0
13 25 0
7 22 0
12 23 0
13 25 0
13 25 0
11 24 0
10 23 0
14 25 0
13 25 0
12 24 0
14 25 0
13 25 0
13 25 0
13 28 0
13 27 0
17 29 0
18 28 0
17 26 0
13 26 0
13 27 0
14 27 0
13 27 0
13 27 0
13 27 1
23 38 14
11 25 0
12 25 0
12 25 0
2 27 0
11 22 0
14 18 0
13 26 7
19 32 7
58 56 18
83 76 43
25 40 72
18 57 119
16 57 112
10 38 85
4 20 61
0 15 49
0 10 40
0 5 34
0 0 32
0 0 35
0 0 35
0 0 35
0 2 36
0 6 37
0 8 38
0 10 41
0 10 43
0 16 49
0 19 57
0 23 64
0 20 60
0 16 55
0 15 50
0 16 50
0 6 36
0 0 25
0 0 16
112 120 131
221 235 255
221 235 255
221 235 255
221 235 255
221 235 255
221 235 255
221 235 255
221 235 255
221 235 255
221 235 255
221 235 255
221 235 255
221 235 255
221 235 255
221 235 255
221 235 255
221 235 255
221 235 255
221 235 255
221 235 255
221 235 255
221 235 255
221 235 255
221 235 255
221 235 255
221 235 255
221 235 255
221 235 255
221 235 255
221 235 255
221 235 255
221 235 255
221 235 255
221 235 255
221 235 255
221 235 255
221 235 255
221 235 255
221 235 255
221 235 255
221 235 255
221 235 255
221 235 255
221 235 255
221 235 255
221 235 255
221 235 255
221 235 255
221 235 255
221 235 255
221 235 255
221 235 255
221 235 255
221 235 255
221 235 255
221 235 255
221 235 255
221 235 255
221 235 255
221 235 255
221 235 255
221 235 255
221 235 255
221 235 255
221 235 255
221 235 255
221 235 255
221 235 255
221 235 255
221 235 255
221 235 255
221 235 255
221 235 255
221 235 255
221 235 255
221 235 255
221 235 255
221 235 255
221 235 255
221 235 255
221 235 255
221 235 255
221 235 255
221 235 255
221 235 255
221 235 255
221 235 255
221 235 255
221 235 255
221 235 255
221 235 255
221 235 255
221 235 255
221 235 255
221 235 255
221 235 255
221 235 255
221 235 255
221 235 255
221 235 255
221 235 255
221 235 255
221 235 255
221 235 255
221 235 255
221 235 255
221 235 255
221 235 255
221 235 255
221 235 255
221 235 255
221 235 255
221 235 255
221 235 255
221 235 255
221 235 255
221 235 255
221 235 255
221 235 255
221 235 255
221 235 255
221 235 255
221 235 255
221 235 255
221 235 255
221 235 255
221 235 255
221 235 255
221 235 255
221 235 255
221 235 255
221 235 255
221 235 255
221 235 255
221 235 255
221 235 255
221 235 255
221 235 255
221 235 255
221 235 255
221 235 255
221 235 255
221 235 255
221 235 255
221 235 255
221 235 255
221 235 255
221 235 255
221 235 255
221 235 255
221 235 255
221 235 255
221 235 255
221 235 255
221 235 255
221 235 255
221 235 255
221 235 255
221 235 255
221 235 255
221 235 255
221 235 255
221 235 255
221 235 255
221 235 255
221 235 255
221 235 255
221 235 255
221 235 255
221 235 255
221 235 255
221 235 255
221 235 255
221 235 255
221 235 255
221 235 255
221 235 255
221 235 255
221 235 255
221 235 255
221 235 255
221 235 255
221 235 255
221 235 255
99 105 114
0 0 17
0 2 27
0 11 38
0 0 22
0 0 31
0 6 37
0 0 30
0 0 30
0 0 31
0 0 30
0 0 27
0 0 30
0 0 31
0 0 30
0 0 27
0 0 30
0 0 30
0 0 30
0 0 32
0 0 32
0 0 32
0 0 32
0 0 32
0 0 32
0 0 32
0 0 32
0 0 32
0 0 32
0 0 27
0 0 27
0 0 27
0 0 27
0 0 27
0 0 27
0 0 27
0 0 25
0 0 23
0 0 24
0 0 27
0 0 28
0 0 27
0 0 28
0 0 29
0 0 31
0 0 32
0 0 35
0 0 36
0 0 38
0 0 39
0 0 39
0 4 39
0 10 40
0 10 40
0 7 41
0 0 42
0 0 42
0 0 42
0 0 42
0 5 42
0 14 42
0 14 42
0 14 43
0 14 45
0 14 45
0 14 46
0 14 48
0 14 48
0 14 48
0 14 48
0 14 48
0 14 48
0 14 48
0 14 49
0 14 51
0 14 53
0 14 53
0 14 55
0 14 55
0 20 57
0 20 57
0 20 58
0 20 57
0 20 57
0 20 57
0 20 57
0 18 56
0 17 56
0 15 55
0 14 55
0 15 56
0 16 57
0 19 57
0 16 56
0 18 56
0 17 56
0 15 56
0 20 58
0 21 61
0 23 64
0 25 66
0 26 69
0 25 71
0 29 76
4 31 79
8 34 83
13 38 87
4 35 85
0 35 85
0 32 83
0 33 83
0 30 79
0 32 79
0 28 76
0 28 73
0 26 71
0 25 70
0 26 69
0 23 65
0 20 62
0 15 57
0 14 54
0 14 57
0 17 59
0 19 61
0 19 61
0 20 62
0 21 64
2 14 60
24 45 90
28 52 85
13 39 54
15 34 37
16 25 11
16 25 0
31 41 20
42 52 40
21 31 17
21 33 10
27 41 16
22 36 11
20 34 5
18 33 0
14 31 0
18 34 0
17 30 0
18 31 0
16 29 0
13 28 0
13 26 0
13 25 0
13 25 0
13 25 0
13 25 0
5 21 0
1 21 0
11 24 0
13 25 0
11 24 0
13 25 0
13 25 0
11 24 0
5 21 0
10 23 0
12 25 0
13 26 0
13 27 0
13 27 0
16 29 0
22 31 0
19 30 0
14 28 0
13 25 0
13 25 0
13 26 0
13 26 0
6 23 0
11 26 0
7 24 0
6 22 0
7 23 0
3 25 0
7 22 0
12 20 0
18 27 7
25 32 9
60 51 25
90 80 49
39 47 50
19 57 107
14 56 114
21 54 112
6 26 74
0 14 54
0 12 47
0 0 37
0 0 35
0 0 35
0 0 35
0 0 34
0 2 33
0 5 33
0 3 31
0 11 37
0 6 36
0 12 42
0 22 56
0 22 59
0 18 55
0 13 50
0 14 48
0 15 49
0 9 42
0 8 33
0 0 19
103 110 121
221 235 255
221 235 255
221 235 255
221 235 255
221 235 255
221 235 255
221 235 255
221 235 255
221 235 255
221 235 255
221 235 255
221 235 255
221 235 255
221 235 255
221 235 255
221 235 255
221 235 255
221 235 255
221 235 255
221 235 255
221 235 255
221 235 255
221 235 255
221 235 255
221 235 255
221 235 255
221 235 255
221 235 255
221 235 255
221 235 255
221 235 255
221 235 255
221 235 255
221 235 255
221 235 255
221 235 255
221 235 255
221 235 255
221 235 255
221 235 255
221 235 255
221 235 255
221 235 255
221 235 255
221 235 255
221 235 255
221 235 255
221 235 255
221 235 255
221 235 255
221 235 255
221 235 255
221 235 255
221 235 255
221 235 255
221 235 255
221 235 255
221 235 255
221 235 255
221 235 255
221 235 255
221 235 255
221 235 255
221 235 255
221 235 255
221 235 255
221 235 255
221 235 255
221 235 255
221 235 255
221 235 255
221 235 255
221 235 255
221 235 255
221 235 255
221 235 255
221 235 255
221 235 255
221 235 255
221 235 255
221 235 255
221 235 255
221 235 255
221 235 255
221 235 255
221 235 255
221 235 255
221 235 255
221 235 255
221 235 255
221 235 255
221 235 255
221 235 255
221 235 255
221 235 255
221 235 255
221 235 255
221 235 255
221 235 255
221 235 255
221 235 255
221 235 255
221 235 255
221 235 255
221 235 255
221 235 255
221 235 255
221 235 255
221 235 255
221 235 255
221 235 255
221 235 255
221 235 255
221 235 255
221 235 255
221 235 255
221 235 255
221 235 255
221 235 255
221 235 255
221 235 255
221 235 255
221 235 255
221 235 255
221 235 255
221 235 255
221 235 255
221 235 255
221 235 255
221 235 255
221 235 255
221 235 255
221 235 255
221 235 255
221 235 255
221 235 255
221 235 255
221 235 255
221 235 255
221 235 255
221 235 255
221 235 255
221 235 255
221 235 255
221 235 255
221 235 255
221 235 255
221 235 255
221 235 255
221 235 255
221 235 255
221 235 255
221 235 255
221 235 255
221 235 255
221 235 255
221 235 255
221 235 255
221 235 255
221 235 255
221 235 255
221 235 255
221 235 255
221 235 255
221 235 255
221 235 255
221 235 255
221 235 255
221 235 255
221 235 255
221 235 255
221 235 255
221 235 255
221 235 255
221 235 255
221 235 255
221 235 255
221 235 255
221 235 255
221 235 255
221 235 255
221 235 255
221 235 255
221 235 255
108 115 126
0 0 14
0 4 27
0 5 34
0 0 24
0 4 33
0 13 42
0 0 32
0 0 33
0 0 33
0 0 32
0 0 30
0 0 31
0 0 32
0 0 31
0 0 30
0 0 32
0 0 32
0 0 32
0 0 32
0 0 32
0 0 32
0 0 32
0 0 33
0 0 33
0 0 32
0 0 32
0 0 32
0 0 32
0 0 27
0 0 27
0 0 27
0 0 27
0 0 27
0 0 27
0 0 26
0 0 25
0 0 25
0 0 26
0 0 29
0 0 29
0 0 28
0 0 31
0 0 32
0 0 32
0 0 32
0 0 35
0 0 37
0 0 39
0 0 39
0 0 39
0 0 39
0 0 39
0 0 39
0 0 40
0 0 42
0 0 42
0 0 42
0 0 42
0 6 42
0 14 42
0 14 42
0 14 43
0 14 45
0 14 45
0 14 47
0 14 48
0 14 48
0 14 48
0 14 48
0 14 48
0 14 48
0 14 48
0 14 49
0 14 51
0 14 53
0 14 53
0 14 55
0 14 55
0 20 57
0 20 58
0 20 58
0 20 57
0 20 57
0 20 57
0 20 57
0 20 57
0 20 57
0 20 57
0 15 56
0 14 56
0 14 56
0 17 57
0 18 57
0 19 57
0 20 56
0 20 55
0 21 57
0 21 58
0 21 61
0 22 62
0 24 65
0 25 70
0 25 69
0 24 70
0 25 71
7 33 82
12 37 86
0 34 83
0 33 82
0 32 81
0 29 78
0 28 75
0 25 73
0 27 73
0 25 72
0 25 69
0 25 68
0 21 64
0 20 63
0 17 59
0 14 57
0 19 60
0 21 63
0 18 61
0 20 64
6 28 71
0 24 66
9 26 71
31 53 96
12 32 53
18 31 25
15 26 6
23 33 11
37 50 21
29 41 16
33 43 26
24 35 14
16 27 0
15 29 0
11 27 0
11 27 0
18 34 0
15 33 0
14 31 0
17 30 0
14 29 0
14 27 0
14 25 0
13 25 0
13 27 0
13 25 0
13 25 0
13 25 0
9 23 0
0 20 0
0 17 0
10 23 0
11 24 0
7 22 0
12 24 0
8 22 0
6 21 0
12 24 0
14 28 0
6 21 0
13 26 0
14 27 0
15 26 0
18 29 0
15 27 0
13 27 0
13 26 0
14 25 0
14 29 0
13 25 0
0 23 0
13 27 0
8 23 0
10 24 0
7 22 0
12 25 0
7 25 0
10 23 0
25 30 0
37 38 5
61 53 32
82 75 50
48 58 45
15 49 91
16 56 119
17 54 119
19 54 115
11 34 82
0 16 57
0 11 45
0 7 40
0 7 40
0 8 39
0 4 36
0 4 33
0 0 29
0 0 28
0 0 23
0 0 27
0 2 29
0 9 37
0 9 43
0 10 43
0 12 45
0 14 46
0 14 48
0 13 45
0 4 31
5 10 31
91 97 109
221 235 255
221 235 255
221 235 255
221 235 255
221 235 255
221 235 255
221 235 255
221 235 255
221 235 255
221 235 255
221 235 255
221 235 255
221 235 255
221 235 255
221 235 255
221 235 255
221 235 255
221 235 255
221 235 255
221 235 255
221 235 255
221 235 255
221 235 255
221 235 255
221 235 255
221 235 255
221 235 255
221 235 255
221 235 255
221 235 255
221 235 255
221 235 255
221 235 255
221 235 255
221 235 255
221 235 255
221 235 255
221 235 255
221 235 255
221 235 255
221 235 255
221 235 255
221 235 255
221 235 255
221 235 255
221 235 255
221 235 255
221 235 255
221 235 255
221 235 255
221 235 255
221 235 255
221 235 255
221 235 255
221 235 255
221 235 255
221 235 255
221 235 255
221 235 255
221 235 255
221 235 255
221 235 255
221 235 255
221 235 255
221 235 255
221 235 255
221 235 255
221 235 255
221 235 255
221 235 255
221 235 255
221 235 255
221 235 255
221 235 255
221 235 255
221 235 255
221 235 255
221 235 255
221 235 255
221 235 255
221 235 255
221 235 255
221 235 255
221 235 255
221 235 255
221 235 255
221 235 255
221 235 255
221 235 255
221 235 255
221 235 255
221 235 255
221 236 255
221 236 255
221 236 255
221 236 255
221 236 255
221 236 255
221 236 255
221 236 255
221 236 255
221 236 255
221 236 255
221 236 255
221 236 255
221 236 255
221 236 255
221 236 255
221 236 255
221 236 255
221 236 255
221 236 255
221 236 255
221 236 255
221 236 255
221 236 255
221 236 255
221 236 255
221 236 255
221 236 255
221 236 255
221 236 255
221 236 255
221 236 255
221 236 255
221 236 255
221 236 255
221 236 255
221 236 255
221 236 255
221 236 255
221 236 255
221 236 255
221 236 255
221 236 255
221 236 255
221 236 255
221 236 255
221 236 255
221 236 255
221 236 255
221 236 255
221 236 255
221 236 255
221 236 255
221 236 255
221 236 255
221 236 255
221 236 255
221 236 255
221 236 255
221 236 255
221 236 255
221 236 255
221 236 255
221 236 255
221 236 255
221 236 255
221 236 255
221 236 255
221 236 255
221 236 255
221 236 255
221 236 255
221 236 255
221 236 255
221 236 255
221 236 255
221 236 255
221 236 255
221 236 255
221 236 255
221 236 255
221 236 255
221 236 255
221 236 255
221 236 255
221 236 255
221 236 255
221 236 255
221 236 255
221 236 255
221 236 255
221 236 255
99 105 115
0 0 15
0 0 18
0 7 35
0 0 22
0 2 25
0 7 35
0 4 32
0 0 32
0 0 33
0 0 33
0 0 30
0 0 31
0 0 32
0 0 32
0 0 32
0 0 32
0 0 32
0 0 32
0 0 32
0 0 32
0 0 32
0 4 33
0 4 34
0 0 33
0 0 33
0 0 32
0 0 32
0 0 32
0 0 29
0 0 28
0 0 27
0 0 27
0 0 24
0 0 24
0 0 22
0 0 22
0 0 19
0 0 20
0 0 24
0 0 27
0 0 28
0 0 31
0 0 32
0 0 34
0 0 34
0 0 35
0 0 35
0 0 37
0 0 36
0 0 37
0 0 37
0 0 37
0 0 37
0 0 38
0 0 40
0 0 39
0 0 40
0 0 40
0 0 39
0 12 41
0 14 42
0 14 44
0 14 45
0 14 47
0 14 46
0 14 46
0 14 46
0 14 46
0 14 46
0 14 46
0 14 46
0 14 47
0 14 48
0 14 49
0 14 51
0 14 52
0 15 55
0 18 56
0 20 57
0 20 58
0 20 59
0 20 58
0 21 58
0 21 59
0 20 58
0 20 58
0 20 57
0 21 57
0 20 57
0 18 57
0 18 57
0 20 57
0 20 57
0 20 57
0 20 58
0 19 58
0 17 56
0 19 57
0 21 59
0 20 61
0 22 65
0 22 65
0 20 58
11 32 68
6 29 66
13 39 83
14 41 90
5 40 91
0 36 88
0 34 85
0 31 82
0 27 79
0 26 77
0 25 74
0 25 72
0 25 70
0 25 69
0 22 68
0 22 68
0 20 64
0 16 61
0 20 66
0 26 75
9 32 80
15 40 89
17 43 92
0 29 77
19 47 92
29 57 88
21 44 43
27 41 17
23 28 0
41 50 30
34 45 23
14 26 1
17 31 5
19 32 9
15 27 0
13 25 0
9 26 0
13 27 0
14 30 0
14 30 0
13 27 0
13 27 0
14 26 0
13 25 0
13 25 0
13 25 0
13 27 0
13 26 0
11 25 0
6 22 0
2 20 0
0 19 0
8 23 0
4 22 0
2 20 0
0 20 0
10 25 0
12 24 0
13 25 0
11 25 0
13 25 0
8 23 0
13 27 0
12 26 0
13 25 0
15 27 0
13 27 0
13 28 0
13 26 0
9 23 0
13 27 0
13 26 0
10 26 0
11 24 0
9 25 0
9 24 0
14 26 0
13 25 0
11 26 0
7 23 0
25 34 8
38 44 11
42 42 9
57 57 26
60 71 53
16 47 85
16 55 112
14 56 120
18 55 120
23 55 112
8 30 82
0 17 55
0 9 48
0 12 44
0 15 43
0 12 38
0 3 30
0 0 28
0 0 27
0 0 23
0 0 29
0 0 28
0 0 28
0 3 37
0 5 41
0 10 46
0 14 50
0 17 56
0 13 50
0 3 32
1 6 32
99 105 119
221 236 255
221 236 255
221 236 255
221 236 255
221 236 255
221 236 255
221 236 255
221 236 255
221 236 255
221 236 255
221 236 255
221 236 255
221 236 255
221 236 255
221 236 255
221 236 255
221 236 255
221 236 255
221 236 255
221 236 255
221 236 255
221 236 255
221 236 255
221 236 255
221 236 255
221 236 255
221 236 255
221 236 255
221 236 255
221 236 255
221 236 255
221 236 255
221 236 255
221 236 255
221 236 255
221 236 255
221 236 255
221 236 255
221 236 255
221 236 255
221 236 255
221 236 255
221 236 255
221 236 255
221 236 255
221 236 255
221 236 255
221 236 255
221 236 255
221 236 255
221 236 255
221 236 255
221 236 255
221 236 255
221 236 255
221 236 255
221 236 255
221 236 255
221 236 255
221 236 255
221 236 255
221 236 255
221 236 255
221 236 255
221 236 255
221 236 255
221 236 255
221 236 255
221 236 255
221 236 255
221 236 255
221 236 255
221 236 255
221 236 255
221 236 255
221 236 255
221 236 255
221 236 255
221 236 255
221 236 255
221 236 255
221 236 255
221 236 255
221 236 255
221 236 255
221 236 255
221 236 255
221 236 255
221 236 255
221 236 255
221 236 255
221 236 255
221 236 255
221 236 255
221 236 255
221 236 255
221 236 255
221 236 255
221 236 255
221 236 255
221 236 255
221 236 255
221 236 255
221 236 255
221 236 255
221 236 255
221 236 255
221 236 255
221 236 255
221 236 255
221 236 255
221 236 255
221 236 255
221 236 255
221 236 255
221 236 255
221 236 255
221 236 255
221 236 255
221 236 255
221 236 255
221 236 255
221 236 255
221 236 255
221 236 255
221 236 255
221 236 255
221 236 255
221 236 255
221 236 255
221 236 255
221 236 255
221 236 255
221 236 255
221 236 255
221 236 255
221 236 255
221 236 255
221 236 255
221 236 255
221 236 255
221 236 255
221 236 255
221 236 255
221 236 255
221 236 255
221 236 255
221 236 255
221 236 255
221 236 255
221 236 255
221 236 255
221 236 255
221 236 255
221 236 255
221 236 255
221 236 255
221 236 255
221 236 255
221 236 255
221 236 255
221 236 255
221 236 255
221 236 255
221 236 255
221 236 255
221 236 255
221 236 255
221 236 255
221 236 255
221 236 255
221 236 255
221 236 255
221 236 255
221 236 255
221 236 255
221 236 255
221 236 255
221 236 255
221 236 255
221 236 255
221 236 255
221 236 255
221 236 255
91 97 106
0 0 16
0 0 17
0 4 29
0 0 22
0 0 18
0 0 23
0 0 25
0 0 28
0 0 30
0 0 31
0 0 30
0 0 32
0 0 32
0 0 32
0 0 32
0 0 32
0 0 32
0 0 32
0 0 32
0 0 32
0 0 32
0 0 32
0 0 32
0 0 34
0 0 33
0 0 32
0 0 32
0 0 32
0 0 30
0 0 27
0 0 23
0 0 23
0 0 22
0 0 22
0 0 22
0 0 22
0 0 22
0 0 22
0 0 22
0 0 25
0 0 27
0 0 30
0 0 32
0 0 35
0 0 35
0 0 35
0 0 35
0 0 35
0 0 35
0 0 35
0 0 35
0 0 35
0 0 35
0 0 35
0 0 35
0 0 35
0 0 35
0 0 35
0 0 36
0 9 39
0 13 41
0 14 43
0 14 45
0 14 46
0 14 46
0 14 45
0 14 45
0 14 45
0 14 45
0 14 45
0 14 45
0 14 46
0 14 48
0 14 48
0 14 50
0 14 51
0 15 55
0 20 57
0 21 57
0 20 58
0 20 59
0 21 58
0 21 59
0 20 59
0 20 59
0 20 57
0 20 57
0 20 57
0 21 57
0 20 57
0 21 57
0 20 57
0 20 57
0 20 57
0 20 59
0 20 60
0 20 57
0 20 56
0 20 59
0 20 62
0 21 65
0 20 64
0 17 52
17 37 65
20 41 74
21 45 86
16 45 94
13 50 101
12 48 99
8 42 93
2 34 87
0 32 86
0 30 82
0 29 76
0 27 72
0 27 71
0 25 70
0 30 75
0 31 76
0 25 71
0 22 71
6 29 81
12 37 92
13 41 96
14 44 96
10 38 89
9 31 81
27 54 97
24 52 65
27 50 30
35 48 13
23 28 0
41 47 30
21 28 12
18 32 9
15 31 2
15 30 3
13 25 0
13 25 0
13 25 0
14 25 0
14 26 0
13 26 0
14 25 0
13 25 0
13 24 0
13 25 0
13 25 0
13 25 0
13 25 0
13 25 0
3 22 0
5 24 0
0 21 0
0 20 0
0 21 0
0 21 0
10 24 0
11 24 0
1 25 0
10 24 0
8 25 0
0 21 0
12 25 0
13 26 0
16 30 0
15 30 0
14 25 0
13 26 0
13 29 0
13 26 0
14 25 0
9 24 0
13 27 0
13 25 0
12 26 0
8 23 0
9 25 0
13 29 0
12 27 0
13 28 0
7 23 0
12 25 0
23 35 5
20 30 5
26 31 0
43 47 14
44 53 34
22 43 53
22 54 85
18 57 104
15 56 113
19 56 121
13 44 96
0 23 54
0 16 59
0 14 50
0 14 41
0 9 40
0 8 35
0 0 29
0 0 27
0 0 27
0 0 28
0 0 29
0 0 29
0 0 31
0 3 39
0 10 46
0 14 48
3 18 57
0 12 46
0 7 34
0 9 35
101 108 124
221 236 255
221 236 255
221 236 255
221 236 255
221 236 255
221 236 255
221 236 255
221 236 255
221 236 255
221 236 255
221 236 255
221 236 255
221 236 255
221 236 255
221 236 255
221 236 255
221 236 255
221 236 255
221 236 255
221 236 255
221 236 255
221 236 255
221 236 255
221 236 255
221 236 255
221 236 255
221 236 255
221 236 255
221 236 255
221 236 255
221 236 255
221 236 255
221 236 255
221 236 255
221 236 255
221 236 255
221 236 255
221 236 255
221 236 255
221 236 255
221 236 255
221 236 255
221 236 255
221 236 255
221 236 255
221 236 255
221 236 255
221 236 255
221 236 255
221 236 255
221 236 255
221 236 255
221 236 255
221 236 255
221 236 255
221 236 255
221 236 255
221 236 255
221 236 255
221 236 255
221 236 255
221 236 255
221 236 255
221 236 255
221 236 255
221 236 255
221 236 255
221 236 255
221 236 255
221 236 255
221 236 255
221 236 255
221 236 255
221 236 255
221 236 255
221 236 255
221 236 255
221 236 255
221 236 255
221 236 255
221 236 255
221 236 255
221 236 255
221 236 255
221 236 255
221 236 255
221 236 255
221 236 255
221 236 255
221 236 255
221 236 255
221 236 255
221 236 255
221 236 255
221 236 255
221 236 255
221 236 255
221 236 255
221 236 255
221 236 255
221 236 255
221 236 255
221 236 255
221 236 255
221 236 255
221 236 255
221 236 255
221 236 255
221 236 255
221 236 255
221 236 255
221 236 255
221 236 255
221 236 255
221 236 255
221 236 255
221 236 255
221 236 255
221 236 255
221 236 255
221 236 255
221 236 255
221 236 255
221 236 255
221 236 255
221 236 255
221 236 255
221 236 255
221 236 255
221 236 255
221 236 255
221 236 255
221 236 255
221 236 255
221 236 255
221 236 255
221 236 255
221 236 255
221 236 255
221 236 255
221 236 255
221 236 255
221 236 255
221 236 255
221 236 255
221 236 255
221 236 255
221 236 255
221 236 255
221 236 255
221 236 255
221 236 255
221 236 255
221 236 255
221 236 255
221 236 255
221 236 255
221 236 255
221 236 255
221 236 255
221 236 255
221 236 255
221 236 255
221 236 255
221 236 255
221 236 255
221 236 255
221 236 255
221 236 255
221 236 255
221 236 255
221 236 255
221 236 255
221 236 255
221 236 255
221 236 255
221 236 255
221 236 255
221 236 255
221 236 255
221 236 255
221 236 255
221 236 255
221 236 255
88 94 102
0 0 11
0 0 15
0 0 25
0 0 20
0 0 17
0 0 22
0 0 22
0 0 24
0 0 26
0 0 30
0 0 32
0 0 32
0 0 32
0 0 32
0 0 32
0 0 32
0 0 32
0 0 32
0 0 32
0 0 32
0 0 32
0 0 31
0 0 32
0 0 33
0 0 32
0 0 30
0 0 30
0 0 30
0 0 27
0 0 26
0 0 22
0 0 22
0 0 22
0 0 22
0 0 22
0 0 22
0 0 22
0 0 22
0 0 22
0 0 24
0 0 27
0 0 30
0 0 32
0 0 32
0 0 35
0 0 35
0 0 35
0 0 35
0 0 35
0 0 35
0 0 35
0 0 35
0 0 35
0 0 35
0 0 35
0 0 35
0 0 35
0 0 35
0 0 35
0 7 36
0 9 39
0 11 41
0 13 41
0 14 44
0 14 45
0 14 45
0 14 45
0 14 45
0 14 45
0 14 45
0 14 45
0 14 46
0 14 48
0 14 48
0 14 50
0 14 51
0 15 55
0 20 57
0 21 57
0 20 57
0 20 59
0 20 58
0 20 57
0 20 57
0 20 57
0 21 57
0 20 57
0 20 57
0 20 57
0 21 57
0 20 57
0 20 57
0 21 57
0 20 57
0 20 59
0 19 58
0 15 55
0 19 54
0 19 56
0 20 60
0 20 62
0 20 61
0 17 52
9 27 57
12 29 61
20 43 86
25 52 102
20 51 101
17 50 99
13 45 96
17 45 96
16 42 94
13 38 90
13 36 85
11 33 80
0 30 75
0 28 74
0 29 74
10 33 79
12 36 85
11 37 88
12 39 94
14 42 100
13 43 100
10 42 95
6 33 82
17 38 82
38 57 85
37 51 51
37 46 17
34 43 8
39 44 25
37 40 26
12 21 0
18 30 5
13 28 0
10 25 0
13 25 0
13 25 0
13 25 0
10 23 0
7 22 0
13 25 0
11 23 0
13 25 0
14 24 0
13 25 0
13 25 0
13 25 0
13 25 0
13 25 0
11 24 0
12 25 0
7 24 0
0 22 0
0 21 0
7 22 0
12 25 0
11 25 0
11 25 0
13 25 0
13 25 0
4 25 0
7 24 0
8 23 0
14 28 0
13 28 0
13 28 0
13 28 0
13 28 0
14 28 0
13 26 0
14 25 0
13 29 0
11 25 0
13 26 0
13 25 0
14 28 0
13 26 0
12 25 0
13 26 0
12 27 0
13 27 0
19 31 0
15 27 0
17 23 0
31 36 11
28 39 12
19 33 11
21 41 33
18 49 65
21 58 92
16 56 112
18 55 108
3 32 64
0 19 64
0 14 56
0 11 47
0 6 45
0 10 40
0 5 34
0 0 29
0 0 31
0 0 29
0 0 28
0 0 30
0 9 34
0 7 35
0 14 41
0 11 39
2 13 44
0 10 36
0 0 26
0 8 37
104 111 127
221 236 255
221 236 255
221 236 255
221 236 255
221 236 255
221 236 255
221 236 255
221 236 255
221 236 255
221 236 255
221 236 255
221 236 255
221 236 255
221 236 255
221 236 255
221 236 255
221 236 255
221 236 255
221 236 255
221 236 255
221 236 255
221 236 255
221 236 255
221 236 255
221 236 255
221 236 255
221 236 255
221 236 255
221 236 255
221 236 255
221 236 255
221 236 255
221 236 255
221 236 255
221 236 255
221 236 255
221 236 255
221 236 255
221 236 255
221 236 255
221 236 255
221 236 255
221 236 255
221 236 255
221 236 255
221 236 255
221 236 255
221 236 255
221 236 255
221 236 255
221 236 255
221 236 255
221 236 255
221 236 255
221 236 255
221 236 255
221 236 255
221 236 255
221 236 255
221 236 255
221 236 255
221 236 255
221 236 255
221 236 255
221 236 255
221 236 255
221 236 255
221 236 255
221 236 255
221 236 255
221 236 255
221 236 255
221 236 255
221 236 255
221 236 255
221 236 255
221 236 255
221 236 255
221 236 255
221 236 255
221 236 255
221 236 255
221 236 255
221 236 255
221 236 255
221 236 255
221 236 255
221 236 255
221 236 255
221 236 255
221 236 255
221 236 255
221 236 255
221 236 255
221 236 255
221 236 255
221 236 255
221 236 255
221 236 255
221 236 255
221 236 255
221 236 255
221 236 255
221 236 255
221 236 255
221 236 255
221 236 255
221 236 255
221 236 255
221 236 255
221 236 255
221 236 255
221 236 255
221 236 255
221 236 255
221 236 255
221 236 255
221 236 255
221 236 255
221 236 255
221 236 255
221 236 255
221 236 255
221 236 255
221 236 255
221 236 255
221 236 255
221 236 255
221 236 255
221 236 255
221 236 255
221 236 255
221 236 255
221 236 255
221 236 255
221 236 255
221 236 255
221 236 255
221 236 255
221 236 255
221 236 255
221 236 255
221 236 255
221 236 255
221 236 255
221 236 255
221 236 255
221 236 255
221 236 255
221 236 255
221 236 255
221 236 255
221 236 255
221 236 255
221 236 255
221 236 255
221 236 255
221 236 255
221 236 255
221 236 255
221 236 255
221 236 255
221 236 255
221 236 255
221 236 255
221 236 255
221 236 255
221 236 255
221 236 255
221 236 255
221 236 255
221 236 255
221 236 255
221 236 255
221 236 255
221 236 255
221 236 255
221 236 255
221 236 255
221 236 255
221 236 255
221 236 255
221 236 255
221 236 255
91 97 105
0 0 12
0 0 15
0 0 18
0 0 20
0 0 17
0 0 21
0 0 19
0 0 22
0 0 23
0 0 27
0 0 29
0 0 31
0 0 31
0 0 32
0 0 32
0 0 32
0 0 32
0 0 32
0 0 32
0 0 32
0 0 32
0 0 31
0 0 29
0 0 29
0 0 29
0 0 27
0 0 27
0 0 27
0 0 27
0 0 26
0 0 24
0 0 22
0 0 22
0 0 22
0 0 22
0 0 22
0 0 22
0 0 22
0 0 22
0 0 24
0 0 27
0 0 30
0 0 32
0 0 32
0 0 34
0 0 35
0 0 35
0 0 35
0 0 35
0 0 33
0 0 35
0 0 35
0 0 35
0 0 35
0 0 35
0 0 35
0 0 35
0 0 35
0 0 35
0 0 35
0 12 38
0 10 39
0 11 41
0 14 42
0 14 43
0 14 44
0 14 45
0 14 45
0 14 45
0 14 45
0 14 45
0 14 46
0 14 48
0 14 48
0 14 50
0 14 51
0 16 56
0 20 58
0 20 58
0 20 58
0 20 59
0 20 58
0 20 57
0 20 57
0 18 57
0 17 57
0 16 57
0 16 57
0 18 57
0 18 57
0 18 57
0 19 57
0 18 57
0 20 57
0 18 58
0 15 57
0 18 54
0 19 53
0 17 55
0 20 59
0 18 62
0 19 60
0 20 56
0 15 48
0 13 45
13 33 72
19 45 92
17 45 94
12 40 88
10 37 85
12 37 86
9 32 81
6 31 79
6 29 76
2 28 73
0 27 72
0 29 73
2 30 75
12 35 80
12 36 86
11 37 90
10 38 93
11 40 97
8 38 93
7 39 91
4 31 78
25 48 88
36 50 70
38 41 30
50 53 19
43 48 20
38 42 27
30 33 17
18 27 0
12 25 0
9 25 0
0 22 0
13 23 0
12 24 0
8 22 0
5 21 0
2 21 0
12 25 0
7 21 0
13 23 0
14 26 0
13 25 0
13 25 0
13 25 0
13 25 0
13 26 0
13 26 0
13 27 0
13 26 0
9 23 0
10 24 0
13 27 0
9 25 0
5 24 0
13 26 0
12 26 0
6 23 0
0 21 0
11 24 0
8 23 0
3 23 0
12 26 0
15 30 0
15 29 0
9 23 0
13 28 0
13 27 0
13 25 0
13 28 0
11 26 0
14 26 0
18 30 5
17 29 0
18 29 2
21 33 5
14 27 0
20 33 10
20 33 6
14 28 0
11 25 0
14 25 0
23 30 8
27 39 11
20 36 0
22 39 4
16 35 17
20 44 40
19 57 71
20 56 117
14 42 102
0 25 66
0 21 62
0 16 56
0 14 53
0 19 56
0 17 50
0 7 37
0 0 35
0 0 32
0 0 34
0 0 31
0 2 23
0 0 19
0 0 20
0 0 19
0 0 19
0 0 19
0 2 26
0 7 37
96 103 118
221 236 255
221 236 255
221 236 255
221 236 255
221 236 255
221 236 255
221 236 255
221 236 255
221 236 255
221 236 255
221 236 255
221 236 255
221 236 255
221 236 255
221 236 255
221 236 255
221 236 255
221 236 255
221 236 255
221 236 255
221 236 255
221 236 255
221 236 255
221 236 255
221 236 255
221 236 255
221 236 255
221 236 255
221 236 255
221 236 255
221 236 255
221 236 255
221 236 255
221 236 255
221 236 255
221 236 255
221 236 255
221 236 255
221 236 255
221 236 255
221 236 255
221 236 255
221 236 255
221 236 255
221 236 255
221 236 255
221 236 255
221 236 255
221 236 255
221 236 255
221 236 255
221 236 255
221 236 255
221 236 255
221 236 255
221 236 255
221 236 255
221 236 255
221 236 255
221 236 255
221 236 255
221 236 255
221 236 255
221 236 255
221 236 255
221 236 255
221 236 255
221 236 255
221 236 255
221 236 255
221 236 255
221 236 255
221 236 255
221 236 255
221 236 255
221 236 255
221 236 255
221 236 255
221 236 255
221 236 255
221 236 255
221 236 255
221 236 255
221 236 255
221 236 255
221 236 255
221 236 255
221 236 255
221 236 255
221 236 255
221 236 255
221 236 255
221 236 255
221 236 255
221 236 255
221 236 255
221 236 255
221 236 255
221 236 255
221 236 255
221 236 255
221 236 255
221 236 255
221 236 255
221 236 255
221 236 255
221 236 255
221 236 255
221 236 255
221 236 255
221 236 255
221 236 255
221 236 255
221 236 255
221 236 255
221 236 255
221 236 255
221 236 255
221 236 255
221 236 255
221 236 255
221 236 255
221 236 255
221 236 255
221 236 255
221 236 255
221 236 255
221 236 255
221 236 255
221 236 255
221 236 255
221 236 255
221 236 255
221 236 255
221 236 255
221 236 255
221 236 255
221 236 255
221 236 255
221 236 255
221 236 255
221 236 255
221 236 255
221 236 255
221 236 255
221 236 255
221 236 255
221 236 255
221 236 255
221 236 255
221 236 255
221 236 255
221 236 255
221 236 255
221 236 255
221 236 255
221 236 255
221 236 255
221 236 255
221 236 255
221 236 255
221 236 255
221 236 255
221 236 255
221 236 255
221 236 255
221 236 255
221 236 255
221 236 255
221 236 255
221 236 255
221 236 255
221 236 255
221 236 255
221 236 255
221 236 255
221 236 255
221 236 255
221 236 255
221 236 255
221 236 255
221 236 255
221 236 255
221 236 255
99 105 114
0 0 5
0 0 9
0 0 13
0 0 17
0 0 17
0 0 21
0 0 16
0 0 16
0 0 21
0 0 22
0 0 23
0 0 27
0 0 31
0 0 32
0 0 32
0 0 32
0 0 32
0 0 32
0 0 29
0 0 28
0 0 28
0 0 27
0 0 27
0 0 27
0 0 27
0 0 27
0 0 27
0 0 23
0 0 23
0 0 25
0 0 24
0 0 22
0 0 22
0 0 22
0 0 22
0 0 22
0 0 20
0 0 22
0 0 22
0 0 24
0 0 27
0 0 30
0 0 32
0 0 32
0 0 34
0 0 35
0 0 35
0 0 35
0 0 35
0 0 32
0 0 35
0 0 35
0 0 35
0 0 35
0 0 35
0 0 35
0 0 35
0 0 35
0 0 35
0 0 35
0 12 36
0 14 39
0 14 41
0 14 42
0 14 42
0 14 43
0 14 45
0 14 45
0 14 45
0 14 45
0 14 45
0 14 46
0 14 48
0 14 48
0 14 50
0 14 51
0 16 55
0 21 57
0 20 57
0 21 59
0 20 58
0 20 57
0 20 57
0 19 57
0 14 57
0 14 57
0 14 55
0 14 56
0 16 57
0 17 57
0 17 57
0 15 57
0 14 57
0 17 57
0 17 57
0 16 55
0 17 53
0 18 53
0 18 55
0 17 58
0 17 60
0 15 56
0 18 55
0 20 56
0 18 54
0 17 57
0 20 62
0 16 60
0 18 62
0 20 63
0 20 64
0 23 67
0 21 65
0 22 65
0 25 67
0 27 70
0 28 72
0 28 72
3 30 73
4 28 76
7 33 85
12 36 92
0 31 85
0 30 82
0 34 81
0 24 67
24 47 87
30 47 66
39 45 30
59 63 31
46 51 26
37 41 27
31 36 19
18 26 0
12 24 0
3 24 0
0 21 0
11 23 0
9 23 0
3 21 0
13 25 0
9 23 0
13 25 0
13 24 0
13 25 0
13 25 0
13 25 0
15 26 0
14 25 0
14 25 0
13 25 0
13 26 0
14 28 0
13 27 0
10 23 0
9 25 0
13 28 0
15 30 0
15 29 0
14 28 0
12 25 0
3 21 0
0 21 0
11 24 0
13 25 0
12 25 0
10 25 0
14 29 0
16 31 0
7 24 0
11 26 0
13 29 0
13 25 0
12 27 0
12 26 0
23 34 4
31 43 17
29 41 14
28 40 12
32 44 17
27 38 11
18 31 6
13 27 3
5 22 0
13 28 0
16 31 0
20 31 5
19 30 5
18 36 5
24 40 7
25 37 0
23 35 5
17 46 34
26 54 108
23 51 113
11 42 77
7 38 80
10 37 81
5 24 65
0 21 63
0 19 57
0 13 46
0 0 33
0 0 35
0 0 33
0 0 27
0 0 21
0 0 16
0 0 13
0 0 14
0 0 13
0 0 15
0 0 21
0 3 29
106 113 129
221 236 255
221 236 255
221 236 255
221 236 255
221 236 255
221 236 255
221 236 255
221 236 255
221 236 255
221 236 255
221 236 255
221 236 255
221 236 255
221 236 255
221 236 255
221 236 255
221 236 255
221 236 255
221 236 255
221 236 255
221 236 255
221 236 255
221 236 255
221 236 255
221 236 255
221 236 255
221 236 255
221 236 255
221 236 255
221 236 255
221 236 255
221 236 255
221 236 255
221 236 255
221 236 255
221 236 255
221 236 255
221 236 255
221 236 255
221 236 255
221 236 255
221 236 255
221 236 255
221 236 255
221 236 255
221 236 255
221 236 255
221 236 255
221 236 255
221 236 255
221 236 255
221 236 255
221 236 255
221 236 255
221 236 255
221 236 255
221 236 255
221 236 255
221 236 255
221 236 255
221 236 255
221 236 255
221 236 255
221 236 255
221 236 255
221 236 255
221 236 255
221 236 255
221 236 255
221 236 255
221 236 255
221 236 255
221 236 255
221 236 255
221 236 255
221 236 255
221 236 255
221 236 255
221 236 255
221 236 255
221 236 255
221 236 255
221 236 255
221 236 255
221 236 255
221 236 255
221 236 255
221 236 255
221 236 255
221 236 255
221 236 255
221 236 255
221 236 255
221 236 255
221 236 255
221 236 255
221 236 255
221 236 255
221 236 255
221 236 255
221 236 255
221 236 255
221 236 255
221 236 255
221 236 255
221 236 255
221 236 255
221 236 255
221 236 255
221 236 255
221 236 255
221 236 255
221 236 255
221 236 255
221 236 255
221 236 255
221 236 255
221 236 255
221 236 255
221 236 255
221 236 255
221 236 255
221 236 255
221 236 255
221 236 255
221 236 255
221 236 255
221 236 255
221 236 255
221 236 255
221 236 255
221 236 255
221 236 255
221 236 255
221 236 255
221 236 255
221 236 255
221 236 255
221 236 255
221 236 255
221 236 255
221 236 255
221 236 255
221 236 255
221 236 255
221 236 255
221 236 255
221 236 255
221 236 255
221 236 255
221 236 255
221 236 255
221 236 255
221 236 255
221 236 255
221 236 255
221 236 255
221 236 255
221 236 255
221 236 255
221 236 255
221 236 255
221 236 255
221 236 255
221 236 255
221 236 255
221 236 255
221 236 255
221 236 255
221 236 255
221 236 255
221 236 255
221 236 255
221 236 255
221 236 255
221 236 255
221 236 255
221 236 255
221 236 255
221 236 255
221 236 255
221 236 255
221 236 255
221 236 255
113 120 131
0 0 9
0 0 9
0 0 9
0 0 16
0 0 16
0 0 22
0 0 16
0 0 16
0 0 16
0 0 19
0 0 22
0 0 23
0 0 28
0 0 29
0 0 29
0 0 31
0 0 32
0 0 32
0 0 29
0 0 27
0 0 27
0 0 27
0 0 27
0 0 27
0 0 27
0 0 27
0 0 23
0 0 22
0 0 22
0 0 22
0 0 22
0 0 22
0 0 22
0 0 22
0 0 22
0 0 22
0 0 21
0 0 22
0 0 22
0 0 24
0 0 27
0 0 30
0 0 32
0 0 32
0 0 34
0 0 35
0 0 35
0 0 35
0 0 35
0 0 32
0 0 35
0 0 35
0 0 35
0 0 35
0 0 35
0 0 35
0 0 35
0 0 35
0 0 35
0 0 35
0 13 35
0 14 37
0 14 39
0 14 41
0 14 42
0 14 43
0 14 45
0 14 45
0 14 45
0 14 45
0 14 45
0 14 45
0 14 48
0 14 48
0 14 50
0 14 51
0 17 56
0 20 58
0 20 59
0 20 58
0 20 57
0 21 57
0 21 58
0 18 57
0 14 56
0 14 55
0 14 55
0 14 55
0 14 56
0 14 56
0 14 56
0 14 56
0 14 55
0 15 56
0 14 56
0 14 53
0 14 51
0 15 52
0 15 54
0 14 57
0 14 59
0 16 56
0 18 56
0 16 54
0 20 58
0 20 59
0 21 62
0 20 62
0 21 62
0 21 63
0 21 62
0 21 63
0 21 62
0 21 63
0 22 64
0 23 65
0 21 64
0 23 65
0 26 67
0 28 74
3 28 77
7 28 79
0 22 72
0 26 74
0 28 71
0 18 61
21 45 86
39 60 84
37 52 44
51 62 34
39 46 19
38 42 27
23 28 9
16 25 0
12 25 0
8 25 0
12 27 0
13 26 0
13 26 0
5 21 0
11 24 0
13 26 0
13 25 0
13 25 0
13 25 0
16 27 0
19 29 0
19 29 0
14 26 0
13 25 0
13 25 0
11 25 0
13 25 0
13 25 0
14 26 0
13 26 0
13 28 0
17 32 0
20 34 0
17 33 0
9 24 0
7 23 0
12 25 0
8 24 0
13 25 0
13 27 0
11 26 0
13 26 0
15 30 0
13 29 0
13 28 0
13 26 0
13 28 0
18 32 0
22 36 9
26 38 11
30 39 12
32 42 17
39 49 23
26 36 12
14 26 0
14 25 0
13 26 0
5 25 0
5 23 0
13 30 0
15 30 0
20 30 8
26 36 17
28 36 13
22 34 2
22 41 6
21 37 21
26 48 67
42 75 94
25 60 86
21 55 101
26 54 106
25 51 100
0 29 75
0 21 61
0 14 46
0 8 35
0 7 39
0 0 36
0 0 30
0 0 24
0 0 18
0 0 9
0 0 9
0 0 6
0 0 12
0 0 16
0 3 24
135 144 159
221 236 255
221 236 255
221 236 255
221 236 255
221 236 255
221 236 255
221 236 255
221 236 255
221 236 255
221 236 255
221 236 255
221 236 255
221 236 255
221 236 255
221 236 255
221 236 255
221 236 255
221 236 255
221 236 255
221 236 255
221 236 255
221 236 255
221 236 255
221 236 255
221 236 255
221 236 255
221 236 255
221 236 255
221 236 255
221 236 255
221 236 255
221 236 255
221 236 255
221 236 255
221 236 255
221 236 255
221 236 255
221 236 255
221 236 255
221 236 255
221 236 255
221 236 255
221 236 255
221 236 255
221 236 255
221 236 255
221 236 255
221 236 255
221 236 255
221 236 255
221 236 255
221 236 255
221 236 255
221 236 255
221 236 255
221 236 255
221 236 255
221 236 255
221 236 255
221 236 255
221 236 255
221 236 255
221 236 255
221 236 255
221 236 255
221 236 255
221 236 255
221 236 255
221 236 255
221 236 255
221 236 255
221 236 255
221 236 255
221 236 255
221 236 255
221 236 255
221 236 255
221 236 255
221 236 255
221 236 255
221 236 255
221 236 255
221 236 255
221 236 255
221 236 255
221 236 255
221 236 255
221 236 255
221 236 255
221 236 255
221 236 255
221 236 255
222 236 255
222 236 255
222 236 255
222 236 255
222 236 255
222 236 255
222 236 255
222 236 255
222 236 255
222 236 255
222 236 255
222 236 255
222 236 255
222 236 255
222 236 255
222 236 255
222 236 255
222 236 255
222 236 255
222 236 255
222 236 255
222 236 255
222 236 255
222 236 255
222 236 255
222 236 255
222 236 255
222 236 255
222 236 255
222 236 255
222 236 255
222 236 255
222 236 255
222 236 255
222 236 255
222 236 255
222 236 255
222 236 255
222 236 255
222 236 255
222 236 255
222 236 255
222 236 255
222 236 255
222 236 255
222 236 255
222 236 255
222 236 255
222 236 255
222 236 255
222 236 255
222 236 255
222 236 255
222 236 255
222 236 255
222 236 255
222 236 255
222 236 255
222 236 255
222 236 255
222 236 255
222 236 255
222 236 255
222 236 255
222 236 255
222 236 255
222 236 255
222 236 255
222 236 255
222 236 255
222 236 255
222 236 255
222 236 255
222 236 255
222 236 255
222 236 255
222 236 255
222 236 255
222 236 255
222 236 255
222 236 255
222 236 255
222 236 255
222 236 255
222 236 255
222 236 255
222 236 255
222 236 255
222 236 255
222 236 255
222 236 255
222 236 255
131 139 151
0 0 11
0 0 12
0 0 13
0 0 12
0 0 14
0 0 21
0 0 16
0 0 18
0 0 17
0 0 16
0 0 21
0 0 22
0 0 27
0 0 27
0 0 27
0 0 28
0 0 28
0 0 29
0 0 28
0 0 27
0 0 27
0 0 27
0 0 27
0 0 26
0 0 25
0 0 26
0 0 22
0 0 22
0 0 22
0 0 22
0 0 22
0 0 22
0 0 22
0 0 22
0 0 22
0 0 22
0 0 22
0 0 24
0 0 26
0 0 27
0 0 28
0 0 31
0 0 32
0 0 32
0 0 33
0 0 34
0 0 35
0 0 35
0 0 35
0 0 33
0 0 35
0 0 35
0 0 35
0 0 35
0 0 35
0 0 35
0 0 35
0 0 35
0 0 35
0 0 35
0 4 37
0 10 38
0 11 39
0 10 39
0 14 42
0 14 43
0 14 44
0 14 44
0 14 45
0 14 46
0 14 46
0 14 47
0 14 48
0 14 49
0 14 52
0 14 54
0 17 57
0 20 59
0 21 59
0 21 58
0 21 57
0 20 58
0 20 58
0 17 56
0 14 54
0 14 54
0 14 54
0 14 54
0 14 54
0 14 54
0 14 54
0 14 54
0 14 54
0 14 54
0 14 53
0 14 52
0 14 50
0 14 50
0 14 52
0 14 54
0 14 56
0 14 54
0 14 53
0 17 55
0 20 57
0 20 57
0 20 59
0 20 59
0 20 59
0 18 58
0 20 60
0 20 61
0 21 60
0 21 61
0 20 60
0 20 61
0 21 61
0 20 60
0 21 61
0 21 65
0 22 69
0 21 68
0 22 67
0 23 67
0 23 65
0 16 58
20 44 87
31 56 86
34 57 58
31 49 26
30 39 14
39 41 25
25 27 10
14 24 0
16 29 0
14 29 0
10 24 0
13 26 0
14 26 0
13 25 0
13 25 0
13 28 0
13 25 0
13 25 0
14 25 0
17 28 0
19 30 0
16 27 0
13 25 0
13 26 0
13 26 0
12 25 0
13 25 0
13 26 0
14 28 0
18 32 0
16 31 0
15 31 0
23 37 8
22 37 6
14 29 0
14 26 0
13 25 0
14 27 0
13 27 0
13 29 0
13 29 0
11 25 0
12 26 2
16 32 4
14 29 0
12 26 0
16 30 0
23 37 8
20 34 6
14 27 0
17 28 0
16 28 0
23 35 8
15 27 3
12 22 0
15 27 0
14 29 0
3 22 0
10 25 0
10 26 0
15 32 0
18 31 2
30 38 14
28 38 10
13 29 2
20 43 12
42 49 32
29 40 27
47 68 56
31 51 56
41 58 75
37 52 74
33 55 82
11 41 88
1 26 76
0 17 51
0 14 51
0 12 43
0 9 40
0 0 32
0 0 27
0 0 19
0 0 5
0 0 0
0 0 3
0 0 9
0 0 14
0 0 23
127 136 152
222 236 255
222 236 255
222 236 255
222 236 255
222 236 255
222 236 255
222 236 255
222 236 255
222 236 255
222 236 255
222 236 255
222 236 255
222 236 255
222 236 255
222 236 255
222 236 255
222 236 255
222 236 255
222 236 255
222 236 255
222 236 255
222 236 255
222 236 255
222 236 255
222 236 255
222 236 255
222 236 255
222 236 255
222 236 255
222 236 255
222 236 255
222 236 255
222 236 255
222 236 255
222 236 255
222 236 255
222 236 255
222 236 255
222 236 255
222 236 255
222 236 255
222 236 255
222 236 255
222 236 255
222 236 255
222 236 255
222 236 255
222 236 255
222 236 255
222 236 255
222 236 255
222 236 255
222 236 255
222 236 255
222 236 255
222 236 255
222 236 255
222 236 255
222 236 255
222 236 255
222 236 255
222 236 255
222 236 255
222 236 255
222 236 255
222 236 255
222 236 255
222 236 255
222 236 255
222 236 255
222 236 255
222 236 255
222 236 255
222 236 255
222 236 255
222 236 255
222 236 255
222 236 255
222 236 255
222 236 255
222 236 255
222 236 255
222 236 255
222 236 255
222 236 255
222 236 255
222 236 255
222 236 255
222 236 255
222 236 255
222 236 255
222 236 255
222 236 255
222 236 255
222 236 255
222 236 255
222 236 255
222 236 255
222 236 255
222 236 255
222 236 255
222 236 255
222 236 255
222 236 255
222 236 255
222 236 255
222 236 255
222 236 255
222 236 255
222 236 255
222 236 255
222 236 255
222 236 255
222 236 255
222 236 255
222 236 255
222 236 255
222 236 255
222 236 255
222 236 255
222 236 255
222 236 255
222 236 255
222 236 255
222 236 255
222 236 255
222 236 255
222 236 255
222 236 255
222 236 255
222 236 255
222 236 255
222 236 255
222 236 255
222 236 255
222 236 255
222 236 255
222 236 255
222 236 255
222 236 255
222 236 255
222 236 255
222 236 255
222 236 255
222 236 255
222 236 255
222 236 255
222 236 255
222 236 255
222 236 255
222 236 255
222 236 255
222 236 255
222 236 255
222 236 255
222 236 255
222 236 255
222 236 255
222 236 255
222 236 255
222 236 255
222 236 255
222 236 255
222 236 255
222 236 255
222 236 255
222 236 255
222 236 255
222 236 255
222 236 255
222 236 255
222 236 255
222 236 255
222 236 255
222 236 255
222 236 255
222 236 255
222 236 255
222 236 255
222 236 255
222 236 255
222 236 255
222 236 255
222 236 255
152 161 176
0 0 12
0 0 10
0 0 15
0 0 12
0 0 15
0 0 17
0 0 18
0 0 16
0 0 17
0 0 18
0 0 20
0 0 22
0 0 27
0 0 27
0 0 27
0 0 27
0 0 27
0 0 27
0 0 25
0 0 24
0 0 23
0 0 22
0 0 23
0 0 23
0 0 22
0 0 24
0 0 22
0 0 22
0 0 22
0 0 22
0 0 22
0 0 22
0 0 22
0 0 22
0 0 22
0 0 22
0 0 22
0 0 26
0 0 28
0 0 32
0 0 32
0 0 32
0 0 32
0 0 35
0 0 35
0 0 35
0 0 35
0 0 35
0 0 35
0 0 35
0 0 35
0 0 35
0 0 35
0 0 35
0 0 35
0 0 35
0 0 35
0 0 35
0 0 35
0 0 35
0 0 38
0 0 39
0 0 39
0 0 39
0 11 42
0 14 42
0 14 43
0 14 45
0 14 46
0 14 48
0 14 48
0 14 48
0 14 51
0 14 53
0 14 56
0 14 57
0 19 61
0 20 62
0 20 61
0 20 61
0 20 58
0 18 57
0 15 55
0 14 55
0 14 53
0 14 53
0 14 53
0 14 53
0 14 51
0 14 50
0 14 50
0 14 50
0 14 50
0 14 50
0 14 50
0 14 50
0 14 50
0 14 50
0 14 50
0 14 50
0 14 51
0 14 51
0 14 51
0 15 51
0 15 52
0 19 54
0 20 56
0 20 56
0 19 56
0 17 56
0 17 55
0 17 56
0 20 56
0 20 59
0 21 58
0 21 58
0 21 58
0 21 57
0 20 54
0 22 62
0 22 66
0 21 62
0 23 62
0 21 60
0 18 58
2 12 52
21 46 90
29 55 91
28 51 60
24 44 24
30 39 18
32 33 20
20 21 5
13 22 0
11 28 0
10 28 0
13 26 0
14 25 0
13 25 0
13 27 0
14 29 0
13 27 0
12 25 0
15 27 0
17 28 0
16 27 0
16 27 0
14 26 0
13 25 0
14 27 0
12 27 0
14 27 0
15 29 0
13 29 0
14 29 0
13 28 0
13 27 0
15 31 0
16 31 0
13 29 0
15 31 0
14 28 0
13 25 0
12 26 0
12 27 0
13 28 0
14 28 0
15 29 0
22 36 11
23 39 13
17 32 0
18 32 0
20 33 0
15 28 0
13 25 0
14 28 0
15 28 0
15 28 0
11 26 0
12 26 0
15 29 0
22 37 13
17 31 3
12 27 0
10 26 0
17 33 3
19 33 3
16 30 0
25 37 6
26 41 10
20 35 5
21 38 4
39 45 22
30 36 16
36 44 19
32 41 26
38 44 34
38 44 39
41 56 60
29 54 90
14 39 92
0 22 62
0 19 52
0 14 48
0 7 41
0 6 34
0 0 29
0 0 18
0 0 4
0 0 0
0 0 0
0 0 8
0 0 15
0 0 30
133 142 158
222 236 255
222 236 255
222 236 255
222 236 255
222 236 255
222 236 255
222 236 255
222 236 255
222 236 255
222 236 255
222 236 255
222 236 255
222 236 255
222 236 255
222 236 255
222 236 255
222 236 255
222 236 255
222 236 255
222 236 255
222 236 255
222 236 255
222 236 255
222 236 255
222 236 255
222 236 255
222 236 255
222 236 255
222 236 255
222 236 255
222 236 255
222 236 255
222 236 255
222 236 255
222 236 255
222 236 255
222 236 255
222 236 255
222 236 255
222 236 255
222 236 255
222 236 255
222 236 255
222 236 255
222 236 255
222 236 255
222 236 255
222 236 255
222 236 255
222 236 255
222 236 255
222 236 255
222 236 255
222 236 255
222 236 255
222 236 255
222 236 255
222 236 255
222 236 255
222 236 255
222 236 255
222 236 255
222 236 255
222 236 255
222 236 255
222 236 255
222 236 255
222 236 255
222 236 255
222 236 255
222 236 255
222 236 255
222 236 255
222 236 255
222 236 255
222 236 255
222 236 255
222 236 255
222 236 255
222 236 255
222 236 255
222 236 255
222 236 255
222 236 255
222 236 255
222 236 255
222 236 255
222 236 255
222 236 255
222 236 255
222 236 255
222 236 255
222 236 255
222 236 255
222 236 255
222 236 255
222 236 255
222 236 255
222 236 255
222 236 255
222 236 255
222 236 255
222 236 255
222 236 255
222 236 255
222 236 255
222 236 255
222 236 255
222 236 255
222 236 255
222 236 255
222 236 255
222 236 255
222 236 255
222 236 255
222 236 255
222 236 255
222 236 255
222 236 255
222 236 255
222 236 255
222 236 255
222 236 255
222 236 255
222 236 255
222 236 255
222 236 255
222 236 255
222 236 255
222 236 255
222 236 255
222 236 255
222 236 255
222 236 255
222 236 255
222 236 255
222 236 255
222 236 255
222 236 255
222 236 255
222 236 255
222 236 255
222 236 255
222 236 255
222 236 255
222 236 255
222 236 255
222 236 255
222 236 255
222 236 255
222 236 255
222 236 255
222 236 255
222 236 255
222 236 255
222 236 255
222 236 255
222 236 255
222 236 255
222 236 255
222 236 255
222 236 255
222 236 255
222 236 255
222 236 255
222 236 255
222 236 255
222 236 255
222 236 255
222 236 255
222 236 255
222 236 255
222 236 255
222 236 255
222 236 255
222 236 255
222 236 255
222 236 255
222 236 255
222 236 255
222 236 255
222 236 255
222 236 255
222 236 255
147 156 170
2 7 25
0 0 10
0 0 15
0 0 15
0 0 13
0 0 16
0 0 17
0 0 21
0 0 22
0 0 21
0 0 20
0 0 23
0 0 27
0 0 27
0 0 27
0 0 27
0 0 27
0 0 26
0 0 24
0 0 22
0 0 22
0 0 22
0 0 22
0 0 22
0 0 22
0 0 22
0 0 17
0 0 21
0 0 22
0 0 22
0 0 22
0 0 22
0 0 22
0 0 22
0 0 24
0 0 24
0 0 24
0 0 26
0 0 28
0 0 32
0 0 32
0 0 32
0 0 33
0 0 35
0 0 35
0 0 35
0 0 35
0 0 35
0 0 35
0 0 35
0 0 35
0 0 35
0 0 35
0 0 35
0 0 35
0 0 35
0 0 35
0 0 35
0 0 35
0 0 35
0 0 38
0 7 40
0 12 42
0 7 42
0 9 43
0 14 45
0 14 45
0 14 47
0 14 47
0 14 49
0 14 50
0 14 51
0 14 53
0 14 55
0 19 57
0 19 58
0 16 60
0 14 59
0 15 58
0 16 57
0 16 57
0 15 56
0 15 54
0 14 53
0 14 53
0 14 53
0 14 53
0 14 53
0 14 50
0 14 49
0 14 49
0 14 50
0 14 48
0 14 48
0 14 49
0 14 49
0 14 49
0 14 49
0 14 48
0 14 48
0 14 49
0 14 48
0 14 48
0 13 47
0 14 47
0 16 51
0 15 52
0 14 53
0 14 53
0 14 53
0 14 51
0 14 52
0 14 53
0 19 57
0 20 57
0 21 57
0 17 54
0 19 54
0 20 53
0 21 61
0 24 67
0 24 64
0 19 57
0 11 50
0 4 46
3 22 54
27 53 88
40 57 83
44 55 60
31 37 20
36 44 25
20 24 12
14 20 0
7 22 0
0 25 0
6 27 0
13 29 0
14 25 0
13 25 0
13 28 0
13 29 0
12 26 0
9 26 0
16 31 0
18 30 0
14 29 0
13 27 0
13 25 0
14 27 0
12 27 0
6 22 0
14 28 0
13 28 0
12 26 0
14 26 0
12 27 0
11 26 0
14 30 0
10 25 0
9 25 0
12 28 0
13 29 0
13 28 0
13 27 0
16 30 0
18 32 0
18 32 0
19 33 0
19 33 4
18 32 4
20 34 4
15 29 0
12 26 0
11 26 0
13 26 0
14 27 0
11 26 0
10 27 0
15 31 0
13 30 0
14 29 0
17 32 0
13 26 0
15 31 0
21 36 9
22 37 7
30 43 15
17 28 0
25 38 9
23 36 9
22 34 2
30 42 9
35 44 19
28 35 13
36 41 18
36 39 20
42 42 21
50 46 31
50 52 39
35 51 66
23 46 96
1 29 79
5 30 70
0 16 54
3 17 50
0 14 43
0 0 27
0 0 16
0 0 7
0 0 1
0 0 5
0 0 9
0 0 18
0 5 37
157 167 184
222 236 255
222 236 255
222 236 255
222 236 255
222 236 255
222 236 255
222 236 255
222 236 255
222 236 255
222 236 255
222 236 255
222 236 255
222 236 255
222 236 255
222 236 255
222 236 255
222 236 255
222 236 255
222 236 255
222 236 255
222 236 255
222 236 255
222 236 255
222 236 255
222 236 255
222 236 255
222 236 255
222 236 255
222 236 255
222 236 255
222 236 255
222 236 255
222 236 255
222 236 255
222 236 255
222 236 255
222 236 255
222 236 255
222 236 255
222 236 255
222 236 255
222 236 255
222 236 255
222 236 255
222 236 255
222 236 255
222 236 255
222 236 255
222 236 255
222 236 255
222 236 255
222 236 255
222 236 255
222 236 255
222 236 255
222 236 255
222 236 255
222 236 255
222 236 255
222 236 255
222 236 255
222 236 255
222 236 255
222 236 255
222 236 255
222 236 255
222 236 255
222 236 255
222 236 255
222 236 255
222 236 255
222 236 255
222 236 255
222 236 255
222 236 255
222 236 255
222 236 255
222 236 255
222 236 255
222 236 255
222 236 255
222 236 255
222 236 255
222 236 255
222 236 255
222 236 255
222 236 255
222 236 255
222 236 255
222 236 255
222 236 255
222 236 255
222 236 255
222 236 255
222 236 255
222 236 255
222 236 255
222 236 255
222 236 255
222 236 255
222 236 255
222 236 255
222 236 255
222 236 255
222 236 255
222 236 255
222 236 255
222 236 255
222 236 255
222 236 255
222 236 255
222 236 255
222 236 255
222 236 255
222 236 255
222 236 255
222 236 255
222 236 255
222 236 255
222 236 255
222 236 255
222 236 255
222 236 255
222 236 255
222 236 255
222 236 255
222 236 255
222 236 255
222 236 255
222 236 255
222 236 255
222 236 255
222 236 255
222 236 255
222 236 255
222 236 255
222 236 255
222 236 255
222 236 255
222 236 255
222 236 255
222 236 255
222 236 255
222 236 255
222 236 255
222 236 255
222 236 255
222 236 255
222 236 255
222 236 255
222 236 255
222 236 255
222 236 255
222 236 255
222 236 255
222 236 255
222 236 255
222 236 255
222 236 255
222 236 255
222 236 255
222 236 255
222 236 255
222 236 255
222 236 255
222 236 255
222 236 255
222 236 255
222 236 255
222 236 255
222 236 255
222 236 255
222 236 255
222 236 255
222 236 255
222 236 255
222 236 255
222 236 255
222 236 255
222 236 255
222 236 255
222 236 255
222 236 255
222 236 255
153 163 178
4 9 33
0 0 13
0 0 15
0 0 13
0 0 12
0 0 16
0 0 16
0 0 19
0 0 21
0 0 22
0 0 17
0 0 22
0 0 27
0 0 27
0 0 27
0 0 27
0 0 27
0 0 26
0 0 24
0 0 22
0 0 22
0 0 22
0 0 22
0 0 22
0 0 22
0 0 22
0 0 20
0 0 22
0 0 22
0 0 22
0 0 22
0 0 22
0 0 22
0 0 22
0 0 27
0 0 27
0 0 27
0 0 27
0 0 29
0 0 32
0 0 32
0 0 32
0 0 33
0 0 35
0 0 35
0 0 35
0 0 35
0 0 35
0 0 35
0 0 35
0 0 35
0 0 35
0 0 35
0 0 35
0 0 35
0 0 35
0 0 35
0 0 35
0 0 35
0 0 36
0 3 38
0 9 40
0 14 43
0 12 43
0 13 45
0 14 48
0 14 47
0 14 49
0 15 52
0 16 55
0 19 57
0 20 56
0 17 57
0 16 56
0 19 58
0 22 61
0 21 60
0 20 60
0 17 57
0 16 55
0 14 53
0 15 53
0 15 53
0 14 51
0 14 50
0 14 49
0 14 48
0 14 48
0 14 48
0 14 48
0 14 48
0 14 49
0 14 48
0 14 47
0 13 47
0 14 48
0 14 48
0 14 48
0 14 48
0 14 48
0 14 48
0 14 47
0 14 45
0 13 44
0 14 44
0 14 46
0 14 47
0 14 50
0 14 49
0 14 48
0 14 49
0 14 50
0 14 50
0 14 51
0 14 53
0 15 52
0 14 49
0 14 48
0 20 52
0 21 58
0 18 59
0 16 54
0 13 48
0 9 47
0 10 43
3 23 52
36 59 83
57 65 78
51 47 43
49 44 29
39 43 25
15 25 0
14 25 0
7 23 0
12 30 0
12 29 0
13 28 0
13 27 0
13 25 0
14 26 0
13 27 0
13 25 0
11 26 0
14 30 0
14 29 0
14 29 0
14 29 0
13 27 0
14 28 0
16 30 0
13 27 0
14 29 0
6 24 0
5 22 0
12 25 0
10 25 0
12 27 0
13 27 0
9 24 0
13 25 0
11 24 0
13 28 0
13 28 0
14 29 0
18 32 0
16 31 0
14 29 0
14 29 0
14 27 0
15 30 0
13 28 0
12 26 0
12 25 0
11 26 0
13 26 0
20 36 8
22 36 9
19 33 0
17 33 0
13 29 0
13 29 0
14 30 0
14 29 0
12 27 0
24 40 13
16 29 5
32 43 17
26 34 4
34 44 20
30 39 14
34 43 13
34 43 12
38 50 21
26 32 8
31 31 6
41 39 21
52 46 28
57 46 31
50 47 26
41 46 39
35 53 86
9 34 86
4 26 75
0 13 49
0 8 42
0 2 32
0 0 20
0 0 16
0 0 10
0 0 9
0 0 5
0 0 11
0 0 18
0 8 40
169 180 198
222 236 255
222 236 255
222 236 255
222 236 255
222 236 255
222 236 255
222 236 255
222 236 255
222 236 255
222 236 255
222 236 255
222 236 255
222 236 255
222 236 255
222 236 255
222 236 255
222 236 255
222 236 255
222 236 255
222 236 255
222 236 255
222 236 255
222 236 255
222 236 255
222 236 255
222 236 255
222 236 255
222 236 255
222 236 255
222 236 255
222 236 255
222 236 255
222 236 255
222 236 255
222 236 255
222 236 255
222 236 255
222 236 255
222 236 255
222 236 255
222 236 255
222 236 255
222 236 255
222 236 255
222 236 255
222 236 255
222 236 255
222 236 255
222 236 255
222 236 255
222 236 255
222 236 255
222 236 255
222 236 255
222 236 255
222 236 255
222 236 255
222 236 255
222 236 255
222 236 255
222 236 255
222 236 255
222 236 255
222 236 255
222 236 255
222 236 255
222 236 255
222 236 255
222 236 255
222 236 255
222 236 255
222 236 255
222 236 255
222 236 255
222 236 255
222 236 255
222 236 255
222 236 255
222 236 255
222 236 255
222 236 255
222 236 255
222 236 255
222 236 255
222 236 255
222 236 255
222 236 255
222 236 255
222 236 255
222 236 255
222 236 255
222 236 255
222 236 255
222 236 255
222 236 255
222 236 255
222 236 255
222 236 255
222 236 255
222 236 255
222 236 255
222 236 255
222 236 255
222 236 255
222 236 255
222 236 255
222 236 255
222 236 255
222 236 255
222 236 255
222 236 255
222 236 255
222 236 255
222 236 255
222 236 255
222 236 255
222 236 255
222 236 255
222 236 255
222 236 255
222 236 255
222 236 255
222 236 255
222 236 255
222 236 255
222 236 255
222 236 255
222 236 255
222 236 255
222 236 255
222 236 255
222 236 255
222 236 255
222 236 255
222 236 255
222 236 255
222 236 255
222 236 255
222 236 255
222 236 255
222 236 255
222 236 255
222 236 255
222 236 255
222 236 255
222 236 255
222 236 255
222 236 255
222 236 255
222 236 255
222 236 255
222 236 255
222 236 255
222 236 255
222 236 255
222 236 255
222 236 255
222 236 255
222 236 255
222 236 255
222 236 255
222 236 255
222 236 255
222 236 255
222 236 255
222 236 255
222 236 255
222 236 255
222 236 255
222 236 255
222 236 255
222 236 255
222 236 255
222 236 255
222 236 255
222 236 255
222 236 255
222 236 255
222 236 255
222 236 255
222 236 255
222 236 255
222 236 255
222 236 255
189 201 218
6 14 41
0 0 8
0 0 15
0 0 14
0 0 11
0 0 15
0 0 16
0 0 19
0 0 19
0 0 16
0 0 19
0 0 23
0 0 26
0 0 27
0 0 27
0 0 27
0 0 27
0 0 27
0 0 25
0 0 22
0 0 22
0 0 22
0 0 22
0 0 22
0 0 22
0 0 22
0 0 22
0 0 22
0 0 22
0 0 22
0 0 22
0 0 22
0 0 22
0 0 24
0 0 27
0 0 29
0 0 29
0 0 27
0 0 31
0 0 32
0 0 32
0 0 32
0 0 32
0 0 34
0 0 35
0 0 35
0 0 35
0 0 35
0 0 33
0 0 35
0 0 33
0 0 35
0 0 35
0 0 35
0 0 35
0 0 35
0 0 35
0 0 35
0 0 35
0 0 39
0 10 40
0 14 42
0 14 43
0 14 48
0 16 52
0 17 53
0 14 50
0 14 53
0 19 57
0 19 58
0 20 61
0 20 60
0 19 58
0 20 59
0 21 59
0 21 60
0 16 57
0 15 57
0 14 55
0 14 53
0 14 52
0 17 53
0 14 51
0 14 49
0 14 48
0 14 47
0 14 48
0 14 48
0 15 48
0 14 48
0 14 48
0 14 48
0 14 48
0 15 46
0 14 46
0 14 48
0 14 48
0 14 47
0 14 47
0 14 47
0 14 46
0 14 44
0 14 43
0 14 42
0 14 42
0 14 44
0 14 44
0 14 46
0 14 46
0 14 47
0 14 46
0 14 46
0 14 46
0 14 47
0 14 49
0 14 48
0 14 47
0 14 47
0 15 47
0 15 50
0 14 52
0 14 52
0 14 49
0 14 45
0 7 33
7 22 46
63 84 107
63 68 69
76 67 54
58 49 32
41 43 26
11 22 0
6 22 0
13 28 0
12 26 0
3 24 0
8 24 0
14 28 0
14 29 0
14 26 0
13 29 0
13 28 0
13 27 0
13 28 0
13 25 0
13 28 0
14 26 0
13 25 0
10 25 0
14 27 0
13 27 0
14 27 0
7 24 0
0 22 0
2 22 0
5 23 0
14 27 0
13 26 0
13 25 0
13 25 0
8 24 0
14 29 0
12 27 0
13 27 0
14 28 0
11 24 0
13 28 0
13 27 0
14 28 0
14 30 0
13 26 0
14 25 0
13 25 0
12 27 0
12 26 0
17 32 2
16 31 4
15 30 0
14 29 0
13 30 0
13 29 0
13 29 0
13 27 0
14 30 0
17 34 3
14 28 3
31 41 13
36 42 13
46 51 27
37 44 17
29 34 7
33 42 12
32 42 13
35 40 17
35 37 14
54 50 36
55 45 31
52 42 29
47 43 20
50 51 29
51 59 62
35 50 82
28 49 91
3 16 48
0 0 35
0 0 25
0 0 16
0 0 15
0 0 8
0 0 10
0 0 0
0 0 11
0 0 20
0 10 41
180 192 210
222 236 255
222 236 255
222 236 255
222 236 255
222 236 255
222 236 255
222 236 255
222 236 255
222 236 255
222 236 255
222 236 255
222 236 255
222 236 255
222 236 255
222 236 255
222 236 255
222 236 255
222 236 255
222 236 255
222 236 255
222 236 255
222 236 255
222 236 255
222 236 255
222 236 255
222 236 255
222 236 255
222 236 255
222 236 255
222 236 255
222 236 255
222 236 255
222 236 255
222 236 255
222 236 255
222 236 255
222 236 255
222 236 255
222 236 255
222 236 255
222 236 255
222 236 255
222 236 255
222 236 255
222 236 255
222 236 255
222 236 255
222 236 255
222 236 255
222 236 255
222 236 255
222 236 255
222 236 255
222 236 255
222 236 255
222 236 255
222 236 255
222 236 255
222 236 255
222 236 255
222 236 255
222 236 255
222 236 255
222 236 255
222 236 255
222 236 255
222 236 255
222 236 255
222 236 255
222 236 255
222 236 255
222 236 255
222 236 255
222 236 255
222 236 255
222 236 255
222 236 255
222 236 255
222 236 255
222 236 255
222 236 255
222 236 255
222 236 255
222 236 255
222 236 255
222 236 255
222 236 255
222 236 255
222 236 255
222 236 255
222 236 255
222 236 255
222 236 255
222 236 255
222 236 255
222 236 255
222 236 255
222 236 255
222 236 255
222 236 255
222 236 255
222 236 255
222 236 255
222 236 255
222 236 255
222 236 255
222 236 255
222 236 255
222 236 255
222 236 255
222 236 255
222 236 255
222 236 255
222 236 255
222 236 255
222 236 255
222 236 255
222 236 255
222 236 255
222 236 255
222 236 255
222 236 255
222 236 255
222 236 255
222 236 255
222 236 255
222 236 255
222 236 255
222 236 255
222 236 255
222 236 255
222 236 255
222 236 255
222 236 255
222 236 255
222 236 255
222 236 255
222 236 255
222 236 255
222 236 255
222 236 255
222 236 255
222 236 255
222 236 255
222 236 255
222 236 255
222 236 255
222 236 255
222 236 255
222 236 255
222 236 255
222 236 255
222 236 255
222 236 255
222 236 255
222 236 255
222 236 255
222 236 255
222 236 255
222 236 255
222 236 255
222 236 255
222 236 255
222 236 255
222 236 255
222 236 255
222 236 255
222 236 255
222 236 255
222 236 255
222 236 255
222 236 255
222 236 255
222 236 255
222 236 255
222 236 255
222 236 255
222 236 255
222 236 255
222 236 255
222 236 255
222 236 255
222 236 255
222 236 255
192 204 221
2 9 34
0 0 12
0 0 12
0 0 15
0 0 10
0 0 18
0 0 12
0 0 13
0 0 17
0 0 21
0 0 21
0 0 20
0 0 26
0 0 27
0 0 27
0 0 27
0 0 27
0 0 28
0 0 27
0 0 27
0 0 24
0 0 22
0 0 22
0 0 22
0 0 22
0 0 22
0 0 22
0 0 22
0 0 22
0 0 22
0 0 22
0 0 22
0 0 22
0 0 25
0 0 30
0 0 32
0 0 31
0 0 27
0 0 29
0 0 32
0 0 32
0 0 32
0 0 32
0 0 33
0 0 35
0 0 35
0 0 35
0 0 35
0 0 34
0 0 35
0 0 33
0 0 35
0 0 35
0 0 35
0 0 35
0 0 35
0 0 35
0 0 35
0 0 35
0 11 41
0 14 42
0 14 45
0 14 47
0 14 50
0 19 53
0 20 56
0 15 53
0 17 56
0 20 59
0 20 59
0 21 65
0 20 65
0 20 61
0 20 60
0 19 58
0 17 56
0 15 54
0 14 56
0 14 55
0 14 53
0 14 50
0 14 49
0 14 48
0 14 48
0 14 45
0 10 45
0 13 45
0 14 47
0 14 46
0 14 46
0 14 46
0 14 46
0 14 46
0 14 45
0 14 45
0 14 46
0 14 46
0 12 44
0 5 43
0 0 43
0 7 42
0 14 40
0 12 40
0 5 39
0 7 40
0 14 40
0 14 41
0 14 42
0 14 42
0 14 42
0 10 40
0 9 40
0 9 40
0 14 45
0 14 46
0 14 45
0 14 44
0 11 40
0 6 38
0 13 47
0 14 52
0 14 53
0 11 48
0 6 39
0 0 21
17 30 59
66 82 107
102 108 106
79 73 55
55 48 30
27 26 11
16 26 5
5 20 0
15 27 0
7 21 0
14 24 0
14 25 0
14 28 0
15 32 0
14 28 0
13 29 0
14 30 0
14 29 0
13 25 0
13 25 0
13 25 0
14 25 0
13 25 0
12 25 0
13 25 0
13 25 0
13 25 0
11 24 0
7 23 0
7 23 0
12 26 0
13 29 0
14 25 0
10 25 0
8 23 0
13 27 0
13 29 0
14 29 0
13 29 0
13 27 0
9 25 0
13 27 0
14 29 0
14 29 0
13 29 0
14 25 0
13 28 0
13 26 0
13 26 0
14 26 0
14 26 0
13 28 0
14 29 0
14 29 0
14 29 0
14 29 0
13 27 0
13 26 0
14 29 0
19 36 6
24 37 11
32 41 12
41 45 18
50 50 24
41 42 20
30 36 11
36 44 18
38 45 18
30 35 8
38 39 15
57 52 34
56 49 30
54 50 29
44 43 20
61 58 30
53 54 37
52 62 59
32 50 76
0 10 41
0 0 29
0 0 22
0 0 13
0 0 13
0 0 6
0 0 8
0 0 9
0 0 8
0 0 21
0 10 43
195 207 226
222 236 255
222 236 255
222 236 255
222 236 255
222 236 255
222 236 255
222 236 255
222 236 255
222 236 255
222 236 255
222 236 255
222 236 255
222 236 255
222 236 255
222 236 255
222 236 255
222 236 255
222 236 255
222 236 255
222 236 255
222 236 255
222 236 255
222 236 255
222 236 255
222 236 255
222 236 255
222 236 255
222 236 255
222 236 255
222 236 255
222 236 255
222 236 255
222 236 255
222 236 255
222 236 255
222 236 255
222 236 255
222 236 255
222 236 255
222 236 255
222 236 255
222 236 255
222 236 255
222 236 255
222 236 255
222 236 255
222 236 255
222 236 255
222 236 255
222 236 255
222 236 255
222 236 255
222 236 255
222 236 255
222 236 255
222 236 255
222 236 255
222 236 255
222 236 255
222 236 255
222 236 255
222 236 255
222 236 255
222 236 255
222 236 255
222 236 255
222 236 255
222 236 255
222 236 255
222 236 255
222 236 255
222 236 255
222 236 255
222 236 255
222 236 255
222 236 255
222 236 255
222 236 255
222 236 255
222 236 255
222 236 255
222 236 255
222 236 255
222 236 255
222 236 255
222 236 255
222 236 255
222 236 255
222 236 255
222 236 255
222 236 255
222 236 255
222 236 255
222 236 255
222 236 255
222 236 255
222 236 255
222 236 255
222 236 255
222 236 255
222 236 255
222 236 255
222 236 255
222 236 255
222 236 255
222 236 255
222 236 255
222 236 255
222 236 255
222 236 255
222 236 255
222 236 255
222 236 255
222 236 255
222 236 255
222 236 255
222 236 255
222 236 255
222 236 255
222 236 255
222 236 255
222 236 255
222 236 255
222 236 255
222 236 255
222 236 255
222 236 255
222 236 255
222 236 255
222 236 255
222 236 255
222 236 255
222 236 255
222 236 255
222 236 255
222 236 255
222 236 255
222 236 255
222 236 255
222 236 255
222 236 255
222 236 255
222 236 255
222 236 255
222 236 255
222 236 255
222 236 255
222 236 255
222 236 255
222 236 255
222 236 255
222 236 255
222 236 255
222 236 255
222 236 255
222 236 255
222 236 255
222 236 255
222 236 255
222 236 255
222 236 255
222 236 255
222 236 255
222 236 255
222 236 255
222 236 255
222 236 255
222 236 255
222 236 255
222 236 255
222 236 255
222 236 255
222 236 255
222 236 255
222 236 255
222 236 255
222 236 255
222 236 255
222 236 255
222 236 255
222 236 255
222 236 255
222 236 255
222 236 255
202 215 233
0 5 27
0 0 15
0 0 1
0 0 10
0 0 9
0 0 18
0 0 10
0 0 8
0 0 16
0 0 17
0 0 19
0 0 25
0 0 29
0 0 28
0 0 27
0 0 28
0 0 31
0 0 32
0 0 30
0 0 27
0 0 27
0 0 23
0 0 22
0 0 19
0 0 22
0 0 22
0 0 22
0 0 22
0 0 22
0 0 22
0 0 22
0 0 22
0 0 22
0 0 22
0 0 27
0 0 29
0 0 29
0 0 28
0 0 28
0 0 31
0 0 32
0 0 32
0 0 32
0 0 33
0 0 34
0 0 35
0 0 35
0 0 34
0 0 32
0 0 35
0 0 33
0 0 35
0 0 35
0 0 35
0 0 35
0 0 35
0 0 35
0 0 36
0 0 37
0 10 42
0 14 44
0 14 47
0 15 50
0 14 50
0 15 52
0 19 55
0 19 57
0 17 57
0 19 60
0 21 63
0 21 66
0 21 65
0 18 60
0 18 58
0 14 55
0 15 54
0 14 52
0 14 53
0 14 52
0 14 50
0 13 48
0 13 47
0 14 48
0 14 47
0 14 46
0 9 45
0 3 45
0 8 45
0 14 45
0 14 45
0 14 45
0 14 43
0 14 44
0 14 45
0 14 45
0 14 45
0 14 45
0 12 44
0 6 43
0 0 43
0 8 42
0 12 40
0 2 39
0 0 39
0 0 39
0 8 39
0 14 40
0 14 42
0 14 42
0 14 42
0 13 41
0 13 41
0 13 41
0 7 42
0 11 44
0 14 43
0 12 41
0 3 36
0 8 38
0 14 44
0 14 48
0 9 47
1 8 43
2 7 37
0 0 21
10 17 47
54 65 91
110 115 114
95 92 71
60 53 32
38 35 17
30 37 18
19 28 10
6 18 0
12 21 0
14 23 0
18 29 0
15 28 0
13 28 0
11 26 0
17 30 0
16 32 0
14 27 0
14 27 0
13 29 0
11 25 0
11 27 0
13 25 0
13 28 0
14 26 0
13 25 0
12 25 0
11 25 0
14 27 0
13 26 0
13 25 0
13 26 0
14 27 0
13 27 0
12 26 0
13 29 0
13 26 0
14 29 0
14 29 0
10 25 0
13 27 0
13 29 0
13 29 0
13 27 0
13 26 0
14 26 0
14 29 0
14 27 0
14 26 0
13 27 0
12 25 0
10 26 0
13 29 0
13 30 0
13 30 0
13 28 0
8 25 0
16 29 0
20 33 0
26 37 8
33 41 13
41 46 19
40 43 16
50 50 24
44 45 17
39 42 16
35 40 11
38 44 16
35 38 8
37 39 11
55 53 29
57 50 30
62 55 39
50 45 29
61 52 29
64 52 27
65 58 35
32 47 45
0 13 40
0 0 25
0 0 23
0 0 16
0 0 10
0 0 0
0 0 0
0 0 0
0 0 2
0 0 22
0 9 45
210 224 243
222 236 255
222 236 255
222 236 255
222 236 255
222 236 255
222 236 255
222 236 255
222 236 255
222 236 255
222 236 255
222 236 255
222 236 255
222 236 255
222 236 255
222 236 255
222 236 255
222 236 255
222 236 255
222 236 255
222 236 255
222 236 255
222 236 255
222 236 255
222 236 255
222 236 255
222 236 255
222 236 255
222 236 255
222 236 255
222 236 255
222 236 255
222 236 255
222 236 255
222 236 255
222 236 255
222 236 255
222 236 255
222 236 255
222 236 255
222 236 255
222 236 255
222 236 255
222 236 255
222 236 255
222 236 255
222 236 255
222 236 255
222 236 255
222 236 255
222 236 255
222 236 255
222 236 255
222 236 255
222 236 255
222 236 255
222 236 255
222 236 255
222 236 255
222 236 255
222 236 255
222 236 255
222 236 255
222 236 255
222 236 255
222 236 255
222 236 255
222 236 255
222 236 255
222 236 255
222 236 255
222 236 255
222 236 255
222 236 255
222 236 255
222 236 255
222 236 255
222 236 255
222 236 255
222 236 255
222 236 255
222 236 255
222 236 255
222 236 255
222 236 255
222 236 255
222 236 255
222 236 255
222 236 255
222 236 255
222 236 255
222 236 255
222 236 255
222 236 255
222 236 255
222 236 255
222 236 255
222 236 255
222 236 255
222 236 255
222 236 255
222 236 255
222 236 255
222 236 255
222 236 255
222 236 255
222 236 255
222 236 255
222 236 255
222 236 255
222 236 255
222 236 255
222 236 255
222 236 255
222 236 255
222 236 255
222 236 255
222 236 255
222 236 255
222 236 255
222 236 255
222 236 255
222 236 255
222 236 255
222 236 255
222 236 255
222 236 255
222 236 255
222 236 255
222 236 255
222 236 255
222 236 255
222 236 255
222 236 255
222 236 255
222 236 255
222 236 255
222 236 255
222 236 255
222 236 255
222 236 255
222 236 255
222 236 255
222 236 255
222 236 255
222 236 255
222 236 255
222 236 255
222 236 255
222 236 255
222 236 255
222 236 255
222 236 255
222 236 255
222 236 255
222 236 255
222 236 255
222 236 255
222 236 255
222 236 255
222 236 255
222 236 255
222 236 255
222 236 255
222 236 255
222 236 255
222 236 255
222 236 255
222 236 255
222 236 255
222 236 255
222 236 255
222 236 255
222 236 255
222 236 255
222 236 255
222 236 255
222 236 255
222 236 255
222 236 255
222 236 255
222 236 255
222 236 255
222 236 255
222 236 255
219 232 252
22 25 41
0 0 16
0 0 5
0 0 5
0 0 6
0 0 17
0 0 14
0 0 4
0 0 15
0 0 16
0 0 16
0 0 21
0 0 28
0 0 29
0 0 29
0 0 31
0 0 33
0 0 33
0 0 31
0 0 27
0 0 27
0 0 24
0 0 22
0 0 19
0 0 22
0 0 22
0 0 22
0 0 22
0 0 22
0 0 22
0 0 22
0 0 22
0 0 22
0 0 25
0 0 27
0 0 27
0 0 27
0 0 27
0 0 27
0 0 28
0 0 31
0 0 32
0 0 32
0 0 32
0 0 33
0 0 35
0 0 35
0 0 35
0 0 33
0 0 35
0 0 33
0 0 35
0 0 35
0 0 35
0 0 35
0 0 35
0 0 37
0 0 39
0 0 40
0 9 42
0 13 44
0 15 49
0 15 51
0 14 50
0 16 52
0 21 53
0 21 57
0 18 57
0 19 61
0 21 64
0 21 66
0 20 62
0 20 59
0 17 57
0 14 54
0 14 52
0 14 49
0 14 48
0 14 47
0 13 43
0 12 43
0 13 42
0 14 44
0 14 45
0 14 45
0 14 43
0 14 42
0 14 42
0 14 44
0 14 45
0 14 45
0 14 45
0 14 45
0 14 43
0 14 44
0 14 45
0 4 44
0 9 43
0 11 43
0 0 41
0 0 40
0 0 42
0 0 42
0 0 42
0 0 42
0 0 42
0 0 41
0 0 39
0 0 39
0 0 39
0 0 39
0 0 39
0 0 39
0 0 39
0 0 39
0 0 39
0 5 39
0 5 39
0 7 40
0 9 37
0 9 36
0 0 39
2 9 40
4 9 37
0 0 23
9 20 43
47 59 89
128 131 153
123 116 106
72 65 36
50 45 23
37 40 25
35 43 22
10 20 0
13 24 0
14 26 0
15 29 0
18 34 0
16 29 0
14 28 0
18 31 0
17 30 0
14 25 0
13 25 0
13 25 0
14 25 0
13 26 0
14 28 0
14 28 0
13 25 0
14 25 0
10 25 0
11 25 0
10 25 0
14 25 0
13 25 0
13 25 0
14 26 0
14 28 0
13 25 0
14 29 0
14 29 0
13 28 0
10 25 0
9 26 0
14 29 0
14 32 0
13 30 0
14 29 0
14 29 0
14 29 0
13 27 0
14 27 0
13 29 0
14 29 0
14 28 0
13 28 0
13 29 0
14 28 0
15 32 0
16 34 0
20 34 2
28 40 8
22 31 2
21 27 6
46 51 27
48 52 26
45 48 21
49 47 22
52 51 26
50 49 24
54 53 27
38 40 12
40 40 13
45 42 16
53 47 22
60 49 30
58 49 34
60 52 34
58 49 26
70 57 36
61 53 33
35 50 40
0 16 43
0 0 30
0 0 16
0 0 16
0 0 10
0 0 0
0 0 0
0 0 0
0 0 8
0 0 26
22 27 55
217 231 251
222 236 255
222 236 255
222 236 255
222 236 255
222 236 255
222 236 255
222 236 255
222 236 255
222 236 255
222 236 255
222 236 255
222 236 255
222 236 255
222 236 255
222 236 255
222 236 255
222 236 255
222 236 255
222 236 255
222 236 255
222 236 255
222 236 255
222 236 255
222 236 255
222 236 255
222 236 255
222 236 255
222 236 255
222 236 255
222 236 255
222 236 255
222 236 255
222 236 255
222 236 255
222 236 255
222 236 255
222 236 255
222 236 255
222 236 255
222 236 255
222 236 255
222 236 255
222 236 255
222 236 255
222 236 255
222 236 255
222 236 255
222 236 255
222 236 255
222 236 255
222 236 255
222 236 255
222 236 255
222 236 255
222 236 255
222 236 255
222 236 255
222 236 255
222 236 255
222 236 255
222 236 255
222 236 255
222 236 255
222 236 255
222 236 255
222 236 255
222 236 255
222 236 255
222 236 255
222 236 255
222 236 255
222 236 255
222 236 255
222 236 255
222 236 255
222 236 255
222 236 255
222 236 255
222 236 255
222 236 255
222 236 255
222 236 255
222 236 255
222 236 255
222 236 255
222 236 255
222 236 255
222 236 255
222 236 255
222 236 255
222 236 255
222 236 255
222 236 255
222 236 255
222 236 255
222 236 255
222 236 255
222 236 255
222 236 255
222 236 255
222 236 255
222 236 255
222 236 255
222 236 255
222 236 255
222 236 255
222 236 255
222 236 255
222 236 255
222 236 255
222 236 255
222 236 255
222 236 255
222 236 255
222 236 255
222 236 255
222 236 255
222 236 255
222 236 255
222 236 255
222 236 255
222 236 255
222 236 255
222 236 255
222 236 255
222 236 255
222 236 255
222 236 255
222 236 255
222 236 255
222 236 255
222 236 255
222 236 255
222 236 255
222 236 255
222 236 255
222 236 255
222 236 255
222 236 255
222 236 255
222 236 255
222 236 255
222 236 255
222 236 255
222 236 255
222 236 255
222 236 255
222 236 255
222 236 255
222 236 255
222 236 255
222 236 255
222 236 255
222 236 255
222 236 255
222 236 255
222 236 255
222 236 255
222 236 255
222 236 255
222 236 255
222 236 255
222 236 255
222 236 255
222 236 255
222 236 255
222 236 255
222 236 255
222 236 255
222 236 255
222 236 255
222 236 255
222 236 255
222 236 255
222 236 255
222 236 255
222 236 255
222 236 255
222 236 255
222 236 255
222 236 255
222 236 255
222 236 255
222 236 255
222 236 255
86 91 103
0 5 24
0 0 12
0 0 7
0 0 9
0 0 16
0 0 15
0 0 0
0 0 9
0 0 11
0 0 14
0 0 19
0 0 26
0 0 31
0 0 32
0 0 33
0 0 37
0 0 36
0 0 32
0 0 32
0 0 28
0 0 25
0 0 22
0 0 20
0 0 21
0 0 22
0 0 22
0 0 22
0 0 22
0 0 22
0 0 22
0 0 22
0 0 22
0 0 25
0 0 26
0 0 27
0 0 27
0 0 27
0 0 27
0 0 27
0 0 28
0 0 31
0 0 32
0 0 32
0 0 32
0 0 35
0 0 35
0 0 34
0 0 33
0 0 34
0 0 33
0 0 35
0 0 35
0 0 35
0 0 35
0 0 36
0 0 39
0 0 41
0 0 42
0 12 43
0 15 46
0 14 48
0 14 50
0 14 52
0 16 53
0 20 54
0 21 57
0 21 58
0 21 62
0 21 65
0 20 65
0 20 61
0 17 58
0 15 56
0 14 53
0 14 51
0 14 48
0 14 48
0 14 45
0 10 42
0 10 41
0 9 40
0 13 42
0 14 43
0 14 43
0 14 42
0 14 42
0 14 42
0 14 44
0 14 45
0 14 45
0 14 45
0 14 45
0 14 43
0 14 43
0 14 44
0 4 42
0 9 42
0 9 41
0 0 39
0 0 38
0 0 40
0 0 41
0 0 40
0 0 40
0 0 40
0 0 40
0 0 37
0 0 37
0 0 37
0 0 39
0 0 39
0 0 39
0 0 38
0 0 37
0 0 37
0 4 37
0 0 37
0 3 38
0 9 36
0 14 35
0 12 39
0 3 37
0 0 33
0 0 25
5 15 41
36 50 82
97 108 138
129 136 143
86 88 79
44 38 20
41 36 16
29 31 7
22 28 0
15 24 0
14 28 0
15 31 0
16 33 0
14 29 0
16 30 0
13 26 0
14 25 0
14 25 0
12 25 0
14 27 0
14 28 0
14 29 0
13 29 0
14 26 0
14 25 0
14 25 0
13 25 0
14 27 0
13 28 0
13 25 0
12 25 0
13 25 0
14 26 0
14 28 0
14 25 0
13 29 0
14 29 0
14 26 0
10 26 0
13 28 0
14 27 0
14 29 0
14 29 0
13 29 0
14 27 0
13 26 0
13 29 0
11 26 0
11 27 0
14 30 0
14 30 0
17 34 0
14 29 0
11 26 0
14 32 0
19 36 0
27 42 9
38 50 21
34 43 16
41 44 21
51 55 30
51 53 27
50 50 24
53 49 25
54 48 24
59 52 29
55 49 25
51 46 21
56 50 27
65 56 34
61 48 27
68 52 34
58 46 29
57 51 29
59 52 30
68 58 42
60 55 36
29 47 38
1 12 45
0 0 30
0 0 10
0 0 16
0 0 7
0 0 4
0 0 0
0 0 0
0 0 11
0 0 33
80 85 103
222 236 255
222 236 255
222 236 255
222 236 255
222 236 255
222 236 255
222 236 255
222 236 255
222 236 255
222 236 255
222 236 255
222 236 255
222 236 255
222 236 255
222 236 255
222 236 255
222 236 255
222 236 255
222 236 255
222 236 255
222 236 255
222 236 255
222 236 255
222 236 255
222 236 255
222 236 255
222 236 255
222 236 255
222 236 255
222 236 255
222 236 255
222 236 255
222 236 255
222 236 255
222 236 255
222 236 255
222 236 255
222 236 255
222 236 255
222 236 255
222 236 255
222 236 255
222 236 255
222 236 255
222 236 255
222 236 255
222 236 255
222 236 255
222 236 255
222 236 255
222 236 255
222 236 255
222 236 255
222 236 255
222 236 255
222 236 255
222 236 255
222 236 255
222 236 255
222 236 255
222 236 255
222 236 255
222 236 255
222 236 255
222 236 255
222 236 255
222 236 255
222 236 255
222 236 255
222 236 255
222 236 255
222 236 255
222 236 255
222 236 255
222 236 255
222 236 255
222 236 255
222 236 255
222 236 255
222 236 255
222 236 255
222 236 255
222 236 255
222 236 255
222 236 255
222 236 255
222 236 255
222 236 255
222 236 255
222 236 255
222 236 255
222 236 255
222 236 255
222 236 255
222 236 255
222 236 255
222 236 255
222 236 255
222 236 255
222 236 255
222 236 255
222 236 255
222 236 255
222 236 255
222 236 255
222 236 255
222 236 255
222 236 255
222 236 255
222 236 255
222 236 255
222 236 255
222 236 255
222 236 255
222 236 255
222 236 255
222 236 255
222 236 255
222 236 255
222 236 255
222 236 255
222 236 255
222 236 255
222 236 255
222 236 255
222 236 255
222 236 255
222 236 255
222 236 255
222 236 255
222 236 255
222 236 255
222 236 255
222 236 255
222 236 255
222 236 255
222 236 255
222 236 255
222 236 255
222 236 255
222 236 255
222 236 255
222 236 255
222 236 255
222 236 255
222 236 255
222 236 255
222 236 255
222 236 255
222 236 255
222 236 255
222 236 255
222 236 255
222 236 255
222 236 255
222 236 255
222 236 255
222 236 255
222 236 255
222 236 255
222 236 255
222 236 255
222 236 255
222 236 255
222 236 255
222 236 255
222 236 255
222 236 255
222 236 255
222 236 255
222 236 255
222 236 255
222 236 255
222 236 255
222 236 255
222 236 255
222 236 255
222 236 255
222 236 255
222 236 255
222 236 255
222 236 255
222 236 255
222 236 255
222 236 255
222 236 255
99 105 118
0 3 29
0 0 14
0 0 2
0 0 8
0 0 14
0 0 14
0 0 0
0 0 0
0 0 0
0 0 11
0 0 16
0 0 22
0 0 29
0 0 33
0 6 38
0 7 41
0 7 40
0 0 35
0 0 32
0 0 28
0 0 25
0 0 22
0 0 22
0 0 22
0 0 22
0 0 22
0 0 22
0 0 22
0 0 22
0 0 22
0 0 22
0 0 22
0 0 22
0 0 25
0 0 27
0 0 27
0 0 27
0 0 27
0 0 27
0 0 27
0 0 29
0 0 32
0 0 32
0 0 33
0 0 34
0 0 32
0 0 32
0 0 32
0 0 34
0 0 33
0 0 35
0 0 35
0 0 36
0 0 38
0 0 39
0 0 39
0 4 41
0 13 43
0 14 46
0 14 48
0 14 48
0 14 50
0 14 54
0 17 54
0 20 56
0 21 57
0 21 59
0 21 63
0 21 64
0 20 62
0 21 58
0 14 57
0 14 54
0 14 51
0 14 49
0 14 46
0 14 46
0 14 44
0 3 40
0 1 38
0 0 37
0 10 40
0 14 42
0 10 40
0 12 41
0 14 42
0 14 42
0 14 44
0 14 45
0 15 45
0 14 45
0 15 45
0 14 43
0 14 42
0 14 42
0 6 42
0 11 41
0 0 39
0 0 36
0 0 36
0 0 39
0 0 39
0 0 39
0 0 39
0 0 39
0 0 39
0 0 35
0 0 35
0 0 35
0 0 39
0 0 39
0 0 39
0 0 36
0 0 35
0 0 35
0 0 36
0 0 35
0 0 36
0 5 35
0 6 34
0 1 35
0 5 37
0 0 32
0 0 25
2 11 33
14 34 71
26 50 89
57 76 101
78 89 98
63 57 47
56 47 24
50 47 23
30 29 8
9 15 0
10 23 1
22 39 16
13 29 5
11 25 0
16 30 0
12 26 0
14 25 0
14 27 0
13 26 0
13 27 0
14 27 0
14 27 0
14 28 0
13 25 0
14 26 0
14 25 0
14 26 0
14 26 0
14 27 0
8 24 0
1 21 0
11 24 0
14 27 0
14 28 0
14 27 0
14 30 0
13 28 0
13 25 0
14 29 0
15 30 0
12 26 0
14 29 0
14 29 0
13 29 0
14 28 0
12 26 0
8 25 0
15 30 2
8 26 0
15 31 0
13 28 0
21 37 10
10 28 0
12 28 0
14 32 0
19 35 0
22 36 2
33 44 16
34 42 13
50 53 28
54 55 30
51 50 23
55 53 26
62 55 31
61 52 30
63 53 31
64 55 34
63 53 31
70 58 37
69 56 36
71 53 34
85 66 49
59 46 28
53 48 25
55 48 31
60 52 37
49 48 26
28 50 54
0 4 40
0 0 23
0 0 8
0 0 16
0 0 4
0 0 7
0 0 0
0 0 2
0 0 16
0 0 37
113 121 138
222 236 255
222 236 255
222 236 255
222 236 255
222 236 255
222 236 255
222 236 255
222 236 255
222 236 255
222 236 255
222 236 255
222 236 255
222 236 255
222 236 255
222 236 255
222 236 255
222 236 255
222 236 255
222 236 255
222 236 255
222 236 255
222 236 255
222 236 255
222 236 255
222 236 255
222 236 255
222 236 255
222 236 255
222 236 255
222 236 255
222 236 255
222 236 255
222 236 255
222 236 255
222 236 255
222 236 255
222 236 255
222 236 255
222 236 255
222 236 255
222 236 255
222 236 255
222 236 255
222 236 255
222 236 255
222 236 255
222 236 255
222 236 255
222 236 255
222 236 255
222 236 255
222 236 255
222 236 255
222 236 255
222 236 255
222 236 255
222 236 255
222 236 255
222 236 255
222 236 255
222 236 255
222 236 255
222 236 255
222 236 255
222 236 255
222 236 255
222 236 255
222 236 255
222 236 255
222 236 255
222 236 255
222 236 255
222 236 255
222 236 255
222 236 255
222 236 255
222 236 255
222 236 255
222 236 255
222 236 255
222 236 255
222 236 255
222 236 255
222 236 255
222 236 255
222 236 255
222 236 255
222 236 255
222 236 255
222 236 255
222 236 255
222 236 255
222 236 255
222 236 255
222 236 255
222 236 255
222 236 255
222 236 255
222 236 255
222 236 255
222 236 255
222 236 255
222 236 255
222 236 255
222 236 255
222 236 255
222 236 255
222 236 255
222 236 255
222 236 255
222 236 255
222 236 255
222 236 255
222 236 255
222 236 255
222 236 255
222 236 255
222 236 255
222 236 255
222 236 255
222 236 255
222 236 255
222 236 255
222 236 255
222 236 255
222 236 255
222 236 255
222 236 255
222 236 255
222 236 255
222 236 255
222 236 255
222 236 255
222 236 255
222 236 255
222 236 255
222 236 255
222 236 255
222 236 255
222 236 255
222 236 255
222 236 255
222 236 255
222 236 255
222 236 255
222 236 255
222 236 255
222 236 255
222 236 255
222 236 255
222 236 255
222 236 255
222 236 255
222 236 255
222 236 255
222 236 255
222 236 255
222 236 255
222 236 255
222 236 255
222 236 255
222 236 255
222 236 255
222 236 255
222 236 255
222 236 255
222 236 255
222 236 255
222 236 255
222 236 255
222 236 255
222 236 255
222 236 255
222 236 255
222 236 255
222 236 255
222 236 255
222 236 255
222 236 255
222 236 255
222 236 255
222 236 255
222 236 255
222 236 255
222 236 255
222 236 255
137 146 161
0 9 40
0 0 20
0 0 7
0 0 13
0 0 15
0 0 14
0 0 7
0 0 0
0 0 0
0 0 11
0 0 16
0 0 21
0 0 27
0 0 32
8 19 51
10 25 60
0 10 45
0 0 37
0 0 32
0 0 29
0 0 26
0 0 22
0 0 22
0 0 22
0 0 22
0 0 22
0 0 22
0 0 22
0 0 22
0 0 22
0 0 22
0 0 22
0 0 22
0 0 24
0 0 27
0 0 27
0 0 27
0 0 27
0 0 27
0 0 27
0 0 27
0 0 29
0 0 31
0 0 33
0 0 34
0 0 33
0 0 32
0 0 33
0 0 32
0 0 32
0 0 33
0 0 35
0 0 36
0 0 39
0 0 39
0 0 42
0 10 43
0 14 46
0 14 47
0 14 49
0 14 51
0 14 53
0 14 56
0 20 57
0 21 58
0 21 58
0 21 60
0 21 61
0 20 62
0 20 60
0 21 57
0 14 54
0 14 52
0 15 50
0 14 48
0 14 46
0 14 45
0 11 43
0 0 36
0 8 40
0 0 38
0 0 36
0 8 37
0 11 39
0 12 39
0 14 39
0 14 39
0 12 42
0 14 44
0 12 43
0 10 43
0 8 42
0 14 43
0 5 42
0 2 39
0 0 39
0 0 37
0 0 35
0 0 35
0 0 35
0 0 36
0 0 35
0 0 35
0 0 35
0 0 35
0 1 36
0 5 39
0 0 37
0 0 35
0 0 36
0 0 35
0 0 35
0 0 35
0 0 35
0 0 35
0 0 35
0 0 35
0 0 35
0 0 33
0 0 33
0 0 32
0 0 32
0 0 31
0 0 26
0 0 22
11 31 68
26 56 106
19 52 102
51 70 102
74 77 80
53 44 23
61 53 31
49 47 27
16 18 5
14 24 8
18 33 10
12 27 0
13 27 0
19 31 0
12 25 0
14 26 0
14 25 0
15 29 0
16 30 0
14 29 0
14 30 0
13 28 0
14 25 0
13 28 0
14 27 0
14 28 0
13 26 0
13 25 0
11 25 0
8 25 0
9 24 0
14 28 0
14 26 0
14 29 0
14 30 0
13 29 0
15 29 0
17 32 0
13 26 0
13 26 0
13 30 0
11 26 0
17 32 0
14 30 0
6 26 0
9 25 0
16 31 7
9 26 0
14 29 0
13 29 0
22 37 12
14 30 0
14 28 0
14 31 0
17 33 0
18 33 0
20 31 0
36 40 13
47 47 20
52 51 25
53 50 22
59 56 30
59 54 30
64 54 32
67 55 34
58 46 25
62 50 29
71 56 36
71 55 36
75 57 39
82 66 48
62 52 31
55 52 34
51 46 31
55 53 34
38 45 20
21 46 64
2 14 41
0 0 21
0 0 10
0 0 15
0 0 0
0 0 8
0 0 0
0 0 6
0 0 19
0 7 40
135 144 162
222 236 255
222 236 255
222 236 255
222 236 255
222 236 255
222 236 255
222 236 255
222 236 255
222 236 255
222 236 255
222 236 255
222 236 255
222 236 255
222 236 255
222 236 255
222 236 255
222 236 255
222 236 255
222 236 255
222 236 255
222 236 255
222 236 255
222 236 255
222 236 255
222 236 255
222 236 255
222 236 255
222 236 255
222 236 255
222 236 255
222 236 255
222 236 255
222 236 255
222 236 255
222 236 255
222 236 255
222 236 255
222 236 255
222 236 255
222 236 255
222 236 255
222 236 255
222 236 255
222 236 255
222 236 255
222 236 255
222 236 255
222 236 255
222 236 255
222 236 255
222 236 255
222 236 255
222 236 255
222 236 255
222 236 255
222 236 255
222 236 255
222 236 255
222 236 255
222 236 255
222 236 255
222 236 255
222 236 255
222 236 255
222 236 255
222 236 255
222 236 255
222 236 255
222 236 255
222 236 255
222 236 255
222 236 255
222 236 255
222 236 255
222 236 255
222 236 255
222 236 255
222 236 255
222 236 255
222 236 255
222 236 255
222 236 255
222 236 255
222 236 255
222 236 255
222 236 255
222 236 255
222 236 255
222 236 255
222 236 255
222 236 255
222 236 255
222 236 255
222 236 255
222 236 255
222 236 255
222 236 255
222 236 255
222 236 255
222 236 255
222 236 255
222 236 255
222 236 255
222 236 255
222 236 255
222 236 255
222 236 255
222 236 255
222 236 255
222 236 255
222 236 255
222 236 255
222 236 255
222 236 255
222 236 255
222 236 255
222 236 255
222 236 255
222 236 255
222 236 255
222 236 255
222 236 255
222 236 255
222 236 255
222 236 255
222 236 255
222 236 255
222 236 255
222 236 255
222 236 255
222 236 255
222 236 255
222 236 255
222 236 255
222 236 255
222 236 255
222 236 255
222 236 255
222 236 255
222 236 255
222 236 255
222 236 255
222 236 255
222 236 255
222 236 255
222 236 255
222 236 255
222 236 255
222 236 255
222 236 255
222 236 255
222 236 255
222 236 255
222 236 255
222 236 255
222 236 255
222 236 255
222 236 255
222 236 255
222 236 255
222 236 255
222 236 255
222 236 255
222 236 255
222 236 255
222 236 255
222 236 255
222 236 255
222 236 255
222 236 255
222 236 255
222 236 255
222 236 255
222 236 255
222 236 255
222 236 255
222 236 255
222 236 255
222 236 255
222 236 255
222 236 255
222 236 255
222 236 255
222 236 255
222 236 255
222 236 255
155 165 181
0 13 47
0 2 23
3 4 13
0 0 11
0 0 12
0 0 11
0 0 4
0 0 0
0 0 6
0 0 9
0 0 13
0 0 18
0 0 25
0 0 32
4 18 50
4 18 54
0 11 47
0 3 37
0 0 33
0 0 30
0 0 27
0 0 22
0 0 22
0 0 22
0 0 22
0 0 22
0 0 22
0 0 22
0 0 22
0 0 22
0 0 22
0 0 22
0 0 22
0 0 24
0 0 27
0 0 27
0 0 27
0 0 27
0 0 27
0 0 27
0 0 28
0 0 30
0 0 31
0 0 32
0 0 35
0 0 35
0 0 32
0 0 35
0 0 34
0 0 32
0 0 32
0 0 34
0 5 37
0 0 39
0 0 41
0 6 43
0 14 46
0 14 49
0 14 48
0 14 49
0 14 52
0 14 53
0 14 57
0 19 58
0 21 59
0 21 60
0 21 61
0 21 62
0 21 60
0 20 58
0 18 55
0 14 53
0 14 51
0 14 49
0 14 48
0 14 46
0 14 44
0 12 42
0 0 34
0 0 36
0 0 35
0 0 33
0 0 34
0 0 36
0 8 38
0 12 39
0 14 39
0 9 40
0 11 43
0 11 43
0 2 42
0 0 41
0 14 43
0 6 40
0 0 39
0 0 38
0 0 35
0 0 35
0 0 35
0 0 35
0 0 35
0 0 35
0 0 35
0 0 35
0 0 35
0 0 35
0 0 37
0 0 36
0 0 35
0 0 35
0 0 35
0 0 35
0 0 35
0 0 35
0 0 35
0 0 35
0 0 35
0 0 35
0 0 32
0 0 32
0 0 33
0 0 32
0 0 28
0 0 25
0 0 17
2 17 47
16 47 96
21 56 120
31 55 106
72 85 100
61 59 47
61 52 34
59 55 39
22 23 9
8 17 0
8 23 0
11 24 0
16 29 0
20 32 0
14 28 0
14 28 0
14 27 0
17 31 1
19 34 9
14 30 0
14 29 0
14 29 0
13 27 0
14 26 0
13 26 0
13 29 0
13 27 0
13 25 0
11 25 0
14 25 0
14 26 0
15 29 0
14 29 0
14 30 0
14 29 0
16 31 0
17 33 5
19 34 0
14 29 0
14 28 0
15 31 0
13 28 0
14 27 0
14 29 0
12 26 0
11 28 0
11 27 0
14 29 0
14 30 0
14 30 0
21 37 13
15 31 1
14 30 0
15 33 0
16 34 0
18 33 0
20 31 1
43 48 21
53 52 26
53 51 24
62 58 30
59 55 29
55 51 26
58 51 28
58 48 26
59 47 26
58 46 25
63 49 28
75 59 39
75 59 40
74 59 39
66 58 37
57 50 33
56 51 36
50 50 28
33 44 20
19 44 71
5 14 35
0 0 16
0 0 13
0 0 9
0 0 0
0 0 4
0 0 0
0 0 7
0 0 22
0 11 46
165 176 194
222 236 255
222 236 255
222 236 255
222 236 255
222 236 255
222 236 255
222 236 255
222 236 255
222 236 255
222 236 255
222 236 255
222 236 255
222 236 255
222 236 255
222 236 255
222 236 255
222 236 255
222 236 255
222 236 255
222 236 255
222 236 255
222 236 255
222 236 255
222 236 255
222 236 255
222 236 255
222 236 255
222 236 255
222 236 255
222 236 255
222 236 255
222 236 255
222 236 255
222 236 255
222 236 255
222 236 255
222 236 255
222 236 255
222 236 255
222 236 255
222 236 255
222 236 255
222 236 255
222 236 255
222 236 255
222 236 255
222 236 255
222 236 255
222 236 255
222 236 255
222 236 255
222 236 255
222 236 255
222 236 255
222 236 255
222 236 255
222 236 255
222 236 255
222 236 255
222 236 255
222 236 255
222 236 255
222 236 255
222 236 255
222 236 255
222 236 255
222 236 255
222 236 255
222 236 255
222 236 255
222 236 255
222 236 255
222 236 255
222 236 255
222 236 255
222 236 255
222 236 255
222 236 255
222 236 255
222 236 255
222 236 255
222 236 255
222 236 255
222 236 255
222 236 255
222 236 255
222 236 255
222 236 255
222 236 255
222 236 255
222 236 255
222 236 255
222 236 255
222 236 255
222 236 255
222 236 255
222 236 255
222 236 255
222 236 255
222 236 255
222 236 255
222 236 255
222 236 255
222 236 255
222 236 255
222 236 255
222 236 255
222 236 255
222 236 255
222 236 255
222 236 255
222 236 255
222 236 255
222 236 255
222 236 255
222 236 255
222 236 255
222 236 255
222 236 255
222 236 255
222 236 255
222 236 255
222 236 255
222 236 255
222 236 255
222 236 255
222 236 255
222 236 255
222 236 255
222 236 255
222 236 255
222 236 255
222 236 255
222 236 255
222 236 255
222 236 255
222 236 255
222 236 255
222 236 255
222 236 255
222 236 255
222 236 255
222 236 255
222 236 255
222 236 255
222 236 255
222 236 255
222 236 255
222 236 255
222 236 255
222 236 255
222 236 255
222 236 255
222 236 255
222 236 255
222 236 255
222 236 255
222 236 255
222 236 255
222 236 255
222 236 255
222 236 255
222 236 255
222 236 255
222 236 255
222 236 255
222 236 255
222 236 255
222 236 255
222 236 255
222 236 255
222 236 255
222 236 255
222 236 255
222 236 255
222 236 255
222 236 255
222 236 255
222 236 255
222 236 255
222 236 255
222 236 255
222 236 255
222 236 255
222 236 255
222 236 255
182 193 210
0 17 53
0 3 27
6 8 19
0 0 11
0 0 14
0 0 14
0 0 12
0 0 11
0 0 14
0 0 15
0 0 13
0 0 15
0 0 21
0 0 30
0 11 44
13 30 67
6 21 58
0 6 38
0 3 35
0 0 33
0 0 27
0 0 25
0 0 22
0 0 21
0 0 20
0 0 21
0 0 22
0 0 22
0 0 22
0 0 22
0 0 25
0 0 26
0 0 27
0 0 28
0 0 31
0 0 31
0 0 29
0 0 29
0 0 30
0 0 30
0 0 31
0 0 33
0 0 33
0 0 35
0 0 33
0 0 35
0 0 35
0 0 35
0 0 34
0 0 32
0 0 32
0 0 35
0 0 36
0 0 41
0 0 42
0 0 43
0 13 46
0 15 50
0 14 49
0 14 50
0 14 53
0 15 55
0 15 57
0 16 58
0 21 60
0 20 61
0 21 62
0 20 61
0 21 58
0 21 57
0 17 55
0 14 52
0 14 50
0 14 48
0 14 46
0 14 44
0 14 42
0 13 41
0 0 35
0 0 36
0 0 35
0 0 33
0 0 34
0 0 35
0 0 35
0 0 36
0 0 36
0 7 39
0 0 42
0 0 41
0 10 44
0 13 44
0 14 44
0 7 41
0 7 39
0 2 37
0 0 35
0 0 35
0 0 35
0 0 35
0 0 35
0 0 35
0 0 35
0 0 35
0 0 35
0 0 35
0 0 35
0 0 35
0 0 35
0 0 35
0 0 35
0 0 35
0 0 35
0 0 35
0 0 35
0 0 35
0 0 35
0 0 35
0 0 29
0 0 30
0 0 33
0 0 34
0 0 29
0 0 25
0 0 16
0 7 30
14 38 85
18 53 118
24 55 114
42 62 85
67 70 66
66 56 44
54 48 35
40 39 24
15 18 0
17 24 0
11 24 0
14 27 0
19 32 6
23 37 11
14 26 0
12 25 0
14 27 0
14 28 0
14 26 0
14 27 0
18 32 0
18 32 0
15 30 0
14 29 0
13 29 0
14 27 0
13 25 0
11 25 0
12 26 0
13 26 0
13 29 0
14 28 0
13 26 0
13 30 0
19 34 6
14 29 1
15 30 0
15 29 2
24 40 15
13 28 3
12 26 0
14 28 0
12 26 0
9 24 0
15 31 0
14 30 0
13 28 0
15 31 0
13 29 0
23 39 11
16 32 4
15 32 0
14 31 0
14 32 0
20 35 0
29 39 8
44 48 21
52 51 26
56 51 26
58 53 27
56 52 26
56 51 24
61 52 28
53 46 19
54 46 26
54 43 22
58 47 25
69 56 34
75 60 40
66 52 36
65 53 39
77 66 45
58 53 32
52 54 30
26 42 26
14 32 63
3 6 25
0 0 19
0 0 13
0 0 7
0 0 0
0 0 0
0 0 0
0 0 6
0 1 28
0 15 50
175 186 206
222 236 255
222 236 255
222 236 255
222 236 255
222 236 255
222 236 255
222 236 255
222 236 255
222 236 255
222 236 255
222 236 255
222 236 255
222 236 255
222 236 255
222 236 255
222 236 255
222 236 255
222 236 255
222 236 255
222 236 255
222 236 255
222 236 255
222 236 255
222 236 255
222 236 255
222 236 255
222 236 255
222 236 255
222 236 255
222 236 255
222 236 255
222 236 255
222 236 255
222 236 255
222 236 255
222 236 255
222 236 255
222 236 255
222 236 255
222 236 255
222 236 255
222 236 255
222 236 255
222 236 255
222 236 255
222 236 255
222 236 255
222 236 255
222 236 255
222 236 255
222 236 255
222 236 255
222 236 255
222 236 255
222 236 255
222 236 255
222 236 255
222 236 255
222 236 255
222 236 255
222 236 255
222 236 255
222 236 255
222 236 255
222 236 255
222 236 255
222 236 255
222 236 255
222 236 255
222 236 255
222 236 255
222 236 255
222 236 255
222 236 255
222 236 255
222 236 255
222 236 255
222 236 255
222 236 255
222 236 255
222 236 255
222 236 255
222 236 255
222 236 255
222 236 255
222 236 255
222 236 255
222 236 255
222 236 255
222 236 255
222 236 255
222 236 255
222 236 255
222 236 255
222 236 255
222 236 255
222 236 255
222 236 255
222 236 255
222 236 255
222 236 255
222 236 255
222 236 255
222 236 255
222 236 255
222 236 255
222 236 255
222 236 255
222 236 255
222 236 255
222 236 255
222 236 255
222 236 255
222 236 255
222 236 255
222 236 255
222 236 255
222 236 255
222 236 255
222 236 255
222 236 255
222 236 255
222 236 255
222 236 255
222 236 255
222 236 255
222 236 255
222 236 255
222 236 255
222 236 255
222 236 255
222 236 255
222 236 255
222 236 255
222 236 255
222 236 255
222 236 255
222 236 255
222 236 255
222 236 255
222 236 255
222 236 255
222 236 255
222 236 255
222 236 255
222 236 255
222 236 255
222 236 255
222 236 255
222 236 255
222 236 255
222 236 255
222 236 255
222 236 255
222 236 255
222 236 255
222 236 255
222 236 255
222 236 255
222 236 255
222 236 255
222 236 255
222 236 255
222 236 255
222 236 255
222 236 255
222 236 255
222 236 255
222 236 255
222 236 255
222 236 255
222 236 255
222 236 255
222 236 255
222 236 255
222 236 255
222 236 255
222 236 255
222 236 255
222 236 255
222 236 255
222 236 255
222 236 255
222 236 255
222 236 255
222 236 255
206 219 237
1 17 54
0 7 32
0 0 15
0 0 10
0 0 8
0 0 15
0 0 13
0 0 13
0 0 16
0 0 16
0 0 16
0 0 16
0 0 20
0 0 28
0 1 37
6 23 56
5 24 60
0 15 50
0 5 37
0 0 34
0 0 30
0 0 27
0 0 22
0 0 22
0 0 22
0 0 23
0 0 24
0 0 23
0 0 24
0 0 25
0 0 27
0 0 27
0 0 29
0 0 32
0 0 32
0 0 35
0 0 35
0 0 36
0 0 37
0 0 37
0 0 36
0 0 35
0 0 35
0 0 36
0 0 35
0 0 35
0 0 35
0 0 35
0 0 33
0 0 34
0 0 35
0 0 36
0 0 37
0 0 40
0 0 42
0 3 43
0 14 46
0 14 50
0 14 51
0 14 53
0 19 55
0 20 57
0 21 59
0 21 60
0 21 63
0 21 62
0 21 62
0 20 60
0 21 57
0 20 57
0 19 53
0 14 51
0 14 49
0 14 48
0 14 45
0 14 44
0 9 40
0 7 39
0 0 35
0 0 35
0 0 35
0 0 35
0 0 35
0 0 34
0 0 35
0 0 35
0 0 35
0 3 36
0 0 37
0 0 39
0 8 42
0 14 47
0 14 50
0 11 44
0 6 40
0 6 39
0 0 39
0 0 39
0 0 38
0 4 38
0 3 39
0 0 38
0 0 39
0 0 39
0 0 38
0 0 38
0 0 34
0 0 35
0 0 35
0 0 35
0 0 34
0 0 32
0 0 32
0 0 32
0 0 32
0 0 32
0 0 30
0 0 30
0 0 25
0 0 29
0 0 34
0 0 35
0 0 32
0 0 22
0 0 16
0 1 18
15 25 59
23 51 95
20 59 106
21 53 98
64 73 89
62 60 56
51 46 34
54 49 39
25 22 16
21 22 0
14 24 0
16 30 0
21 37 13
23 40 16
14 28 1
14 26 0
14 27 0
14 29 0
14 27 0
14 25 0
16 29 0
17 30 0
14 29 0
16 32 0
16 32 0
14 30 0
11 27 0
15 31 4
17 33 6
13 27 0
14 31 0
15 30 0
16 32 0
16 33 3
29 44 19
20 34 9
16 29 0
22 34 11
20 35 11
15 30 2
14 28 0
14 26 0
12 27 0
13 27 0
14 29 0
14 30 0
17 32 0
12 27 0
13 30 0
20 38 0
19 35 0
17 32 0
14 32 0
14 33 0
22 37 4
34 40 10
43 47 20
42 40 15
58 52 28
62 56 31
55 52 25
58 52 26
59 49 24
53 46 20
56 48 28
52 41 19
64 52 32
73 60 39
72 58 37
65 53 34
75 63 41
69 58 38
62 60 38
36 43 13
25 43 49
4 12 46
0 0 15
0 0 15
0 0 12
0 0 7
0 0 0
0 0 0
0 0 0
0 0 11
0 1 30
0 16 53
210 223 242
222 236 255
222 236 255
222 236 255
222 236 255
222 236 255
222 236 255
222 236 255
222 236 255
222 236 255
222 236 255
222 236 255
222 236 255
222 236 255
222 236 255
222 236 255
222 236 255
222 236 255
222 236 255
222 236 255
222 236 255
222 236 255
222 236 255
222 236 255
222 236 255
222 236 255
222 236 255
222 236 255
222 236 255
222 236 255
222 236 255
222 236 255
222 236 255
222 236 255
222 236 255
222 236 255
222 236 255
222 236 255
222 236 255
222 236 255
222 236 255
222 236 255
222 236 255
222 236 255
222 236 255
222 236 255
222 236 255
222 236 255
222 236 255
222 236 255
222 236 255
222 236 255
222 236 255
222 236 255
222 236 255
222 236 255
222 236 255
222 236 255
222 236 255
222 236 255
222 236 255
222 236 255
222 236 255
222 236 255
222 236 255
222 236 255
222 236 255
222 236 255
222 236 255
222 236 255
222 236 255
222 236 255
222 236 255
222 236 255
222 236 255
222 236 255
222 236 255
222 236 255
222 236 255
222 236 255
222 236 255
222 236 255
222 236 255
222 236 255
222 236 255
222 236 255
222 236 255
222 236 255
222 236 255
222 236 255
222 236 255
222 236 255
222 236 255
222 236 255
222 236 255
222 236 255
222 236 255
222 236 255
222 236 255
222 236 255
222 236 255
222 236 255
222 236 255
222 236 255
222 236 255
222 236 255
222 236 255
222 236 255
222 236 255
222 236 255
222 236 255
222 236 255
222 236 255
222 236 255
222 236 255
222 236 255
222 236 255
222 236 255
222 236 255
222 236 255
222 236 255
222 236 255
222 236 255
222 236 255
222 236 255
222 236 255
222 236 255
222 236 255
222 236 255
222 236 255
222 236 255
222 236 255
222 236 255
222 236 255
222 236 255
222 236 255
222 236 255
222 236 255
222 236 255
222 236 255
222 236 255
222 236 255
222 236 255
222 236 255
222 236 255
222 236 255
222 236 255
222 236 255
222 236 255
222 236 255
222 236 255
222 236 255
222 236 255
222 236 255
222 236 255
222 236 255
222 236 255
222 236 255
222 236 255
222 236 255
222 236 255
222 236 255
222 236 255
222 236 255
222 236 255
222 236 255
222 236 255
222 236 255
222 236 255
222 236 255
222 236 255
222 236 255
222 236 255
222 236 255
222 236 255
222 236 255
222 236 255
222 236 255
222 236 255
222 236 255
222 236 255
222 236 255
222 236 255
222 236 255
222 236 255
222 236 255
222 236 255
222 236 255
70 75 91
0 17 49
0 0 12
0 0 6
0 0 10
8 10 25
0 0 16
0 3 22
0 0 16
0 0 16
0 0 16
0 0 16
0 0 16
0 0 25
0 0 33
0 8 40
4 22 58
13 31 70
0 11 45
0 0 35
0 0 32
0 0 30
0 0 26
0 0 26
0 0 26
0 0 27
0 0 27
0 0 27
0 0 27
0 0 27
0 0 29
0 0 30
0 0 33
0 0 34
0 0 36
0 0 37
0 0 37
0 0 39
0 0 39
0 0 39
0 0 39
0 0 39
0 0 38
0 4 39
0 0 38
0 0 37
0 0 37
0 0 35
0 0 35
0 0 35
0 0 35
0 0 37
0 0 39
0 0 41
0 8 43
0 12 46
0 15 48
0 14 50
0 14 52
0 15 55
0 21 56
0 21 59
0 21 61
0 21 62
0 21 63
0 20 61
0 21 60
0 21 58
0 20 57
0 18 54
0 16 52
0 14 50
0 14 48
0 14 48
0 14 45
0 14 44
0 5 39
0 0 37
0 0 33
0 0 32
0 0 32
0 0 32
0 0 32
0 0 32
0 0 32
0 0 34
0 0 35
0 0 35
0 0 35
0 0 39
0 6 41
0 10 45
0 14 46
0 9 43
0 6 40
0 9 41
0 0 39
0 0 40
0 0 40
0 0 40
0 0 38
0 0 38
0 0 39
0 0 39
0 0 39
0 0 39
0 0 35
0 0 35
0 0 35
0 0 35
0 0 34
0 0 32
0 0 32
0 0 32
0 0 32
0 0 31
0 0 27
0 0 27
0 0 23
0 0 28
0 0 32
0 0 33
0 0 30
0 0 20
0 0 15
0 0 17
0 4 31
12 40 78
20 60 105
20 56 107
49 63 87
79 87 92
64 59 46
69 59 43
40 35 21
12 18 0
15 27 0
15 29 0
16 32 5
16 32 3
14 27 0
14 26 0
14 29 0
14 29 0
14 26 0
13 25 0
14 26 0
14 27 0
15 30 0
19 33 0
20 34 0
18 33 0
11 27 0
17 32 5
16 31 4
10 27 0
14 30 0
14 29 0
17 33 5
21 36 6
23 37 9
25 38 14
22 32 7
24 36 12
15 28 5
15 30 0
14 30 0
14 30 0
19 34 5
15 28 0
18 31 0
20 32 6
20 32 2
21 33 5
19 32 0
20 34 4
22 36 5
16 30 0
15 30 0
17 32 0
30 40 11
43 47 21
41 44 17
49 45 21
60 54 30
62 55 30
55 52 25
66 58 34
65 55 31
62 54 31
61 50 32
56 45 24
75 63 42
80 66 46
71 58 34
80 70 46
67 59 33
55 47 28
53 56 31
34 47 29
21 36 57
0 7 37
0 0 12
0 0 14
0 0 12
0 0 5
0 0 0
0 0 0
0 0 0
0 0 13
0 5 31
38 45 70
222 236 255
222 236 255
222 236 255
222 236 255
222 236 255
222 236 255
222 236 255
222 236 255
222 236 255
222 236 255
222 236 255
222 236 255
222 236 255
222 236 255
222 236 255
222 236 255
222 236 255
222 236 255
222 236 255
222 236 255
222 236 255
222 236 255
222 236 255
222 236 255
222 236 255
222 236 255
222 236 255
222 236 255
222 236 255
222 236 255
222 236 255
222 236 255
222 236 255
222 236 255
222 236 255
222 236 255
222 236 255
222 236 255
222 236 255
222 236 255
222 236 255
222 236 255
222 236 255
222 236 255
222 236 255
222 236 255
222 236 255
222 236 255
222 236 255
222 236 255
222 236 255
222 236 255
222 236 255
222 236 255
222 236 255
222 236 255
222 236 255
222 236 255
222 236 255
222 236 255
222 236 255
222 236 255
222 236 255
222 236 255
222 236 255
222 236 255
222 236 255
222 236 255
222 236 255
222 236 255
222 236 255
222 236 255
222 236 255
222 236 255
222 236 255
222 236 255
222 236 255
222 236 255
222 236 255
222 236 255
222 236 255
222 236 255
222 236 255
222 236 255
222 236 255
222 236 255
222 236 255
222 236 255
222 236 255
222 236 255
222 236 255
222 236 255
222 236 255
222 236 255
222 236 255
222 236 255
222 236 255
222 236 255
222 236 255
222 236 255
222 236 255
222 236 255
222 236 255
222 236 255
222 236 255
222 236 255
222 236 255
222 236 255
222 236 255
222 236 255
222 236 255
222 236 255
222 236 255
222 236 255
222 236 255
222 236 255
222 236 255
222 236 255
222 236 255
222 236 255
222 236 255
222 236 255
222 236 255
222 236 255
222 236 255
222 236 255
222 236 255
222 236 255
222 236 255
222 236 255
222 236 255
222 236 255
222 236 255
222 236 255
222 236 255
222 236 255
222 236 255
222 236 255
222 236 255
222 236 255
222 236 255
222 236 255
222 236 255
222 236 255
222 236 255
222 236 255
222 236 255
222 236 255
222 236 255
222 236 255
222 236 255
222 236 255
222 236 255
222 236 255
222 236 255
222 236 255
222 236 255
222 236 255
222 236 255
222 236 255
222 236 255
222 236 255
222 236 255
222 236 255
222 236 255
222 236 255
222 236 255
222 236 255
222 236 255
222 236 255
222 236 255
222 236 255
222 236 255
222 236 255
222 236 255
222 236 255
222 236 255
222 236 255
222 236 255
222 236 255
222 236 255
222 236 255
222 236 255
222 236 255
222 236 255
222 236 255
222 236 255
222 236 255
111 118 131
0 20 59
0 0 13
0 0 8
0 0 12
1 2 16
0 0 16
0 0 19
0 0 16
0 0 17
0 0 16
0 0 16
0 0 17
0 0 24
0 0 31
0 0 34
1 11 44
6 23 61
2 13 49
0 5 37
0 0 34
0 0 33
0 0 32
0 0 30
0 0 30
0 0 31
0 0 28
0 0 30
0 0 31
0 0 31
0 0 31
0 0 33
0 0 37
0 0 38
0 8 39
0 4 39
0 0 39
0 0 39
0 7 40
0 10 40
0 10 40
0 9 40
0 9 40
0 13 40
0 10 40
0 7 40
0 8 40
0 9 38
0 8 37
0 2 37
0 0 38
0 0 39
0 6 41
0 13 47
0 14 48
0 14 48
0 14 50
0 14 53
0 16 54
0 18 55
0 21 57
0 21 60
0 21 62
0 21 63
0 22 62
0 21 59
0 21 58
0 18 56
0 15 53
0 14 53
0 14 52
0 14 50
0 14 48
0 14 48
0 14 45
0 5 41
0 0 37
0 0 35
0 0 32
0 0 31
0 0 32
0 0 32
0 0 32
0 0 32
0 0 32
0 0 32
0 0 35
0 0 35
0 0 36
0 6 41
0 12 42
0 5 42
0 10 45
0 12 44
0 14 45
0 12 45
0 11 44
0 11 44
0 2 42
0 0 40
0 0 36
0 0 38
0 0 39
0 0 39
0 0 39
0 0 39
0 0 35
0 0 35
0 0 34
0 0 35
0 0 34
0 0 32
0 0 32
0 0 32
0 0 32
0 0 31
0 0 27
0 0 27
0 0 25
0 0 28
0 0 32
0 0 32
0 0 29
0 0 23
0 0 17
0 0 18
0 0 25
4 23 57
18 54 101
17 55 109
26 54 90
68 84 97
65 62 50
74 60 39
50 43 26
24 29 11
14 21 0
16 26 0
16 30 0
12 28 0
13 27 0
11 24 0
14 26 0
13 26 0
10 23 0
14 27 0
16 30 0
14 29 0
17 32 0
18 33 0
15 31 0
20 35 0
27 41 13
26 41 15
19 34 6
20 34 7
19 32 0
16 31 0
21 35 9
16 30 0
19 31 4
32 45 19
29 40 14
30 41 16
16 27 0
14 26 0
14 30 0
13 30 0
21 36 8
20 33 2
23 35 6
32 43 17
30 38 12
40 49 22
35 45 17
39 50 25
28 41 14
25 38 11
19 31 3
28 35 7
30 35 7
48 51 26
38 39 9
49 46 21
64 57 34
56 50 24
59 54 29
81 71 48
71 59 36
67 58 36
60 49 30
64 51 32
72 58 37
69 57 35
63 52 28
65 56 33
57 52 29
43 42 17
41 48 27
26 42 51
3 14 44
0 0 29
0 0 8
0 0 15
0 0 10
0 0 1
0 0 0
0 0 0
0 0 0
0 0 16
0 5 33
124 132 149
222 236 255
222 236 255
222 236 255
222 236 255
222 236 255
222 236 255
222 236 255
222 236 255
222 236 255
222 236 255
222 236 255
222 236 255
222 236 255
222 236 255
222 236 255
222 236 255
222 236 255
222 236 255
222 236 255
222 236 255
222 236 255
222 236 255
222 236 255
222 236 255
222 236 255
222 236 255
222 236 255
222 236 255
222 236 255
222 236 255
222 236 255
222 236 255
222 236 255
222 236 255
222 236 255
222 236 255
222 236 255
222 236 255
222 236 255
222 236 255
222 236 255
222 236 255
222 236 255
222 236 255
222 236 255
222 236 255
222 236 255
222 236 255
222 236 255
222 236 255
222 236 255
222 236 255
222 236 255
222 236 255
222 236 255
222 236 255
222 236 255
222 236 255
222 236 255
222 236 255
222 236 255
222 236 255
222 236 255
222 236 255
222 236 255
222 236 255
222 236 255
222 236 255
222 236 255
222 236 255
222 236 255
222 236 255
222 236 255
222 236 255
222 236 255
222 236 255
222 236 255
222 236 255
222 236 255
222 236 255
222 236 255
222 236 255
222 236 255
222 236 255
222 236 255
222 236 255
222 236 255
222 236 255
222 236 255
222 236 255
222 236 255
222 236 255
222 236 255
222 236 255
222 236 255
222 236 255
222 236 255
222 236 255
222 236 255
222 236 255
222 236 255
222 236 255
222 236 255
222 236 255
222 236 255
222 236 255
222 236 255
222 236 255
222 236 255
222 236 255
222 236 255
222 236 255
222 236 255
222 236 255
222 236 255
222 236 255
222 236 255
222 236 255
222 236 255
222 236 255
222 236 255
222 236 255
222 236 255
222 236 255
222 236 255
222 236 255
222 236 255
222 236 255
222 236 255
222 236 255
222 236 255
222 236 255
222 236 255
222 236 255
222 236 255
222 236 255
222 236 255
222 236 255
222 236 255
222 236 255
222 236 255
222 236 255
222 236 255
222 236 255
222 236 255
222 236 255
222 236 255
222 236 255
222 236 255
222 236 255
222 236 255
222 236 255
222 236 255
222 236 255
222 236 255
222 236 255
222 236 255
222 236 255
222 236 255
222 236 255
222 236 255
222 236 255
222 236 255
222 236 255
222 236 255
222 236 255
222 236 255
222 236 255
222 236 255
222 236 255
222 236 255
222 236 255
222 236 255
222 236 255
222 236 255
222 236 255
222 236 255
222 236 255
222 236 255
222 236 255
222 236 255
222 236 255
222 236 255
222 236 255
222 236 255
222 236 255
222 236 255
222 236 255
146 155 168
0 22 64
0 4 21
0 0 10
0 0 6
0 0 14
0 0 19
0 0 21
0 0 19
0 0 21
0 0 19
0 0 16
0 0 19
0 0 24
0 0 26
0 0 32
0 0 38
5 16 49
4 17 48
0 7 39
0 4 36
0 6 36
0 4 35
0 0 35
0 0 35
0 0 34
0 0 33
0 0 34
0 0 33
0 0 35
0 0 34
0 0 35
0 0 38
0 0 39
0 0 39
0 0 39
0 10 41
0 13 42
0 11 41
0 10 40
0 14 42
0 15 42
0 14 42
0 14 42
0 14 42
0 14 42
0 14 42
0 14 42
0 14 39
0 9 39
0 0 39
0 2 41
0 12 45
0 14 47
0 14 49
0 14 51
0 15 53
0 17 55
0 21 57
0 21 57
0 21 58
0 21 60
0 21 63
0 21 64
0 21 62
0 21 59
0 21 57
0 20 55
0 15 54
0 14 52
0 14 50
0 14 49
0 14 48
0 14 46
0 14 45
0 0 39
0 0 35
0 0 34
0 0 30
0 0 29
0 0 31
0 0 30
0 0 32
0 0 32
0 0 32
0 0 32
0 0 34
0 0 37
0 0 38
0 5 40
0 11 42
0 14 45
0 14 47
0 14 45
0 13 47
0 12 48
0 16 49
0 14 47
0 14 46
0 8 43
0 0 39
0 0 39
0 0 39
0 0 39
0 0 39
0 0 39
0 0 35
0 0 35
0 0 35
0 0 35
0 0 35
0 0 35
0 0 32
0 0 32
0 0 32
0 0 31
0 0 27
0 0 27
0 0 27
0 0 27
0 0 30
0 0 31
0 0 27
0 0 22
0 0 20
0 0 21
0 0 21
0 7 35
10 33 76
15 53 106
20 55 102
53 73 95
68 70 65
63 52 32
59 51 30
42 45 24
25 28 7
19 27 5
19 31 0
6 24 0
13 27 0
12 26 0
13 25 0
17 29 0
14 25 0
15 27 0
16 30 0
14 29 0
16 30 0
20 32 0
19 32 0
21 35 2
32 46 19
37 50 27
22 35 11
20 32 7
15 27 0
21 33 9
19 32 6
23 36 7
30 43 16
38 50 23
37 48 20
32 42 17
18 27 0
20 31 0
17 31 0
18 33 1
22 37 8
25 37 6
27 37 5
32 40 12
32 37 12
46 52 25
50 55 28
50 58 34
32 42 17
29 40 17
26 34 11
47 51 28
47 48 24
51 50 26
42 43 16
47 43 18
63 56 33
58 52 27
65 58 34
83 72 49
67 56 34
57 46 24
56 44 26
63 49 29
71 56 36
68 56 32
58 47 27
57 48 29
54 51 33
45 48 17
31 41 36
13 29 62
0 10 38
0 0 32
0 0 9
0 0 15
0 0 10
0 0 0
0 0 0
0 0 0
0 0 7
0 0 17
0 8 38
152 162 180
222 236 255
222 236 255
222 236 255
222 236 255
222 236 255
222 236 255
222 236 255
222 236 255
222 236 255
222 236 255
222 236 255
222 236 255
222 236 255
222 236 255
222 236 255
222 236 255
222 236 255
222 236 255
222 236 255
222 236 255
222 236 255
222 236 255
222 236 255
222 236 255
222 236 255
222 236 255
222 236 255
222 236 255
222 236 255
222 236 255
222 236 255
222 236 255
222 236 255
222 236 255
222 236 255
222 236 255
222 236 255
222 236 255
222 236 255
222 236 255
222 236 255
222 236 255
222 236 255
222 236 255
222 236 255
222 236 255
222 236 255
222 236 255
222 236 255
222 236 255
222 236 255
222 236 255
222 236 255
222 236 255
222 236 255
222 236 255
222 236 255
222 236 255
222 236 255
222 236 255
222 236 255
222 236 255
222 236 255
222 236 255
222 236 255
222 236 255
222 236 255
222 236 255
222 236 255
222 236 255
222 236 255
222 236 255
222 236 255
222 236 255
222 236 255
222 236 255
222 236 255
222 236 255
222 236 255
222 236 255
222 236 255
222 236 255
222 236 255
222 236 255
222 236 255
222 236 255
222 236 255
222 236 255
222 236 255
222 236 255
222 236 255
222 236 255
222 236 255
222 236 255
222 236 255
222 236 255
222 236 255
222 236 255
222 236 255
222 236 255
222 236 255
222 236 255
222 236 255
222 236 255
222 236 255
222 236 255
222 236 255
222 236 255
222 236 255
222 236 255
222 236 255
222 236 255
222 236 255
222 236 255
222 236 255
222 236 255
222 236 255
222 236 255
222 236 255
222 236 255
222 236 255
222 236 255
222 236 255
222 236 255
222 236 255
222 236 255
222 236 255
222 236 255
222 236 255
222 236 255
222 236 255
222 236 255
222 236 255
222 236 255
222 236 255
222 236 255
222 236 255
222 236 255
222 236 255
222 236 255
222 236 255
222 236 255
222 236 255
222 236 255
222 236 255
222 236 255
222 236 255
222 236 255
222 236 255
222 236 255
222 236 255
222 236 255
222 236 255
222 236 255
222 236 255
222 236 255
222 236 255
223 236 255
223 236 255
222 236 255
223 236 255
223 236 255
223 236 255
223 236 255
222 236 255
223 236 255
223 236 255
223 236 255
222 236 255
223 236 255
223 236 255
223 236 255
223 236 255
223 236 255
223 236 255
223 236 255
223 236 255
223 236 255
223 236 255
223 236 255
223 236 255
223 236 255
223 236 255
223 236 255
223 236 255
223 236 255
223 236 255
223 236 255
191 203 220
0 21 56
0 10 29
0 0 13
0 0 9
0 0 12
0 0 18
0 0 16
0 0 16
0 0 20
0 0 21
0 0 21
0 0 23
0 0 25
0 0 22
0 0 27
0 0 34
0 7 40
0 4 37
0 3 39
0 2 37
0 6 36
0 3 36
0 0 35
0 0 35
0 0 38
0 5 39
0 6 38
0 0 36
0 0 36
0 0 35
0 0 35
0 0 39
0 7 42
0 0 41
0 0 42
0 6 42
0 8 43
0 9 43
0 13 43
0 14 44
0 14 45
0 14 43
0 14 43
0 14 45
0 14 45
0 14 44
0 14 44
0 15 41
0 14 41
0 12 41
0 13 44
0 15 47
0 14 48
0 15 49
0 14 51
0 14 53
0 18 56
0 20 57
0 18 58
0 21 59
0 21 62
0 21 64
0 21 64
0 21 61
0 20 58
0 18 55
0 15 54
0 15 51
0 15 50
0 14 49
0 14 48
0 15 48
0 14 46
0 11 44
0 0 38
0 0 33
0 0 31
0 0 27
0 0 27
0 0 27
0 0 29
0 0 32
0 0 32
0 0 32
0 0 32
0 0 33
0 0 37
0 0 39
0 4 40
0 11 42
0 11 44
0 14 47
0 14 48
0 14 46
0 17 51
0 16 49
0 14 47
0 14 48
0 13 46
0 0 39
0 0 39
0 0 39
0 0 39
0 0 39
0 0 39
0 0 35
0 0 35
0 0 35
0 0 35
0 0 35
0 0 35
0 0 32
0 0 32
0 0 32
0 0 31
0 0 27
0 0 27
0 0 28
0 0 27
0 0 27
0 0 28
0 0 25
0 0 25
0 0 26
0 0 21
0 0 16
0 0 20
0 13 48
9 42 88
16 53 107
34 57 90
72 81 87
58 52 40
65 57 40
53 50 26
34 32 8
17 21 0
16 26 0
6 23 0
13 28 0
14 30 0
14 27 0
14 28 0
14 27 0
14 26 0
14 26 0
15 29 0
20 31 0
22 33 0
21 33 6
23 35 8
28 39 14
21 33 11
15 26 0
15 27 0
17 28 0
26 37 12
19 31 6
19 31 3
27 39 11
27 37 9
47 57 28
41 49 22
25 32 4
18 28 0
14 28 0
15 30 0
23 37 5
25 36 6
28 36 8
26 30 3
30 31 4
42 43 15
55 58 33
44 50 27
30 38 14
18 29 4
34 42 19
52 53 31
53 51 28
38 37 12
37 37 7
51 47 22
62 56 32
57 51 26
66 58 34
85 73 51
60 48 25
57 46 25
60 47 28
70 56 36
70 55 35
75 65 42
58 48 27
63 52 37
59 57 36
39 47 24
22 33 51
0 16 53
0 4 29
0 0 27
0 0 21
0 0 8
0 0 2
0 0 0
0 0 0
0 0 0
0 0 8
0 0 19
0 14 45
187 199 217
223 236 255
223 236 255
223 236 255
223 236 255
223 236 255
223 236 255
223 236 255
223 236 255
223 236 255
223 236 255
223 236 255
223 236 255
223 236 255
223 236 255
223 236 255
223 236 255
223 236 255
223 236 255
223 236 255
223 236 255
223 236 255
223 236 255
223 236 255
223 236 255
223 236 255
223 236 255
222 236 255
223 236 255
222 236 255
223 236 255
223 236 255
222 236 255
223 236 255
222 236 255
222 236 255
222 236 255
222 236 255
222 236 255
222 236 255
222 236 255
222 236 255
222 236 255
222 236 255
222 236 255
222 236 255
222 236 255
222 236 255
222 236 255
222 236 255
222 236 255
222 236 255
222 236 255
222 236 255
222 236 255
222 236 255
222 236 255
222 236 255
222 236 255
222 236 255
222 236 255
222 236 255
222 236 255
222 236 255
222 236 255
222 236 255
222 236 255
222 236 255
222 236 255
222 236 255
222 236 255
222 236 255
222 236 255
222 236 255
222 236 255
222 236 255
222 236 255
222 236 255
222 236 255
222 236 255
222 236 255
222 236 255
222 236 255
222 236 255
222 236 255
222 236 255
222 236 255
222 236 255
222 236 255
222 236 255
222 236 255
222 236 255
222 236 255
222 236 255
222 236 255
223 236 255
223 236 255
223 236 255
223 236 255
223 236 255
223 236 255
223 236 255
223 236 255
223 236 255
223 236 255
223 236 255
223 236 255
223 236 255
223 236 255
223 236 255
223 236 255
223 236 255
223 236 255
223 236 255
223 236 255
223 236 255
223 236 255
223 236 255
223 236 255
223 236 255
223 236 255
223 236 255
223 236 255
223 236 255
223 236 255
223 236 255
223 236 255
223 236 255
223 236 255
223 236 255
223 236 255
223 236 255
223 236 255
223 236 255
223 236 255
223 236 255
223 236 255
223 236 255
223 236 255
223 236 255
223 236 255
223 236 255
223 236 255
223 236 255
223 236 255
223 236 255
223 236 255
223 236 255
223 236 255
223 236 255
223 236 255
223 236 255
223 236 255
223 236 255
223 236 255
223 236 255
223 236 255
223 236 255
223 236 255
223 236 255
223 236 255
223 236 255
223 236 255
223 236 255
223 236 255
223 236 255
223 236 255
223 236 255
223 236 255
223 236 255
223 236 255
223 236 255
223 236 255
223 236 255
223 236 255
223 236 255
223 236 255
223 236 255
223 236 255
223 236 255
223 236 255
223 236 255
223 236 255
223 236 255
223 236 255
223 236 255
223 236 255
223 236 255
223 236 255
212 225 244
1 16 43
5 18 42
0 0 10
0 0 12
0 0 9
0 0 16
0 0 15
0 0 12
0 0 17
0 0 21
0 0 19
0 0 23
0 0 20
0 0 22
0 0 26
0 0 31
0 6 37
0 3 42
0 1 41
0 0 39
0 0 37
0 0 35
0 0 35
0 0 36
0 1 41
0 6 42
0 2 42
0 0 39
0 0 40
0 0 39
0 0 38
0 3 39
0 13 42
0 8 42
0 0 42
0 0 42
0 0 42
0 11 42
0 14 45
0 14 45
0 15 45
0 14 44
0 14 44
0 14 47
0 14 47
0 14 47
0 14 47
0 14 45
0 15 44
0 14 44
0 14 47
0 14 48
0 14 50
0 15 53
0 14 53
0 14 54
0 18 56
0 20 58
0 16 58
0 21 60
0 21 63
0 21 65
0 21 64
0 20 60
0 20 57
0 17 54
0 15 51
0 14 50
0 14 48
0 14 48
0 14 48
0 14 47
0 14 45
0 8 43
0 0 37
0 4 35
0 0 32
0 0 30
0 0 28
0 0 27
0 0 27
0 0 31
0 0 32
0 0 32
0 0 32
0 0 34
0 0 37
0 0 39
0 5 40
0 12 42
0 4 42
0 14 46
0 14 47
0 14 47
0 14 47
0 15 47
0 15 49
0 14 48
0 13 46
0 0 40
0 0 39
0 0 39
0 0 39
0 0 39
0 0 38
0 0 35
0 0 35
0 0 35
0 0 35
0 0 35
0 0 35
0 0 32
0 0 32
0 0 32
0 0 31
0 0 27
0 0 27
0 0 30
0 0 27
0 0 27
0 0 25
0 0 22
0 0 27
0 0 27
0 0 22
0 0 15
0 0 15
0 1 27
0 26 65
10 44 99
21 50 90
56 70 83
66 68 68
63 54 39
72 61 37
42 37 14
20 21 0
17 26 0
8 24 0
9 27 0
13 30 5
10 24 0
14 27 0
14 27 0
14 26 0
14 26 0
14 26 0
17 28 0
23 32 6
29 39 18
23 34 12
17 27 2
15 26 0
15 26 0
21 32 6
19 30 0
20 30 3
13 26 0
12 24 0
14 26 0
21 31 5
41 51 23
50 58 33
36 45 20
27 38 11
14 27 0
14 29 0
31 45 18
36 47 23
36 45 21
45 49 26
38 39 16
40 41 15
35 37 11
32 39 14
26 39 13
14 28 0
29 34 11
52 46 27
50 44 22
47 47 23
41 42 17
56 51 29
61 54 30
60 53 28
61 50 27
83 70 46
70 59 37
57 48 25
61 50 29
62 49 28
60 46 23
68 60 36
51 44 20
65 54 36
48 49 21
28 40 40
8 21 49
0 12 43
0 6 29
0 2 31
0 7 32
0 0 2
0 0 0
0 0 0
0 0 0
0 0 0
0 0 8
0 0 19
0 16 49
216 229 248
223 236 255
223 236 255
223 236 255
223 236 255
223 236 255
223 236 255
223 236 255
223 236 255
223 236 255
223 236 255
223 236 255
223 236 255
223 236 255
223 236 255
223 236 255
223 236 255
223 236 255
223 236 255
223 236 255
223 236 255
223 236 255
223 236 255
223 236 255
223 236 255
223 236 255
223 236 255
223 236 255
223 236 255
223 236 255
223 236 255
223 236 255
223 236 255
223 236 255
223 236 255
223 236 255
223 236 255
223 236 255
223 236 255
223 236 255
223 236 255
223 236 255
223 236 255
223 236 255
223 236 255
223 236 255
223 236 255
223 236 255
223 236 255
223 236 255
223 236 255
223 236 255
223 236 255
223 236 255
223 236 255
223 236 255
223 236 255
223 236 255
223 236 255
223 236 255
223 236 255
223 236 255
223 236 255
223 236 255
223 236 255
223 236 255
223 236 255
223 236 255
223 236 255
223 236 255
223 236 255
223 236 255
223 236 255
223 236 255
223 236 255
223 236 255
223 236 255
223 236 255
223 236 255
223 236 255
223 236 255
223 236 255
223 236 255
223 236 255
223 236 255
223 236 255
223 236 255
223 236 255
223 236 255
223 236 255
223 236 255
223 236 255
223 236 255
223 236 255
223 236 255
223 236 255
223 236 255
223 236 255
223 236 255
223 236 255
223 236 255
223 236 255
223 236 255
223 236 255
223 236 255
223 236 255
223 236 255
223 236 255
223 236 255
223 236 255
223 236 255
223 236 255
223 236 255
223 236 255
223 236 255
223 236 255
223 236 255
223 236 255
223 236 255
223 236 255
223 236 255
223 236 255
223 236 255
223 236 255
223 236 255
223 236 255
223 236 255
223 236 255
223 236 255
223 236 255
223 236 255
223 236 255
223 236 255
223 236 255
223 236 255
223 236 255
223 236 255
223 236 255
223 236 255
223 236 255
223 236 255
223 236 255
223 236 255
223 236 255
223 236 255
223 236 255
223 236 255
223 236 255
223 236 255
223 236 255
223 236 255
223 236 255
223 236 255
223 236 255
223 236 255
223 236 255
223 236 255
223 236 255
223 236 255
223 236 255
223 236 255
223 236 255
223 236 255
223 236 255
223 236 255
223 236 255
223 236 255
223 236 255
223 236 255
223 236 255
223 236 255
223 236 255
223 236 255
223 236 255
223 236 255
223 236 255
223 236 255
223 236 255
223 236 255
223 236 255
223 236 255
223 236 255
223 236 255
223 236 255
223 236 255
223 236 255
223 236 255
223 236 255
223 236 255
223 236 255
92 98 108
6 21 58
0 0 7
0 0 13
0 0 9
0 0 15
0 0 17
0 0 16
0 0 15
0 0 17
0 0 16
0 0 20
0 0 20
0 0 20
0 0 25
0 0 33
0 7 38
0 7 41
0 0 38
0 0 36
0 0 35
0 0 35
0 0 35
0 0 36
0 0 37
0 6 41
0 9 42
0 0 40
0 0 39
0 1 39
0 8 40
0 7 40
0 14 42
0 11 42
0 0 42
0 0 42
0 0 42
0 13 42
0 15 44
0 14 45
0 15 44
0 14 44
0 15 45
0 14 48
0 14 48
0 14 48
0 15 48
0 14 49
0 14 48
0 15 48
0 14 48
0 15 50
0 14 52
0 15 56
0 17 57
0 16 55
0 19 57
0 21 58
0 21 61
0 21 63
0 22 63
0 25 66
0 22 64
0 20 60
0 20 57
0 16 55
0 16 54
0 15 49
0 14 51
0 14 50
0 14 47
0 14 45
0 11 44
0 11 43
0 0 37
0 1 33
0 0 30
0 0 31
0 0 29
0 0 27
0 0 28
0 0 32
0 0 33
0 0 34
0 0 35
0 0 36
0 2 38
0 2 39
0 11 39
0 8 40
0 13 42
0 14 45
0 13 45
0 14 48
0 14 47
0 14 47
0 14 48
0 14 47
0 14 46
0 12 45
0 7 41
0 0 39
0 0 39
0 0 37
0 0 36
0 0 38
0 0 36
0 0 35
0 0 35
0 0 35
0 0 35
0 0 34
0 0 32
0 0 32
0 0 31
0 0 28
0 0 27
0 0 27
0 0 27
0 0 24
0 0 23
0 0 24
0 0 27
0 0 23
0 0 22
0 0 16
0 0 15
0 0 17
0 15 40
6 34 82
19 53 104
37 61 98
78 81 92
69 54 44
75 58 41
68 60 43
30 26 14
25 28 9
17 25 0
10 24 0
13 28 0
15 26 0
18 27 0
17 23 0
17 25 0
14 25 0
14 27 0
14 28 0
19 29 0
19 29 0
14 26 0
14 26 0
14 27 0
16 29 0
17 30 0
13 27 0
17 30 0
12 27 0
13 28 2
16 29 2
23 33 9
41 52 24
48 57 29
45 54 27
34 45 16
18 30 0
14 29 0
28 42 15
32 45 18
35 43 19
38 43 20
34 36 12
53 52 29
49 52 30
26 34 9
14 29 2
15 30 0
29 35 9
47 42 21
57 52 29
46 46 21
48 47 22
67 60 37
62 56 32
60 52 29
64 52 28
79 66 41
70 59 39
58 49 26
64 52 31
67 54 33
58 46 23
52 45 20
47 43 18
56 52 30
37 41 18
15 29 42
1 15 43
0 3 36
0 4 32
0 4 30
0 3 25
0 0 0
0 0 1
0 0 0
0 0 0
0 0 6
0 0 11
0 0 27
83 90 108
223 236 255
223 236 255
223 236 255
223 236 255
223 236 255
223 236 255
223 236 255
223 236 255
223 236 255
223 236 255
223 236 255
223 236 255
223 236 255
223 236 255
223 236 255
223 236 255
223 236 255
223 236 255
223 236 255
223 236 255
223 236 255
223 236 255
223 236 255
223 236 255
223 236 255
223 236 255
223 236 255
223 236 255
223 236 255
223 236 255
223 236 255
223 236 255
223 236 255
223 236 255
223 236 255
223 236 255
223 236 255
223 236 255
223 236 255
223 236 255
223 236 255
223 236 255
223 236 255
223 236 255
223 236 255
223 236 255
223 236 255
223 236 255
223 236 255
223 236 255
223 236 255
223 236 255
223 236 255
223 236 255
223 236 255
223 236 255
223 236 255
223 236 255
223 236 255
223 236 255
223 236 255
223 236 255
223 236 255
223 236 255
223 236 255
223 236 255
223 236 255
223 236 255
223 236 255
223 236 255
223 236 255
223 236 255
223 236 255
223 236 255
223 236 255
223 236 255
223 236 255
223 236 255
223 236 255
223 236 255
223 236 255
223 236 255
223 236 255
223 236 255
223 236 255
223 236 255
223 236 255
223 236 255
223 236 255
223 236 255
223 236 255
223 236 255
223 236 255
223 236 255
223 236 255
223 236 255
223 236 255
223 236 255
223 236 255
223 236 255
223 236 255
223 236 255
223 236 255
223 236 255
223 236 255
223 236 255
223 236 255
223 236 255
223 236 255
223 236 255
223 236 255
223 236 255
223 236 255
223 236 255
223 236 255
223 236 255
223 236 255
223 236 255
223 236 255
223 236 255
223 236 255
223 236 255
223 236 255
223 236 255
223 236 255
223 236 255
223 236 255
223 236 255
223 236 255
223 236 255
223 236 255
223 236 255
223 236 255
223 236 255
223 236 255
223 236 255
223 236 255
223 236 255
223 236 255
223 236 255
223 236 255
223 236 255
223 236 255
223 236 255
223 236 255
223 236 255
223 236 255
223 236 255
223 236 255
223 236 255
223 236 255
223 236 255
223 236 255
223 236 255
223 236 255
223 236 255
223 236 255
223 236 255
223 236 255
223 236 255
223 236 255
223 236 255
223 236 255
223 236 255
223 236 255
223 236 255
223 236 255
223 236 255
223 236 255
223 236 255
223 236 255
223 236 255
223 236 255
223 236 255
223 236 255
223 236 255
223 236 255
223 236 255
223 236 255
223 236 255
223 236 255
223 236 255
223 236 255
223 236 255
223 236 255
223 236 255
223 236 255
223 236 255
223 236 255
223 236 255
139 147 160
4 16 49
0 0 7
0 0 13
0 0 5
0 0 15
0 0 20
0 0 23
0 0 24
0 0 17
0 0 16
0 0 19
0 0 20
0 0 20
0 0 32
0 0 37
0 0 37
0 0 38
0 0 37
0 0 35
0 0 35
0 0 33
0 0 32
0 0 32
0 0 35
0 5 39
0 14 42
0 0 39
0 0 38
0 0 37
0 9 40
0 7 40
0 13 41
0 13 42
0 0 42
0 0 42
0 0 42
0 12 42
0 15 42
0 14 44
0 14 45
0 15 45
0 14 46
0 14 48
0 14 48
0 14 50
0 14 50
0 14 50
0 14 49
0 14 52
0 14 51
0 15 52
0 15 53
0 18 57
0 21 58
0 21 58
0 21 57
0 21 58
0 21 61
0 21 64
0 22 64
0 22 64
0 21 63
0 18 59
0 19 57
0 19 57
0 14 54
0 15 51
0 14 50
0 15 49
0 14 48
0 14 45
0 12 44
0 0 40
0 0 37
0 8 35
0 0 30
0 0 28
0 0 27
0 0 28
0 0 32
0 0 35
0 0 35
0 0 35
0 0 36
0 0 38
0 8 39
0 15 39
0 14 41
0 15 42
0 14 42
0 15 47
0 14 48
0 15 49
0 14 49
0 15 48
0 14 48
0 14 47
0 14 45
0 14 45
0 15 44
0 13 43
0 0 39
0 0 39
0 0 39
0 0 39
0 0 37
0 0 35
0 0 35
0 0 35
0 0 35
0 0 35
0 0 33
0 0 32
0 0 31
0 0 27
0 0 27
0 0 26
0 0 23
0 0 22
0 0 21
0 0 20
0 0 21
0 0 22
0 0 22
0 0 22
0 0 18
0 0 12
0 2 17
4 26 66
11 42 93
19 49 92
66 76 96
72 67 66
64 51 37
81 72 56
70 64 49
27 26 10
19 24 0
10 21 0
12 25 0
17 28 0
14 23 0
15 22 0
15 24 0
14 26 0
14 28 0
14 27 0
13 25 0
14 25 0
18 28 0
15 25 0
14 23 0
21 32 9
17 28 0
24 36 12
27 39 11
18 30 0
24 38 11
27 39 13
29 41 14
34 44 17
49 57 29
41 48 21
28 38 3
16 29 0
17 33 0
15 28 0
28 38 14
27 34 7
26 32 4
44 46 22
63 58 37
52 53 32
22 31 0
15 28 0
20 33 0
39 42 18
50 48 24
56 54 30
46 46 20
56 51 28
70 60 38
61 54 29
59 50 28
67 55 32
81 68 45
62 51 29
57 47 24
66 55 34
69 55 34
63 55 32
47 42 20
56 56 33
47 48 25
24 35 35
3 18 43
0 7 37
0 0 31
0 0 30
0 0 26
0 0 14
0 0 4
0 0 12
0 0 0
0 0 0
0 0 0
0 0 13
0 6 35
113 121 140
223 236 255
223 236 255
223 236 255
223 236 255
223 236 255
223 236 255
223 236 255
223 236 255
223 236 255
223 236 255
223 236 255
223 236 255
223 236 255
223 236 255
223 236 255
223 236 255
223 236 255
223 236 255
223 236 255
223 236 255
223 236 255
223 236 255
223 236 255
223 236 255
223 236 255
223 236 255
223 236 255
223 236 255
223 236 255
223 236 255
223 236 255
223 236 255
223 236 255
223 236 255
223 236 255
223 236 255
223 236 255
223 236 255
223 236 255
223 236 255
223 236 255
223 236 255
223 236 255
223 236 255
223 236 255
223 236 255
223 236 255
223 236 255
223 236 255
223 236 255
223 236 255
223 236 255
223 236 255
223 236 255
223 236 255
223 236 255
223 236 255
223 236 255
223 236 255
223 236 255
223 236 255
223 236 255
223 236 255
223 236 255
223 236 255
223 236 255
223 236 255
223 236 255
223 236 255
223 236 255
223 236 255
223 236 255
223 236 255
223 236 255
223 236 255
223 236 255
223 236 255
223 236 255
223 236 255
223 236 255
223 236 255
223 236 255
223 236 255
223 236 255
223 236 255
223 236 255
223 236 255
223 236 255
223 236 255
223 236 255
223 236 255
223 236 255
223 236 255
223 236 255
223 236 255
223 236 255
223 236 255
223 236 255
223 236 255
223 236 255
223 236 255
223 236 255
223 236 255
223 236 255
223 236 255
223 236 255
223 236 255
223 236 255
223 236 255
223 236 255
223 236 255
223 236 255
223 236 255
223 236 255
223 236 255
223 236 255
223 236 255
223 236 255
223 236 255
223 236 255
223 236 255
223 236 255
223 236 255
223 236 255
223 236 255
223 236 255
223 236 255
223 236 255
223 236 255
223 236 255
223 236 255
223 236 255
223 236 255
223 236 255
223 236 255
223 236 255
223 236 255
223 236 255
223 236 255
223 236 255
223 236 255
223 236 255
223 236 255
223 236 255
223 236 255
223 236 255
223 236 255
223 236 255
223 236 255
223 236 255
223 236 255
223 236 255
223 236 255
223 236 255
223 236 255
223 236 255
223 236 255
223 236 255
223 236 255
223 236 255
223 236 255
223 236 255
223 236 255
223 236 255
223 236 255
223 236 255
223 236 255
223 236 255
223 236 255
223 236 255
223 236 255
223 236 255
223 236 255
223 236 255
223 236 255
223 236 255
223 236 255
223 236 255
223 236 255
223 236 255
223 236 255
223 236 255
223 236 255
223 236 255
223 236 255
223 236 255
223 236 255
223 236 255
223 236 255
223 236 255
171 181 196
2 8 26
0 0 10
0 0 4
0 0 7
0 0 14
0 0 20
4 9 37
0 0 31
0 0 24
0 0 20
0 0 28
0 0 30
0 0 23
0 0 29
0 7 39
0 3 40
0 4 37
0 0 35
0 0 35
0 0 33
0 0 33
0 0 30
0 0 29
0 0 34
0 0 37
0 0 39
0 0 39
0 0 35
0 5 36
0 5 39
0 3 38
0 13 41
0 14 42
0 8 42
0 0 42
0 5 42
0 13 42
0 14 44
0 14 45
0 14 46
0 14 46
0 14 46
0 14 48
0 14 48
0 15 50
0 14 51
0 14 51
0 14 52
0 15 54
0 14 54
0 14 54
0 14 55
0 17 58
0 19 59
0 19 59
0 21 59
0 21 59
0 21 61
0 23 64
0 25 65
0 21 64
0 21 63
0 20 61
0 21 57
0 16 55
0 14 53
0 14 53
0 14 51
0 15 48
0 15 48
0 15 48
0 11 44
0 12 42
0 0 37
0 0 32
0 0 31
0 0 29
0 0 30
0 0 30
0 0 33
0 0 35
0 0 35
0 0 36
0 0 38
0 0 39
0 6 41
0 15 41
0 14 42
0 14 43
0 14 43
0 14 47
0 14 47
0 14 49
0 15 50
0 14 48
0 14 48
0 14 47
0 14 45
0 14 45
0 13 44
0 10 43
0 0 39
0 0 38
0 0 37
0 0 39
0 0 38
0 0 37
0 0 35
0 0 35
0 0 35
0 0 35
0 0 33
0 0 32
0 0 30
0 0 27
0 0 27
0 0 23
0 0 22
0 0 18
0 0 20
0 0 17
0 0 17
0 0 24
0 0 25
0 0 23
0 0 21
0 0 17
0 0 13
0 9 37
4 32 77
15 49 96
43 64 94
66 72 80
67 58 48
70 57 44
79 69 55
45 39 22
17 18 0
12 21 0
8 22 0
14 23 0
9 17 0
13 18 0
17 25 2
14 25 3
12 25 0
13 26 0
13 27 0
14 24 0
14 23 0
19 25 0
21 29 6
30 37 15
29 36 11
36 44 21
38 46 21
25 35 2
22 33 4
24 35 9
21 32 6
24 35 7
29 34 10
44 51 26
28 37 10
29 41 13
23 36 2
27 36 8
37 45 18
26 32 6
30 35 8
55 54 32
70 62 41
41 39 16
24 29 0
16 28 0
20 28 3
45 45 22
55 53 29
49 46 21
54 50 23
66 57 32
69 59 35
60 52 28
62 52 31
72 58 35
80 68 45
57 47 26
58 48 26
67 55 35
64 51 31
53 46 24
49 42 20
50 51 30
32 43 28
14 28 52
0 14 44
0 4 37
0 0 28
0 0 28
0 0 21
0 0 16
0 0 10
0 0 10
0 0 0
0 0 0
0 0 5
0 0 20
0 11 45
178 189 207
223 236 255
223 236 255
223 236 255
223 236 255
223 236 255
223 236 255
223 236 255
223 236 255
223 236 255
223 236 255
223 236 255
223 236 255
223 236 255
223 236 255
223 236 255
223 236 255
223 236 255
223 236 255
223 236 255
223 236 255
223 236 255
223 236 255
223 236 255
223 236 255
223 236 255
223 236 255
223 236 255
223 236 255
223 236 255
223 236 255
223 236 255
223 236 255
223 236 255
223 236 255
223 236 255
223 236 255
223 236 255
223 236 255
223 236 255
223 236 255
223 236 255
223 236 255
223 236 255
223 236 255
223 236 255
223 236 255
223 236 255
223 236 255
223 236 255
223 236 255
223 236 255
223 236 255
223 236 255
223 236 255
223 236 255
223 236 255
223 236 255
223 236 255
223 236 255
223 236 255
223 236 255
223 236 255
223 236 255
223 236 255
223 236 255
223 236 255
223 236 255
223 236 255
223 236 255
223 236 255
223 236 255
223 236 255
223 236 255
223 236 255
223 236 255
223 236 255
223 236 255
223 236 255
223 236 255
223 236 255
223 236 255
223 236 255
223 236 255
223 236 255
223 236 255
223 236 255
223 236 255
223 236 255
223 236 255
223 236 255
223 236 255
223 236 255
223 236 255
223 236 255
223 236 255
223 236 255
223 236 255
223 236 255
223 236 255
223 236 255
223 236 255
223 236 255
223 236 255
223 236 255
223 236 255
223 236 255
223 236 255
223 236 255
223 236 255
223 236 255
223 236 255
223 236 255
223 236 255
223 236 255
223 236 255
223 236 255
223 236 255
223 236 255
223 236 255
223 236 255
223 236 255
223 236 255
223 236 255
223 236 255
223 236 255
223 236 255
223 236 255
223 236 255
223 236 255
223 236 255
223 236 255
223 236 255
223 236 255
223 236 255
223 236 255
223 236 255
223 236 255
223 236 255
223 236 255
223 236 255
223 236 255
223 236 255
223 236 255
223 236 255
223 236 255
223 236 255
223 236 255
223 236 255
223 236 255
223 236 255
223 236 255
223 236 255
223 236 255
223 236 255
223 236 255
223 236 255
223 236 255
223 236 255
223 236 255
223 236 255
223 236 255
223 236 255
223 236 255
223 236 255
223 236 255
223 236 255
223 236 255
223 236 255
223 236 255
223 236 255
223 236 255
223 236 255
223 236 255
223 236 255
223 236 255
223 236 255
223 236 255
223 236 255
223 236 255
223 236 255
223 236 255
223 236 255
223 236 255
223 236 255
223 236 255
223 236 255
223 236 255
223 236 255
223 236 255
223 236 255
213 226 244
22 23 30
0 0 14
0 0 11
0 0 14
0 0 15
0 0 17
9 16 48
8 17 52
0 11 40
0 6 33
0 3 31
0 1 34
0 0 26
0 0 27
0 10 42
0 8 43
0 3 37
0 0 35
0 0 35
0 0 32
0 0 32
0 0 30
0 0 28
0 0 33
0 0 35
0 0 37
0 0 37
0 3 37
0 14 41
0 10 40
0 8 40
0 10 40
0 14 42
0 2 42
0 6 42
0 13 42
0 14 44
0 15 45
0 15 45
0 15 47
0 15 48
0 14 47
0 15 48
0 15 48
0 14 48
0 14 50
0 15 52
0 14 53
0 16 56
0 14 55
0 14 55
0 15 55
0 18 59
0 21 61
0 21 62
0 21 61
0 21 60
0 21 62
0 21 63
0 24 65
0 22 64
0 21 62
0 21 62
0 20 57
0 16 55
0 14 53
0 14 51
0 15 50
0 14 48
0 15 48
0 15 48
0 5 43
0 3 41
0 0 39
0 0 33
0 0 31
0 0 33
0 0 34
0 0 32
0 0 34
0 0 35
0 0 36
0 0 39
0 0 40
0 0 41
0 2 42
0 10 42
0 14 44
0 14 45
0 15 45
0 14 46
0 14 45
0 14 47
0 14 48
0 15 47
0 15 48
0 15 47
0 14 46
0 14 45
0 12 43
0 11 43
0 0 39
0 0 37
0 0 35
0 0 38
0 0 38
0 0 38
0 4 38
0 6 36
0 0 35
0 0 33
0 0 33
0 0 31
0 0 29
0 0 27
0 0 26
0 0 22
0 0 17
0 0 16
0 0 17
0 0 18
0 0 17
0 0 24
0 0 27
0 0 23
0 0 22
0 0 22
0 0 17
0 0 18
5 23 57
12 45 91
20 48 89
51 63 78
68 66 63
74 60 50
84 71 56
73 63 43
49 47 27
22 24 6
11 18 4
19 25 9
19 21 4
18 18 3
15 19 0
19 26 8
19 28 8
13 27 0
12 27 0
13 27 0
25 33 11
28 33 12
29 33 14
33 38 16
39 44 21
44 50 25
44 50 24
39 48 20
31 40 14
24 33 9
24 35 5
26 36 10
30 39 14
49 58 34
45 53 30
25 32 6
25 31 5
45 49 23
44 47 22
36 39 13
32 33 5
58 54 31
70 63 41
51 48 24
35 36 12
32 35 8
48 48 24
56 54 30
59 54 29
52 44 18
64 56 29
72 60 34
70 59 36
58 50 26
57 46 24
72 58 34
74 63 40
58 48 24
64 53 31
69 56 33
63 49 28
56 45 23
55 45 27
40 40 19
14 34 43
1 19 58
0 7 43
0 0 35
0 0 24
0 0 24
0 0 23
0 0 18
0 0 15
0 0 12
0 0 5
0 0 0
0 0 10
0 2 23
0 15 51
205 218 237
223 236 255
223 236 255
223 236 255
223 236 255
223 236 255
223 236 255
223 236 255
223 236 255
223 236 255
223 236 255
223 236 255
223 236 255
223 236 255
223 236 255
223 236 255
223 236 255
223 236 255
223 236 255
223 236 255
223 236 255
223 236 255
223 236 255
223 236 255
223 236 255
223 236 255
223 236 255
223 236 255
223 236 255
223 236 255
223 236 255
223 236 255
223 236 255
223 236 255
223 236 255
223 236 255
223 236 255
223 236 255
223 236 255
223 236 255
223 236 255
223 236 255
223 236 255
223 236 255
223 236 255
223 236 255
223 236 255
223 236 255
223 236 255
223 236 255
223 236 255
223 236 255
223 236 255
223 236 255
223 236 255
223 236 255
223 236 255
223 236 255
223 236 255
223 236 255
223 236 255
223 236 255
223 236 255
223 236 255
223 236 255
223 236 255
223 236 255
223 236 255
223 236 255
223 236 255
223 236 255
223 236 255
223 236 255
223 236 255
223 236 255
223 236 255
223 236 255
223 236 255
223 236 255
223 236 255
223 236 255
223 236 255
223 236 255
223 236 255
223 236 255
223 236 255
223 236 255
223 236 255
223 236 255
223 236 255
223 236 255
223 236 255
223 236 255
223 236 255
223 236 255
223 236 255
223 236 255
223 236 255
223 236 255
223 236 255
223 236 255
223 236 255
223 236 255
223 236 255
223 236 255
223 236 255
223 236 255
223 236 255
223 236 255
223 236 255
223 236 255
223 236 255
223 236 255
223 236 255
223 236 255
223 236 255
223 236 255
223 236 255
223 236 255
223 236 255
223 236 255
223 236 255
223 236 255
223 236 255
223 236 255
223 236 255
223 236 255
223 236 255
223 236 255
223 236 255
223 236 255
223 236 255
223 236 255
223 236 255
223 236 255
223 236 255
223 236 255
223 236 255
223 236 255
223 236 255
223 236 255
223 236 255
223 236 255
223 236 255
223 236 255
223 236 255
223 236 255
223 236 255
223 236 255
223 236 255
223 236 255
223 236 255
223 236 255
223 236 255
223 236 255
223 236 255
223 236 255
223 236 255
223 236 255
223 236 255
223 236 255
223 236 255
223 236 255
223 236 255
223 236 255
223 236 255
223 236 255
223 236 255
223 236 255
223 236 255
223 236 255
223 236 255
223 236 255
223 236 255
223 236 255
223 236 255
223 236 255
223 236 255
223 236 255
223 236 255
223 236 255
223 236 255
223 236 255
223 236 255
223 236 255
223 236 255
223 236 255
223 236 255
223 236 255
223 236 255
223 236 255
223 236 255
94 100 108
0 0 14
0 0 11
0 0 16
0 0 19
0 0 16
4 9 37
13 27 61
6 29 67
0 23 59
4 21 52
6 21 53
0 5 37
0 2 30
0 13 50
0 15 50
0 12 45
0 0 35
0 0 34
0 0 31
0 0 31
0 0 30
0 0 31
0 0 32
0 0 35
0 0 36
0 0 36
0 0 36
0 8 37
0 2 38
0 6 39
0 9 40
0 15 42
0 12 43
0 14 44
0 14 45
0 15 45
0 15 45
0 15 45
0 14 45
0 14 46
0 15 48
0 14 50
0 14 48
0 15 48
0 14 49
0 15 53
0 15 55
0 19 57
0 16 57
0 15 57
0 15 57
0 19 61
0 18 61
0 21 63
0 23 64
0 21 63
0 24 65
0 21 62
0 23 64
0 25 66
0 21 63
0 20 61
0 19 57
0 15 55
0 15 53
0 15 51
0 14 50
0 15 49
0 15 48
0 14 48
0 12 44
0 9 42
0 6 40
0 5 36
0 0 35
0 0 35
0 0 34
0 0 32
0 0 36
0 0 36
0 0 38
0 0 39
0 5 42
0 8 42
0 10 44
0 11 44
0 14 45
0 14 45
0 14 46
0 8 45
0 13 46
0 14 47
0 14 48
0 14 47
0 14 45
0 14 45
0 14 45
0 14 47
0 11 43
0 9 42
0 15 42
0 13 40
0 8 39
0 10 40
0 1 37
0 0 35
0 0 35
0 0 35
0 0 35
0 0 32
0 0 30
0 0 26
0 0 24
0 0 22
0 0 21
0 0 17
0 0 16
0 0 16
0 0 16
0 0 16
0 0 16
0 0 19
0 0 20
0 0 21
0 0 25
0 0 26
0 0 23
0 0 17
0 8 32
4 27 65
20 48 91
36 54 78
77 81 86
69 59 49
84 72 56
77 63 42
76 65 45
38 33 16
27 28 15
40 41 26
49 50 31
46 45 24
38 37 23
18 18 6
13 21 2
10 24 0
5 26 0
13 25 0
21 27 7
26 29 5
30 33 11
41 44 22
44 47 23
47 51 27
48 53 28
44 50 23
41 49 23
36 46 21
22 33 6
22 33 10
23 37 8
36 47 23
43 49 27
35 34 10
53 52 31
59 55 34
53 51 27
52 50 28
39 36 10
58 53 29
55 50 27
57 53 30
46 43 20
55 51 28
65 60 39
73 67 44
57 50 25
54 45 19
70 60 33
76 62 37
65 53 30
53 45 22
60 49 26
73 59 34
68 56 34
64 54 32
65 51 29
78 63 44
63 50 29
67 57 38
67 57 36
24 32 10
11 30 51
0 14 52
0 0 40
0 0 29
0 0 24
0 0 22
0 0 22
0 0 16
0 0 13
0 0 3
0 0 0
0 0 6
0 0 15
0 4 29
83 90 109
223 236 255
223 236 255
223 236 255
223 236 255
223 236 255
223 236 255
223 236 255
223 236 255
223 236 255
223 236 255
223 236 255
223 236 255
223 236 255
223 236 255
223 236 255
223 236 255
223 236 255
223 236 255
223 236 255
223 236 255
223 236 255
223 236 255
223 236 255
223 236 255
223 236 255
223 236 255
223 236 255
223 236 255
223 236 255
223 236 255
223 236 255
223 236 255
223 236 255
223 236 255
223 236 255
223 236 255
223 236 255
223 236 255
223 236 255
223 236 255
223 236 255
223 236 255
223 236 255
223 236 255
223 236 255
223 236 255
223 236 255
223 236 255
223 236 255
223 236 255
223 236 255
223 236 255
223 236 255
223 236 255
223 236 255
223 236 255
223 236 255
223 236 255
223 236 255
223 236 255
223 236 255
223 236 255
223 236 255
223 236 255
223 236 255
223 236 255
223 236 255
223 236 255
223 236 255
223 236 255
223 236 255
223 236 255
223 236 255
223 236 255
223 236 255
223 236 255
223 236 255
223 236 255
223 236 255
223 236 255
223 236 255
223 236 255
223 236 255
223 236 255
223 236 255
223 236 255
223 236 255
223 236 255
223 236 255
223 236 255
223 236 255
223 236 255
223 236 255
223 236 255
223 236 255
223 236 255
223 236 255
223 236 255
223 236 255
223 236 255
223 236 255
223 236 255
223 236 255
223 236 255
223 236 255
223 236 255
223 236 255
223 236 255
223 236 255
223 236 255
223 236 255
223 236 255
223 236 255
223 236 255
223 236 255
223 236 255
223 236 255
223 236 255
223 236 255
223 236 255
223 236 255
223 236 255
223 236 255
223 236 255
223 236 255
223 236 255
223 236 255
223 236 255
223 236 255
223 236 255
223 236 255
223 236 255
223 236 255
223 236 255
223 236 255
223 236 255
223 236 255
223 236 255
223 236 255
223 236 255
223 236 255
223 236 255
223 236 255
223 236 255
223 236 255
223 236 255
223 236 255
223 236 255
223 236 255
223 236 255
223 236 255
223 236 255
223 236 255
223 236 255
223 236 255
223 236 255
223 236 255
223 236 255
223 236 255
223 236 255
223 236 255
223 236 255
223 236 255
223 236 255
223 236 255
223 236 255
223 236 255
223 236 255
223 236 255
223 236 255
223 236 255
223 236 255
223 236 255
223 236 255
223 236 255
223 236 255
223 236 255
223 236 255
223 236 255
223 236 255
223 236 255
223 236 255
223 236 255
223 236 255
223 236 255
223 236 255
223 236 255
223 236 255
223 236 255
223 236 255
223 236 255
223 236 255
144 153 166
0 0 15
0 0 11
0 1 21
0 0 27
0 0 23
0 0 27
3 9 33
16 38 76
6 33 78
4 29 72
3 24 63
4 16 52
0 16 48
1 22 58
0 22 61
0 16 51
0 8 40
0 0 33
0 0 31
0 0 31
0 0 31
0 0 35
0 0 33
0 0 34
0 0 37
0 0 39
0 0 39
0 0 39
0 0 41
0 0 42
0 6 42
0 14 42
0 14 45
0 14 47
0 15 47
0 15 46
0 15 46
0 14 47
0 14 47
0 15 47
0 14 48
0 14 49
0 14 48
0 15 48
0 15 49
0 18 53
0 15 55
0 20 57
0 19 57
0 20 57
0 21 57
0 21 61
0 18 61
0 20 62
0 21 63
0 23 65
0 25 65
0 21 63
0 21 63
0 20 61
0 18 59
0 19 60
0 15 56
0 14 54
0 14 53
0 15 51
0 14 50
0 15 49
0 14 48
0 15 48
0 14 46
0 14 44
0 12 42
0 8 38
0 0 35
0 0 35
0 0 32
0 0 35
0 0 35
0 0 37
0 0 39
0 4 40
0 14 42
0 15 44
0 14 45
0 14 45
0 14 45
0 10 45
0 13 47
0 14 49
0 14 47
0 14 46
0 15 50
0 15 50
0 14 47
0 14 46
0 15 45
0 12 45
0 4 43
0 8 42
0 14 42
0 14 41
0 14 42
0 14 42
0 6 39
0 0 36
0 0 35
0 0 35
0 0 35
0 0 29
0 0 27
0 0 23
0 0 21
0 0 16
0 0 17
0 0 16
0 0 16
0 0 16
0 0 16
0 0 16
0 0 16
0 0 16
0 0 16
0 0 22
0 0 28
0 0 31
0 0 30
0 0 19
0 0 17
0 11 42
14 36 77
31 51 80
91 97 109
80 74 67
82 68 52
85 68 47
69 54 33
60 51 36
49 44 31
50 46 28
56 52 29
60 55 32
86 84 67
64 61 48
31 35 18
4 17 0
9 23 0
11 24 0
23 29 11
26 27 8
38 38 18
48 49 27
49 50 26
48 50 27
51 55 28
38 44 16
32 39 13
26 36 9
20 34 6
16 31 0
17 32 0
19 30 2
37 42 18
38 38 14
55 52 30
55 50 26
60 55 31
64 60 37
50 44 19
51 46 20
57 51 27
57 50 27
69 62 40
66 56 36
69 58 38
65 57 36
56 49 24
67 59 32
74 61 37
74 60 37
63 52 30
58 50 27
68 56 32
73 59 33
64 53 29
61 50 25
71 56 34
77 62 42
60 49 27
60 51 31
54 46 21
23 36 23
9 26 58
0 10 43
0 0 37
0 0 29
0 0 26
0 0 19
0 0 18
0 0 16
0 0 9
0 0 0
0 0 0
0 0 5
0 0 18
0 8 39
144 154 172
223 236 255
223 236 255
223 236 255
223 236 255
223 236 255
223 236 255
223 236 255
223 236 255
223 236 255
223 236 255
223 236 255
223 236 255
223 236 255
223 236 255
223 236 255
223 236 255
223 236 255
223 236 255
223 236 255
223 236 255
223 236 255
223 236 255
223 236 255
223 236 255
223 236 255
223 236 255
223 236 255
223 236 255
223 236 255
223 236 255
223 236 255
223 236 255
223 236 255
223 236 255
223 236 255
223 236 255
223 236 255
223 236 255
223 236 255
223 236 255
223 236 255
223 236 255
223 236 255
223 236 255
223 236 255
223 236 255
223 236 255
223 236 255
223 236 255
223 236 255
223 236 255
223 236 255
223 236 255
223 236 255
223 236 255
223 236 255
223 236 255
223 236 255
223 236 255
223 236 255
223 236 255
223 236 255
223 236 255
223 236 255
223 236 255
223 236 255
223 236 255
223 236 255
223 236 255
223 236 255
223 236 255
223 236 255
223 236 255
223 236 255
223 236 255
223 236 255
223 236 255
223 236 255
223 236 255
223 236 255
223 236 255
223 236 255
223 236 255
223 236 255
223 236 255
223 236 255
223 236 255
223 236 255
223 236 255
223 236 255
223 236 255
223 236 255
223 236 255
223 236 255
223 236 255
223 236 255
223 236 255
223 236 255
223 236 255
223 236 255
223 236 255
223 236 255
223 236 255
223 236 255
223 236 255
223 236 255
223 236 255
223 236 255
223 236 255
223 236 255
223 236 255
223 236 255
223 236 255
223 236 255
223 236 255
223 236 255
223 236 255
223 236 255
223 236 255
223 236 255
223 236 255
223 236 255
223 236 255
223 236 255
223 236 255
223 236 255
223 236 255
223 236 255
223 236 255
223 236 255
223 236 255
223 236 255
223 236 255
223 236 255
223 236 255
223 236 255
223 236 255
223 236 255
223 236 255
223 236 255
223 236 255
223 237 255
223 237 255
223 236 255
223 237 255
223 237 255
223 237 255
223 237 255
223 237 255
223 237 255
223 237 255
223 237 255
223 237 255
223 237 255
223 237 255
223 237 255
223 237 255
223 237 255
223 237 255
223 237 255
223 237 255
223 237 255
223 237 255
223 237 255
223 237 255
223 237 255
223 237 255
223 237 255
223 237 255
223 237 255
223 237 255
223 237 255
223 237 255
223 237 255
223 237 255
223 237 255
223 237 255
223 237 255
223 237 255
223 237 255
223 237 255
223 237 255
223 237 255
223 237 255
223 237 255
223 237 255
223 237 255
223 237 255
223 237 255
223 237 255
223 237 255
223 237 255
196 207 224
0 0 13
0 0 9
0 3 22
0 5 32
0 0 30
0 0 30
0 0 24
2 16 47
10 39 86
2 37 92
5 31 80
0 14 58
0 19 58
10 31 74
3 29 74
0 26 66
0 9 43
0 0 35
0 0 32
0 0 32
0 0 32
0 0 33
0 0 34
0 0 34
0 0 37
0 0 39
0 0 39
0 0 39
0 0 41
0 0 42
0 0 42
0 14 42
0 15 46
0 14 48
0 14 47
0 15 45
0 15 45
0 14 48
0 14 48
0 15 48
0 15 48
0 14 48
0 14 48
0 14 48
0 15 48
0 15 50
0 14 54
0 16 57
0 15 56
0 18 57
0 21 57
0 21 57
0 21 61
0 21 62
0 21 64
0 21 64
0 21 65
0 21 62
0 21 59
0 20 57
0 15 54
0 14 54
0 15 53
0 15 52
0 14 51
0 14 50
0 14 50
0 15 49
0 14 47
0 14 45
0 14 45
0 9 42
0 10 40
0 14 42
0 12 40
0 0 36
0 0 36
0 0 37
0 8 38
0 9 40
0 13 42
0 13 42
0 14 42
0 15 44
0 15 45
0 15 49
0 15 47
0 13 47
0 15 49
0 17 52
0 15 48
0 15 51
0 15 52
0 14 48
0 15 48
0 14 48
0 14 46
0 7 45
0 12 44
0 7 42
0 13 41
0 14 41
0 8 38
0 0 38
0 0 36
0 0 36
0 0 33
0 0 32
0 0 30
0 0 27
0 0 24
0 0 23
0 0 17
0 0 16
0 0 16
0 0 16
0 0 16
0 0 16
0 0 16
0 0 16
0 0 16
0 0 16
0 0 19
0 0 26
0 0 31
0 0 31
0 0 29
0 0 24
0 0 21
0 0 29
4 16 48
28 46 77
92 105 129
110 109 111
77 65 53
88 70 48
76 63 39
69 64 44
56 50 24
70 59 31
77 64 37
75 61 38
73 62 41
82 76 54
67 67 39
39 36 18
19 17 4
16 21 5
8 20 0
25 32 8
41 46 24
40 45 21
41 47 21
46 51 26
46 51 27
31 37 9
25 35 8
14 29 0
13 31 0
13 31 0
14 29 0
22 33 2
36 41 17
43 45 20
51 50 25
56 52 27
54 51 26
54 50 26
53 50 26
60 55 31
61 55 30
66 59 36
71 62 41
66 55 35
67 56 36
58 50 26
56 49 23
71 62 36
70 56 30
73 58 34
63 52 28
64 55 32
74 60 35
71 58 32
65 54 31
51 40 14
68 53 32
63 51 30
49 41 17
55 49 29
43 40 11
19 37 34
12 29 63
0 11 40
0 1 38
0 0 30
0 0 25
0 0 19
0 0 18
0 0 15
0 0 6
0 0 0
0 0 0
0 0 10
0 0 22
0 12 46
188 199 217
223 237 255
223 237 255
223 237 255
223 237 255
223 237 255
223 237 255
223 237 255
223 237 255
223 237 255
223 237 255
223 237 255
223 237 255
223 237 255
223 237 255
223 237 255
223 237 255
223 237 255
223 237 255
223 237 255
223 237 255
223 237 255
223 237 255
223 237 255
223 237 255
223 237 255
223 237 255
223 237 255
223 237 255
223 237 255
223 237 255
223 237 255
223 237 255
223 237 255
223 237 255
223 237 255
223 237 255
223 237 255
223 237 255
223 237 255
223 237 255
223 237 255
223 237 255
223 237 255
223 237 255
223 237 255
223 237 255
223 237 255
223 237 255
223 237 255
223 236 255
223 237 255
223 237 255
223 236 255
223 236 255
223 236 255
223 236 255
223 236 255
223 236 255
223 236 255
223 236 255
223 236 255
223 236 255
223 236 255
223 236 255
223 236 255
223 236 255
223 236 255
223 236 255
223 236 255
223 236 255
223 236 255
223 236 255
223 236 255
223 236 255
223 236 255
223 236 255
223 236 255
223 236 255
223 236 255
223 236 255
223 236 255
223 236 255
223 236 255
223 236 255
223 236 255
223 236 255
223 236 255
223 236 255
223 236 255
223 236 255
223 236 255
223 236 255
223 236 255
223 236 255
223 236 255
223 236 255
223 237 255
223 237 255
223 237 255
223 237 255
223 237 255
223 237 255
223 237 255
223 237 255
223 237 255
223 237 255
223 237 255
223 237 255
223 237 255
223 237 255
223 237 255
223 237 255
223 237 255
223 237 255
223 237 255
223 237 255
223 237 255
223 237 255
223 237 255
223 237 255
223 237 255
223 237 255
223 237 255
223 237 255
223 237 255
223 237 255
223 237 255
223 237 255
223 237 255
223 237 255
223 237 255
223 237 255
223 237 255
223 237 255
223 237 255
223 237 255
223 237 255
223 237 255
223 237 255
223 237 255
223 237 255
223 237 255
223 237 255
223 237 255
223 237 255
223 237 255
223 237 255
223 237 255
223 237 255
223 237 255
223 237 255
223 237 255
223 237 255
223 237 255
223 237 255
223 237 255
223 237 255
223 237 255
223 237 255
223 237 255
223 237 255
223 237 255
223 237 255
223 237 255
223 237 255
223 237 255
223 237 255
223 237 255
223 237 255
223 237 255
223 237 255
223 237 255
223 237 255
223 237 255
223 237 255
223 237 255
223 237 255
223 237 255
223 237 255
223 237 255
223 237 255
223 237 255
223 237 255
223 237 255
223 237 255
223 237 255
223 237 255
223 237 255
223 237 255
223 237 255
223 237 255
223 237 255
222 235 254
67 71 77
0 0 13
0 0 18
0 3 29
2 8 36
9 19 51
2 6 31
0 6 36
9 26 63
13 44 96
10 40 93
5 26 73
1 23 68
5 30 77
12 38 85
7 34 81
0 17 54
0 5 40
0 0 35
0 0 33
0 0 32
0 0 32
0 0 35
0 7 36
0 4 36
0 0 39
0 0 39
0 0 39
0 0 40
0 5 42
0 5 42
0 13 42
0 15 45
0 15 48
0 14 48
0 14 48
0 15 47
0 14 48
0 14 48
0 14 48
0 14 48
0 14 48
0 14 48
0 15 49
0 15 48
0 15 49
0 14 54
0 15 56
0 15 55
0 17 57
0 21 57
0 21 57
0 21 60
0 21 62
0 21 63
0 21 64
0 21 65
0 21 62
0 21 59
0 21 57
0 20 55
0 15 55
0 15 53
0 15 51
0 15 50
0 15 50
0 14 49
0 15 48
0 15 48
0 14 45
0 15 45
0 11 42
0 8 40
0 14 42
0 8 40
0 0 37
0 0 38
0 0 37
0 6 38
0 10 43
0 14 45
0 15 45
0 14 46
0 14 46
0 15 48
0 15 49
0 15 50
0 16 52
0 14 50
0 15 49
0 15 50
0 14 51
0 14 52
0 14 49
0 14 47
0 14 46
0 7 43
0 13 43
0 15 44
0 7 40
0 6 38
0 8 38
0 0 36
0 0 33
0 0 33
0 0 31
0 0 29
0 0 27
0 0 27
0 0 26
0 0 22
0 0 22
0 0 18
0 0 16
0 0 16
0 0 16
0 0 16
0 0 16
0 0 16
0 0 16
0 0 16
0 0 16
0 0 20
0 0 25
0 0 27
0 0 25
0 0 27
0 0 27
0 0 32
0 0 37
0 3 37
9 23 54
56 68 89
110 114 124
101 95 87
90 74 51
85 70 41
82 73 44
94 81 64
93 78 63
84 68 49
84 69 46
77 67 38
81 74 41
83 72 42
82 72 53
51 44 33
24 28 8
11 22 0
14 25 0
28 37 13
27 35 11
28 35 6
41 48 22
45 51 28
27 33 11
21 29 0
15 28 0
15 32 0
19 32 0
21 30 0
25 32 3
41 43 19
44 45 21
41 38 13
46 43 19
48 46 20
52 49 25
57 54 29
52 47 22
63 58 34
70 62 40
70 59 38
69 58 37
64 52 31
64 54 31
67 57 32
72 60 32
77 62 36
75 59 35
67 57 34
63 53 29
72 58 33
64 52 27
61 51 28
61 50 27
67 55 34
59 53 33
41 39 15
46 40 15
42 45 17
19 40 50
11 29 68
0 10 41
0 3 37
0 2 33
0 0 24
0 0 22
0 0 18
0 0 14
0 0 0
0 0 3
0 0 0
0 0 13
0 4 29
63 69 88
223 237 255
223 237 255
223 237 255
223 237 255
223 237 255
223 237 255
223 237 255
223 237 255
223 237 255
223 237 255
223 237 255
223 237 255
223 237 255
223 237 255
223 237 255
223 237 255
223 237 255
223 237 255
223 237 255
223 237 255
223 237 255
223 237 255
223 237 255
223 237 255
223 237 255
223 237 255
223 237 255
223 237 255
223 237 255
223 237 255
223 237 255
223 237 255
223 237 255
223 237 255
223 237 255
223 237 255
223 237 255
223 237 255
223 237 255
223 237 255
223 237 255
223 237 255
223 237 255
223 237 255
223 237 255
223 237 255
223 237 255
223 237 255
223 237 255
223 237 255
223 237 255
223 237 255
223 237 255
223 237 255
223 237 255
223 237 255
223 237 255
223 237 255
223 237 255
223 237 255
223 237 255
223 237 255
223 237 255
223 237 255
223 237 255
223 237 255
223 237 255
223 237 255
223 237 255
223 237 255
223 237 255
223 237 255
223 237 255
223 237 255
223 237 255
223 237 255
223 237 255
223 237 255
223 237 255
223 237 255
223 237 255
223 237 255
223 237 255
223 237 255
223 237 255
223 237 255
223 237 255
223 237 255
223 237 255
223 237 255
223 237 255
223 237 255
223 237 255
223 237 255
223 237 255
223 237 255
223 237 255
223 237 255
223 237 255
223 237 255
223 237 255
223 237 255
223 237 255
223 237 255
223 237 255
223 237 255
223 237 255
223 237 255
223 237 255
223 237 255
223 237 255
223 237 255
223 237 255
223 237 255
223 237 255
223 237 255
223 237 255
223 237 255
223 237 255
223 237 255
223 237 255
223 237 255
223 237 255
223 237 255
223 237 255
223 237 255
223 237 255
223 237 255
223 237 255
223 237 255
223 237 255
223 237 255
223 237 255
223 237 255
223 237 255
223 237 255
223 237 255
223 237 255
223 237 255
223 237 255
223 237 255
223 237 255
223 237 255
223 237 255
223 237 255
223 237 255
223 237 255
223 237 255
223 237 255
223 237 255
223 237 255
223 237 255
223 237 255
223 237 255
223 237 255
223 237 255
223 237 255
223 237 255
223 237 255
223 237 255
223 237 255
223 237 255
223 237 255
223 237 255
223 237 255
223 237 255
223 237 255
223 237 255
223 237 255
223 237 255
223 237 255
223 237 255
223 237 255
223 237 255
223 237 255
223 237 255
223 237 255
223 237 255
223 237 255
223 237 255
223 237 255
223 237 255
223 237 255
223 237 255
223 237 255
223 237 255
223 237 255
223 237 255
223 237 255
223 237 255
223 237 255
223 237 255
223 237 255
223 237 255
141 149 162
0 0 14
0 0 14
0 2 24
1 10 36
6 17 49
10 22 53
0 0 36
0 2 35
9 29 69
13 42 90
13 39 88
8 33 80
0 25 75
2 30 76
2 31 79
0 26 69
0 17 54
0 7 43
0 0 35
0 0 31
0 0 32
0 0 35
0 2 35
0 4 36
0 0 39
0 0 39
0 0 39
0 0 39
0 13 42
0 13 42
0 13 42
0 14 45
0 14 48
0 14 48
0 15 48
0 15 47
0 15 47
0 15 48
0 14 48
0 15 48
0 14 48
0 14 48
0 14 49
0 15 49
0 14 49
0 14 53
0 15 53
0 14 55
0 16 57
0 21 57
0 21 57
0 21 60
0 21 61
0 21 63
0 22 65
0 21 65
0 21 62
0 21 59
0 20 57
0 15 54
0 14 53
0 15 51
0 15 50
0 14 50
0 14 49
0 14 48
0 14 48
0 15 48
0 14 45
0 14 45
0 11 43
0 8 40
0 15 42
0 4 39
0 0 39
0 0 39
0 11 41
0 10 41
0 10 45
0 15 47
0 14 48
0 14 49
0 14 52
0 14 48
0 14 47
0 18 53
0 15 50
0 14 49
0 15 50
0 14 49
0 15 50
0 14 47
0 14 46
0 14 46
0 10 42
0 9 41
0 6 39
0 4 37
0 2 36
0 0 35
0 0 34
0 0 34
0 0 32
0 0 30
0 0 28
0 0 27
0 0 27
0 0 27
0 0 27
0 0 22
0 0 22
0 0 22
0 0 18
0 0 16
0 0 22
0 0 17
0 0 16
0 0 16
0 0 16
0 0 16
0 0 16
0 0 20
0 0 21
0 0 21
0 0 19
0 0 23
0 0 32
0 4 40
2 15 50
4 15 50
0 8 43
10 19 45
58 65 82
103 104 114
104 95 86
82 67 44
79 63 33
80 65 46
89 73 55
93 76 55
83 69 43
82 73 42
84 76 43
82 67 40
74 61 48
57 51 42
7 14 0
7 24 0
9 25 0
10 25 0
12 24 0
33 42 19
40 49 23
42 49 28
33 41 20
22 31 5
18 29 3
18 30 4
26 34 10
30 35 11
41 44 23
48 48 26
55 54 31
58 58 34
58 57 34
45 45 19
52 51 27
62 61 37
56 53 28
65 60 36
64 55 32
68 56 35
66 55 33
69 59 36
78 66 41
78 66 40
71 58 29
79 63 37
71 56 30
67 57 32
67 57 34
71 57 29
65 53 28
65 55 32
64 53 31
63 53 33
43 41 17
41 43 21
41 36 6
39 48 25
27 51 86
13 29 69
0 8 42
0 5 37
0 0 32
0 0 23
0 0 22
0 0 17
0 0 12
0 0 2
0 0 10
0 0 7
0 0 21
0 10 42
137 146 163
223 237 255
223 237 255
223 237 255
223 237 255
223 237 255
223 237 255
223 237 255
223 237 255
223 237 255
223 237 255
223 237 255
223 237 255
223 237 255
223 237 255
223 237 255
223 237 255
223 237 255
223 237 255
223 237 255
223 237 255
223 237 255
223 237 255
223 237 255
223 237 255
223 237 255
223 237 255
223 237 255
223 237 255
223 237 255
223 237 255
223 237 255
223 237 255
223 237 255
223 237 255
223 237 255
223 237 255
223 237 255
223 237 255
223 237 255
223 237 255
223 237 255
223 237 255
223 237 255
223 237 255
223 237 255
223 237 255
223 237 255
223 237 255
223 237 255
223 237 255
223 237 255
223 237 255
223 237 255
223 237 255
223 237 255
223 237 255
223 237 255
223 237 255
223 237 255
223 237 255
223 237 255
223 237 255
223 237 255
223 237 255
223 237 255
223 237 255
223 237 255
223 237 255
223 237 255
223 237 255
223 237 255
223 237 255
223 237 255
223 237 255
223 237 255
223 237 255
223 237 255
223 237 255
223 237 255
223 237 255
223 237 255
223 237 255
223 237 255
223 237 255
223 237 255
223 237 255
223 237 255
223 237 255
223 237 255
223 237 255
223 237 255
223 237 255
223 237 255
223 237 255
223 237 255
223 237 255
223 237 255
223 237 255
223 237 255
223 237 255
223 237 255
223 237 255
223 237 255
223 237 255
223 237 255
223 237 255
223 237 255
223 237 255
223 237 255
223 237 255
223 237 255
223 237 255
223 237 255
223 237 255
223 237 255
223 237 255
223 237 255
223 237 255
223 237 255
223 237 255
223 237 255
223 237 255
223 237 255
223 237 255
223 237 255
223 237 255
223 237 255
223 237 255
223 237 255
223 237 255
223 237 255
223 237 255
223 237 255
223 237 255
223 237 255
223 237 255
223 237 255
223 237 255
223 237 255
223 237 255
223 237 255
223 237 255
223 237 255
223 237 255
223 237 255
223 237 255
223 237 255
223 237 255
223 237 255
223 237 255
223 237 255
223 237 255
223 237 255
223 237 255
223 237 255
223 237 255
223 237 255
223 237 255
223 237 255
223 237 255
223 237 255
223 237 255
223 237 255
223 237 255
223 237 255
223 237 255
223 237 255
223 237 255
223 237 255
223 237 255
223 237 255
223 237 255
223 237 255
223 237 255
223 237 255
223 237 255
223 237 255
223 237 255
223 237 255
223 237 255
223 237 255
223 237 255
223 237 255
223 237 255
223 237 255
223 237 255
223 237 255
223 237 255
223 237 255
223 237 255
223 237 255
223 237 255
223 237 255
223 237 255
185 196 212
0 2 18
0 0 12
0 0 18
0 1 28
0 3 33
3 13 48
5 21 58
0 10 39
0 8 42
4 24 64
12 34 77
10 35 80
2 29 79
0 25 69
0 25 67
2 29 74
7 28 71
0 14 50
0 3 40
0 0 31
0 0 32
0 0 35
0 0 35
0 0 35
0 0 38
0 0 39
0 0 39
0 0 39
0 0 42
0 0 42
0 11 42
0 15 44
0 14 47
0 15 48
0 14 48
0 14 48
0 15 48
0 14 48
0 15 48
0 14 48
0 14 48
0 14 48
0 15 48
0 15 48
0 15 50
0 14 52
0 15 55
0 15 56
0 19 57
0 21 57
0 20 57
0 21 59
0 21 61
0 21 62
0 23 65
0 22 65
0 21 62
0 21 59
0 21 57
0 17 55
0 14 53
0 14 51
0 15 50
0 14 48
0 15 49
0 14 48
0 14 48
0 13 46
0 14 45
0 14 45
0 14 45
0 13 42
0 11 41
0 4 39
0 2 39
0 3 39
0 11 42
0 15 45
0 13 45
0 12 47
0 15 50
0 15 48
0 14 51
0 14 50
0 14 47
0 12 46
0 17 50
0 16 50
0 15 49
0 15 51
0 14 48
0 14 45
0 14 45
0 15 43
0 8 38
0 7 38
0 0 36
0 0 34
0 0 33
0 0 32
0 0 31
0 0 28
0 0 28
0 0 27
0 0 27
0 0 27
0 0 27
0 0 25
0 0 26
0 0 22
0 0 22
0 0 22
0 0 19
0 0 17
0 0 22
0 0 21
0 0 21
0 0 21
0 0 21
0 0 22
0 0 21
0 0 21
0 0 16
0 0 16
0 0 17
0 0 30
0 7 45
0 13 51
5 22 61
11 27 65
4 18 55
0 5 39
12 17 46
45 47 70
84 82 93
90 82 83
93 83 76
77 70 44
74 64 35
74 61 34
84 73 46
87 77 51
84 74 49
58 49 32
27 20 16
61 60 56
44 48 42
7 21 0
16 27 0
8 21 0
11 22 0
23 34 11
31 41 16
23 34 8
30 40 14
25 35 10
26 34 8
28 35 6
38 41 20
42 41 21
51 50 30
52 50 28
44 41 18
54 55 32
53 55 32
49 51 26
55 57 33
58 59 35
50 48 21
65 57 34
65 54 32
66 54 32
68 58 35
70 59 34
80 67 42
75 61 35
82 68 39
80 63 36
75 60 34
68 58 34
71 60 36
74 59 31
65 55 31
63 53 30
60 49 28
52 46 25
40 42 19
41 45 24
45 43 10
26 40 37
15 39 81
5 23 61
0 13 46
0 2 34
0 0 30
0 0 26
0 0 23
0 0 16
0 0 13
0 0 0
0 0 0
0 0 10
0 5 28
0 16 50
189 201 219
223 237 255
223 237 255
223 237 255
223 237 255
223 237 255
223 237 255
223 237 255
223 237 255
223 237 255
223 237 255
223 237 255
223 237 255
223 237 255
223 237 255
223 237 255
223 237 255
223 237 255
223 237 255
223 237 255
223 237 255
223 237 255
223 237 255
223 237 255
223 237 255
223 237 255
223 237 255
223 237 255
223 237 255
223 237 255
223 237 255
223 237 255
223 237 255
223 237 255
223 237 255
223 237 255
223 237 255
223 237 255
223 237 255
223 237 255
223 237 255
223 237 255
223 237 255
223 237 255
223 237 255
223 237 255
223 237 255
223 237 255
223 237 255
223 237 255
223 237 255
223 237 255
223 237 255
223 237 255
223 237 255
223 237 255
223 237 255
223 237 255
223 237 255
223 237 255
223 237 255
223 237 255
223 237 255
223 237 255
223 237 255
223 237 255
223 237 255
223 237 255
223 237 255
223 237 255
223 237 255
223 237 255
223 237 255
223 237 255
223 237 255
223 237 255
223 237 255
223 237 255
223 237 255
223 237 255
223 237 255
223 237 255
223 237 255
223 237 255
223 237 255
223 237 255
223 237 255
223 237 255
223 237 255
223 237 255
223 237 255
223 237 255
223 237 255
223 237 255
223 237 255
223 237 255
223 237 255
223 237 255
223 237 255
223 237 255
223 237 255
223 237 255
223 237 255
223 237 255
223 237 255
223 237 255
223 237 255
223 237 255
223 237 255
223 237 255
223 237 255
223 237 255
223 237 255
223 237 255
223 237 255
223 237 255
223 237 255
223 237 255
223 237 255
223 237 255
223 237 255
223 237 255
223 237 255
223 237 255
223 237 255
223 237 255
223 237 255
223 237 255
223 237 255
223 237 255
223 237 255
223 237 255
223 237 255
223 237 255
223 237 255
223 237 255
223 237 255
223 237 255
223 237 255
223 237 255
223 237 255
223 237 255
223 237 255
223 237 255
223 237 255
223 237 255
223 237 255
223 237 255
223 237 255
223 237 255
223 237 255
223 237 255
223 237 255
223 237 255
223 237 255
223 237 255
223 237 255
223 237 255
223 237 255
223 237 255
223 237 255
223 237 255
223 237 255
223 237 255
223 237 255
223 237 255
223 237 255
223 237 255
223 237 255
223 237 255
223 237 255
223 237 255
223 237 255
223 237 255
223 237 255
223 237 255
223 237 255
223 237 255
223 237 255
223 237 255
223 237 255
223 237 255
223 237 255
223 237 255
223 237 255
223 237 255
223 237 255
223 237 255
223 237 255
223 237 255
223 237 255
223 237 255
223 237 255
223 237 255
223 237 255
220 233 252
63 67 74
0 0 13
0 0 20
1 2 22
4 7 33
0 7 36
9 22 61
6 20 52
0 12 41
4 13 47
6 21 57
5 21 59
11 30 76
2 26 66
0 17 49
0 24 65
7 30 80
0 22 65
0 14 49
0 4 36
0 0 32
0 0 34
0 0 33
0 0 35
0 0 36
0 0 37
0 0 37
0 0 38
0 0 40
0 0 41
0 8 41
0 14 44
0 15 47
0 15 48
0 15 47
0 15 47
0 15 48
0 14 48
0 15 48
0 14 49
0 15 49
0 15 50
0 15 51
0 15 50
0 15 49
0 15 51
0 14 56
0 15 57
0 19 57
0 21 57
0 20 57
0 21 59
0 21 61
0 21 61
0 22 64
0 21 65
0 21 63
0 21 60
0 21 58
0 17 55
0 15 53
0 14 51
0 15 50
0 15 48
0 14 49
0 15 48
0 14 47
0 12 46
0 14 46
0 15 47
0 11 43
0 1 39
0 0 39
0 0 39
0 0 39
0 2 39
0 13 43
0 19 49
0 16 48
0 14 47
0 13 44
0 11 44
0 11 43
0 14 47
0 14 48
0 12 46
0 15 48
0 15 49
0 15 49
0 13 46
0 8 39
0 14 41
0 12 39
0 6 37
0 0 34
0 0 34
0 0 34
0 0 33
0 0 31
0 0 28
0 0 29
0 0 27
0 0 27
0 0 27
0 0 27
0 0 25
0 0 23
0 0 24
0 0 26
0 0 22
0 0 22
0 0 22
0 0 18
0 0 18
0 0 22
0 0 22
0 0 22
0 0 22
0 0 22
0 0 22
0 0 22
0 0 22
0 0 18
0 0 18
0 0 23
0 1 38
0 13 54
0 21 63
3 28 71
5 26 66
8 18 56
0 8 38
0 0 25
6 8 33
22 28 47
66 69 83
102 106 117
119 122 113
110 107 98
91 83 69
79 66 44
91 80 53
85 75 50
85 74 56
49 37 28
44 37 32
72 68 56
17 17 2
15 17 0
13 20 0
9 19 0
15 29 0
24 36 11
16 29 0
38 50 22
37 46 18
38 45 16
39 44 16
38 36 17
47 45 26
43 39 18
50 46 25
46 43 19
42 44 20
45 47 23
43 45 20
49 52 28
44 44 17
52 49 22
65 56 34
69 57 36
67 55 32
69 58 34
76 64 39
76 60 35
80 63 36
87 70 42
82 65 38
77 62 35
70 58 33
70 58 35
70 57 34
64 53 29
63 54 29
63 51 29
44 37 18
39 40 17
40 40 16
45 46 21
29 46 62
7 38 88
8 23 61
0 11 43
0 0 33
0 0 28
0 0 27
0 0 24
0 0 16
0 0 11
0 0 0
0 0 0
0 0 12
0 5 30
50 55 76
222 235 254
223 237 255
223 237 255
223 237 255
223 237 255
223 237 255
223 237 255
223 237 255
223 237 255
223 237 255
223 237 255
223 237 255
223 237 255
223 237 255
223 237 255
223 237 255
223 237 255
223 237 255
223 237 255
223 237 255
223 237 255
223 237 255
223 237 255
223 237 255
223 237 255
223 237 255
223 237 255
223 237 255
223 237 255
223 237 255
223 237 255
223 237 255
223 237 255
223 237 255
223 237 255
223 237 255
223 237 255
223 237 255
223 237 255
223 237 255
223 237 255
223 237 255
223 237 255
223 237 255
223 237 255
223 237 255
223 237 255
223 237 255
223 237 255
223 237 255
223 237 255
223 237 255
223 237 255
223 237 255
223 237 255
223 237 255
223 237 255
223 237 255
223 237 255
223 237 255
223 237 255
223 237 255
223 237 255
223 237 255
223 237 255
223 237 255
223 237 255
223 237 255
223 237 255
223 237 255
223 237 255
223 237 255
223 237 255
223 237 255
223 237 255
223 237 255
223 237 255
223 237 255
223 237 255
223 237 255
223 237 255
223 237 255
223 237 255
223 237 255
223 237 255
223 237 255
223 237 255
223 237 255
223 237 255
223 237 255
223 237 255
223 237 255
223 237 255
223 237 255
223 237 255
223 237 255
223 237 255
223 237 255
223 237 255
223 237 255
223 237 255
223 237 255
223 237 255
223 237 255
223 237 255
223 237 255
223 237 255
223 237 255
223 237 255
223 237 255
223 237 255
223 237 255
223 237 255
223 237 255
223 237 255
223 237 255
223 237 255
223 237 255
223 237 255
223 237 255
223 237 255
223 237 255
223 237 255
223 237 255
223 237 255
223 237 255
223 237 255
223 237 255
223 237 255
223 237 255
223 237 255
223 237 255
223 237 255
223 237 255
223 237 255
223 237 255
223 237 255
223 237 255
223 237 255
223 237 255
223 237 255
223 237 255
223 237 255
223 237 255
223 237 255
223 237 255
223 237 255
223 237 255
223 237 255
223 237 255
223 237 255
223 237 255
223 237 255
223 237 255
223 237 255
223 237 255
223 237 255
223 237 255
223 237 255
223 237 255
223 237 255
223 237 255
223 237 255
223 237 255
223 237 255
223 237 255
223 237 255
223 237 255
223 237 255
223 237 255
223 237 255
223 237 255
223 237 255
223 237 255
223 237 255
223 237 255
223 237 255
223 237 255
223 237 255
223 237 255
223 237 255
223 237 255
223 237 255
223 237 255
223 237 255
223 237 255
223 237 255
223 237 255
223 237 255
223 237 255
223 237 255
223 237 255
223 237 255
223 237 255
223 237 255
223 237 255
128 136 147
0 0 16
0 3 19
0 0 21
0 0 24
3 10 36
0 9 43
0 17 54
0 11 41
0 3 35
0 12 41
0 11 42
1 16 52
10 27 67
2 20 55
0 15 54
0 24 68
0 26 69
0 22 59
0 17 50
0 4 38
0 0 37
0 0 35
0 0 33
0 0 35
0 0 35
0 0 35
0 0 36
0 0 37
0 0 39
0 0 39
0 8 41
0 14 46
0 15 48
0 15 47
0 14 48
0 15 48
0 14 48
0 15 48
0 15 49
0 14 49
0 14 50
0 15 52
0 17 52
0 14 50
0 14 50
0 14 55
0 16 56
0 16 57
0 20 57
0 21 57
0 21 59
0 21 61
0 21 61
0 25 65
0 24 66
0 22 62
0 21 59
0 21 57
0 17 56
0 15 52
0 15 51
0 15 50
0 15 48
0 14 49
0 15 48
0 15 48
0 14 48
0 14 46
0 14 46
0 11 42
0 0 37
0 7 39
0 7 40
0 0 38
0 7 40
0 15 44
0 13 43
0 9 41
0 13 43
0 14 44
0 11 42
0 14 42
0 8 41
0 0 41
0 0 41
0 2 41
0 5 42
0 8 42
0 2 39
0 0 35
0 2 35
0 0 35
0 0 34
0 0 32
0 0 32
0 0 32
0 0 30
0 0 28
0 0 27
0 0 25
0 0 26
0 0 27
0 0 27
0 0 27
0 0 26
0 0 25
0 0 26
0 0 27
0 0 24
0 0 23
0 0 22
0 0 21
0 0 20
0 0 22
0 0 22
0 0 22
0 0 22
0 0 24
0 0 25
0 0 22
0 0 22
0 0 23
0 0 26
0 0 32
0 7 48
0 18 62
0 25 68
0 26 69
0 20 61
0 9 48
0 0 27
0 0 15
0 0 15
1 7 24
9 19 36
26 35 54
71 76 96
105 106 122
121 120 128
100 94 82
90 78 49
100 86 58
82 66 43
89 71 53
80 64 44
96 80 58
54 40 15
33 28 7
32 32 15
16 20 4
20 32 9
20 33 7
19 32 3
33 43 16
51 58 31
54 57 32
44 46 20
38 36 15
42 40 20
44 41 21
43 39 21
50 47 28
44 42 23
42 43 22
32 37 10
32 39 10
42 41 15
59 52 30
71 59 38
74 62 40
70 59 34
75 64 38
74 58 34
78 58 35
77 59 34
79 61 36
80 65 38
71 56 29
73 61 37
66 53 30
70 57 33
63 51 27
63 53 29
54 44 23
41 37 14
34 35 10
52 52 24
44 51 29
21 52 94
22 52 103
4 19 54
3 16 45
0 0 31
0 0 27
0 0 27
0 0 23
0 0 16
0 0 8
0 0 10
0 0 1
0 0 15
0 7 35
136 144 161
223 237 255
223 237 255
223 237 255
223 237 255
223 237 255
223 237 255
223 237 255
223 237 255
223 237 255
223 237 255
223 237 255
223 237 255
223 237 255
223 237 255
223 237 255
223 237 255
223 237 255
223 237 255
223 237 255
223 237 255
223 237 255
223 237 255
223 237 255
223 237 255
223 237 255
223 237 255
223 237 255
223 237 255
223 237 255
223 237 255
223 237 255
223 237 255
223 237 255
223 237 255
223 237 255
223 237 255
223 237 255
223 237 255
223 237 255
223 237 255
223 237 255
223 237 255
223 237 255
223 237 255
223 237 255
223 237 255
223 237 255
223 237 255
223 237 255
223 237 255
223 237 255
223 237 255
223 237 255
223 237 255
223 237 255
223 237 255
223 237 255
223 237 255
223 237 255
223 237 255
223 237 255
223 237 255
223 237 255
223 237 255
223 237 255
223 237 255
223 237 255
223 237 255
223 237 255
223 237 255
223 237 255
223 237 255
223 237 255
223 237 255
223 237 255
223 237 255
223 237 255
223 237 255
223 237 255
223 237 255
223 237 255
223 237 255
223 237 255
223 237 255
223 237 255
223 237 255
223 237 255
223 237 255
223 237 255
223 237 255
223 237 255
223 237 255
223 237 255
223 237 255
223 237 255
223 237 255
223 237 255
223 237 255
223 237 255
223 237 255
223 237 255
223 237 255
223 237 255
223 237 255
223 237 255
223 237 255
223 237 255
223 237 255
223 237 255
223 237 255
223 237 255
223 237 255
223 237 255
223 237 255
223 237 255
223 237 255
223 237 255
223 237 255
223 237 255
223 237 255
223 237 255
223 237 255
223 237 255
223 237 255
223 237 255
223 237 255
223 237 255
223 237 255
223 237 255
223 237 255
223 237 255
223 237 255
223 237 255
223 237 255
223 237 255
223 237 255
223 237 255
223 237 255
223 237 255
223 237 255
223 237 255
223 237 255
223 237 255
223 237 255
223 237 255
223 237 255
223 237 255
223 237 255
223 237 255
223 237 255
223 237 255
223 237 255
223 237 255
223 237 255
223 237 255
223 237 255
223 237 255
223 237 255
223 237 255
223 237 255
223 237 255
223 237 255
223 237 255
223 237 255
223 237 255
223 237 255
223 237 255
223 237 255
223 237 255
223 237 255
223 237 255
223 237 255
223 237 255
223 237 255
223 237 255
223 237 255
223 237 255
223 237 255
223 237 255
223 237 255
223 237 255
223 237 255
223 237 255
223 237 255
223 237 255
223 237 255
223 237 255
223 237 255
223 237 255
223 237 255
223 237 255
223 237 255
223 237 255
223 237 255
223 237 255
223 237 255
195 206 223
0 0 15
0 2 22
0 0 22
0 0 17
4 9 33
0 7 36
0 11 46
0 8 41
0 5 32
0 0 29
0 9 34
0 2 31
5 14 46
8 21 57
6 18 52
0 16 53
0 18 59
3 25 65
8 27 64
0 18 52
0 10 45
0 6 41
0 0 36
0 0 32
0 0 34
0 0 35
0 0 35
0 0 35
0 0 38
0 0 39
0 0 40
0 6 43
0 15 48
0 15 48
0 15 48
0 15 48
0 14 48
0 15 48
0 15 48
0 14 48
0 15 48
0 14 48
0 14 51
0 15 50
0 15 50
0 15 54
0 16 57
0 16 57
0 21 57
0 21 57
0 21 59
0 21 62
0 21 62
0 25 65
0 24 63
0 21 61
0 21 58
0 21 56
0 16 54
0 15 52
0 15 50
0 15 48
0 15 48
0 15 48
0 15 47
0 11 46
0 12 46
0 5 43
0 3 42
0 7 40
0 0 37
0 0 36
0 0 39
0 0 36
0 0 35
0 0 35
0 2 36
0 0 35
0 0 36
0 8 37
0 7 38
0 4 36
0 0 35
0 0 35
0 0 35
0 0 35
0 0 34
0 0 37
0 0 34
0 0 34
0 0 35
0 0 35
0 0 35
0 0 32
0 0 33
0 0 32
0 0 31
0 0 31
0 0 31
0 0 29
0 0 28
0 0 27
0 0 27
0 0 27
0 0 28
0 0 29
0 0 29
0 0 31
0 0 27
0 0 27
0 0 27
0 0 27
0 0 26
0 0 23
0 0 22
0 0 22
0 0 22
0 0 26
0 0 27
0 0 27
0 0 27
0 0 28
0 0 34
0 10 42
0 16 53
0 21 64
0 22 62
0 16 52
0 10 45
0 3 39
0 0 32
0 0 20
0 0 4
0 0 6
0 0 23
0 8 45
18 31 75
38 47 79
81 92 113
120 127 130
102 90 70
91 67 42
93 74 48
89 78 51
93 82 55
100 81 55
91 74 49
66 55 29
70 64 42
56 56 35
26 28 11
22 29 7
29 38 13
45 51 27
57 62 37
62 65 40
61 64 40
39 42 19
36 37 15
36 35 14
36 33 15
40 38 20
38 36 17
31 33 9
32 38 12
44 51 25
54 53 29
61 52 29
69 57 36
70 57 35
66 55 29
73 60 36
79 63 39
80 61 39
74 56 31
82 64 38
76 60 33
69 55 27
71 58 34
69 56 32
68 55 31
61 50 27
57 48 25
44 38 14
41 38 16
46 47 24
55 57 27
32 49 54
17 58 113
17 40 86
0 14 48
0 6 37
0 0 30
0 0 27
0 0 27
0 0 20
0 0 14
0 0 1
0 0 0
0 0 3
0 0 18
0 10 41
193 205 223
223 237 255
223 237 255
223 237 255
223 237 255
223 237 255
223 237 255
223 237 255
223 237 255
223 237 255
223 237 255
223 237 255
223 237 255
223 237 255
223 237 255
223 237 255
223 237 255
223 237 255
223 237 255
223 237 255
223 237 255
223 237 255
223 237 255
223 237 255
223 237 255
223 237 255
223 237 255
223 237 255
223 237 255
223 237 255
223 237 255
223 237 255
223 237 255
223 237 255
223 237 255
223 237 255
223 237 255
223 237 255
223 237 255
223 237 255
223 237 255
223 237 255
223 237 255
223 237 255
223 237 255
223 237 255
223 237 255
223 237 255
223 237 255
223 237 255
223 237 255
223 237 255
223 237 255
223 237 255
223 237 255
223 237 255
223 237 255
223 237 255
223 237 255
223 237 255
223 237 255
223 237 255
223 237 255
223 237 255
223 237 255
223 237 255
223 237 255
223 237 255
223 237 255
223 237 255
223 237 255
223 237 255
223 237 255
223 237 255
223 237 255
223 237 255
223 237 255
223 237 255
223 237 255
223 237 255
223 237 255
223 237 255
223 237 255
223 237 255
223 237 255
223 237 255
223 237 255
223 237 255
223 237 255
223 237 255
223 237 255
223 237 255
223 237 255
223 237 255
223 237 255
223 237 255
223 237 255
223 237 255
223 237 255
223 237 255
223 237 255
223 237 255
223 237 255
223 237 255
223 237 255
223 237 255
223 237 255
223 237 255
223 237 255
223 237 255
223 237 255
223 237 255
223 237 255
223 237 255
223 237 255
223 237 255
223 237 255
223 237 255
223 237 255
223 237 255
223 237 255
223 237 255
223 237 255
223 237 255
223 237 255
223 237 255
223 237 255
223 237 255
223 237 255
223 237 255
223 237 255
223 237 255
223 237 255
223 237 255
223 237 255
223 237 255
223 237 255
223 237 255
223 237 255
223 237 255
223 237 255
223 237 255
223 237 255
223 237 255
223 237 255
223 237 255
223 237 255
223 237 255
223 237 255
223 237 255
223 237 255
223 237 255
223 237 255
223 237 255
223 237 255
223 237 255
223 237 255
223 237 255
223 237 255
223 237 255
223 237 255
223 237 255
223 237 255
223 237 255
223 237 255
223 237 255
223 237 255
223 237 255
223 237 255
223 237 255
223 237 255
223 237 255
223 237 255
223 237 255
223 237 255
223 237 255
223 237 255
223 237 255
223 237 255
223 237 255
223 237 255
223 237 255
223 237 255
223 237 255
223 237 255
223 237 255
223 237 255
223 237 255
223 237 255
223 237 255
223 237 255
223 237 255
223 237 255
223 237 255
223 237 255
223 237 255
223 237 255
223 237 255
70 75 81
0 0 18
3 7 29
0 0 17
0 0 22
0 10 36
0 8 39
0 12 44
0 4 32
0 0 28
0 0 25
0 5 28
1 5 30
5 17 50
3 12 46
0 9 43
0 16 49
0 19 55
5 24 63
0 24 61
0 19 56
0 17 52
0 14 44
0 3 35
0 0 34
0 0 35
0 0 35
0 0 35
0 0 37
0 0 39
0 0 39
0 2 42
0 14 46
0 15 48
0 15 48
0 15 48
0 15 48
0 14 48
0 15 48
0 15 48
0 15 48
0 15 50
0 15 50
0 15 50
0 15 50
0 15 53
0 16 57
0 15 57
0 21 57
0 21 57
0 21 59
0 21 62
0 21 62
0 24 63
0 23 63
0 21 61
0 21 58
0 21 56
0 16 55
0 16 52
0 14 50
0 14 48
0 15 48
0 15 48
0 14 47
0 14 47
0 12 45
0 1 44
0 12 44
0 9 40
0 0 37
0 0 36
0 0 36
0 0 35
0 0 36
0 0 37
0 5 37
0 4 36
0 0 35
0 0 35
0 0 35
0 0 33
0 0 32
0 0 33
0 0 34
0 0 33
0 0 32
0 0 32
0 0 32
0 0 34
0 0 35
0 0 35
0 0 35
0 0 35
0 0 35
0 0 32
0 0 32
0 0 32
0 0 32
0 0 32
0 0 29
0 0 27
0 0 27
0 0 27
0 0 29
0 0 32
0 0 32
0 0 31
0 0 27
0 0 27
0 0 27
0 0 27
0 0 28
0 0 29
0 0 25
0 0 22
0 0 22
0 0 24
0 0 24
0 0 25
0 0 28
0 0 31
0 11 44
3 20 55
0 20 56
0 18 55
0 15 49
0 13 42
0 0 34
0 0 30
0 0 29
0 0 26
0 0 24
0 0 22
0 0 20
0 0 22
9 17 48
19 34 66
21 42 72
90 103 119
115 113 111
98 79 63
95 79 56
92 80 52
98 84 56
107 88 63
123 108 80
93 80 49
78 68 40
83 78 55
60 57 36
38 38 20
22 22 4
27 28 10
61 66 42
55 60 35
46 52 27
34 39 15
45 48 27
40 42 22
30 31 13
33 32 11
37 37 15
35 38 16
38 44 19
49 54 29
56 53 28
65 55 32
74 61 40
70 57 34
68 54 29
72 58 33
77 61 36
74 57 33
77 58 34
74 58 33
66 51 25
70 55 29
70 56 33
69 55 32
64 51 27
65 53 29
57 51 27
45 41 19
50 46 26
51 52 29
44 50 32
24 54 89
19 57 111
2 14 56
0 13 45
0 2 34
0 0 28
0 0 27
0 0 26
0 0 17
0 0 11
0 0 0
0 0 0
0 0 6
0 0 22
94 101 116
221 234 253
223 237 255
223 237 255
223 237 255
223 237 255
223 237 255
223 237 255
223 237 255
223 237 255
223 237 255
223 237 255
223 237 255
223 237 255
223 237 255
223 237 255
223 237 255
223 237 255
223 237 255
223 237 255
223 237 255
223 237 255
223 237 255
223 237 255
223 237 255
223 237 255
223 237 255
223 237 255
223 237 255
223 237 255
223 237 255
223 237 255
223 237 255
223 237 255
223 237 255
223 237 255
223 237 255
223 237 255
223 237 255
223 237 255
223 237 255
223 237 255
223 237 255
223 237 255
223 237 255
223 237 255
223 237 255
223 237 255
223 237 255
223 237 255
223 237 255
223 237 255
223 237 255
223 237 255
223 237 255
223 237 255
223 237 255
223 237 255
223 237 255
223 237 255
223 237 255
223 237 255
223 237 255
223 237 255
223 237 255
223 237 255
223 237 255
223 237 255
223 237 255
223 237 255
223 237 255
223 237 255
223 237 255
223 237 255
223 237 255
223 237 255
223 237 255
223 237 255
223 237 255
223 237 255
223 237 255
223 237 255
223 237 255
223 237 255
223 237 255
223 237 255
223 237 255
223 237 255
223 237 255
223 237 255
223 237 255
223 237 255
223 237 255
223 237 255
223 237 255
223 237 255
223 237 255
223 237 255
223 237 255
223 237 255
223 237 255
223 237 255
223 237 255
223 237 255
223 237 255
223 237 255
223 237 255
223 237 255
223 237 255
223 237 255
223 237 255
223 237 255
223 237 255
223 237 255
223 237 255
223 237 255
223 237 255
223 237 255
223 237 255
223 237 255
223 237 255
223 237 255
223 237 255
223 237 255
223 237 255
223 237 255
223 237 255
223 237 255
223 237 255
223 237 255
223 237 255
223 237 255
223 237 255
223 237 255
223 237 255
223 237 255
223 237 255
223 237 255
223 237 255
223 237 255
223 237 255
223 237 255
223 237 255
223 237 255
223 237 255
223 237 255
223 237 255
223 237 255
223 237 255
223 237 255
223 237 255
223 237 255
223 237 255
223 237 255
223 237 255
223 237 255
223 237 255
223 237 255
223 237 255
223 237 255
223 237 255
223 237 255
223 237 255
223 237 255
223 237 255
223 237 255
223 237 255
223 237 255
223 237 255
223 237 255
223 237 255
223 237 255
223 237 255
223 237 255
223 237 255
223 237 255
223 237 255
223 237 255
223 237 255
223 237 255
223 237 255
223 237 255
223 237 255
223 237 255
223 237 255
223 237 255
223 237 255
223 237 255
223 237 255
223 237 255
223 237 255
223 237 255
223 237 255
223 237 255
223 237 255
223 237 255
223 237 255
223 237 255
223 237 255
163 172 186
0 0 19
2 5 27
0 0 22
0 0 17
0 0 24
0 0 30
0 10 38
0 5 31
0 0 30
3 5 31
0 4 30
0 0 26
0 8 34
0 14 41
0 2 39
0 14 42
0 8 40
0 11 49
0 17 54
0 23 59
0 25 59
0 20 55
0 9 44
0 2 39
0 0 35
0 0 35
0 0 35
0 0 36
0 0 39
0 0 39
0 0 42
0 13 45
0 14 49
0 15 48
0 15 48
0 15 48
0 15 48
0 15 48
0 15 48
0 14 48
0 15 50
0 15 50
0 15 50
0 14 51
0 15 54
0 15 56
0 15 57
0 20 57
0 21 58
0 21 59
0 21 61
0 21 62
0 22 62
0 22 62
0 21 61
0 21 59
0 21 56
0 17 55
0 16 52
0 14 50
0 15 48
0 15 48
0 15 47
0 15 47
0 14 46
0 13 45
0 1 44
0 4 42
0 9 40
0 0 38
0 0 36
0 0 35
0 0 35
0 0 35
0 0 35
0 5 36
0 5 34
0 0 32
0 0 33
0 0 34
0 0 32
0 0 32
0 0 33
0 0 33
0 0 33
0 0 32
0 0 35
0 0 33
0 0 35
0 0 35
0 0 35
0 0 35
0 0 35
0 0 35
0 0 32
0 0 32
0 0 32
0 0 32
0 0 32
0 0 30
0 0 27
0 0 27
0 0 27
0 0 29
0 0 32
0 0 32
0 0 31
0 0 27
0 0 28
0 0 31
0 0 28
0 0 31
0 0 33
0 0 29
0 0 25
0 0 22
0 0 22
0 0 24
0 0 26
0 0 32
0 5 39
0 17 52
4 22 60
0 19 53
0 13 44
0 5 37
0 3 33
0 0 27
0 0 25
0 0 24
0 0 31
0 0 38
0 3 36
0 2 26
0 0 15
0 1 19
4 19 49
13 42 82
23 44 78
87 90 107
127 116 108
95 82 60
84 70 43
95 79 54
96 79 57
114 100 71
97 82 50
85 70 40
68 55 28
60 51 30
60 56 38
46 43 25
36 35 13
51 53 31
35 39 12
32 38 14
28 33 6
43 47 27
42 43 23
33 33 14
32 33 12
34 36 13
31 33 8
30 33 8
44 46 21
57 52 29
68 56 35
73 60 38
74 61 36
75 61 35
75 61 35
71 56 31
74 58 34
72 53 30
73 56 32
76 61 37
68 55 30
67 54 30
70 57 33
67 54 29
65 56 27
53 50 25
41 36 21
55 50 30
47 48 26
33 44 46
22 56 106
13 43 89
0 15 55
0 10 41
0 0 31
0 0 28
0 0 26
0 0 22
0 0 15
0 0 11
0 0 0
0 0 0
0 0 6
0 4 25
148 157 173
223 237 255
223 237 255
223 237 255
223 237 255
223 237 255
223 237 255
223 237 255
223 237 255
223 237 255
223 237 255
223 237 255
223 237 255
223 237 255
223 237 255
223 237 255
223 237 255
223 237 255
223 237 255
223 237 255
223 237 255
223 237 255
223 237 255
223 237 255
223 237 255
223 237 255
223 237 255
223 237 255
223 237 255
223 237 255
223 237 255
223 237 255
223 237 255
223 237 255
223 237 255
223 237 255
223 237 255
223 237 255
223 237 255
223 237 255
223 237 255
223 237 255
223 237 255
223 237 255
223 237 255
223 237 255
223 237 255
223 237 255
223 237 255
223 237 255
223 237 255
223 237 255
223 237 255
223 237 255
223 237 255
223 237 255
223 237 255
223 237 255
223 237 255
223 237 255
223 237 255
223 237 255
223 237 255
223 237 255
223 237 255
223 237 255
223 237 255
223 237 255
223 237 255
223 237 255
223 237 255
223 237 255
223 237 255
223 237 255
223 237 255
223 237 255
223 237 255
223 237 255
223 237 255
223 237 255
223 237 255
223 237 255
223 237 255
223 237 255
223 237 255
223 237 255
223 237 255
223 237 255
223 237 255
223 237 255
223 237 255
223 237 255
223 237 255
223 237 255
223 237 255
223 237 255
223 237 255
223 237 255
223 237 255
223 237 255
223 237 255
223 237 255
223 237 255
223 237 255
223 237 255
223 237 255
223 237 255
223 237 255
223 237 255
223 237 255
223 237 255
223 237 255
223 237 255
223 237 255
223 237 255
223 237 255
223 237 255
223 237 255
223 237 255
223 237 255
223 237 255
223 237 255
223 237 255
223 237 255
223 237 255
223 237 255
223 237 255
223 237 255
223 237 255
223 237 255
223 237 255
223 237 255
223 237 255
223 237 255
223 237 255
223 237 255
223 237 255
223 237 255
223 237 255
223 237 255
223 237 255
223 237 255
223 237 255
223 237 255
223 237 255
223 237 255
223 237 255
223 237 255
223 237 255
223 237 255
223 237 255
223 237 255
223 237 255
223 237 255
223 237 255
223 237 255
223 237 255
223 237 255
223 237 255
223 237 255
223 237 255
223 237 255
223 237 255
223 237 255
223 237 255
223 237 255
223 237 255
223 237 255
223 237 255
223 237 255
223 237 255
223 237 255
223 237 255
223 237 255
223 237 255
223 237 255
223 237 255
223 237 255
223 237 255
223 237 255
223 237 255
223 237 255
223 237 255
223 237 255
223 237 255
223 237 255
223 237 255
223 237 255
223 237 255
223 237 255
223 237 255
223 237 255
223 237 255
223 237 255
223 237 255
223 237 255
223 237 255
223 237 255
223 237 255
207 220 237
38 41 46
0 0 24
0 0 22
0 0 17
0 0 20
0 2 29
0 0 29
0 2 27
0 0 30
4 9 34
2 7 37
0 0 30
0 0 27
0 3 26
0 6 36
3 12 40
0 2 36
0 6 41
0 11 45
0 11 48
0 15 50
0 18 53
0 15 50
0 13 46
0 2 36
0 0 35
0 0 35
0 0 36
0 0 39
0 7 40
0 7 41
0 3 41
0 13 45
0 14 46
0 15 48
0 15 48
0 15 48
0 15 48
0 15 48
0 15 48
0 15 50
0 15 50
0 15 50
0 15 50
0 15 53
0 14 56
0 15 57
0 18 57
0 21 57
0 21 58
0 21 60
0 21 62
0 21 62
0 21 61
0 21 61
0 21 59
0 21 57
0 16 55
0 15 52
0 15 50
0 15 48
0 15 48
0 15 48
0 15 47
0 14 45
0 14 45
0 5 45
0 0 42
0 0 40
0 0 39
0 0 39
0 0 35
0 0 35
0 0 35
0 0 35
0 0 35
0 0 34
0 0 34
0 0 34
0 0 35
0 0 33
0 0 32
0 0 32
0 0 32
0 0 32
0 0 32
0 0 35
0 0 33
0 0 35
0 0 35
0 0 37
0 0 35
0 0 32
0 0 35
0 0 35
0 0 34
0 0 32
0 0 33
0 0 32
0 0 32
0 0 31
0 0 31
0 0 31
0 0 31
0 0 32
0 0 32
0 0 31
0 0 28
0 0 28
0 0 28
0 0 27
0 0 30
0 0 33
0 0 30
0 0 24
0 0 23
0 0 25
0 0 28
0 0 32
0 1 37
0 15 46
0 20 55
0 19 57
0 11 42
0 0 34
0 0 32
0 0 28
0 0 21
0 0 18
0 0 23
0 0 32
0 0 37
0 0 32
0 0 23
0 0 19
0 0 19
0 5 27
0 25 64
15 39 80
49 53 75
115 108 106
94 83 65
115 99 73
141 126 104
117 104 89
112 102 78
94 78 49
87 68 38
83 65 40
65 53 35
60 54 39
37 31 16
42 40 21
45 45 25
34 34 7
31 35 6
34 37 14
38 38 17
43 42 24
38 38 19
33 36 15
32 33 9
33 35 10
54 57 33
57 57 32
60 53 29
71 58 37
71 57 35
73 59 35
75 59 35
76 61 35
72 57 31
77 59 35
77 58 36
73 55 33
72 57 35
72 59 35
69 57 34
65 53 28
71 59 34
59 54 23
44 46 21
36 34 16
50 46 24
44 46 29
25 46 72
15 44 95
12 31 73
3 16 54
0 6 40
0 0 33
0 0 31
0 0 26
0 0 18
0 2 17
0 0 8
0 0 0
0 0 0
0 0 12
0 4 31
210 222 240
223 237 255
223 237 255
223 237 255
223 237 255
223 237 255
223 237 255
223 237 255
223 237 255
223 237 255
223 237 255
223 237 255
223 237 255
223 237 255
223 237 255
223 237 255
223 237 255
223 237 255
223 237 255
223 237 255
223 237 255
223 237 255
223 237 255
223 237 255
223 237 255
223 237 255
223 237 255
223 237 255
223 237 255
223 237 255
223 237 255
223 237 255
223 237 255
223 237 255
223 237 255
223 237 255
223 237 255
223 237 255
223 237 255
223 237 255
223 237 255
223 237 255
223 237 255
223 237 255
223 237 255
223 237 255
223 237 255
223 237 255
223 237 255
223 237 255
223 237 255
223 237 255
223 237 255
223 237 255
223 237 255
223 237 255
223 237 255
223 237 255
223 237 255
223 237 255
223 237 255
223 237 255
223 237 255
223 237 255
223 237 255
223 237 255
223 237 255
223 237 255
223 237 255
223 237 255
223 237 255
223 237 255
223 237 255
223 237 255
223 237 255
223 237 255
223 237 255
223 237 255
223 237 255
223 237 255
223 237 255
223 237 255
223 237 255
223 237 255
223 237 255
223 237 255
223 237 255
223 237 255
223 237 255
223 237 255
223 237 255
223 237 255
223 237 255
223 237 255
223 237 255
223 237 255
223 237 255
223 237 255
223 237 255
223 237 255
223 237 255
223 237 255
223 237 255
223 237 255
223 237 255
223 237 255
223 237 255
223 237 255
223 237 255
223 237 255
223 237 255
223 237 255
223 237 255
223 237 255
223 237 255
223 237 255
223 237 255
223 237 255
223 237 255
223 237 255
223 237 255
223 237 255
223 237 255
223 237 255
223 237 255
223 237 255
223 237 255
223 237 255
223 237 255
223 237 255
223 237 255
223 237 255
223 237 255
223 237 255
223 237 255
223 237 255
223 237 255
223 237 255
223 237 255
223 237 255
223 237 255
223 237 255
223 237 255
223 237 255
223 237 255
223 237 255
223 237 255
223 237 255
223 237 255
223 237 255
224 237 255
224 237 255
223 237 255
224 237 255
223 237 255
223 237 255
224 237 255
224 237 255
224 237 255
224 237 255
224 237 255
224 237 255
224 237 255
224 237 255
224 237 255
224 237 255
224 237 255
224 237 255
224 237 255
224 237 255
224 237 255
224 237 255
224 237 255
224 237 255
224 237 255
224 237 255
224 237 255
224 237 255
224 237 255
224 237 255
224 237 255
224 237 255
224 237 255
224 237 255
224 237 255
224 237 255
224 237 255
224 237 255
224 237 255
224 237 255
224 237 255
224 237 255
224 237 255
224 237 255
224 237 255
224 237 255
224 237 255
224 237 255
224 237 255
224 237 255
109 116 125
0 4 22
0 0 19
0 0 19
0 0 19
0 2 26
0 3 29
0 0 24
0 0 25
0 0 28
0 0 33
0 0 33
0 0 28
0 5 26
0 4 29
6 18 45
5 13 43
0 6 41
0 2 42
0 1 42
0 2 41
0 12 45
0 14 50
0 14 48
0 10 38
0 0 35
0 0 35
0 6 37
0 3 39
0 5 39
0 8 40
0 10 43
0 14 48
0 15 49
0 15 49
0 15 48
0 15 48
0 15 48
0 14 48
0 14 48
0 15 50
0 15 50
0 15 51
0 15 51
0 15 51
0 15 55
0 15 57
0 15 57
0 18 57
0 21 58
0 21 60
0 21 62
0 21 62
0 21 60
0 21 59
0 21 57
0 20 57
0 15 54
0 14 52
0 15 50
0 15 48
0 14 48
0 15 47
0 15 45
0 8 45
0 10 45
0 8 45
0 0 42
0 0 40
0 0 39
0 0 39
0 0 36
0 0 35
0 0 35
0 0 35
0 0 35
0 0 35
0 0 34
0 0 35
0 0 35
0 0 34
0 0 32
0 0 32
0 0 32
0 0 32
0 0 32
0 0 32
0 0 32
0 0 35
0 0 35
0 0 35
0 0 35
0 0 35
0 0 35
0 0 35
0 0 35
0 0 35
0 0 35
0 0 35
0 0 33
0 0 32
0 0 32
0 0 32
0 0 32
0 0 32
0 0 32
0 0 32
0 0 31
0 0 29
0 0 28
0 0 27
0 0 30
0 0 32
0 0 28
0 0 27
0 0 28
0 0 31
0 0 37
0 6 43
0 10 45
0 17 51
0 20 53
0 12 46
0 0 37
0 0 35
0 0 31
0 0 24
0 0 16
0 0 21
0 0 22
0 0 21
0 0 23
0 0 23
0 0 25
0 0 30
0 0 24
0 0 15
0 10 38
18 34 75
48 56 83
105 100 97
91 78 58
97 80 53
146 132 114
132 123 112
115 106 87
105 90 65
97 78 50
86 69 44
79 68 49
64 61 45
35 30 12
49 46 28
54 52 32
43 40 19
36 35 14
37 34 15
40 38 17
39 36 17
41 41 22
37 41 20
43 45 24
40 42 18
41 43 18
44 44 18
59 51 28
71 59 37
74 60 37
75 60 39
73 59 35
77 63 38
75 62 35
73 59 33
71 55 31
68 54 31
67 53 31
67 55 31
65 54 30
68 58 33
65 55 30
52 48 22
39 42 16
47 47 22
41 38 12
29 41 47
12 39 80
9 34 81
16 32 71
14 29 66
8 23 54
1 13 43
0 6 35
0 6 28
1 1 17
2 3 15
0 0 1
0 0 0
0 0 2
0 0 19
122 130 143
224 237 255
224 237 255
224 237 255
224 237 255
224 237 255
224 237 255
224 237 255
224 237 255
224 237 255
224 237 255
224 237 255
224 237 255
224 237 255
224 237 255
224 237 255
224 237 255
224 237 255
224 237 255
224 237 255
224 237 255
224 237 255
224 237 255
224 237 255
224 237 255
224 237 255
224 237 255
224 237 255
224 237 255
224 237 255
224 237 255
224 237 255
224 237 255
224 237 255
224 237 255
224 237 255
224 237 255
224 237 255
224 237 255
224 237 255
224 237 255
224 237 255
224 237 255
224 237 255
224 237 255
224 237 255
224 237 255
224 237 255
223 237 255
223 237 255
223 237 255
223 237 255
223 237 255
223 237 255
223 237 255
223 237 255
223 237 255
223 237 255
223 237 255
223 237 255
223 237 255
223 237 255
223 237 255
223 237 255
223 237 255
223 237 255
223 237 255
223 237 255
223 237 255
223 237 255
223 237 255
223 237 255
223 237 255
223 237 255
223 237 255
223 237 255
223 237 255
223 237 255
223 237 255
223 237 255
223 237 255
223 237 255
223 237 255
223 237 255
223 237 255
223 237 255
223 237 255
223 237 255
223 237 255
223 237 255
223 237 255
223 237 255
223 237 255
223 237 255
223 237 255
223 237 255
223 237 255
223 237 255
223 237 255
223 237 255
223 237 255
224 237 255
224 237 255
224 237 255
224 237 255
224 237 255
224 237 255
224 237 255
224 237 255
224 237 255
224 237 255
224 237 255
224 237 255
224 237 255
224 237 255
224 237 255
224 237 255
224 237 255
224 237 255
224 237 255
224 237 255
224 237 255
224 237 255
224 237 255
224 237 255
224 237 255
224 237 255
224 237 255
224 237 255
224 237 255
224 237 255
224 237 255
224 237 255
224 237 255
224 237 255
224 237 255
224 237 255
224 237 255
224 237 255
224 237 255
224 237 255
224 237 255
224 237 255
224 237 255
224 237 255
224 237 255
224 237 255
224 237 255
224 237 255
224 237 255
224 237 255
224 237 255
224 237 255
224 237 255
224 237 255
224 237 255
224 237 255
224 237 255
224 237 255
224 237 255
224 237 255
224 237 255
224 237 255
224 237 255
224 237 255
224 237 255
224 237 255
224 237 255
224 237 255
224 237 255
224 237 255
224 237 255
224 237 255
224 237 255
224 237 255
224 237 255
224 237 255
224 237 255
224 237 255
224 237 255
224 237 255
224 237 255
224 237 255
224 237 255
224 237 255
224 237 255
224 237 255
224 237 255
224 237 255
224 237 255
224 237 255
224 237 255
224 237 255
224 237 255
224 237 255
224 237 255
224 237 255
224 237 255
224 237 255
224 237 255
224 237 255
192 204 220
0 0 17
0 2 21
0 0 19
0 2 23
0 0 25
0 0 27
0 0 22
0 0 21
0 0 24
0 0 28
0 0 29
0 0 25
0 0 26
0 4 28
1 5 32
8 21 50
5 20 52
3 11 45
0 9 44
0 10 43
0 5 40
0 12 43
0 15 47
0 14 41
0 2 37
0 0 36
0 4 37
0 14 42
0 14 42
0 9 40
0 15 43
0 15 48
0 15 50
0 15 49
0 15 48
0 15 48
0 15 48
0 15 48
0 15 49
0 14 49
0 15 48
0 14 50
0 15 52
0 15 53
0 15 56
0 15 57
0 14 57
0 17 57
0 19 57
0 21 59
0 21 60
0 21 62
0 21 60
0 21 59
0 21 58
0 20 57
0 15 53
0 14 52
0 15 50
0 15 48
0 15 48
0 14 46
0 15 45
0 11 45
0 11 45
0 6 44
0 0 42
0 6 41
0 4 40
0 0 40
0 0 37
0 0 37
0 0 36
0 0 35
0 0 35
0 0 35
0 0 34
0 0 35
0 0 34
0 0 35
0 0 35
0 0 34
0 0 32
0 0 32
0 0 32
0 0 32
0 0 32
0 0 34
0 0 35
0 2 37
0 1 36
0 0 35
0 0 35
0 0 34
0 0 35
0 0 35
0 0 34
0 0 35
0 0 35
0 0 32
0 0 32
0 0 32
0 0 32
0 0 32
0 0 32
0 0 32
0 0 32
0 0 32
0 0 28
0 0 28
0 0 28
0 0 29
0 0 27
0 0 27
0 0 31
0 0 38
0 8 47
0 15 52
0 20 55
0 23 56
0 9 43
0 2 37
0 3 36
0 0 32
0 0 26
0 0 22
0 0 22
0 0 18
0 0 17
0 0 16
0 0 13
0 0 17
0 0 25
0 0 30
4 7 30
2 2 21
0 0 20
16 31 67
54 58 81
121 113 115
98 78 56
96 80 51
139 133 115
127 122 111
113 102 87
106 91 70
98 79 53
91 76 50
81 69 44
51 47 27
41 35 19
49 43 28
56 52 34
44 41 18
35 33 9
36 35 15
39 36 13
37 35 14
35 37 13
36 40 16
48 50 26
45 46 19
43 45 18
51 49 23
64 54 31
70 56 34
72 58 34
71 58 36
74 62 38
72 60 34
71 60 32
73 63 35
69 59 32
64 53 28
60 51 28
60 52 27
58 52 25
60 54 28
60 50 27
48 45 18
46 46 22
46 43 13
36 41 29
24 47 74
1 31 78
6 24 66
4 13 47
0 12 44
5 16 45
0 11 40
0 0 27
0 0 18
0 0 10
0 0 10
0 0 0
0 0 0
0 0 11
0 3 29
169 179 195
224 237 255
224 237 255
224 237 255
224 237 255
224 237 255
224 237 255
224 237 255
224 237 255
224 237 255
224 237 255
224 237 255
224 237 255
224 237 255
224 237 255
224 237 255
224 237 255
224 237 255
224 237 255
224 237 255
224 237 255
224 237 255
224 237 255
224 237 255
224 237 255
224 237 255
224 237 255
224 237 255
224 237 255
224 237 255
224 237 255
224 237 255
224 237 255
224 237 255
224 237 255
224 237 255
224 237 255
224 237 255
224 237 255
224 237 255
224 237 255
224 237 255
224 237 255
224 237 255
224 237 255
224 237 255
224 237 255
224 237 255
224 237 255
224 237 255
224 237 255
224 237 255
224 237 255
224 237 255
224 237 255
224 237 255
224 237 255
224 237 255
224 237 255
224 237 255
224 237 255
224 237 255
224 237 255
224 237 255
224 237 255
224 237 255
224 237 255
224 237 255
224 237 255
224 237 255
224 237 255
224 237 255
224 237 255
224 237 255
224 237 255
224 237 255
224 237 255
224 237 255
224 237 255
224 237 255
224 237 255
224 237 255
224 237 255
224 237 255
224 237 255
224 237 255
224 237 255
224 237 255
224 237 255
224 237 255
224 237 255
224 237 255
224 237 255
224 237 255
224 237 255
224 237 255
224 237 255
224 237 255
224 237 255
224 237 255
224 237 255
224 237 255
224 237 255
224 237 255
224 237 255
224 237 255
224 237 255
224 237 255
224 237 255
224 237 255
224 237 255
224 237 255
224 237 255
224 237 255
224 237 255
224 237 255
224 237 255
224 237 255
224 237 255
224 237 255
224 237 255
224 237 255
224 237 255
224 237 255
224 237 255
224 237 255
224 237 255
224 237 255
224 237 255
224 237 255
224 237 255
224 237 255
224 237 255
224 237 255
224 237 255
224 237 255
224 237 255
224 237 255
224 237 255
224 237 255
224 237 255
224 237 255
224 237 255
224 237 255
224 237 255
224 237 255
224 237 255
224 237 255
224 237 255
224 237 255
224 237 255
224 237 255
224 237 255
224 237 255
224 237 255
224 237 255
224 237 255
224 237 255
224 237 255
224 237 255
224 237 255
224 237 255
224 237 255
224 237 255
224 237 255
224 237 255
224 237 255
224 237 255
224 237 255
224 237 255
224 237 255
224 237 255
224 237 255
224 237 255
224 237 255
224 237 255
224 237 255
224 237 255
224 237 255
224 237 255
224 237 255
224 237 255
224 237 255
224 237 255
224 237 255
224 237 255
224 237 255
224 237 255
224 237 255
224 237 255
224 237 255
224 237 255
224 237 255
224 237 255
224 237 255
224 237 255
224 237 255
224 237 255
224 237 255
224 237 255
224 237 255
221 235 253
86 91 99
0 0 19
0 0 17
0 1 23
0 2 25
0 0 27
0 0 21
0 0 20
0 0 20
0 0 26
0 0 30
0 0 29
0 0 27
0 5 31
0 7 35
0 4 34
2 10 43
12 26 59
9 22 55
5 15 50
0 13 45
0 8 40
0 16 47
0 15 45
0 9 41
0 8 41
0 13 42
0 15 44
0 15 45
0 15 43
0 15 44
0 15 47
0 15 48
0 15 48
0 15 48
0 15 48
0 15 48
0 15 48
0 14 50
0 15 50
0 15 48
0 15 50
0 15 51
0 15 53
0 15 56
0 15 57
0 15 57
0 19 58
0 21 58
0 21 59
0 21 59
0 21 61
0 21 60
0 21 59
0 21 58
0 21 57
0 15 53
0 15 52
0 15 50
0 15 49
0 15 48
0 15 45
0 15 45
0 15 45
0 14 44
0 4 42
0 0 42
0 11 42
0 11 42
0 0 42
0 0 40
0 0 39
0 0 39
0 0 37
0 0 37
0 0 37
0 0 35
0 0 35
0 0 34
0 0 34
0 0 35
0 0 34
0 0 33
0 0 33
0 0 33
0 0 32
0 0 32
0 0 35
0 0 34
0 12 39
0 14 40
0 0 35
0 5 37
0 0 35
0 0 35
0 0 35
0 0 35
0 0 35
0 0 35
0 0 34
0 0 33
0 0 33
0 0 35
0 0 35
0 0 35
0 0 32
0 0 32
0 0 32
0 0 32
0 0 32
0 0 28
0 0 25
0 0 25
0 0 28
0 0 35
0 4 45
0 15 57
0 23 63
0 25 62
0 17 49
0 5 38
0 0 34
0 3 26
0 0 23
0 0 22
0 0 22
0 0 21
0 0 16
0 0 16
0 0 12
0 0 12
0 0 16
0 0 21
0 0 22
0 11 36
6 10 35
0 0 21
10 29 64
49 55 83
127 116 120
115 92 69
110 95 67
164 160 142
214 209 198
179 167 153
99 81 57
77 57 29
91 75 48
77 66 42
36 31 8
43 37 22
47 42 26
50 45 26
51 50 28
39 39 17
35 36 15
34 35 11
37 38 14
30 34 7
36 39 15
45 47 22
41 43 16
52 52 26
56 52 27
66 55 32
71 59 35
66 54 31
72 60 37
69 58 32
70 59 32
70 61 33
70 64 34
69 62 35
61 55 30
56 52 26
58 55 27
52 49 21
56 52 26
56 49 25
49 47 20
52 49 28
49 53 32
37 56 75
8 38 84
3 25 70
0 15 52
0 5 38
0 0 34
0 0 30
0 0 28
0 0 21
0 0 12
0 0 8
0 0 5
0 0 0
0 0 0
0 0 19
77 82 96
220 233 252
224 237 255
224 237 255
224 237 255
224 237 255
224 237 255
224 237 255
224 237 255
224 237 255
224 237 255
224 237 255
224 237 255
224 237 255
224 237 255
224 237 255
224 237 255
224 237 255
224 237 255
224 237 255
224 237 255
224 237 255
224 237 255
224 237 255
224 237 255
224 237 255
224 237 255
224 237 255
224 237 255
224 237 255
224 237 255
224 237 255
224 237 255
224 237 255
224 237 255
224 237 255
224 237 255
224 237 255
224 237 255
224 237 255
224 237 255
224 237 255
224 237 255
224 237 255
224 237 255
224 237 255
224 237 255
224 237 255
224 237 255
224 237 255
224 237 255
224 237 255
224 237 255
224 237 255
224 237 255
224 237 255
224 237 255
224 237 255
224 237 255
224 237 255
224 237 255
224 237 255
224 237 255
224 237 255
224 237 255
224 237 255
224 237 255
224 237 255
224 237 255
224 237 255
224 237 255
224 237 255
224 237 255
224 237 255
224 237 255
224 237 255
224 237 255
224 237 255
224 237 255
224 237 255
224 237 255
224 237 255
224 237 255
224 237 255
224 237 255
224 237 255
224 237 255
224 237 255
224 237 255
224 237 255
224 237 255
224 237 255
224 237 255
224 237 255
224 237 255
224 237 255
224 237 255
224 237 255
224 237 255
224 237 255
224 237 255
224 237 255
224 237 255
224 237 255
224 237 255
224 237 255
224 237 255
224 237 255
224 237 255
224 237 255
224 237 255
224 237 255
224 237 255
224 237 255
224 237 255
224 237 255
224 237 255
224 237 255
224 237 255
224 237 255
224 237 255
224 237 255
224 237 255
224 237 255
224 237 255
224 237 255
224 237 255
224 237 255
224 237 255
224 237 255
224 237 255
224 237 255
224 237 255
224 237 255
224 237 255
224 237 255
224 237 255
224 237 255
224 237 255
224 237 255
224 237 255
224 237 255
224 237 255
224 237 255
224 237 255
224 237 255
224 237 255
224 237 255
224 237 255
224 237 255
224 237 255
224 237 255
224 237 255
224 237 255
224 237 255
224 237 255
224 237 255
224 237 255
224 237 255
224 237 255
224 237 255
224 237 255
224 237 255
224 237 255
224 237 255
224 237 255
224 237 255
224 237 255
224 237 255
224 237 255
224 237 255
224 237 255
224 237 255
224 237 255
224 237 255
224 237 255
224 237 255
224 237 255
224 237 255
224 237 255
224 237 255
224 237 255
224 237 255
224 237 255
224 237 255
224 237 255
224 237 255
224 237 255
224 237 255
224 237 255
224 237 255
224 237 255
224 237 255
224 237 255
224 237 255
224 237 255
224 237 255
224 237 255
224 237 255
224 237 255
224 237 255
224 237 255
224 237 255
173 183 198
0 0 15
0 0 17
0 0 17
0 4 24
4 7 28
4 9 27
0 0 22
0 0 18
0 0 22
0 0 26
0 0 31
0 0 27
0 3 33
0 8 37
0 9 39
3 21 51
2 10 45
12 24 58
9 27 61
0 16 50
0 15 50
0 14 46
0 15 45
0 14 46
0 15 46
0 15 46
0 14 45
0 15 45
0 15 45
0 15 45
0 15 46
0 15 48
0 15 49
0 15 48
0 15 49
0 15 49
0 15 49
0 15 50
0 15 49
0 15 48
0 15 50
0 15 51
0 15 53
0 15 55
0 15 57
0 15 58
0 20 59
0 21 59
0 21 59
0 21 59
0 21 61
0 21 61
0 21 59
0 21 58
0 21 57
0 16 54
0 15 52
0 15 50
0 15 49
0 15 48
0 15 46
0 15 45
0 15 45
0 15 45
0 12 42
0 5 42
0 14 42
0 13 42
0 0 42
0 7 41
0 6 39
0 0 39
0 0 39
0 0 39
0 0 39
0 0 35
0 0 35
0 0 34
0 0 33
0 0 35
0 0 33
0 0 32
0 0 32
0 0 34
0 0 32
0 0 33
0 0 35
0 0 35
0 5 37
0 6 37
0 8 38
0 2 36
0 0 35
0 0 35
0 0 35
0 0 35
0 0 35
0 0 35
0 0 35
0 0 33
0 0 32
0 0 35
0 0 35
0 0 35
0 0 35
0 0 33
0 0 33
0 0 32
0 0 32
0 0 28
0 0 26
0 0 27
0 0 32
0 0 42
0 11 51
2 24 66
10 32 71
4 23 58
0 4 39
0 0 34
0 0 28
0 0 23
0 0 22
0 0 22
0 0 18
0 0 16
0 0 16
0 0 16
0 0 14
0 0 15
0 0 18
0 0 22
0 0 24
0 0 33
7 8 37
0 0 21
17 35 71
67 72 97
117 106 107
108 88 65
114 98 70
118 106 82
159 146 130
142 127 110
116 96 72
78 59 30
86 71 44
65 57 34
36 31 13
41 35 19
44 38 21
44 40 18
45 46 23
37 39 16
38 40 16
38 39 16
37 39 15
35 39 14
34 38 13
40 42 15
43 44 18
51 50 25
60 51 28
66 54 31
66 54 28
64 53 30
67 57 33
66 56 30
75 66 37
70 63 32
64 58 29
64 58 30
59 54 28
54 51 24
53 50 22
54 52 24
55 51 27
50 50 24
44 45 21
51 51 31
37 52 60
26 54 102
6 32 81
0 19 62
0 13 45
0 5 32
0 0 27
0 0 26
0 0 22
0 0 13
0 0 9
0 0 6
0 0 0
0 0 7
0 0 8
0 2 28
170 181 197
224 237 255
224 237 255
224 237 255
224 237 255
224 237 255
224 237 255
224 237 255
224 237 255
224 237 255
224 237 255
224 237 255
224 237 255
224 237 255
224 237 255
224 237 255
224 237 255
224 237 255
224 237 255
224 237 255
224 237 255
224 237 255
224 237 255
224 237 255
224 237 255
224 237 255
224 237 255
224 237 255
224 237 255
224 237 255
224 237 255
224 237 255
224 237 255
224 237 255
224 237 255
224 237 255
224 237 255
224 237 255
224 237 255
224 237 255
224 237 255
224 237 255
224 237 255
224 237 255
224 237 255
224 237 255
224 237 255
224 237 255
224 237 255
224 237 255
224 237 255
224 237 255
224 237 255
224 237 255
224 237 255
224 237 255
224 237 255
224 237 255
224 237 255
224 237 255
224 237 255
224 237 255
224 237 255
224 237 255
224 237 255
224 237 255
224 237 255
224 237 255
224 237 255
224 237 255
224 237 255
224 237 255
224 237 255
224 237 255
224 237 255
224 237 255
224 237 255
224 237 255
224 237 255
224 237 255
224 237 255
224 237 255
224 237 255
224 237 255
224 237 255
224 237 255
224 237 255
224 237 255
224 237 255
224 237 255
224 237 255
224 237 255
224 237 255
224 237 255
224 237 255
224 237 255
224 237 255
224 237 255
224 237 255
224 237 255
224 237 255
224 237 255
224 237 255
224 237 255
224 237 255
224 237 255
224 237 255
224 237 255
224 237 255
224 237 255
224 237 255
224 237 255
224 237 255
224 237 255
224 237 255
224 237 255
224 237 255
224 237 255
224 237 255
224 237 255
224 237 255
224 237 255
224 237 255
224 237 255
224 237 255
224 237 255
224 237 255
224 237 255
224 237 255
224 237 255
224 237 255
224 237 255
224 237 255
224 237 255
224 237 255
224 237 255
224 237 255
224 237 255
224 237 255
224 237 255
224 237 255
224 237 255
224 237 255
224 237 255
224 237 255
224 237 255
224 237 255
224 237 255
224 237 255
224 237 255
224 237 255
224 237 255
224 237 255
224 237 255
224 237 255
224 237 255
224 237 255
224 237 255
224 237 255
224 237 255
224 237 255
224 237 255
224 237 255
224 237 255
224 237 255
224 237 255
224 237 255
224 237 255
224 237 255
224 237 255
224 237 255
224 237 255
224 237 255
224 237 255
224 237 255
224 237 255
224 237 255
224 237 255
224 237 255
224 237 255
224 237 255
224 237 255
224 237 255
224 237 255
224 237 255
224 237 255
224 237 255
224 237 255
224 237 255
224 237 255
224 237 255
224 237 255
224 237 255
224 237 255
224 237 255
224 237 255
224 237 255
224 237 255
224 237 255
224 237 255
224 237 255
224 237 255
224 237 255
222 235 253
63 67 73
0 0 18
0 0 16
0 0 20
0 0 19
0 1 20
3 5 27
0 0 22
0 0 20
0 0 20
0 0 26
0 0 24
0 4 28
0 2 33
0 5 35
0 11 39
0 7 40
0 10 44
0 11 46
2 16 51
8 26 66
4 17 54
0 15 48
0 14 48
0 15 48
0 15 47
0 11 47
0 15 45
0 15 45
0 14 45
0 15 46
0 15 48
0 15 49
0 15 48
0 15 49
0 15 50
0 14 50
0 15 50
0 15 50
0 15 50
0 15 50
0 15 50
0 15 52
0 15 55
0 15 57
0 20 59
0 20 59
0 21 59
0 21 59
0 21 60
0 21 61
0 21 61
0 16 58
0 17 57
0 18 56
0 15 54
0 15 52
0 15 50
0 15 50
0 15 48
0 15 47
0 15 46
0 15 45
0 15 45
0 14 43
0 12 42
0 15 42
0 14 42
0 10 42
0 10 41
0 8 40
0 0 39
0 0 39
0 0 39
0 0 39
0 0 36
0 0 35
0 0 35
0 0 35
0 0 35
0 0 36
0 0 36
0 0 37
0 0 36
0 0 34
0 0 34
0 4 37
0 0 37
0 0 38
0 4 38
0 10 40
0 2 37
0 0 36
0 0 35
0 0 35
0 0 35
0 0 35
0 0 35
0 0 33
0 0 33
0 0 33
0 0 34
0 0 35
0 0 35
0 0 35
0 0 35
0 0 35
0 0 33
0 0 31
0 0 30
0 0 30
0 0 35
0 4 40
0 13 50
11 27 68
18 36 74
12 30 65
0 10 42
0 0 36
0 0 34
0 0 29
0 0 22
0 0 21
0 0 19
0 0 16
0 0 16
0 0 16
0 0 16
0 0 16
0 0 17
0 0 22
0 0 23
0 0 29
0 0 37
0 0 29
0 0 23
12 30 62
69 73 96
123 113 111
119 101 79
103 85 59
114 94 68
106 86 65
123 102 79
102 82 56
86 67 38
81 67 40
67 61 39
38 34 12
45 40 24
43 40 20
44 41 17
45 45 23
46 44 22
37 36 13
42 41 19
40 41 18
36 40 17
40 43 19
46 49 23
51 51 26
53 48 24
64 53 31
62 51 28
63 55 28
66 56 32
62 52 28
71 63 37
76 67 38
73 66 36
70 63 36
63 55 29
58 51 26
55 50 23
55 50 22
55 50 23
43 41 18
39 45 14
36 40 16
32 44 40
29 55 92
15 44 94
2 26 67
0 16 52
0 8 40
0 0 31
0 0 28
0 0 20
0 0 15
0 0 6
0 0 0
0 0 0
0 0 2
0 0 8
0 2 17
59 63 79
220 233 252
224 237 255
224 237 255
224 237 255
224 237 255
224 237 255
224 237 255
224 237 255
224 237 255
224 237 255
224 237 255
224 237 255
224 237 255
224 237 255
224 237 255
224 237 255
224 237 255
224 237 255
224 237 255
224 237 255
224 237 255
224 237 255
224 237 255
224 237 255
224 237 255
224 237 255
224 237 255
224 237 255
224 237 255
224 237 255
224 237 255
224 237 255
224 237 255
224 237 255
224 237 255
224 237 255
224 237 255
224 237 255
224 237 255
224 237 255
224 237 255
224 237 255
224 237 255
224 237 255
224 237 255
224 237 255
224 237 255
224 237 255
224 237 255
224 237 255
224 237 255
224 237 255
224 237 255
224 237 255
224 237 255
224 237 255
224 237 255
224 237 255
224 237 255
224 237 255
224 237 255
224 237 255
224 237 255
224 237 255
224 237 255
224 237 255
224 237 255
224 237 255
224 237 255
224 237 255
224 237 255
224 237 255
224 237 255
224 237 255
224 237 255
224 237 255
224 237 255
224 237 255
224 237 255
224 237 255
224 237 255
224 237 255
224 237 255
224 237 255
224 237 255
224 237 255
224 237 255
224 237 255
224 237 255
224 237 255
224 237 255
224 237 255
224 237 255
224 237 255
224 237 255
224 237 255
224 237 255
224 237 255
224 237 255
224 237 255
224 237 255
224 237 255
224 237 255
224 237 255
224 237 255
224 237 255
224 237 255
224 237 255
224 237 255
224 237 255
224 237 255
224 237 255
224 237 255
224 237 255
224 237 255
224 237 255
224 237 255
224 237 255
224 237 255
224 237 255
224 237 255
224 237 255
224 237 255
224 237 255
224 237 255
224 237 255
224 237 255
224 237 255
224 237 255
224 237 255
224 237 255
224 237 255
224 237 255
224 237 255
224 237 255
224 237 255
224 237 255
224 237 255
224 237 255
224 237 255
224 237 255
224 237 255
224 237 255
224 237 255
224 237 255
224 237 255
224 237 255
224 237 255
224 237 255
224 237 255
224 237 255
224 237 255
224 237 255
224 237 255
224 237 255
224 237 255
224 237 255
224 237 255
224 237 255
224 237 255
224 237 255
224 237 255
224 237 255
224 237 255
224 237 255
224 237 255
224 237 255
224 237 255
224 237 255
224 237 255
224 237 255
224 237 255
224 237 255
224 237 255
224 237 255
224 237 255
224 237 255
224 237 255
224 237 255
224 237 255
224 237 255
224 237 255
224 237 255
224 237 255
224 237 255
224 237 255
224 237 255
224 237 255
224 237 255
224 237 255
224 237 255
224 237 255
224 237 255
224 237 255
224 237 255
224 237 255
224 237 255
224 237 255
224 237 255
224 237 255
224 237 255
224 237 255
224 237 255
224 237 255
166 176 189
0 0 14
0 0 17
0 0 16
0 0 19
0 0 15
5 9 27
2 4 24
0 0 22
0 0 20
0 0 20
0 0 20
0 0 21
0 0 25
0 0 29
0 0 30
0 0 30
0 7 38
0 0 40
0 12 44
5 19 53
10 27 63
1 18 55
0 15 53
0 15 52
0 15 50
0 13 48
0 11 47
0 15 47
0 12 46
0 11 45
0 15 48
0 15 49
0 15 48
0 15 48
0 15 50
0 15 50
0 15 50
0 15 50
0 15 50
0 15 50
0 15 50
0 15 52
0 15 54
0 15 57
0 20 59
0 21 59
0 21 60
0 21 61
0 21 60
0 21 62
0 21 60
0 17 58
0 16 57
0 18 56
0 15 54
0 15 53
0 15 50
0 15 49
0 15 48
0 15 48
0 15 46
0 15 45
0 15 45
0 15 43
0 15 42
0 15 42
0 15 42
0 15 42
0 11 41
0 0 39
0 0 39
0 0 39
0 0 39
0 0 39
0 0 36
0 0 35
0 0 35
0 0 35
0 0 35
0 0 35
0 0 37
0 0 38
0 0 36
0 0 35
0 0 35
0 0 39
0 0 39
0 0 39
0 0 39
0 0 39
0 0 39
0 0 37
0 0 37
0 0 37
0 0 35
0 0 35
0 0 35
0 0 32
0 0 32
0 0 32
0 0 34
0 0 35
0 0 35
0 0 35
0 0 35
0 0 35
0 0 34
0 0 32
0 0 31
0 0 35
0 3 39
0 15 52
12 30 72
21 39 82
11 30 64
0 12 44
0 0 37
0 0 34
0 0 29
0 0 26
0 0 17
0 0 16
0 0 16
0 0 16
0 0 16
0 0 19
0 0 20
0 0 18
0 0 21
0 0 19
0 0 25
0 0 31
0 0 36
0 0 27
0 0 18
17 31 55
80 80 96
142 129 123
121 102 79
94 76 51
114 90 66
109 86 62
109 87 62
95 73 44
93 75 48
86 74 49
52 49 29
34 30 12
42 38 21
47 45 25
43 41 17
48 44 24
45 42 21
53 50 30
59 56 37
41 43 20
34 39 14
41 43 18
43 46 19
48 47 20
58 51 26
65 54 30
68 57 32
69 60 33
62 54 29
63 55 30
74 67 40
70 63 35
66 58 31
62 55 29
62 50 27
62 55 28
55 51 25
53 49 26
44 40 25
36 35 25
35 44 33
24 44 42
27 56 87
15 46 97
0 26 67
0 21 56
0 11 45
0 0 36
0 0 31
0 0 26
0 0 16
0 0 7
0 0 0
0 0 0
0 0 0
0 0 9
0 0 13
0 3 30
152 161 177
224 237 255
224 237 255
224 237 255
224 237 255
224 237 255
224 237 255
224 237 255
224 237 255
224 237 255
224 237 255
224 237 255
224 237 255
224 237 255
224 237 255
224 237 255
224 237 255
224 237 255
224 237 255
224 237 255
224 237 255
224 237 255
224 237 255
224 237 255
224 237 255
224 237 255
224 237 255
224 237 255
224 237 255
224 237 255
224 237 255
224 237 255
224 237 255
224 237 255
224 237 255
224 237 255
224 237 255
224 237 255
224 237 255
224 237 255
224 237 255
224 237 255
224 237 255
224 237 255
224 237 255
224 237 255
224 237 255
224 237 255
224 237 255
224 237 255
224 237 255
224 237 255
224 237 255
224 237 255
224 237 255
224 237 255
224 237 255
224 237 255
224 237 255
224 237 255
224 237 255
224 237 255
224 237 255
224 237 255
224 237 255
224 237 255
224 237 255
224 237 255
224 237 255
224 237 255
224 237 255
224 237 255
224 237 255
224 237 255
224 237 255
224 237 255
224 237 255
224 237 255
224 237 255
224 237 255
224 237 255
224 237 255
224 237 255
224 237 255
224 237 255
224 237 255
224 237 255
224 237 255
224 237 255
224 237 255
224 237 255
224 237 255
224 237 255
224 237 255
224 237 255
224 237 255
224 237 255
224 237 255
224 237 255
224 237 255
224 237 255
224 237 255
224 237 255
224 237 255
224 237 255
224 237 255
224 237 255
224 237 255
224 237 255
224 237 255
224 237 255
224 237 255
224 237 255
224 237 255
224 237 255
224 237 255
224 237 255
224 237 255
224 237 255
224 237 255
224 237 255
224 237 255
224 237 255
224 237 255
224 237 255
224 237 255
224 237 255
224 237 255
224 237 255
224 237 255
224 237 255
224 237 255
224 237 255
224 237 255
224 237 255
224 237 255
224 237 255
224 237 255
224 237 255
224 237 255
224 237 255
224 237 255
224 237 255
224 237 255
224 237 255
224 237 255
224 237 255
224 237 255
224 237 255
224 237 255
224 237 255
224 237 255
224 237 255
224 237 255
224 237 255
224 237 255
224 237 255
224 237 255
224 237 255
224 237 255
224 237 255
224 237 255
224 237 255
224 237 255
224 237 255
224 237 255
224 237 255
224 237 255
224 237 255
224 237 255
224 237 255
224 237 255
224 237 255
224 237 255
224 237 255
224 237 255
224 237 255
224 237 255
224 237 255
224 237 255
224 237 255
224 237 255
224 237 255
224 237 255
224 237 255
224 237 255
224 237 255
224 237 255
224 237 255
224 237 255
224 237 255
224 237 255
224 237 255
224 237 255
224 237 255
224 237 255
224 237 255
224 237 255
224 237 255
224 237 255
224 237 255
224 237 255
224 237 255
224 237 255
224 237 255
217 230 248
59 62 68
0 0 14
0 0 14
0 0 17
0 0 16
0 0 16
0 0 19
6 10 33
0 0 27
0 0 20
0 0 16
0 0 19
0 0 22
0 0 27
0 0 30
0 0 30
0 8 37
0 3 38
0 2 39
13 26 59
0 11 46
0 15 50
0 16 54
0 14 55
0 19 57
0 19 54
0 15 46
0 15 43
0 15 44
0 15 45
0 15 47
0 15 48
0 15 49
0 15 50
0 15 52
0 15 52
0 15 52
0 15 52
0 15 52
0 15 50
0 15 51
0 15 52
0 15 55
0 17 57
0 19 58
0 21 59
0 21 61
0 20 61
0 20 60
0 21 62
0 21 60
0 17 58
0 17 58
0 19 56
0 15 54
0 15 52
0 15 48
0 15 48
0 15 48
0 15 48
0 15 47
0 15 45
0 15 45
0 15 43
0 15 42
0 15 42
0 15 42
0 15 42
0 14 42
0 13 41
0 12 41
0 9 40
0 0 39
0 0 39
0 0 39
0 0 39
0 0 39
0 0 39
0 0 39
0 0 38
0 0 39
0 0 39
0 0 39
0 0 38
0 0 39
0 0 40
0 0 41
0 0 41
0 0 41
0 0 42
0 0 41
0 0 37
0 0 35
0 0 35
0 0 38
0 0 36
0 0 35
0 0 35
0 0 34
0 0 35
0 0 35
0 0 35
0 0 35
0 0 35
0 0 35
0 0 35
0 0 35
0 0 33
0 0 35
0 5 39
0 17 54
6 29 70
11 32 76
3 21 62
0 13 43
0 1 35
0 0 32
0 0 32
0 0 27
0 0 25
0 0 22
0 0 21
0 0 17
0 0 16
0 0 17
0 0 23
0 0 21
0 0 22
0 0 21
0 0 21
0 0 27
0 2 32
0 2 34
0 0 20
0 7 17
34 43 61
102 98 107
132 116 105
121 103 82
107 88 67
111 87 64
112 88 62
102 79 51
106 84 55
112 96 69
68 58 36
26 24 1
39 37 17
41 38 18
52 49 28
45 40 19
48 42 23
53 48 29
79 75 57
72 69 49
43 44 20
33 37 10
35 40 14
37 39 13
44 42 16
57 52 26
67 57 31
70 62 32
58 53 23
67 60 33
63 57 32
62 56 31
56 50 25
56 51 27
57 53 29
60 48 25
65 58 40
49 49 28
35 42 27
27 41 46
22 49 77
24 55 100
24 54 109
19 48 96
0 26 70
0 21 61
0 18 51
0 8 40
0 0 35
0 0 28
0 0 20
0 0 10
0 0 0
0 0 0
0 0 0
0 0 4
0 0 8
0 0 19
50 54 69
217 230 248
224 237 255
224 237 255
224 237 255
224 237 255
224 237 255
224 237 255
224 237 255
224 237 255
224 237 255
224 237 255
224 237 255
224 237 255
224 237 255
224 237 255
224 237 255
224 237 255
224 237 255
224 237 255
224 237 255
224 237 255
224 237 255
224 237 255
224 237 255
224 237 255
224 237 255
224 237 255
224 237 255
224 237 255
224 237 255
224 237 255
224 237 255
224 237 255
224 237 255
224 237 255
224 237 255
224 237 255
224 237 255
224 237 255
224 237 255
224 237 255
224 237 255
224 237 255
224 237 255
224 237 255
224 237 255
224 237 255
224 237 255
224 237 255
224 237 255
224 237 255
224 237 255
224 237 255
224 237 255
224 237 255
224 237 255
224 237 255
224 237 255
224 237 255
224 237 255
224 237 255
224 237 255
224 237 255
224 237 255
224 237 255
224 237 255
224 237 255
224 237 255
224 237 255
224 237 255
224 237 255
224 237 255
224 237 255
224 237 255
224 237 255
224 237 255
224 237 255
224 237 255
224 237 255
224 237 255
224 237 255
224 237 255
224 237 255
224 237 255
224 237 255
224 237 255
224 237 255
224 237 255
224 237 255
224 237 255
224 237 255
224 237 255
224 237 255
224 237 255
224 237 255
224 237 255
224 237 255
224 237 255
224 237 255
224 237 255
224 237 255
224 237 255
224 237 255
224 237 255
224 237 255
224 237 255
224 237 255
224 237 255
224 237 255
224 237 255
224 237 255
224 237 255
224 237 255
224 237 255
224 237 255
224 237 255
224 237 255
224 237 255
224 237 255
224 237 255
224 237 255
224 237 255
224 237 255
224 237 255
224 237 255
224 237 255
224 237 255
224 237 255
224 237 255
224 237 255
224 237 255
224 237 255
224 237 255
224 237 255
224 237 255
224 237 255
224 237 255
224 237 255
224 237 255
224 237 255
224 237 255
224 237 255
224 237 255
224 237 255
224 237 255
224 237 255
224 237 255
224 237 255
224 237 255
224 237 255
224 237 255
224 237 255
224 237 255
224 237 255
224 237 255
224 237 255
224 237 255
224 237 255
224 237 255
224 237 255
224 237 255
224 237 255
224 237 255
224 237 255
224 237 255
224 237 255
224 237 255
224 237 255
224 237 255
224 237 255
224 237 255
224 237 255
224 237 255
224 237 255
224 237 255
224 237 255
224 237 255
224 237 255
224 237 255
224 237 255
224 237 255
224 237 255
224 237 255
224 237 255
224 237 255
224 237 255
224 237 255
224 237 255
224 237 255
224 237 255
224 237 255
224 237 255
224 237 255
224 237 255
224 237 255
224 237 255
224 237 255
224 237 255
224 237 255
224 237 255
224 237 255
224 237 255
224 237 255
224 237 255
224 237 255
224 237 255
157 166 179
0 0 9
0 0 9
0 0 15
0 0 16
0 0 14
0 0 19
0 5 29
0 0 32
6 11 37
0 0 21
0 0 17
0 0 21
0 0 25
0 0 28
0 0 30
0 0 32
0 0 35
0 2 37
0 12 42
0 12 45
0 10 43
0 14 48
0 15 51
0 20 56
0 23 57
0 15 49
0 15 46
0 15 46
0 15 46
0 15 49
0 15 48
0 14 49
0 15 52
0 15 53
0 15 53
0 15 54
0 14 54
0 15 54
0 15 51
0 15 51
0 15 53
0 15 57
0 17 57
0 21 57
0 21 59
0 21 61
0 21 62
0 20 63
0 21 62
0 21 61
0 18 58
0 15 56
0 16 50
0 11 45
0 15 47
0 15 48
0 14 48
0 15 49
0 15 48
0 15 48
0 15 46
0 15 45
0 15 44
0 15 43
0 11 42
0 8 42
0 8 42
0 8 42
0 3 44
0 13 42
0 12 41
0 0 38
0 11 38
0 11 40
0 12 41
0 10 40
0 4 39
0 0 39
0 1 39
0 11 41
0 1 39
0 0 39
0 7 40
0 11 41
0 10 41
0 10 42
0 10 42
0 10 42
0 10 42
0 11 42
0 10 39
0 10 38
0 11 38
0 2 37
0 0 36
0 0 35
0 0 35
0 0 37
0 0 35
0 0 35
0 0 35
0 5 36
0 3 37
0 0 37
0 5 37
0 3 38
0 0 36
0 5 37
0 8 42
0 17 54
9 28 68
7 24 62
0 12 49
0 12 39
0 2 30
0 0 29
0 0 27
0 0 24
0 0 19
0 0 16
0 0 16
0 0 19
0 0 17
0 0 16
0 0 20
0 0 20
0 0 25
0 0 26
0 3 32
0 12 44
0 15 44
0 8 29
0 0 15
5 13 32
51 57 70
117 109 108
124 108 98
126 103 85
103 81 62
111 89 68
119 96 68
111 88 57
110 92 63
97 86 59
38 32 13
35 35 11
52 52 28
45 41 18
50 46 24
49 42 21
46 39 18
48 44 23
56 53 33
50 49 27
36 37 11
31 37 1
37 44 17
42 45 21
48 46 19
63 58 32
66 58 32
62 55 26
67 62 34
65 60 33
62 57 31
54 49 25
54 51 26
53 52 28
50 48 24
56 51 31
46 43 29
38 44 34
18 38 54
18 57 99
16 56 112
14 51 116
12 42 108
0 28 75
0 21 66
0 17 53
0 12 43
0 0 37
0 0 33
0 0 23
0 0 13
0 0 0
0 0 0
0 0 0
0 0 0
0 0 7
0 0 11
0 2 28
160 169 186
224 237 255
224 237 255
224 237 255
224 237 255
224 237 255
224 237 255
224 237 255
224 237 255
224 237 255
224 237 255
224 237 255
224 237 255
224 237 255
224 237 255
224 237 255
224 237 255
224 237 255
224 237 255
224 237 255
224 237 255
224 237 255
224 237 255
224 237 255
224 237 255
224 237 255
224 237 255
224 237 255
224 237 255
224 237 255
224 237 255
224 237 255
224 237 255
224 237 255
224 237 255
224 237 255
224 237 255
224 237 255
224 237 255
224 237 255
224 237 255
224 237 255
224 237 255
224 237 255
224 237 255
224 237 255
224 237 255
224 237 255
224 237 255
224 237 255
224 237 255
224 237 255
224 237 255
224 237 255
224 237 255
224 237 255
224 237 255
224 237 255
224 237 255
224 237 255
224 237 255
224 237 255
224 237 255
224 237 255
224 237 255
224 237 255
224 237 255
224 237 255
224 237 255
224 237 255
224 237 255
224 237 255
224 237 255
224 237 255
224 237 255
224 237 255
224 237 255
224 237 255
224 237 255
224 237 255
224 237 255
224 237 255
224 237 255
224 237 255
224 237 255
224 237 255
224 237 255
224 237 255
224 237 255
224 237 255
224 237 255
224 237 255
224 237 255
224 237 255
224 237 255
224 237 255
224 237 255
224 237 255
224 237 255
224 237 255
224 237 255
224 237 255
224 237 255
224 237 255
224 237 255
224 237 255
224 237 255
224 237 255
224 237 255
224 237 255
224 237 255
224 237 255
224 237 255
224 237 255
224 237 255
224 237 255
224 237 255
224 237 255
224 237 255
224 237 255
224 237 255
224 237 255
224 237 255
224 237 255
224 237 255
224 237 255
224 237 255
224 237 255
224 237 255
224 237 255
224 237 255
224 237 255
224 237 255
224 237 255
224 237 255
224 237 255
224 237 255
224 237 255
224 237 255
224 237 255
224 237 255
224 237 255
224 237 255
224 237 255
224 237 255
224 237 255
224 237 255
224 237 255
224 237 255
224 237 255
224 237 255
224 237 255
224 237 255
224 237 255
224 237 255
224 237 255
224 237 255
224 237 255
224 237 255
224 237 255
224 237 255
224 237 255
224 237 255
224 237 255
224 237 255
224 237 255
224 237 255
224 237 255
224 237 255
224 237 255
224 237 255
224 237 255
224 237 255
224 237 255
224 237 255
224 237 255
224 237 255
224 237 255
224 237 255
224 237 255
224 237 255
224 237 255
224 237 255
224 237 255
224 237 255
224 237 255
224 237 255
224 237 255
224 237 255
224 237 255
224 237 255
224 237 255
224 237 255
224 237 255
224 237 255
224 237 255
224 237 255
224 237 255
224 237 255
224 237 255
224 237 255
224 237 255
224 237 255
224 237 255
224 237 255
224 237 255
224 237 255
217 230 248
50 53 57
0 0 0
0 0 4
0 0 10
0 0 16
0 0 19
0 0 21
0 0 31
2 7 38
0 2 31
0 0 22
0 0 22
0 0 24
0 0 27
0 0 31
0 0 30
0 0 34
0 4 37
0 4 38
0 11 40
0 9 39
0 7 42
0 13 46
0 17 51
0 18 53
0 17 51
0 15 50
0 15 49
0 15 48
0 15 50
0 15 51
0 15 52
0 15 53
0 16 55
0 17 56
0 16 57
0 19 57
0 19 57
0 19 54
0 15 54
0 16 54
0 15 56
0 16 57
0 21 58
0 21 61
0 22 63
0 22 63
0 24 66
0 22 63
0 16 58
0 16 57
0 15 54
0 17 54
0 16 50
0 15 49
0 15 50
0 15 48
0 15 49
0 15 48
0 15 48
0 15 47
0 15 45
0 15 45
0 15 45
0 15 43
0 14 42
0 15 42
0 15 42
0 12 45
0 14 44
0 14 43
0 13 39
0 15 40
0 15 41
0 15 42
0 15 42
0 14 42
0 9 42
0 0 41
0 15 42
0 10 40
0 4 39
0 2 39
0 8 40
0 11 41
0 8 40
0 7 40
0 8 40
0 12 41
0 15 42
0 15 40
0 9 37
0 7 36
0 2 35
0 0 33
0 0 34
0 0 36
0 0 36
0 0 36
0 0 38
0 0 38
0 3 38
0 2 37
0 8 39
0 4 37
0 4 38
0 5 39
0 4 37
0 0 40
9 22 56
12 28 64
2 12 45
0 13 43
0 1 30
0 0 30
0 0 28
0 0 25
0 0 22
0 0 20
0 0 18
0 0 18
0 0 19
0 0 22
0 0 23
0 0 22
0 0 24
0 0 29
0 0 32
0 12 40
0 16 50
0 11 39
0 2 26
0 0 14
23 34 55
86 90 101
115 105 101
122 102 89
111 87 66
139 119 102
111 88 66
124 101 75
115 92 63
123 106 79
80 70 46
33 30 10
52 52 29
51 50 27
47 44 22
43 39 17
50 46 27
46 42 21
44 42 18
47 46 25
43 44 21
34 39 10
28 36 3
35 42 15
41 43 17
44 44 17
65 59 35
63 57 30
61 58 29
64 62 34
59 56 30
50 47 23
43 40 15
43 44 19
46 48 23
40 46 23
26 32 11
18 31 37
27 52 87
22 55 111
18 54 110
11 46 96
3 38 87
0 31 84
0 23 68
0 18 57
0 14 46
0 5 37
0 0 35
0 0 29
0 0 17
0 0 10
0 0 7
0 0 10
0 0 4
0 0 9
0 0 12
0 0 24
38 42 61
215 227 246
224 237 255
224 237 255
224 237 255
224 237 255
224 237 255
224 237 255
224 237 255
224 237 255
224 237 255
224 237 255
224 237 255
224 237 255
224 237 255
224 237 255
224 237 255
224 237 255
224 237 255
224 237 255
224 237 255
224 237 255
224 237 255
224 237 255
224 237 255
224 237 255
224 237 255
224 237 255
224 237 255
224 237 255
224 237 255
224 237 255
224 237 255
224 237 255
224 237 255
224 237 255
224 237 255
224 237 255
224 237 255
224 237 255
224 237 255
224 237 255
224 237 255
224 237 255
224 237 255
224 237 255
224 237 255
224 237 255
224 237 255
224 237 255
224 237 255
224 237 255
224 237 255
224 237 255
224 237 255
224 237 255
224 237 255
224 237 255
224 237 255
224 237 255
224 237 255
224 237 255
224 237 255
224 237 255
224 237 255
224 237 255
224 237 255
224 237 255
224 237 255
224 237 255
224 237 255
224 237 255
224 237 255
224 237 255
224 237 255
224 237 255
224 237 255
224 237 255
224 237 255
224 237 255
224 237 255
224 237 255
224 237 255
224 237 255
224 237 255
224 237 255
224 237 255
224 237 255
224 237 255
224 237 255
224 237 255
224 237 255
224 237 255
224 237 255
224 237 255
224 237 255
224 237 255
224 237 255
224 237 255
224 237 255
224 237 255
224 237 255
224 237 255
224 237 255
224 237 255
224 237 255
224 237 255
224 237 255
224 237 255
224 237 255
224 237 255
224 237 255
224 237 255
224 237 255
224 237 255
224 237 255
224 237 255
224 237 255
224 237 255
224 237 255
224 237 255
224 237 255
224 237 255
224 237 255
224 237 255
224 237 255
224 237 255
224 237 255
224 237 255
224 237 255
224 237 255
224 237 255
224 237 255
224 237 255
224 237 255
224 237 255
224 237 255
224 237 255
224 237 255
224 237 255
224 237 255
224 237 255
224 237 255
224 237 255
224 237 255
224 237 255
224 237 255
224 237 255
224 237 255
224 237 255
224 237 255
224 237 255
224 237 255
224 237 255
224 237 255
224 237 255
224 237 255
224 237 255
224 237 255
224 237 255
224 237 255
224 237 255
224 237 255
224 237 255
224 237 255
224 237 255
224 237 255
224 237 255
224 237 255
224 237 255
224 237 255
224 237 255
224 237 255
224 237 255
224 237 255
224 237 255
224 237 255
224 237 255
224 237 255
224 237 255
224 237 255
224 237 255
224 237 255
224 237 255
224 237 255
224 237 255
224 237 255
224 237 255
224 237 255
224 237 255
224 237 255
224 237 255
224 237 255
224 237 255
224 237 255
224 237 255
224 237 255
224 237 255
224 237 255
224 237 255
224 237 255
224 237 255
224 237 255
224 237 255
224 237 255
224 237 255
224 237 255
224 237 255
224 237 255
145 153 165
0 0 6
0 0 0
0 0 2
0 0 15
0 0 17
0 0 22
0 0 25
5 11 41
1 8 40
0 0 28
0 0 24
0 0 26
0 0 27
0 0 30
0 0 32
0 0 32
0 0 35
0 4 37
0 7 38
0 13 41
0 8 39
0 7 41
0 15 44
0 15 48
0 15 50
0 14 49
3 16 52
0 15 49
0 15 50
0 17 52
0 18 56
3 20 58
6 22 62
0 21 60
0 21 60
0 21 59
0 19 58
0 21 57
0 21 57
0 21 57
0 16 57
0 19 59
0 21 61
0 21 62
0 22 64
0 24 66
0 23 66
0 20 63
0 20 60
0 20 60
0 15 55
0 19 57
0 21 57
0 20 56
0 15 53
0 15 53
0 15 50
0 15 49
0 15 48
0 15 47
0 15 45
0 15 45
0 15 45
0 15 45
0 15 45
0 15 45
0 15 45
0 15 46
0 15 45
0 15 45
0 15 44
0 15 43
0 15 44
0 15 44
0 15 43
0 14 44
0 14 45
0 13 44
0 15 45
0 15 44
0 13 42
0 12 43
0 13 43
0 14 44
0 13 43
0 12 43
0 14 44
0 15 44
0 14 43
0 15 41
0 11 40
0 9 39
0 2 37
0 3 37
0 4 38
0 6 40
0 9 40
0 3 39
0 0 39
0 3 40
0 11 42
0 9 43
0 9 44
4 17 49
7 18 50
8 20 52
0 15 43
0 11 42
2 13 45
1 12 44
0 19 48
0 7 35
0 0 31
0 0 32
0 0 30
0 0 27
0 0 25
0 0 23
0 0 22
0 0 22
0 0 26
0 0 25
0 0 26
0 0 28
0 0 30
0 0 33
0 9 39
0 10 41
0 8 43
0 9 37
0 2 24
0 0 18
28 36 57
103 101 104
118 106 98
120 98 80
120 98 78
123 103 84
125 105 84
111 88 64
111 93 69
109 96 74
38 30 14
38 35 14
41 38 16
54 53 32
48 47 24
42 40 19
37 36 14
40 38 16
39 40 16
45 48 25
43 47 23
35 42 14
32 42 14
36 43 16
40 44 16
40 41 13
49 45 19
52 50 21
58 58 31
58 57 32
47 46 22
48 48 24
35 37 10
35 39 12
24 31 3
14 31 11
17 43 51
25 55 104
18 55 119
17 54 108
8 38 87
2 35 86
0 31 75
0 26 70
0 21 60
0 13 46
0 6 39
0 0 35
0 0 34
0 0 26
0 0 16
0 0 10
0 0 7
0 0 5
0 0 1
0 0 13
0 0 23
0 6 33
161 171 188
224 237 255
224 237 255
224 237 255
224 237 255
224 237 255
224 237 255
224 237 255
224 237 255
224 237 255
224 237 255
224 237 255
224 237 255
224 237 255
224 237 255
224 237 255
224 237 255
224 237 255
224 237 255
224 237 255
224 237 255
224 237 255
224 237 255
224 237 255
224 237 255
224 237 255
224 237 255
224 237 255
224 237 255
224 237 255
224 237 255
224 237 255
224 237 255
224 237 255
224 237 255
224 237 255
224 237 255
224 237 255
224 237 255
224 237 255
224 237 255
224 237 255
224 237 255
224 237 255
224 237 255
224 237 255
224 237 255
224 237 255
224 237 255
224 237 255
224 237 255
224 237 255
224 237 255
224 237 255
224 237 255
224 237 255
224 237 255
224 237 255
224 237 255
224 237 255
224 237 255
224 237 255
224 237 255
224 237 255
224 237 255
224 237 255
224 237 255
224 237 255
224 237 255
224 237 255
224 237 255
224 237 255
224 237 255
224 237 255
224 237 255
224 237 255
224 237 255
224 237 255
224 237 255
224 237 255
224 237 255
224 237 255
224 237 255
224 237 255
224 237 255
224 237 255
224 237 255
224 237 255
224 237 255
224 237 255
224 237 255
224 237 255
224 237 255
224 237 255
224 237 255
224 237 255
224 237 255
224 237 255
224 237 255
224 237 255
224 237 255
224 237 255
224 237 255
224 237 255
224 237 255
224 237 255
224 237 255
224 237 255
224 237 255
224 237 255
224 237 255
224 237 255
224 237 255
224 237 255
224 237 255
224 237 255
224 237 255
224 237 255
224 237 255
224 237 255
224 237 255
224 237 255
224 237 255
224 237 255
224 237 255
224 237 255
224 237 255
224 237 255
224 237 255
224 237 255
224 237 255
224 237 255
224 237 255
224 237 255
224 237 255
224 237 255
224 237 255
224 237 255
224 237 255
224 237 255
224 237 255
224 237 255
224 237 255
224 237 255
224 237 255
224 237 255
224 237 255
224 237 255
224 237 255
224 237 255
224 237 255
224 237 255
224 237 255
224 237 255
224 237 255
224 237 255
224 237 255
224 237 255
224 237 255
224 237 255
224 237 255
224 237 255
224 237 255
224 237 255
224 237 255
224 237 255
224 237 255
224 237 255
224 237 255
224 237 255
224 237 255
224 237 255
224 237 255
224 237 255
224 237 255
224 237 255
224 237 255
224 237 255
224 237 255
224 237 255
224 237 255
224 237 255
224 237 255
224 237 255
224 237 255
224 237 255
224 237 255
224 237 255
224 237 255
224 237 255
224 237 255
224 237 255
224 237 255
224 237 255
224 237 255
224 237 255
224 237 255
224 237 255
224 237 255
224 237 255
224 237 255
224 237 255
224 237 255
224 237 255
224 237 255
224 237 255
224 237 255
224 237 255
224 237 255
216 229 246
67 71 77
0 0 8
0 0 5
0 0 11
0 0 16
0 0 20
0 0 26
12 19 42
9 19 53
0 10 40
0 2 32
0 0 29
0 0 30
0 0 32
0 0 32
0 0 32
0 0 33
0 0 35
0 0 35
0 9 39
0 3 38
0 4 39
0 11 41
0 13 44
0 15 50
0 15 51
0 14 48
0 15 49
0 15 50
0 16 52
0 20 56
0 20 58
8 26 65
0 21 61
0 21 61
0 21 61
0 20 59
0 20 59
0 21 57
0 21 58
0 16 58
0 19 61
0 21 62
0 25 65
0 27 68
0 24 66
0 18 62
0 16 60
0 16 58
0 16 58
0 15 55
0 19 58
0 23 60
0 24 61
0 19 56
0 14 53
0 15 52
0 15 49
0 15 47
0 15 47
0 15 45
0 15 45
0 15 45
0 15 45
0 15 45
0 15 45
0 15 45
0 15 45
0 15 45
0 15 46
0 15 46
0 15 45
0 15 47
0 15 48
0 15 48
0 15 48
0 15 47
0 14 47
0 14 47
0 15 46
0 14 46
0 15 47
0 15 47
0 15 47
0 15 45
0 15 47
0 15 49
0 15 48
0 14 45
0 10 43
0 13 43
0 12 43
0 11 42
0 14 44
0 15 43
0 9 42
0 13 44
0 10 43
0 0 40
0 12 43
0 11 43
0 10 45
0 17 51
0 13 46
7 15 47
9 20 53
0 10 39
0 11 40
0 14 45
0 11 42
0 9 37
0 4 33
0 2 34
0 0 31
0 0 29
0 0 27
0 0 28
0 0 24
0 0 24
0 0 27
0 0 30
0 0 31
0 0 32
0 0 32
0 0 31
0 10 38
0 16 47
0 6 36
0 0 37
0 0 31
0 0 22
5 6 23
41 49 68
107 101 98
132 117 106
124 102 83
114 92 71
109 91 73
113 92 70
111 90 67
89 69 45
70 57 36
50 44 26
37 32 16
54 51 33
44 41 23
38 37 17
41 41 20
38 38 16
34 35 12
34 38 14
35 39 14
39 45 17
33 43 14
38 49 20
36 43 15
41 46 20
43 44 16
47 45 18
48 48 19
49 51 23
45 46 18
42 43 17
35 35 11
35 41 12
32 37 11
18 27 14
13 42 61
20 57 106
20 56 123
17 54 114
8 39 92
0 34 86
0 33 81
0 27 74
0 21 64
0 15 50
0 8 39
0 0 34
0 0 34
0 0 31
0 0 23
0 0 18
0 0 11
0 0 0
0 0 6
0 0 11
0 0 17
0 3 29
50 55 73
217 230 248
224 237 255
224 237 255
224 237 255
224 237 255
224 237 255
224 237 255
224 237 255
224 237 255
224 237 255
224 237 255
224 237 255
224 237 255
224 237 255
224 237 255
224 237 255
224 237 255
224 237 255
224 237 255
224 237 255
224 237 255
224 237 255
224 237 255
224 237 255
224 237 255
224 237 255
224 237 255
224 237 255
224 237 255
224 237 255
224 237 255
224 237 255
224 237 255
224 237 255
224 237 255
224 237 255
224 237 255
224 237 255
224 237 255
224 237 255
224 237 255
224 237 255
224 237 255
224 237 255
224 237 255
224 237 255
224 237 255
224 237 255
224 237 255
224 237 255
224 237 255
224 237 255
224 237 255
224 237 255
224 237 255
224 237 255
224 237 255
224 237 255
224 237 255
224 237 255
224 237 255
224 237 255
224 237 255
224 237 255
224 237 255
224 237 255
224 237 255
224 237 255
224 237 255
224 237 255
224 237 255
224 237 255
224 237 255
224 237 255
224 237 255
224 237 255
224 237 255
224 237 255
224 237 255
224 237 255
224 237 255
224 237 255
224 237 255
224 237 255
224 237 255
224 237 255
224 237 255
224 237 255
224 237 255
224 237 255
224 237 255
224 237 255
224 237 255
224 237 255
224 237 255
224 237 255
224 237 255
224 237 255
224 237 255
224 237 255
224 237 255
224 237 255
224 237 255
224 237 255
224 237 255
224 237 255
224 237 255
224 237 255
224 237 255
224 237 255
224 237 255
224 237 255
224 237 255
224 237 255
224 237 255
224 237 255
224 237 255
224 237 255
224 237 255
224 237 255
224 237 255
224 237 255
224 237 255
224 237 255
224 237 255
224 237 255
224 237 255
224 237 255
224 237 255
224 237 255
224 237 255
224 237 255
224 237 255
224 237 255
224 237 255
224 237 255
224 237 255
224 237 255
224 237 255
224 237 255
224 237 255
224 237 255
224 237 255
224 237 255
224 237 255
224 237 255
224 237 255
224 237 255
224 237 255
224 237 255
224 237 255
224 237 255
224 237 255
224 237 255
224 237 255
224 237 255
224 237 255
224 237 255
224 237 255
224 237 255
224 237 255
224 237 255
224 237 255
224 237 255
224 237 255
224 237 255
224 237 255
224 237 255
224 237 255
224 237 255
224 237 255
224 237 255
224 237 255
224 237 255
224 237 255
224 237 255
224 237 255
224 237 255
224 237 255
224 237 255
224 237 255
224 237 255
224 237 255
224 237 255
224 237 255
224 237 255
224 237 255
224 237 255
224 237 255
224 237 255
224 237 255
224 237 255
224 237 255
224 237 255
224 237 255
224 237 255
224 237 255
224 237 255
224 237 255
224 237 255
224 237 255
224 237 255
224 237 255
224 237 255
224 237 255
224 237 255
224 237 255
224 237 255
224 237 255
224 237 255
160 169 182
0 0 9
0 0 0
0 0 12
0 0 13
0 0 19
0 0 23
0 0 27
3 11 43
7 22 59
0 9 42
0 3 37
0 0 35
0 0 32
0 0 32
0 0 32
0 0 32
0 0 35
0 0 35
0 0 37
0 0 38
0 0 38
0 0 40
0 4 42
0 14 43
0 15 45
0 15 47
0 15 47
0 15 49
0 15 50
0 15 50
0 15 52
0 19 56
0 18 57
0 21 58
0 21 59
0 21 59
0 20 58
0 21 58
0 21 58
0 21 60
0 21 63
0 21 62
0 24 65
0 28 70
0 26 68
0 26 70
0 21 64
0 20 62
0 17 58
0 20 59
0 21 60
0 24 63
0 25 64
0 21 60
0 15 57
0 15 54
0 15 49
0 15 48
0 15 48
0 15 46
0 15 45
0 15 46
0 15 46
0 15 46
0 15 47
0 15 47
0 15 46
0 15 45
0 15 46
0 15 48
0 15 48
0 15 50
0 16 52
0 15 52
0 16 53
0 15 52
0 13 50
0 15 49
0 15 49
0 15 49
0 16 48
0 16 49
0 15 46
0 15 45
0 15 45
0 15 46
0 15 46
0 14 47
0 14 45
0 5 45
0 9 45
0 7 44
0 14 47
0 13 46
0 12 45
0 11 44
0 11 46
3 13 47
0 4 41
0 9 44
0 12 44
0 5 41
4 19 51
0 18 50
0 15 48
0 7 39
0 15 46
0 13 47
1 12 46
4 14 45
0 4 38
0 0 36
0 0 33
0 0 31
0 0 28
0 0 29
0 0 26
0 0 27
0 0 28
0 0 34
0 0 35
0 0 35
0 4 37
0 14 44
0 19 50
0 14 44
0 2 34
0 0 34
0 0 34
0 0 25
10 12 33
66 70 85
100 89 81
121 103 87
123 98 76
111 92 71
127 113 95
110 89 69
113 92 70
76 58 36
53 43 22
37 31 13
54 49 33
52 48 30
41 38 16
38 38 16
38 38 16
39 39 16
35 37 11
38 42 17
33 38 10
39 46 20
38 46 18
38 45 17
39 44 15
44 49 25
41 43 18
42 43 19
39 41 15
41 42 17
40 41 18
41 43 21
31 34 11
34 39 19
38 42 24
19 38 56
18 58 110
14 57 116
18 53 111
9 39 95
0 33 85
0 31 81
0 29 76
0 25 71
0 19 57
0 13 44
0 3 36
0 0 32
0 0 30
0 0 29
0 0 26
0 0 20
0 0 9
0 0 5
0 0 14
0 0 13
0 0 19
0 7 35
171 181 198
224 237 255
224 237 255
224 237 255
224 237 255
224 237 255
224 237 255
224 237 255
224 237 255
224 237 255
224 237 255
224 237 255
224 237 255
224 237 255
224 237 255
224 237 255
224 237 255
224 237 255
224 237 255
224 237 255
224 237 255
224 237 255
224 237 255
224 237 255
224 237 255
224 237 255
224 237 255
224 237 255
224 237 255
224 237 255
224 237 255
224 237 255
224 237 255
224 237 255
224 237 255
224 237 255
224 237 255
224 237 255
224 237 255
224 237 255
224 237 255
224 237 255
224 237 255
224 237 255
224 237 255
224 237 255
224 237 255
224 237 255
224 237 255
224 237 255
224 237 255
224 237 255
224 237 255
224 237 255
224 237 255
224 237 255
224 237 255
224 237 255
224 237 255
224 237 255
224 237 255
224 237 255
224 237 255
224 237 255
224 237 255
224 237 255
224 237 255
224 237 255
224 237 255
224 237 255
224 237 255
224 237 255
224 237 255
224 237 255
224 237 255
224 237 255
224 237 255
224 237 255
224 237 255
224 237 255
224 237 255
224 237 255
224 237 255
224 237 255
224 237 255
224 237 255
224 237 255
224 237 255
224 237 255
224 237 255
224 237 255
224 237 255
224 237 255
224 237 255
224 237 255
224 237 255
224 237 255
224 237 255
224 237 255
224 237 255
224 237 255
224 237 255
224 237 255
224 237 255
224 237 255
224 237 255
224 237 255
224 237 255
224 237 255
224 237 255
224 237 255
224 237 255
224 237 255
224 237 255
224 237 255
224 237 255
224 237 255
224 237 255
224 237 255
224 237 255
224 237 255
224 237 255
224 237 255
224 237 255
224 237 255
224 237 255
224 237 255
224 237 255
224 237 255
224 237 255
224 237 255
224 237 255
224 237 255
224 237 255
224 237 255
224 237 255
224 237 255
224 237 255
224 237 255
224 237 255
224 237 255
224 237 255
224 237 255
224 237 255
224 237 255
224 237 255
224 237 255
224 237 255
224 237 255
224 237 255
224 237 255
224 237 255
224 237 255
224 237 255
224 237 255
224 237 255
224 237 255
224 237 255
224 237 255
224 237 255
224 237 255
224 237 255
224 237 255
224 237 255
224 237 255
224 237 255
224 237 255
224 237 255
224 237 255
224 237 255
224 237 255
224 237 255
224 237 255
224 237 255
224 237 255
224 237 255
224 237 255
224 237 255
224 237 255
224 237 255
224 237 255
224 237 255
224 237 255
224 237 255
224 237 255
224 237 255
224 237 255
224 237 255
224 237 255
224 237 255
224 237 255
224 237 255
224 237 255
224 237 255
224 237 255
224 237 255
224 237 255
224 237 255
224 237 255
224 237 255
224 237 255
224 237 255
224 237 255
224 237 255
224 237 255
224 237 255
224 237 255
224 237 255
224 237 255
224 237 255
224 237 255
222 235 253
74 78 85
0 0 0
0 0 8
0 0 10
0 0 16
0 0 21
0 0 26
0 0 25
0 13 45
5 19 54
0 16 51
0 9 44
0 0 36
0 0 33
0 0 33
0 0 33
0 0 34
0 0 35
0 0 35
0 0 35
0 0 35
0 0 36
0 0 39
0 8 40
0 14 42
0 15 44
0 15 46
0 15 47
0 15 48
0 15 48
0 15 49
0 15 51
0 15 53
0 16 55
0 19 57
0 20 57
0 21 58
0 21 58
0 18 56
0 22 60
0 25 62
0 21 59
0 24 63
0 26 65
0 27 70
0 27 70
0 20 63
0 22 65
0 20 63
0 23 65
0 25 66
0 25 66
0 26 68
0 24 64
0 21 59
0 15 54
0 15 53
0 15 54
0 15 52
0 15 50
0 16 52
0 15 49
0 15 49
0 15 50
0 15 50
0 15 48
0 15 47
0 15 49
0 16 51
0 15 53
0 15 52
0 16 55
0 23 60
0 20 57
0 19 56
3 18 56
3 22 60
0 22 57
0 19 52
0 23 57
0 20 54
0 17 51
0 13 47
0 12 47
0 11 47
0 11 46
0 13 47
0 12 47
2 12 47
10 21 54
8 18 52
8 24 58
5 22 57
11 27 61
4 22 55
0 11 45
11 26 59
16 32 65
2 11 45
0 8 44
0 15 49
0 15 49
2 18 52
6 16 50
0 8 44
0 6 43
0 8 45
0 13 50
9 21 56
18 32 66
0 6 38
0 3 38
0 0 36
0 8 36
0 0 35
0 0 32
0 0 28
0 0 32
0 0 33
0 0 35
0 0 36
0 10 45
0 18 51
0 19 52
0 12 44
0 4 37
0 0 32
0 0 35
0 0 32
0 0 22
18 21 44
63 63 69
105 92 80
113 92 74
116 98 79
111 95 79
99 81 65
117 98 78
97 78 55
80 65 45
46 36 17
49 45 25
47 44 23
51 48 28
43 39 18
44 41 19
36 33 12
42 41 18
42 43 18
40 42 15
45 47 22
40 43 18
41 43 18
43 45 21
41 43 19
39 44 20
38 43 19
27 32 9
38 42 17
42 46 20
37 38 14
29 30 6
32 35 18
28 34 18
21 29 25
25 55 93
15 58 117
17 54 111
11 40 93
0 30 80
0 30 79
0 30 76
0 28 73
0 22 62
0 14 48
0 14 42
0 5 30
0 0 26
0 2 29
0 1 32
0 0 26
0 0 18
0 0 16
0 0 10
0 0 13
0 0 12
0 0 28
87 92 108
223 236 254
224 237 255
224 237 255
224 237 255
224 237 255
224 237 255
224 237 255
224 237 255
224 237 255
224 237 255
224 237 255
224 237 255
224 237 255
224 237 255
224 237 255
224 237 255
224 237 255
224 237 255
224 237 255
224 237 255
224 237 255
224 237 255
224 237 255
224 237 255
224 237 255
224 237 255
224 237 255
224 237 255
224 237 255
224 237 255
224 237 255
224 237 255
224 237 255
224 237 255
224 237 255
224 237 255
224 237 255
224 237 255
224 237 255
224 237 255
224 237 255
224 237 255
224 237 255
224 237 255
224 237 255
224 237 255
224 237 255
224 237 255
224 237 255
224 237 255
224 237 255
224 237 255
224 237 255
224 237 255
224 237 255
224 237 255
224 237 255
224 237 255
224 237 255
224 237 255
224 237 255
224 237 255
224 237 255
224 237 255
224 237 255
224 237 255
224 237 255
224 237 255
224 237 255
224 237 255
224 237 255
224 237 255
224 237 255
224 237 255
224 237 255
224 237 255
224 237 255
224 237 255
224 237 255
224 237 255
224 237 255
224 237 255
224 237 255
224 237 255
224 237 255
224 237 255
224 237 255
224 237 255
224 237 255
224 237 255
224 237 255
224 237 255
224 237 255
224 237 255
224 237 255
224 237 255
224 237 255
224 237 255
224 237 255
224 237 255
224 237 255
224 237 255
224 237 255
224 237 255
224 237 255
224 237 255
224 237 255
224 237 255
224 237 255
224 237 255
224 237 255
224 237 255
224 237 255
224 237 255
224 237 255
224 237 255
224 237 255
224 237 255
224 237 255
224 237 255
224 237 255
224 237 255
224 237 255
224 237 255
224 237 255
224 237 255
224 237 255
224 237 255
224 237 255
224 237 255
224 237 255
224 237 255
224 237 255
224 237 255
224 237 255
224 237 255
224 237 255
224 237 255
224 237 255
224 237 255
224 237 255
224 237 255
224 237 255
224 237 255
224 237 255
224 237 255
224 237 255
224 237 255
224 237 255
224 237 255
224 237 255
224 237 255
224 237 255
224 237 255
224 237 255
224 237 255
224 237 255
224 237 255
224 237 255
224 237 255
224 237 255
224 237 255
224 237 255
224 237 255
224 237 255
224 237 255
224 237 255
224 237 255
224 237 255
224 237 255
224 237 255
224 237 255
224 237 255
224 237 255
224 237 255
224 237 255
224 237 255
224 237 255
224 237 255
224 237 255
224 237 255
224 237 255
224 237 255
224 237 255
224 237 255
224 237 255
224 237 255
224 237 255
224 237 255
224 237 255
224 237 255
224 237 255
224 237 255
224 237 255
224 237 255
224 237 255
224 237 255
224 237 255
224 237 255
224 237 255
224 237 255
224 237 255
224 237 255
224 237 255
224 237 255
224 237 255
224 237 255
224 237 255
224 237 255
224 237 255
224 237 255
224 237 255
186 197 212
0 0 1
0 0 0
0 0 0
0 0 6
0 0 19
0 0 24
0 0 22
0 6 29
6 13 43
16 29 70
4 22 59
0 6 42
0 0 35
0 0 33
0 0 35
0 0 33
0 0 35
0 0 35
0 0 35
0 0 35
0 0 35
0 0 36
0 0 38
0 5 39
0 14 41
0 15 45
0 15 45
0 15 45
0 15 46
0 15 46
0 15 48
0 15 51
0 15 54
0 15 54
0 15 54
0 18 56
0 21 57
0 18 56
0 17 55
0 18 56
0 20 57
0 22 59
0 19 59
0 22 62
0 26 68
0 25 69
0 24 68
0 18 62
0 23 66
0 24 67
0 28 71
0 24 65
0 24 65
0 25 63
0 21 58
0 20 59
0 17 57
0 17 56
0 17 56
0 16 55
0 17 54
0 15 50
0 13 49
0 15 50
0 15 52
0 16 53
0 17 52
0 15 50
0 15 52
0 19 58
0 20 58
8 27 64
8 26 63
0 16 52
4 19 54
5 20 55
0 9 46
0 14 50
0 15 51
0 19 55
0 20 56
0 14 50
0 15 51
0 17 52
0 15 51
0 17 52
0 18 54
7 20 56
8 20 56
4 16 52
0 14 49
0 12 48
0 17 51
0 12 43
0 9 41
0 6 42
0 10 44
0 15 51
0 15 50
0 16 50
0 15 49
10 24 59
10 21 56
11 19 56
4 19 53
0 17 52
0 19 53
8 22 56
7 15 49
0 5 41
0 5 41
0 6 38
0 6 36
0 3 35
0 6 36
0 8 36
0 0 35
0 0 36
0 0 35
0 6 39
0 13 51
0 15 49
0 8 41
0 0 37
0 4 37
0 0 31
0 0 34
0 0 24
0 0 23
39 41 62
86 82 76
95 79 63
98 77 59
103 88 68
97 81 66
97 77 60
119 100 79
96 78 55
74 60 40
46 38 20
49 45 24
50 46 26
48 45 23
47 43 22
50 46 25
42 38 17
42 39 16
45 44 19
51 51 25
49 51 27
41 43 18
35 36 8
40 42 16
37 40 16
34 38 12
31 36 12
23 28 0
36 43 16
40 45 19
36 39 15
28 29 5
27 31 10
19 28 3
27 45 53
20 59 109
16 55 113
9 40 91
0 29 74
0 28 72
0 29 73
0 27 71
0 21 63
0 18 54
0 10 40
0 5 32
0 0 27
0 0 27
0 4 36
0 0 33
0 6 34
0 5 32
0 0 16
0 0 5
0 0 15
0 0 22
0 7 38
188 199 216
224 237 255
224 237 255
224 237 255
224 237 255
224 237 255
224 237 255
224 237 255
224 237 255
224 237 255
224 237 255
224 237 255
224 237 255
224 237 255
224 237 255
224 237 255
224 237 255
224 237 255
224 237 255
224 237 255
224 237 255
224 237 255
224 237 255
224 237 255
224 237 255
224 237 255
224 237 255
224 237 255
224 237 255
224 237 255
224 237 255
224 237 255
224 237 255
224 237 255
224 237 255
224 237 255
224 237 255
224 237 255
224 237 255
224 237 255
224 237 255
224 237 255
224 237 255
224 237 255
224 237 255
224 237 255
224 237 255
224 237 255
224 237 255
224 237 255
224 237 255
224 237 255
224 237 255
224 237 255
224 237 255
224 237 255
224 237 255
224 237 255
224 237 255
224 237 255
224 237 255
224 237 255
224 237 255
224 237 255
224 237 255
224 237 255
224 237 255
224 237 255
224 237 255
224 237 255
224 237 255
224 237 255
224 237 255
224 237 255
224 237 255
224 237 255
224 237 255
224 237 255
224 237 255
224 237 255
224 237 255
224 237 255
224 237 255
224 237 255
224 237 255
224 237 255
224 237 255
224 237 255
224 237 255
224 237 255
224 237 255
224 237 255
224 237 255
224 237 255
224 237 255
224 237 255
224 237 255
224 237 255
224 237 255
224 237 255
224 237 255
224 237 255
224 237 255
224 237 255
224 237 255
224 237 255
224 237 255
224 237 255
224 237 255
224 237 255
224 237 255
224 237 255
224 237 255
224 237 255
224 237 255
224 237 255
224 237 255
224 237 255
224 237 255
224 237 255
224 237 255
224 237 255
224 237 255
224 237 255
224 237 255
224 237 255
224 237 255
224 237 255
224 237 255
224 237 255
224 237 255
224 237 255
224 237 255
224 237 255
224 237 255
224 237 255
224 237 255
224 237 255
224 237 255
224 237 255
224 237 255
224 237 255
224 237 255
224 237 255
224 237 255
224 237 255
224 237 255
224 237 255
224 237 255
224 237 255
224 237 255
224 237 255
224 237 255
224 237 255
224 237 255
224 237 255
224 237 255
224 237 255
224 237 255
224 237 255
224 237 255
224 237 255
224 237 255
224 237 255
224 237 255
224 237 255
224 237 255
224 237 255
224 237 255
224 237 255
224 237 255
224 237 255
224 237 255
224 237 255
224 237 255
224 237 255
224 237 255
224 237 255
224 237 255
224 237 255
224 237 255
224 237 255
224 237 255
224 237 255
224 237 255
224 237 255
224 237 255
224 237 255
224 237 255
224 237 255
224 237 255
224 237 255
224 237 255
224 237 255
224 237 255
224 237 255
224 237 255
224 237 255
224 237 255
224 237 255
224 237 255
224 237 255
224 237 255
224 237 255
224 237 255
224 237 255
224 237 255
224 237 255
224 237 255
224 237 255
224 237 255
224 237 255
224 237 255
224 237 255
114 121 130
0 0 0
0 0 1
0 0 0
0 0 8
0 0 17
0 0 19
0 0 20
0 0 24
4 11 40
6 22 57
0 15 49
0 7 40
0 3 36
0 0 35
0 0 34
0 0 34
0 0 35
0 0 35
0 0 35
0 0 35
0 0 35
0 0 36
0 0 36
0 5 38
0 14 43
0 15 44
0 15 44
0 15 44
0 15 44
0 15 46
0 15 48
0 15 48
0 15 51
0 15 52
0 15 52
0 19 55
0 19 55
0 15 53
0 15 53
0 15 53
0 17 55
0 17 55
0 15 56
0 18 60
0 21 63
0 22 65
0 23 66
0 25 67
0 25 67
0 27 70
0 25 68
0 26 67
0 26 67
0 24 63
0 20 59
0 20 60
0 20 59
0 18 58
0 21 60
0 16 55
6 25 61
4 20 57
0 25 61
0 24 60
0 21 56
0 21 54
0 16 52
0 14 51
0 21 58
0 23 61
5 25 62
8 23 61
0 15 52
0 14 50
0 14 49
0 12 48
0 14 50
0 15 50
0 15 51
0 13 49
0 14 49
0 15 51
0 11 48
0 14 48
0 13 48
0 13 48
0 15 50
0 9 47
0 11 47
0 13 47
0 6 45
0 0 43
0 0 41
0 11 44
0 16 50
0 15 50
0 15 50
0 16 51
0 17 51
0 20 56
0 12 48
0 6 44
5 15 51
0 10 44
0 7 43
0 6 43
0 8 44
0 11 46
0 16 49
0 2 39
0 12 43
6 22 50
0 9 37
0 9 37
0 7 35
0 0 33
0 0 35
0 0 36
0 12 44
0 10 45
0 5 40
0 3 38
0 9 39
0 12 38
0 6 32
0 0 35
0 0 19
9 13 34
57 59 73
89 84 71
106 87 71
121 100 84
127 115 97
109 93 77
120 104 86
110 95 73
92 76 54
65 55 36
45 41 22
57 53 33
45 41 21
45 42 21
45 42 19
58 54 33
58 53 31
55 52 31
57 54 31
49 47 23
51 52 27
46 48 22
38 39 12
40 41 16
40 44 19
32 37 11
24 31 5
23 34 7
34 43 16
35 41 15
34 37 14
35 35 14
31 35 8
24 31 10
23 51 85
16 56 117
9 43 98
0 29 74
0 24 64
0 22 63
0 24 67
0 22 65
3 23 62
4 17 49
0 4 34
0 0 28
0 0 29
0 0 36
0 9 45
3 13 48
14 30 67
0 14 43
0 0 13
0 0 13
0 0 23
0 0 31
121 128 144
224 237 255
224 237 255
224 237 255
224 237 255
224 237 255
224 237 255
224 237 255
224 237 255
224 237 255
224 237 255
224 237 255
224 237 255
224 237 255
224 237 255
224 237 255
224 237 255
224 237 255
224 237 255
224 237 255
224 237 255
224 237 255
224 237 255
224 237 255
224 237 255
224 237 255
224 237 255
224 237 255
224 237 255
224 237 255
224 237 255
224 237 255
224 237 255
224 237 255
224 237 255
224 237 255
224 237 255
224 237 255
224 237 255
224 237 255
224 237 255
224 237 255
224 237 255
224 237 255
224 237 255
224 237 255
224 237 255
224 237 255
224 237 255
224 237 255
224 237 255
224 237 255
224 237 255
224 237 255
224 237 255
224 237 255
224 237 255
224 237 255
224 237 255
224 237 255
224 237 255
224 237 255
224 237 255
224 237 255
224 237 255
224 237 255
224 237 255
224 237 255
224 237 255
224 237 255
224 237 255
224 237 255
224 237 255
224 237 255
224 237 255
224 237 255
224 237 255
224 237 255
224 237 255
224 237 255
224 237 255
224 237 255
224 237 255
224 237 255
224 237 255
224 237 255
224 237 255
224 237 255
224 237 255
224 237 255
224 237 255
224 237 255
224 237 255
224 237 255
224 237 255
224 237 255
224 237 255
224 237 255
224 237 255
224 237 255
224 237 255
224 237 255
224 237 255
224 237 255
224 237 255
224 237 255
224 237 255
224 237 255
224 237 255
224 237 255
224 237 255
224 237 255
224 237 255
224 237 255
224 237 255
224 237 255
224 237 255
224 237 255
224 237 255
224 237 255
224 237 255
224 237 255
224 237 255
224 237 255
224 237 255
224 237 255
224 237 255
224 237 255
224 237 255
224 237 255
224 237 255
224 237 255
224 237 255
224 237 255
224 237 255
224 237 255
224 237 255
224 237 255
224 237 255
224 237 255
224 237 255
224 237 255
224 237 255
224 237 255
224 237 255
224 237 255
224 237 255
224 237 255
224 237 255
224 237 255
224 237 255
224 237 255
224 237 255
224 237 255
224 237 255
224 237 255
224 237 255
224 237 255
224 237 255
224 237 255
224 237 255
224 237 255
224 237 255
224 237 255
224 237 255
224 237 255
224 237 255
224 237 255
224 237 255
224 237 255
224 237 255
224 237 255
224 237 255
224 237 255
224 237 255
224 237 255
224 237 255
224 237 255
224 237 255
224 237 255
224 237 255
224 237 255
224 237 255
224 237 255
224 237 255
224 237 255
224 237 255
224 237 255
224 237 255
224 237 255
224 237 255
224 237 255
224 237 255
224 237 255
224 237 255
224 237 255
224 237 255
224 237 255
224 237 255
224 237 255
224 237 255
224 237 255
224 237 255
224 237 255
224 237 255
224 237 255
224 237 255
224 237 255
224 237 255
224 237 255
224 237 255
224 237 255
224 237 255
224 237 255
224 237 255
202 214 230
22 23 25
0 0 6
0 0 13
0 0 10
0 0 13
0 0 19
0 0 17
0 0 19
0 0 25
0 4 34
0 8 40
0 6 37
0 11 40
0 2 37
0 0 35
0 0 35
0 0 35
0 0 35
0 0 35
0 0 35
0 0 34
0 0 34
0 0 35
0 0 35
0 6 38
0 10 40
0 12 41
0 15 42
0 15 42
0 15 44
0 15 46
0 15 48
0 15 48
0 15 50
0 15 50
0 15 51
0 16 51
0 15 50
0 15 50
0 15 51
0 15 52
0 15 53
0 15 54
0 15 56
0 20 60
0 21 64
0 21 66
0 23 66
0 25 69
0 29 73
0 26 72
0 26 70
0 26 68
0 26 67
2 26 66
8 28 68
0 21 60
0 22 62
0 24 65
0 18 57
7 26 63
4 20 59
0 20 59
0 21 58
0 20 57
0 20 55
0 21 56
0 21 58
0 25 62
0 22 62
0 20 59
0 17 55
0 15 53
0 16 52
0 15 50
0 16 50
0 15 49
0 15 48
0 14 49
0 15 50
0 15 49
0 14 49
0 15 52
0 15 48
0 15 51
0 14 50
0 16 52
0 15 50
0 14 49
0 14 48
0 14 49
0 12 47
0 12 46
0 15 50
0 15 50
0 17 52
0 19 53
0 19 54
0 17 51
0 10 46
0 10 48
0 12 47
0 9 45
0 12 44
0 10 44
0 13 45
0 15 46
0 16 48
0 11 44
0 2 40
0 10 41
0 12 39
0 10 38
0 0 35
0 0 34
0 0 35
0 0 35
0 0 36
0 1 37
0 0 39
0 0 39
0 5 39
0 3 38
0 5 35
0 3 29
0 0 33
0 0 14
19 25 48
77 79 83
101 92 72
97 73 57
119 101 86
114 103 83
95 81 60
120 105 84
102 86 62
88 76 57
51 43 24
59 56 38
59 56 36
53 50 30
46 43 21
52 49 28
65 57 35
65 58 36
62 56 35
57 52 34
52 49 27
44 44 19
46 45 21
42 41 15
41 41 17
40 44 21
29 36 9
34 45 18
34 47 19
33 44 16
34 40 16
36 37 17
37 34 21
29 31 12
21 32 41
24 55 109
16 53 111
2 32 82
0 22 64
0 16 55
0 15 54
0 20 60
0 15 54
0 13 47
0 7 37
0 0 31
0 5 36
0 6 41
0 11 46
6 23 60
7 22 57
6 25 64
0 13 41
0 0 17
0 0 23
0 0 30
31 35 56
212 224 242
224 237 255
224 237 255
224 237 255
224 237 255
224 237 255
224 237 255
224 237 255
224 237 255
224 237 255
224 237 255
224 237 255
224 237 255
224 237 255
224 237 255
224 237 255
224 237 255
224 237 255
224 237 255
224 237 255
224 237 255
224 237 255
224 237 255
224 237 255
224 237 255
224 237 255
224 237 255
224 237 255
224 237 255
224 237 255
224 237 255
224 237 255
224 237 255
224 237 255
224 237 255
224 237 255
224 237 255
224 237 255
224 237 255
224 237 255
224 237 255
224 237 255
224 237 255
224 237 255
224 237 255
224 237 255
224 237 255
224 237 255
224 237 255
224 237 255
224 237 255
224 237 255
224 237 255
224 237 255
224 237 255
224 237 255
224 237 255
224 237 255
224 237 255
224 237 255
224 237 255
224 237 255
224 237 255
224 237 255
224 237 255
224 237 255
224 237 255
224 237 255
224 237 255
224 237 255
224 237 255
224 237 255
224 237 255
224 237 255
224 237 255
224 237 255
224 237 255
224 237 255
224 237 255
224 237 255
224 237 255
224 237 255
224 237 255
224 237 255
224 237 255
224 237 255
224 237 255
224 237 255
224 237 255
224 237 255
224 237 255
224 237 255
224 237 255
224 237 255
224 237 255
224 237 255
224 237 255
224 237 255
224 237 255
224 237 255
224 237 255
224 237 255
224 237 255
224 237 255
224 237 255
224 237 255
224 237 255
224 237 255
224 237 255
224 237 255
224 237 255
224 237 255
224 237 255
224 237 255
224 237 255
224 237 255
224 237 255
224 237 255
224 237 255
224 237 255
224 237 255
224 237 255
224 237 255
224 237 255
224 237 255
224 237 255
224 237 255
224 237 255
224 237 255
224 237 255
224 237 255
224 237 255
224 237 255
224 237 255
224 237 255
224 237 255
224 237 255
224 237 255
224 237 255
224 237 255
224 237 255
224 237 255
224 237 255
224 237 255
224 237 255
224 237 255
224 237 255
224 237 255
224 237 255
224 237 255
224 237 255
224 237 255
224 237 255
224 237 255
224 237 255
224 237 255
224 237 255
224 237 255
224 237 255
224 237 255
224 237 255
224 237 255
224 237 255
224 237 255
224 237 255
224 237 255
224 237 255
224 237 255
224 237 255
224 237 255
224 237 255
224 237 255
224 237 255
224 237 255
224 237 255
224 237 255
224 237 255
224 237 255
224 237 255
224 237 255
224 237 255
224 237 255
224 237 255
224 237 255
224 237 255
224 237 255
224 237 255
224 237 255
224 237 255
224 237 255
224 237 255
224 237 255
224 237 255
224 237 255
224 237 255
224 237 255
224 237 255
224 237 255
224 237 255
224 237 255
224 237 255
224 237 255
224 237 255
224 237 255
224 237 255
224 237 255
224 237 255
224 237 255
224 237 255
224 237 255
224 237 255
224 237 255
224 237 255
224 237 255
224 237 255
224 237 255
149 157 169
0 0 0
0 0 11
0 0 16
0 0 9
0 0 14
0 0 22
0 0 19
0 0 18
0 0 23
0 0 30
0 0 34
0 3 35
0 4 37
0 0 35
0 0 35
0 0 35
0 0 35
0 0 35
0 0 35
0 0 35
0 0 34
0 0 33
0 0 35
0 0 38
0 0 41
0 4 42
0 10 43
0 12 43
0 15 42
0 15 45
0 15 48
0 15 48
0 15 48
0 15 50
0 15 51
0 15 51
0 15 50
0 15 51
0 15 50
0 15 50
0 15 52
0 15 53
0 15 55
0 18 59
0 21 63
0 21 66
0 23 66
0 24 67
0 28 72
0 26 73
0 26 71
0 23 67
0 24 66
0 23 65
1 25 66
0 21 61
0 20 60
0 21 62
0 21 61
0 25 64
0 22 62
0 24 62
0 20 60
0 19 59
0 21 58
0 20 58
0 23 61
0 22 62
0 21 63
0 23 62
0 21 58
0 16 54
0 15 52
0 15 50
0 15 50
0 15 50
0 15 50
0 15 49
0 15 49
0 15 49
0 15 49
0 15 50
0 15 48
0 15 51
0 15 49
0 15 50
0 15 49
0 15 50
0 15 49
0 15 49
0 14 50
0 15 54
0 15 51
0 16 52
0 23 57
0 21 55
0 17 51
0 14 47
0 14 47
0 13 45
0 13 45
0 14 44
0 13 44
0 8 42
0 15 44
0 14 43
0 12 42
0 11 43
0 1 41
0 2 38
0 10 37
0 11 38
0 4 36
0 0 35
0 0 35
0 0 35
0 0 37
0 7 40
0 9 40
0 0 37
0 0 36
0 0 35
0 3 32
0 0 30
0 0 33
1 2 20
47 54 76
104 105 98
96 84 62
106 82 67
123 106 91
95 85 64
108 95 73
79 65 41
87 73 48
56 44 23
57 50 30
55 52 31
62 59 38
49 46 25
46 42 21
58 54 33
67 57 35
70 61 40
69 61 42
60 54 37
49 46 24
42 39 16
39 37 13
34 32 6
39 38 15
42 46 19
37 45 16
35 46 18
34 44 13
38 44 14
40 40 18
47 43 27
38 39 19
23 37 33
25 53 89
20 54 106
10 39 90
0 25 71
0 16 57
0 15 50
0 8 46
0 11 49
0 7 45
0 9 41
0 5 34
0 6 40
0 17 53
3 21 59
3 24 63
0 16 52
0 13 50
3 24 64
0 2 30
0 0 21
0 0 27
0 8 38
160 170 186
224 237 255
224 237 255
224 237 255
224 237 255
224 237 255
224 237 255
224 237 255
224 237 255
224 237 255
224 237 255
224 237 255
224 237 255
224 237 255
224 237 255
224 237 255
224 237 255
224 237 255
224 237 255
224 237 255
224 237 255
224 237 255
224 237 255
224 237 255
224 237 255
224 237 255
224 237 255
224 237 255
224 237 255
224 237 255
224 237 255
224 237 255
224 237 255
224 237 255
224 237 255
224 237 255
224 237 255
224 237 255
224 237 255
224 237 255
224 237 255
224 237 255
224 237 255
224 237 255
224 237 255
224 237 255
224 237 255
224 237 255
224 237 255
224 237 255
224 237 255
224 237 255
224 237 255
224 237 255
224 237 255
224 237 255
224 237 255
224 237 255
224 237 255
224 237 255
224 237 255
224 237 255
224 237 255
224 237 255
224 237 255
224 237 255
224 237 255
224 237 255
224 237 255
224 237 255
224 237 255
224 237 255
224 237 255
224 237 255
224 237 255
224 237 255
224 237 255
224 237 255
224 237 255
224 237 255
224 237 255
224 237 255
224 237 255
224 237 255
224 237 255
224 237 255
224 237 255
224 237 255
224 237 255
224 237 255
224 237 255
224 237 255
224 237 255
224 237 255
224 237 255
224 237 255
224 237 255
224 237 255
224 237 255
224 237 255
224 237 255
224 237 255
224 237 255
224 237 255
224 237 255
224 237 255
224 237 255
224 237 255
224 237 255
224 237 255
224 237 255
224 237 255
224 237 255
224 237 255
224 237 255
224 237 255
224 237 255
224 237 255
224 237 255
224 237 255
224 237 255
224 237 255
224 237 255
224 237 255
224 237 255
224 237 255
224 237 255
224 237 255
224 237 255
224 237 255
224 237 255
224 237 255
224 237 255
224 237 255
224 237 255
224 237 255
224 237 255
224 237 255
224 237 255
224 237 255
224 237 255
224 237 255
224 237 255
224 237 255
224 237 255
224 237 255
224 237 255
224 237 255
224 237 255
224 237 255
224 237 255
224 237 255
224 237 255
224 237 255
224 237 255
224 237 255
224 237 255
224 237 255
224 237 255
224 237 255
224 237 255
224 237 255
224 237 255
224 237 255
224 237 255
224 237 255
224 237 255
224 237 255
224 237 255
224 237 255
224 237 255
224 237 255
224 237 255
224 237 255
224 237 255
224 237 255
224 237 255
224 237 255
224 237 255
224 237 255
224 237 255
224 237 255
224 237 255
224 237 255
224 237 255
224 237 255
224 237 255
224 237 255
224 237 255
224 237 255
224 237 255
224 237 255
224 237 255
224 237 255
224 237 255
224 237 255
224 237 255
224 237 255
224 237 255
224 237 255
224 237 255
224 237 255
224 237 255
224 237 255
224 237 255
224 237 255
224 237 255
224 237 255
224 237 255
224 237 255
224 237 255
224 237 255
224 237 255
224 237 255
224 237 255
224 237 255
224 237 255
221 234 252
95 100 108
0 0 5
0 0 15
0 0 15
0 0 5
0 0 16
0 0 19
0 0 16
0 0 16
0 0 19
0 0 27
0 0 31
0 0 35
0 0 35
0 0 35
0 0 35
0 0 35
0 0 35
0 0 35
0 0 35
0 0 35
0 0 32
0 0 35
0 0 36
0 0 41
0 0 42
0 4 42
0 12 44
0 14 42
0 15 43
0 15 48
0 15 48
0 15 47
0 15 48
0 15 49
0 15 48
0 15 50
0 15 52
0 15 51
0 15 50
0 15 54
0 15 55
0 15 57
0 18 57
0 21 59
0 23 64
0 22 64
0 21 63
0 26 70
0 25 69
0 25 68
0 25 67
0 24 66
0 25 68
0 26 68
0 24 65
0 23 64
0 22 63
0 21 62
0 21 61
0 21 60
0 24 63
0 21 61
0 20 60
0 20 58
0 21 59
0 20 59
0 21 59
0 21 61
0 17 58
0 15 55
0 15 53
0 15 52
0 15 50
0 15 50
0 15 50
0 15 50
0 15 51
0 15 52
0 15 52
0 15 52
0 15 49
0 15 48
0 15 49
0 15 50
0 15 50
0 15 49
0 15 48
0 15 49
0 15 48
0 15 52
0 15 56
0 19 58
0 18 56
0 21 56
0 20 55
0 15 46
0 15 45
0 15 45
0 15 45
0 15 45
0 14 44
0 7 40
0 11 41
0 11 41
0 14 42
0 11 41
0 11 43
0 3 40
0 8 39
0 2 35
0 0 35
0 6 36
0 0 35
0 0 36
0 0 38
0 0 38
0 3 39
0 0 36
0 0 35
0 0 34
0 0 33
0 0 30
0 0 32
0 0 26
13 21 38
67 73 85
101 95 86
92 74 52
103 84 66
107 91 74
85 68 48
86 70 50
117 102 83
117 105 85
49 39 17
52 48 28
51 49 28
57 54 34
49 44 22
50 46 23
60 52 29
67 58 33
58 50 27
58 51 31
54 49 30
52 51 30
40 38 15
38 36 12
40 38 15
46 46 22
46 49 20
41 48 18
38 46 16
38 46 8
34 38 9
35 33 15
33 35 10
29 42 42
31 56 88
19 55 111
2 41 91
0 30 77
0 19 61
0 15 47
0 13 44
0 7 42
0 13 45
3 12 44
1 10 39
0 6 41
11 31 74
8 33 80
10 41 86
0 22 63
0 11 43
7 24 64
4 17 52
0 0 28
0 0 27
0 5 36
84 90 106
220 233 251
224 237 255
224 237 255
224 237 255
224 237 255
224 237 255
224 237 255
224 237 255
224 237 255
224 237 255
224 237 255
224 237 255
224 237 255
224 237 255
224 237 255
224 237 255
224 237 255
224 237 255
224 237 255
224 237 255
224 237 255
224 237 255
224 237 255
224 237 255
224 237 255
224 237 255
224 237 255
224 237 255
224 237 255
224 237 255
224 237 255
224 237 255
224 237 255
224 237 255
224 237 255
224 237 255
224 237 255
224 237 255
224 237 255
224 237 255
224 237 255
224 237 255
224 237 255
224 237 255
224 237 255
224 237 255
224 237 255
224 237 255
224 237 255
224 237 255
224 237 255
224 237 255
224 237 255
224 237 255
224 237 255
224 237 255
224 237 255
224 237 255
224 237 255
224 237 255
224 237 255
224 237 255
224 237 255
224 237 255
224 237 255
224 237 255
224 237 255
224 237 255
224 237 255
224 237 255
224 237 255
224 237 255
224 237 255
224 237 255
224 237 255
224 237 255
224 237 255
224 237 255
224 237 255
224 237 255
224 237 255
224 237 255
224 237 255
224 237 255
224 237 255
224 237 255
224 237 255
224 237 255
224 237 255
224 237 255
224 237 255
224 237 255
224 237 255
224 237 255
224 237 255
224 237 255
224 237 255
224 237 255
224 237 255
224 237 255
224 237 255
224 237 255
224 237 255
224 237 255
224 237 255
224 237 255
224 237 255
224 237 255
224 237 255
224 237 255
224 237 255
224 237 255
224 237 255
224 237 255
224 237 255
224 237 255
224 237 255
224 237 255
224 237 255
224 237 255
224 237 255
224 237 255
224 237 255
224 237 255
224 237 255
224 237 255
224 237 255
224 237 255
224 237 255
224 237 255
224 237 255
224 237 255
224 237 255
224 237 255
224 237 255
224 237 255
224 237 255
224 237 255
224 237 255
224 237 255
224 237 255
224 237 255
224 237 255
224 237 255
224 237 255
224 237 255
224 237 255
224 237 255
224 237 255
224 237 255
224 237 255
224 237 255
224 237 255
224 237 255
224 237 255
224 237 255
224 237 255
224 237 255
224 237 255
224 237 255
224 237 255
224 237 255
224 237 255
224 237 255
224 237 255
224 237 255
225 237 255
224 237 255
225 237 255
225 237 255
225 237 255
225 237 255
225 237 255
225 237 255
225 237 255
225 237 255
225 237 255
225 237 255
225 237 255
225 237 255
225 237 255
225 237 255
225 237 255
225 237 255
225 237 255
225 237 255
225 237 255
225 237 255
225 237 255
225 237 255
225 237 255
225 237 255
225 237 255
225 237 255
225 237 255
225 237 255
225 237 255
225 237 255
225 237 255
225 237 255
225 237 255
225 237 255
225 237 255
225 237 255
225 237 255
225 237 255
225 237 255
225 237 255
225 237 255
225 237 255
225 237 255
225 237 255
225 237 255
225 237 255
225 237 255
225 237 255
225 237 255
225 237 255
203 215 231
38 41 44
0 0 14
0 0 16
0 0 9
0 0 7
0 0 16
0 0 16
0 0 16
0 0 16
0 0 16
0 0 23
0 0 31
0 0 34
0 0 35
0 0 35
0 0 35
0 0 35
0 0 35
0 0 35
0 0 32
0 0 33
0 0 35
0 0 35
0 0 39
0 0 41
0 0 41
0 11 44
0 10 42
0 15 42
0 15 47
0 15 48
0 15 46
0 15 47
0 15 48
0 15 48
0 15 49
0 15 50
0 15 50
0 15 50
0 15 53
0 15 55
0 15 57
0 17 57
0 21 58
0 21 62
0 21 63
0 22 64
0 26 70
0 25 68
0 25 66
0 26 66
0 26 67
0 25 66
0 23 66
0 22 64
0 23 64
0 21 62
0 21 60
0 21 59
0 21 59
0 18 57
0 15 57
0 20 58
0 16 55
0 20 57
0 21 58
0 21 57
0 18 57
0 15 54
0 15 51
0 15 52
0 17 52
0 15 50
0 15 49
0 15 48
0 15 48
0 15 50
0 15 51
0 15 51
0 15 48
0 15 48
0 15 48
0 15 48
0 15 50
0 15 49
0 15 52
0 16 52
0 20 56
0 20 57
0 20 58
0 18 58
0 19 58
0 16 55
0 15 53
0 16 50
0 15 46
0 15 45
0 10 42
0 15 45
0 15 45
0 13 44
0 5 44
0 8 42
0 12 42
0 12 40
0 14 39
0 3 39
0 0 39
0 6 39
0 0 39
0 6 39
0 8 38
0 1 36
0 3 39
0 0 36
0 0 35
0 0 33
0 0 32
0 0 31
0 0 31
0 0 31
0 0 31
0 0 21
3 5 38
35 45 62
74 72 60
98 78 63
104 91 67
89 78 56
84 61 45
90 68 53
89 70 52
109 93 74
71 59 40
50 42 21
48 44 21
61 56 38
59 53 33
58 50 28
66 56 35
73 64 40
68 61 36
56 50 26
56 52 32
56 53 32
54 53 30
52 50 28
47 45 22
54 53 30
50 50 24
48 51 22
44 51 21
39 47 14
32 38 5
30 32 11
30 31 13
23 35 25
29 52 93
18 55 117
12 48 106
0 33 81
0 24 66
0 18 52
0 15 46
0 14 45
0 14 44
0 15 45
5 15 46
0 11 41
4 26 67
12 40 92
13 46 98
13 46 93
5 26 63
0 11 44
0 20 58
0 1 32
0 0 28
0 4 34
22 26 52
197 208 226
225 237 255
225 237 255
225 237 255
225 237 255
225 237 255
225 237 255
225 237 255
225 237 255
225 237 255
225 237 255
225 237 255
225 237 255
225 237 255
225 237 255
225 237 255
225 237 255
225 237 255
225 237 255
225 237 255
225 237 255
225 237 255
225 237 255
225 237 255
225 237 255
225 237 255
225 237 255
225 237 255
225 237 255
225 237 255
225 237 255
225 237 255
225 237 255
225 237 255
225 237 255
225 237 255
225 237 255
225 237 255
225 237 255
225 237 255
225 237 255
225 237 255
225 237 255
225 237 255
225 237 255
225 237 255
225 237 255
225 237 255
224 237 255
224 237 255
225 237 255
225 237 255
225 237 255
224 237 255
224 237 255
224 237 255
224 237 255
224 237 255
224 237 255
224 237 255
224 237 255
224 237 255
224 237 255
224 237 255
224 237 255
224 237 255
224 237 255
224 237 255
224 237 255
224 237 255
224 237 255
224 237 255
224 237 255
224 237 255
224 237 255
224 237 255
224 237 255
224 237 255
224 237 255
224 237 255
224 237 255
224 237 255
224 237 255
224 237 255
224 237 255
224 237 255
224 237 255
224 237 255
224 237 255
224 237 255
224 237 255
224 237 255
224 237 255
224 237 255
224 237 255
224 237 255
224 237 255
224 237 255
224 237 255
224 237 255
224 237 255
224 237 255
224 237 255
224 237 255
224 237 255
224 237 255
224 237 255
224 237 255
224 237 255
224 237 255
224 237 255
224 237 255
224 237 255
224 237 255
224 237 255
224 237 255
224 237 255
224 237 255
224 237 255
224 237 255
224 237 255
224 237 255
224 237 255
224 237 255
225 237 255
225 237 255
225 237 255
225 237 255
225 237 255
225 237 255
225 237 255
225 237 255
225 237 255
225 237 255
225 237 255
225 237 255
225 237 255
225 237 255
225 237 255
225 237 255
225 237 255
225 237 255
225 237 255
225 237 255
225 237 255
225 237 255
225 237 255
225 237 255
225 237 255
225 237 255
225 237 255
225 237 255
225 237 255
225 237 255
225 237 255
225 237 255
225 237 255
225 237 255
225 237 255
225 237 255
225 237 255
225 237 255
225 237 255
225 237 255
225 237 255
225 237 255
225 237 255
225 237 255
225 237 255
225 237 255
225 237 255
225 237 255
225 237 255
225 237 255
225 237 255
225 237 255
225 237 255
225 237 255
225 237 255
225 237 255
225 237 255
225 237 255
225 237 255
225 237 255
225 237 255
225 237 255
225 237 255
225 237 255
225 237 255
225 237 255
225 237 255
225 237 255
225 237 255
225 237 255
225 237 255
225 237 255
225 237 255
225 237 255
225 237 255
225 237 255
225 237 255
225 237 255
225 237 255
225 237 255
225 237 255
225 237 255
225 237 255
225 237 255
225 237 255
225 237 255
225 237 255
225 237 255
225 237 255
225 237 255
225 237 255
225 237 255
225 237 255
225 237 255
225 237 255
225 237 255
157 166 179
0 0 14
0 0 16
0 0 15
0 0 13
0 0 12
0 0 13
0 0 14
0 0 7
0 0 6
0 0 15
0 0 23
0 0 30
0 0 35
0 0 34
0 0 35
0 0 35
0 0 35
0 0 35
0 0 35
0 0 34
0 0 35
0 0 35
0 0 37
0 0 39
0 0 39
0 0 42
0 7 42
0 15 42
0 15 43
0 15 48
0 15 48
0 15 47
0 15 48
0 15 48
0 15 48
0 15 48
0 15 49
0 15 50
0 15 51
0 15 56
0 15 57
0 15 57
0 21 57
0 21 61
0 21 63
0 24 65
0 26 67
0 26 70
0 26 67
0 25 66
0 24 66
0 21 65
0 22 65
0 21 64
0 21 62
0 21 61
0 21 59
0 21 57
0 21 59
0 21 58
0 17 57
0 15 55
0 15 54
0 16 55
0 18 57
0 18 57
0 15 56
0 15 53
0 15 50
0 15 50
0 15 51
0 15 50
0 15 48
0 15 48
0 15 48
0 15 50
0 15 49
0 15 49
0 15 48
0 15 48
0 15 48
0 15 48
0 15 48
0 15 49
0 15 49
0 16 52
0 19 56
0 19 58
0 19 58
0 19 58
0 15 55
0 15 53
0 15 50
0 15 48
0 15 46
0 15 45
0 8 42
0 15 44
0 15 44
0 15 44
0 15 45
0 15 43
0 15 42
0 12 40
0 14 39
0 0 39
0 0 39
0 0 38
0 3 39
0 14 42
0 10 39
0 11 39
0 11 40
0 0 34
0 0 34
0 0 32
0 0 32
0 0 30
0 0 29
0 0 27
0 0 25
0 0 18
17 23 60
60 69 78
93 83 57
98 82 60
97 90 67
86 72 52
82 57 41
80 57 41
80 63 44
60 46 25
74 63 42
56 48 28
57 50 31
67 60 42
54 45 25
71 59 38
70 58 36
68 61 34
60 55 28
58 54 30
52 48 27
50 48 24
57 55 32
52 50 27
49 48 24
53 51 25
52 53 26
48 52 23
45 53 21
46 53 20
42 47 26
39 43 25
37 47 26
29 53 88
22 54 118
15 51 110
8 37 87
0 24 67
0 21 57
0 16 52
0 15 51
0 15 48
0 15 43
0 14 43
0 7 37
0 21 54
3 31 81
14 43 97
10 40 91
10 36 80
5 18 52
0 18 51
0 10 43
0 0 31
0 5 32
0 12 44
136 145 162
225 237 255
225 237 255
225 237 255
225 237 255
225 237 255
225 237 255
225 237 255
225 237 255
225 237 255
225 237 255
225 237 255
225 237 255
225 237 255
225 237 255
225 237 255
225 237 255
225 237 255
225 237 255
225 237 255
225 237 255
225 237 255
225 237 255
225 237 255
225 237 255
225 237 255
225 237 255
225 237 255
225 237 255
225 237 255
225 237 255
225 237 255
225 237 255
225 237 255
225 237 255
225 237 255
225 237 255
225 237 255
225 237 255
225 237 255
225 237 255
225 237 255
225 237 255
225 237 255
225 237 255
225 237 255
225 237 255
225 237 255
225 237 255
225 237 255
225 237 255
225 237 255
225 237 255
225 237 255
225 237 255
225 237 255
225 237 255
225 237 255
225 237 255
225 237 255
225 237 255
225 237 255
225 237 255
225 237 255
225 237 255
225 237 255
225 237 255
225 237 255
225 237 255
225 237 255
225 237 255
225 237 255
225 237 255
225 237 255
225 237 255
225 237 255
225 237 255
225 237 255
225 237 255
225 237 255
225 237 255
225 237 255
225 237 255
225 237 255
225 237 255
225 237 255
225 237 255
225 237 255
225 237 255
225 237 255
225 237 255
225 237 255
225 237 255
225 237 255
225 237 255
225 237 255
225 237 255
225 237 255
224 237 255
224 237 255
224 237 255
224 237 255
224 237 255
224 237 255
224 237 255
224 237 255
224 237 255
224 237 255
224 237 255
224 237 255
224 237 255
225 237 255
225 237 255
225 237 255
225 237 255
225 237 255
225 237 255
225 237 255
225 237 255
225 237 255
225 237 255
225 237 255
225 237 255
225 237 255
225 237 255
225 237 255
225 237 255
225 237 255
225 237 255
225 237 255
225 237 255
225 237 255
225 237 255
225 237 255
225 237 255
225 237 255
225 237 255
225 237 255
225 237 255
225 237 255
225 237 255
225 237 255
225 237 255
225 237 255
225 237 255
225 237 255
225 237 255
225 237 255
225 237 255
225 237 255
225 237 255
225 237 255
225 237 255
225 237 255
225 237 255
225 237 255
225 237 255
225 237 255
225 237 255
225 237 255
225 237 255
225 237 255
225 237 255
225 237 255
225 237 255
225 237 255
225 237 255
225 237 255
225 237 255
225 237 255
225 237 255
225 237 255
225 237 255
225 237 255
225 237 255
225 237 255
225 237 255
225 237 255
225 237 255
225 237 255
225 237 255
225 237 255
225 237 255
225 237 255
225 237 255
225 237 255
225 237 255
225 237 255
225 237 255
225 237 255
225 237 255
225 237 255
225 237 255
225 237 255
225 237 255
225 237 255
225 237 255
225 237 255
225 237 255
225 237 255
225 237 255
225 237 255
225 237 255
225 237 255
225 237 255
225 237 255
225 237 255
225 237 255
225 237 255
225 237 255
225 237 255
225 237 255
225 237 255
225 237 255
225 237 255
225 237 255
225 237 255
225 237 255
225 237 255
225 237 255
225 237 255
214 227 244
87 92 99
0 0 14
0 0 16
0 0 16
0 0 14
0 0 2
0 0 0
0 0 9
0 0 14
0 0 14
0 0 16
0 0 20
0 0 28
0 0 32
0 0 35
0 0 35
0 0 35
0 0 34
0 0 35
0 0 35
0 0 35
0 0 35
0 0 36
0 2 39
0 0 41
0 6 42
0 0 42
0 12 42
0 15 42
0 15 47
0 15 48
0 15 48
0 15 48
0 15 48
0 15 48
0 15 48
0 15 49
0 15 50
0 15 50
0 15 56
0 15 57
0 15 57
0 20 57
0 21 59
0 21 62
0 21 64
0 25 66
0 26 69
0 26 68
0 26 67
0 23 66
0 21 66
0 21 66
0 21 66
0 21 64
0 21 61
0 21 59
0 21 58
0 21 58
0 21 58
0 18 56
0 15 55
0 16 56
0 15 52
0 15 52
0 15 53
0 15 52
0 15 51
0 15 49
0 15 49
0 15 51
0 15 51
0 15 49
0 15 48
0 15 48
0 14 49
0 13 47
0 15 48
0 15 48
0 15 48
0 15 48
0 15 48
0 15 48
0 15 50
0 15 50
0 16 53
0 15 53
0 15 55
0 15 55
0 15 54
0 15 52
0 15 50
0 15 48
0 15 48
0 15 45
0 15 45
0 11 42
0 15 42
0 15 42
0 13 43
0 15 45
0 15 44
0 15 42
0 11 39
0 14 39
0 0 39
0 0 39
0 5 39
0 0 39
0 5 39
0 7 37
0 6 35
0 0 33
0 0 32
0 0 32
0 0 32
0 0 32
0 0 31
0 0 28
0 0 27
0 0 22
0 3 24
24 33 71
57 60 53
86 70 40
101 90 69
99 93 69
73 55 35
106 83 65
89 72 52
81 67 45
72 59 39
71 61 41
78 69 50
59 51 32
57 49 30
61 53 33
64 55 33
77 68 44
70 66 36
62 58 30
61 58 33
54 52 28
57 55 30
54 53 28
53 51 25
53 52 26
51 50 20
49 49 22
48 52 22
43 50 16
42 47 23
36 41 24
44 52 31
35 55 70
23 52 115
10 41 91
2 27 74
0 22 63
0 17 59
0 17 54
0 17 53
0 15 50
0 15 46
0 15 43
0 12 39
0 6 35
0 16 51
2 26 73
5 30 77
0 23 65
0 13 47
0 13 45
0 15 47
0 4 34
0 4 33
0 9 40
63 69 88
221 234 252
225 237 255
225 237 255
225 237 255
225 237 255
225 237 255
225 237 255
225 237 255
225 237 255
225 237 255
225 237 255
225 237 255
225 237 255
225 237 255
225 237 255
225 237 255
225 237 255
225 237 255
225 237 255
225 237 255
225 237 255
225 237 255
225 237 255
225 237 255
225 237 255
225 237 255
225 237 255
225 237 255
225 237 255
225 237 255
225 237 255
225 237 255
225 237 255
225 237 255
225 237 255
225 237 255
225 237 255
225 237 255
225 237 255
225 237 255
225 237 255
225 237 255
225 237 255
225 237 255
225 237 255
225 237 255
225 237 255
225 237 255
225 237 255
225 237 255
225 237 255
225 237 255
225 237 255
225 237 255
225 237 255
225 237 255
225 237 255
225 237 255
225 237 255
225 237 255
225 237 255
225 237 255
225 237 255
225 237 255
225 237 255
225 237 255
225 237 255
225 237 255
225 237 255
225 237 255
225 237 255
225 237 255
225 237 255
225 237 255
225 237 255
225 237 255
225 237 255
225 237 255
225 237 255
225 237 255
225 237 255
225 237 255
225 237 255
225 237 255
225 237 255
225 237 255
225 237 255
225 237 255
225 237 255
225 237 255
225 237 255
225 237 255
225 237 255
225 237 255
225 237 255
225 237 255
225 237 255
225 237 255
225 237 255
225 237 255
225 237 255
225 237 255
225 237 255
225 237 255
225 237 255
225 237 255
225 237 255
225 237 255
225 237 255
225 237 255
225 237 255
225 237 255
225 237 255
225 237 255
225 237 255
225 237 255
225 237 255
225 237 255
225 237 255
225 237 255
225 237 255
225 237 255
225 237 255
225 237 255
225 237 255
225 237 255
225 237 255
225 237 255
225 237 255
225 237 255
225 237 255
225 237 255
225 237 255
225 237 255
225 237 255
225 237 255
225 237 255
225 237 255
225 237 255
225 237 255
225 237 255
225 237 255
225 237 255
225 237 255
225 237 255
225 237 255
225 237 255
225 237 255
225 237 255
225 237 255
225 237 255
225 237 255
225 237 255
225 237 255
225 237 255
225 237 255
225 237 255
225 237 255
225 237 255
225 237 255
225 237 255
225 237 255
225 237 255
225 237 255
225 237 255
225 237 255
225 237 255
225 237 255
225 237 255
225 237 255
225 237 255
225 237 255
225 237 255
225 237 255
225 237 255
225 237 255
225 237 255
225 237 255
225 237 255
225 237 255
225 237 255
225 237 255
225 237 255
225 237 255
225 237 255
225 237 255
225 237 255
225 237 255
225 237 255
225 237 255
225 237 255
225 237 255
225 237 255
225 237 255
225 237 255
225 237 255
225 237 255
225 237 255
225 237 255
225 237 255
225 237 255
225 237 255
225 237 255
225 237 255
225 237 255
225 237 255
225 237 255
225 238 255
225 237 255
225 238 255
225 238 255
225 238 255
225 238 255
225 238 255
225 238 255
225 238 255
225 238 255
225 238 255
225 238 255
225 238 255
225 238 255
225 238 255
202 214 230
0 0 8
0 0 15
0 0 16
0 0 16
0 0 12
0 0 0
0 0 0
0 0 14
0 0 16
0 0 16
0 0 16
0 0 20
0 0 25
0 0 30
0 0 32
0 0 31
0 0 32
0 0 31
0 0 33
0 1 35
0 4 35
0 0 35
0 6 39
0 15 48
0 15 47
0 11 44
0 9 43
0 13 44
0 12 45
0 15 47
0 15 47
0 15 47
0 15 48
0 15 48
0 15 48
0 15 48
0 15 50
0 15 50
0 15 54
0 15 57
0 15 57
0 17 57
0 21 58
0 21 62
0 21 63
0 24 65
0 26 68
0 26 69
0 26 69
0 25 67
0 21 66
0 21 66
0 21 66
0 21 64
0 21 62
0 21 59
0 21 58
0 21 57
0 21 57
0 16 56
0 15 55
0 15 56
0 15 51
0 15 50
0 15 51
0 15 50
0 15 50
0 15 50
0 15 48
0 15 49
0 15 50
0 15 48
0 15 48
0 15 48
0 15 47
0 15 47
0 15 47
0 15 48
0 15 48
0 15 48
0 15 48
0 15 48
0 15 48
0 15 51
0 15 53
0 15 53
0 15 54
0 15 54
0 15 52
0 15 49
0 15 48
0 15 48
0 15 46
0 15 45
0 15 45
0 15 44
0 15 43
0 14 42
0 10 43
0 15 44
0 15 42
0 15 42
0 12 39
0 12 39
0 0 39
0 0 39
0 0 39
0 0 39
0 0 38
0 0 32
0 0 31
0 0 32
0 0 29
0 0 31
0 0 32
0 0 32
0 0 32
0 0 29
0 0 28
0 0 25
4 8 34
33 45 70
49 51 40
92 73 59
110 100 82
84 73 51
86 65 46
107 90 69
73 62 39
75 63 41
59 46 24
71 60 40
64 55 36
54 50 29
62 57 36
56 51 29
44 38 15
74 70 41
71 69 39
66 64 37
52 51 24
52 50 26
59 57 32
55 53 27
60 57 30
58 55 26
47 45 16
51 52 25
45 50 23
39 43 17
38 43 20
35 45 31
31 53 70
24 53 102
5 34 81
0 25 68
0 21 58
0 18 59
0 15 54
0 15 50
0 15 48
0 15 45
0 12 40
0 8 37
0 3 29
0 0 31
0 13 48
0 23 60
0 14 49
0 10 44
0 12 47
0 20 56
0 12 41
0 0 28
0 9 36
31 37 63
200 211 228
225 238 255
225 238 255
225 238 255
225 238 255
225 238 255
225 238 255
225 238 255
225 238 255
225 238 255
225 238 255
225 238 255
225 238 255
225 238 255
225 238 255
225 237 255
225 237 255
225 237 255
225 237 255
225 237 255
225 237 255
225 237 255
225 237 255
225 237 255
225 237 255
225 237 255
225 237 255
225 237 255
225 237 255
225 237 255
225 237 255
225 237 255
225 237 255
225 237 255
225 237 255
225 237 255
225 237 255
225 237 255
225 237 255
225 237 255
225 237 255
225 237 255
225 237 255
225 237 255
225 237 255
225 237 255
225 237 255
225 237 255
225 237 255
225 237 255
225 237 255
225 237 255
225 237 255
225 237 255
225 237 255
225 237 255
225 237 255
225 237 255
225 237 255
225 237 255
225 237 255
225 237 255
225 237 255
225 237 255
225 237 255
225 237 255
225 237 255
225 237 255
225 237 255
225 237 255
225 237 255
225 237 255
225 237 255
225 237 255
225 237 255
225 237 255
225 237 255
225 237 255
225 237 255
225 237 255
225 237 255
225 237 255
225 237 255
225 237 255
225 237 255
225 237 255
225 237 255
225 237 255
225 237 255
225 237 255
225 237 255
225 237 255
225 237 255
225 237 255
225 237 255
225 237 255
225 237 255
225 237 255
225 237 255
225 237 255
225 237 255
225 237 255
225 237 255
225 237 255
225 237 255
225 237 255
225 237 255
225 237 255
225 237 255
225 237 255
225 237 255
225 237 255
225 237 255
225 237 255
225 237 255
225 237 255
225 237 255
225 237 255
225 237 255
225 237 255
225 237 255
225 237 255
225 237 255
225 237 255
225 237 255
225 237 255
225 237 255
225 237 255
225 237 255
225 237 255
225 237 255
225 237 255
225 237 255
225 237 255
225 237 255
225 237 255
225 237 255
225 237 255
225 237 255
225 237 255
225 237 255
225 237 255
225 237 255
225 237 255
225 237 255
225 237 255
225 237 255
225 237 255
225 237 255
225 237 255
225 237 255
225 237 255
225 237 255
225 237 255
225 237 255
225 237 255
225 238 255
225 238 255
225 238 255
225 238 255
225 238 255
225 238 255
225 238 255
225 238 255
225 238 255
225 238 255
225 238 255
225 238 255
225 238 255
225 238 255
225 238 255
225 238 255
225 238 255
225 238 255
225 238 255
225 238 255
225 238 255
225 238 255
225 238 255
225 238 255
225 238 255
225 238 255
225 238 255
225 238 255
225 238 255
225 238 255
225 238 255
225 238 255
225 238 255
225 238 255
225 238 255
225 238 255
225 238 255
225 238 255
225 238 255
225 238 255
225 238 255
225 238 255
225 238 255
225 238 255
225 238 255
225 238 255
225 238 255
225 238 255
225 238 255
225 238 255
225 238 255
225 238 255
225 238 255
225 238 255
225 238 255
225 238 255
225 238 255
225 238 255
225 238 255
225 238 255
225 238 255
225 238 255
225 238 255
225 238 255
225 238 255
225 238 255
225 238 255
225 238 255
168 178 191
0 0 9
0 0 4
0 0 15
0 0 13
0 0 5
0 0 0
0 0 7
0 0 16
0 0 15
0 0 15
0 0 16
0 0 16
0 0 22
0 0 25
0 0 24
0 0 27
0 0 27
0 0 30
0 0 33
0 10 38
0 0 33
0 0 36
0 8 42
0 10 44
0 10 43
0 6 42
0 12 44
0 13 44
0 15 47
0 15 46
0 15 45
0 15 48
0 15 49
0 15 49
0 15 48
0 15 49
0 15 50
0 15 50
0 15 53
0 15 55
0 20 58
0 21 59
0 21 61
0 21 63
0 22 65
0 25 68
0 26 71
0 29 72
0 28 71
0 24 67
0 23 65
0 22 65
0 22 65
0 21 62
0 21 60
0 21 60
0 21 59
0 19 57
0 16 57
0 15 56
0 15 55
0 15 51
0 15 50
0 15 50
0 15 50
0 15 50
0 15 50
0 15 48
0 15 49
0 15 50
0 15 48
0 15 47
0 15 46
0 15 46
0 15 46
0 15 45
0 15 46
0 15 48
0 15 48
0 15 47
0 15 47
0 15 48
0 15 51
0 15 53
0 15 53
0 15 56
0 15 55
0 15 48
0 15 48
0 15 48
0 15 45
0 15 45
0 15 45
0 15 45
0 15 44
0 15 43
0 13 42
0 11 44
0 15 44
0 15 42
0 15 42
0 11 39
0 10 39
0 0 39
0 0 39
0 0 39
0 0 39
0 0 37
0 0 30
0 0 31
0 0 31
0 0 29
0 0 28
0 0 31
0 0 31
0 0 32
0 0 32
0 0 32
0 0 23
14 23 46
42 54 66
54 54 40
135 123 117
90 79 63
81 64 44
104 86 64
111 99 77
67 56 34
70 61 39
57 49 25
57 47 25
59 47 25
60 54 30
62 60 36
65 63 37
66 62 37
66 63 35
66 63 38
58 57 30
50 50 24
52 50 25
49 47 21
57 55 29
59 59 31
50 46 17
54 52 24
51 55 26
45 49 21
41 42 20
32 41 47
26 51 88
23 55 106
11 40 90
0 26 69
0 21 58
0 16 52
0 11 48
0 7 44
0 7 43
0 9 40
0 6 36
0 0 31
0 0 28
0 0 27
0 0 28
0 10 41
0 9 41
0 8 41
4 18 53
6 24 65
0 11 45
0 0 33
0 10 40
0 12 46
171 181 198
225 238 255
225 238 255
225 238 255
225 238 255
225 238 255
225 238 255
225 238 255
225 238 255
225 238 255
225 238 255
225 238 255
225 238 255
225 238 255
225 238 255
225 238 255
225 238 255
225 238 255
225 238 255
225 238 255
225 238 255
225 238 255
225 238 255
225 238 255
225 238 255
225 238 255
225 238 255
225 238 255
225 238 255
225 238 255
225 238 255
225 238 255
225 238 255
225 238 255
225 238 255
225 238 255
225 238 255
225 238 255
225 238 255
225 238 255
225 238 255
225 238 255
225 238 255
225 238 255
225 238 255
225 238 255
225 238 255
225 238 255
225 238 255
225 238 255
225 238 255
225 238 255
225 238 255
225 238 255
225 238 255
225 238 255
225 238 255
225 238 255
225 238 255
225 238 255
225 238 255
225 238 255
225 238 255
225 238 255
225 238 255
225 238 255
225 238 255
225 238 255
225 238 255
225 238 255
225 237 255
225 237 255
225 237 255
225 237 255
225 237 255
225 237 255
225 237 255
225 237 255
225 237 255
225 237 255
225 237 255
225 237 255
225 237 255
225 237 255
225 237 255
225 237 255
225 237 255
225 237 255
225 237 255
225 237 255
225 237 255
225 237 255
225 237 255
225 237 255
225 237 255
225 237 255
225 237 255
225 237 255
225 237 255
225 237 255
225 237 255
225 237 255
225 237 255
225 237 255
225 237 255
225 237 255
225 237 255
225 237 255
225 237 255
225 237 255
225 237 255
225 237 255
225 237 255
225 237 255
225 237 255
225 237 255
225 237 255
225 238 255
225 238 255
225 238 255
225 238 255
225 238 255
225 238 255
225 238 255
225 238 255
225 238 255
225 238 255
225 238 255
225 238 255
225 238 255
225 238 255
225 238 255
225 238 255
225 238 255
225 238 255
225 238 255
225 238 255
225 238 255
225 238 255
225 238 255
225 238 255
225 238 255
225 238 255
225 238 255
225 238 255
225 238 255
225 238 255
225 238 255
225 238 255
225 238 255
225 238 255
225 238 255
225 238 255
225 238 255
225 238 255
225 238 255
225 238 255
225 238 255
225 238 255
225 238 255
225 238 255
225 238 255
225 238 255
225 238 255
225 238 255
225 238 255
225 238 255
225 238 255
225 238 255
225 238 255
225 238 255
225 238 255
225 238 255
225 238 255
225 238 255
225 238 255
225 238 255
225 238 255
225 238 255
225 238 255
225 238 255
225 238 255
225 238 255
225 238 255
225 238 255
225 238 255
225 238 255
225 238 255
225 238 255
225 238 255
225 238 255
225 238 255
225 238 255
225 238 255
225 238 255
225 238 255
225 238 255
225 238 255
225 238 255
225 238 255
225 238 255
225 238 255
225 238 255
225 238 255
225 238 255
225 238 255
225 238 255
225 238 255
225 238 255
225 238 255
225 238 255
225 238 255
225 238 255
225 238 255
225 238 255
225 238 255
225 238 255
225 238 255
225 238 255
225 238 255
225 238 255
225 238 255
225 238 255
225 238 255
225 238 255
225 238 255
81 85 92
0 0 7
0 0 10
0 0 14
0 0 0
0 0 0
0 0 8
0 0 15
0 0 15
0 0 10
0 0 15
0 0 16
0 0 16
0 0 19
0 0 19
0 0 22
0 0 25
0 0 26
0 0 30
0 0 32
0 0 34
0 7 38
0 0 38
0 0 40
0 2 40
0 10 43
0 16 48
0 7 41
0 10 42
0 16 48
0 15 44
0 15 45
0 15 46
0 15 48
0 15 48
0 15 49
0 15 50
0 15 50
0 15 52
0 15 54
0 19 58
0 21 59
0 21 59
0 21 63
0 25 66
0 25 67
0 26 70
0 29 73
0 30 72
0 27 69
0 26 66
0 24 64
0 21 64
0 21 63
0 21 63
0 21 63
0 21 60
0 19 59
0 16 57
0 16 56
0 15 53
0 15 51
0 15 50
0 15 50
0 15 50
0 15 50
0 15 49
0 15 48
0 15 48
0 15 48
0 15 48
0 15 47
0 15 45
0 14 45
0 15 45
0 15 45
0 15 46
0 15 46
0 15 47
0 15 47
0 15 47
0 15 47
0 15 50
0 15 51
0 15 51
0 17 53
0 15 51
0 15 49
0 15 48
0 15 47
0 15 47
0 14 46
0 15 45
0 15 44
0 8 42
0 5 42
0 12 42
0 14 43
0 15 42
0 10 42
0 10 42
0 7 41
0 6 40
0 0 39
0 0 39
0 0 36
0 0 35
0 0 34
0 0 33
0 0 32
0 0 30
0 0 27
0 0 27
0 0 27
0 0 30
0 2 33
0 10 36
0 0 34
0 1 21
25 35 65
44 53 56
95 94 86
177 175 172
92 80 63
66 46 24
94 77 53
86 74 54
92 78 59
69 59 38
59 51 28
65 54 32
66 55 33
72 66 41
62 60 33
64 61 36
65 60 34
65 62 35
59 57 30
54 54 28
50 52 25
49 52 28
43 46 23
51 55 36
54 55 34
48 48 16
53 54 23
51 54 23
47 50 12
36 45 43
28 53 94
19 57 119
8 43 95
0 28 73
0 19 60
0 15 52
0 10 44
0 0 41
0 0 39
0 0 35
0 0 31
0 0 28
0 0 24
0 0 27
0 0 27
0 0 26
0 0 31
0 0 34
0 13 44
0 13 46
5 14 44
0 10 38
0 13 46
0 15 48
110 117 134
224 236 254
225 238 255
225 238 255
225 238 255
225 238 255
225 238 255
225 238 255
225 238 255
225 238 255
225 238 255
225 238 255
225 238 255
225 238 255
225 238 255
225 238 255
225 238 255
225 238 255
225 238 255
225 238 255
225 238 255
225 238 255
225 238 255
225 238 255
225 238 255
225 238 255
225 238 255
225 238 255
225 238 255
225 238 255
225 238 255
225 238 255
225 238 255
225 238 255
225 238 255
225 238 255
225 238 255
225 238 255
225 238 255
225 238 255
225 238 255
225 238 255
225 238 255
225 238 255
225 238 255
225 238 255
225 238 255
225 238 255
225 238 255
225 238 255
225 238 255
225 238 255
225 238 255
225 238 255
225 238 255
225 238 255
225 238 255
225 238 255
225 238 255
225 238 255
225 238 255
225 238 255
225 238 255
225 238 255
225 238 255
225 238 255
225 238 255
225 238 255
225 238 255
225 238 255
225 238 255
225 238 255
225 238 255
225 238 255
225 238 255
225 238 255
225 238 255
225 238 255
225 238 255
225 238 255
225 238 255
225 238 255
225 238 255
225 238 255
225 238 255
225 238 255
225 238 255
225 238 255
225 238 255
225 238 255
225 238 255
225 238 255
225 238 255
225 238 255
225 238 255
225 238 255
225 238 255
225 238 255
225 238 255
225 238 255
225 238 255
225 238 255
225 238 255
225 238 255
225 238 255
225 238 255
225 238 255
225 238 255
225 237 255
225 238 255
225 237 255
225 237 255
225 237 255
225 237 255
225 238 255
225 238 255
225 238 255
225 238 255
225 238 255
225 238 255
225 238 255
225 238 255
225 238 255
225 238 255
225 238 255
225 238 255
225 238 255
225 238 255
225 238 255
225 238 255
225 238 255
225 238 255
225 238 255
225 238 255
225 238 255
225 238 255
225 238 255
225 238 255
225 238 255
225 238 255
225 238 255
225 238 255
225 238 255
225 238 255
225 238 255
225 238 255
225 238 255
225 238 255
225 238 255
225 238 255
225 238 255
225 238 255
225 238 255
225 238 255
225 238 255
225 238 255
225 238 255
225 238 255
225 238 255
225 238 255
225 238 255
225 238 255
225 238 255
225 238 255
225 238 255
225 238 255
225 238 255
225 238 255
225 238 255
225 238 255
225 238 255
225 238 255
225 238 255
225 238 255
225 238 255
225 238 255
225 238 255
225 238 255
225 238 255
225 238 255
225 238 255
225 238 255
225 238 255
225 238 255
225 238 255
225 238 255
225 238 255
225 238 255
225 238 255
225 238 255
225 238 255
225 238 255
225 238 255
225 238 255
225 238 255
225 238 255
225 238 255
225 238 255
225 238 255
225 238 255
225 238 255
225 238 255
225 238 255
225 238 255
225 238 255
225 238 255
225 238 255
225 238 255
225 238 255
225 238 255
225 238 255
225 238 255
225 238 255
225 238 255
225 238 255
225 238 255
225 238 255
225 238 255
225 238 255
225 238 255
225 238 255
225 238 255
225 238 255
225 238 255
225 238 255
225 238 255
225 238 255
212 224 241
59 62 68
0 0 0
0 0 13
0 0 10
0 0 0
0 0 0
0 0 4
0 0 14
0 0 5
0 0 2
0 0 3
0 0 14
0 0 16
0 0 17
0 0 21
0 0 22
0 0 22
0 0 25
0 0 29
0 0 33
0 0 35
0 2 37
0 8 40
0 0 37
0 2 38
0 9 39
0 5 37
0 0 36
0 13 43
0 16 46
0 15 45
0 15 44
0 15 47
0 15 48
0 15 50
0 15 50
0 15 50
0 15 51
0 15 53
0 17 57
0 21 59
0 21 59
0 21 60
0 23 63
0 21 64
0 22 65
0 25 68
0 26 69
0 26 67
0 25 65
0 23 62
0 23 64
0 21 64
0 21 62
0 21 63
0 21 61
0 20 59
0 15 57
0 15 55
0 15 53
0 15 52
0 15 50
0 15 50
0 15 50
0 15 50
0 15 49
0 15 48
0 15 48
0 15 48
0 15 48
0 15 47
0 15 46
0 15 48
0 15 46
0 15 46
0 15 47
0 15 45
0 15 47
0 15 46
0 15 48
0 15 48
0 15 49
0 15 51
0 15 50
0 15 51
0 15 52
0 15 50
0 15 49
0 14 47
0 15 46
0 13 45
0 14 45
0 15 44
0 13 43
0 12 42
0 15 43
0 15 45
0 15 44
0 15 43
0 15 43
0 15 43
0 15 42
0 9 40
0 0 37
0 0 35
0 0 35
0 0 35
0 0 33
0 0 31
0 0 29
0 0 29
0 0 29
0 0 27
0 0 31
0 7 37
0 4 36
0 4 31
2 8 34
28 41 81
30 38 39
102 99 90
140 137 134
81 70 54
74 58 35
103 89 67
103 86 67
90 70 53
71 58 37
59 48 25
59 48 25
61 52 29
72 68 42
58 56 30
65 61 35
65 61 34
63 60 33
53 51 25
57 57 30
48 53 26
46 51 26
42 48 25
51 56 35
48 51 27
48 51 23
49 52 23
48 52 21
39 49 27
25 50 89
20 58 117
15 56 109
7 37 83
0 21 65
0 15 58
0 13 47
0 11 39
0 0 38
0 0 33
0 0 30
0 0 25
0 0 23
0 0 21
0 0 23
0 0 23
0 0 23
0 0 29
0 0 33
0 11 42
0 10 38
0 2 35
0 12 45
0 14 48
74 81 100
216 228 246
225 238 255
225 238 255
225 238 255
225 238 255
225 238 255
225 238 255
225 238 255
225 238 255
225 238 255
225 238 255
225 238 255
225 238 255
225 238 255
225 238 255
225 238 255
225 238 255
225 238 255
225 238 255
225 238 255
225 238 255
225 238 255
225 238 255
225 238 255
225 238 255
225 238 255
225 238 255
225 238 255
225 238 255
225 238 255
225 238 255
225 238 255
225 238 255
225 238 255
225 238 255
225 238 255
225 238 255
225 238 255
225 238 255
225 238 255
225 238 255
225 238 255
225 238 255
225 238 255
225 238 255
225 238 255
225 238 255
225 238 255
225 238 255
225 238 255
225 238 255
225 238 255
225 238 255
225 238 255
225 238 255
225 238 255
225 238 255
225 238 255
225 238 255
225 238 255
225 238 255
225 238 255
225 238 255
225 238 255
225 238 255
225 238 255
225 238 255
225 238 255
225 238 255
225 238 255
225 238 255
225 238 255
225 238 255
225 238 255
225 238 255
225 238 255
225 238 255
225 238 255
225 238 255
225 238 255
225 238 255
225 238 255
225 238 255
225 238 255
225 238 255
225 238 255
225 238 255
225 238 255
225 238 255
225 238 255
225 238 255
225 238 255
225 238 255
225 238 255
225 238 255
225 238 255
225 238 255
225 238 255
225 238 255
225 238 255
225 238 255
225 238 255
225 238 255
225 238 255
225 238 255
225 238 255
225 238 255
225 238 255
225 238 255
225 238 255
225 238 255
225 238 255
225 238 255
225 238 255
225 238 255
225 238 255
225 238 255
225 238 255
225 238 255
225 238 255
225 238 255
225 238 255
225 238 255
225 238 255
225 238 255
225 238 255
225 238 255
225 238 255
225 238 255
225 238 255
225 238 255
225 238 255
225 238 255
225 238 255
225 238 255
225 238 255
225 238 255
225 238 255
225 238 255
225 238 255
225 238 255
225 238 255
225 238 255
225 238 255
225 238 255
225 238 255
225 238 255
225 238 255
225 238 255
225 238 255
225 238 255
225 238 255
225 238 255
225 238 255
225 238 255
225 238 255
225 238 255
225 238 255
225 238 255
225 238 255
225 238 255
225 238 255
225 238 255
225 238 255
225 238 255
225 238 255
225 238 255
225 238 255
225 238 255
225 238 255
225 238 255
225 238 255
225 238 255
225 238 255
225 238 255
225 238 255
225 238 255
225 238 255
225 238 255
225 238 255
225 238 255
225 238 255
225 238 255
225 238 255
225 238 255
225 238 255
225 238 255
225 238 255
225 238 255
225 238 255
225 238 255
225 238 255
225 238 255
225 238 255
225 238 255
225 238 255
225 238 255
225 238 255
225 238 255
225 238 255
225 238 255
225 238 255
225 238 255
225 238 255
225 238 255
225 238 255
225 238 255
225 238 255
225 238 255
225 238 255
225 238 255
225 238 255
225 238 255
225 238 255
225 238 255
225 238 255
225 238 255
225 238 255
225 238 255
225 238 255
225 238 255
225 238 255
225 238 255
225 238 255
225 238 255
225 238 255
225 238 255
225 238 255
205 216 233
31 33 37
0 0 10
0 0 15
0 0 6
0 0 0
0 0 0
0 0 8
0 0 10
0 0 0
0 0 0
0 0 7
0 0 16
0 0 16
0 0 16
0 0 20
0 0 22
0 0 27
0 0 29
0 0 32
0 0 35
0 10 41
0 13 46
0 6 39
0 1 37
0 3 36
0 0 33
0 0 33
0 2 36
0 10 39
0 11 39
0 8 39
0 8 42
0 14 47
0 15 49
0 15 48
0 15 49
0 15 50
0 15 53
0 15 54
0 17 58
0 20 59
0 21 58
0 21 60
0 21 62
0 21 64
0 26 69
0 27 70
0 25 66
0 21 63
0 21 60
0 19 61
0 21 62
0 21 63
0 21 62
0 21 61
0 17 58
0 15 57
0 15 56
0 15 54
0 15 52
0 15 50
0 15 50
0 15 50
0 15 50
0 15 50
0 15 49
0 15 48
0 15 48
0 15 48
0 15 48
0 15 48
0 15 47
0 15 47
0 15 48
0 14 47
0 15 45
0 15 47
0 15 46
0 15 47
0 15 48
0 15 49
0 15 51
0 15 51
0 15 50
0 15 52
0 15 49
0 17 51
0 15 49
0 15 48
0 15 46
0 15 43
0 15 45
0 15 44
0 15 43
0 15 45
0 15 45
0 15 45
0 15 45
0 14 44
0 12 44
0 12 43
0 10 41
0 9 40
0 0 36
0 0 35
0 0 35
0 0 34
0 0 33
0 0 33
0 0 29
0 0 27
0 0 29
0 4 35
2 6 39
0 8 42
0 0 21
6 23 56
27 46 80
25 35 26
94 92 87
139 138 135
74 68 52
86 74 52
82 68 47
92 73 56
73 56 36
66 56 34
72 61 39
70 58 37
78 70 46
67 64 39
60 58 32
69 63 37
66 63 35
66 64 38
44 42 14
49 50 23
50 56 27
42 48 17
47 54 22
48 55 26
49 54 31
50 53 29
46 49 23
35 46 44
27 52 89
21 56 116
13 48 101
7 35 79
0 23 62
0 14 53
0 6 40
0 3 33
0 0 25
0 0 26
0 0 23
0 0 20
0 0 18
0 0 20
0 0 18
0 0 22
0 0 22
0 0 26
0 0 30
0 5 34
0 9 37
0 4 32
0 10 40
0 12 44
0 19 57
200 211 229
225 238 255
225 238 255
225 238 255
225 238 255
225 238 255
225 238 255
225 238 255
225 238 255
225 238 255
225 238 255
225 238 255
225 238 255
225 238 255
225 238 255
225 238 255
225 238 255
225 238 255
225 238 255
225 238 255
225 238 255
225 238 255
225 238 255
225 238 255
225 238 255
225 238 255
225 238 255
225 238 255
225 238 255
225 238 255
225 238 255
225 238 255
225 238 255
225 238 255
225 238 255
225 238 255
225 238 255
225 238 255
225 238 255
225 238 255
225 238 255
225 238 255
225 238 255
225 238 255
225 238 255
225 238 255
225 238 255
225 238 255
225 238 255
225 238 255
225 238 255
225 238 255
225 238 255
225 238 255
225 238 255
225 238 255
225 238 255
225 238 255
225 238 255
225 238 255
225 238 255
225 238 255
225 238 255
225 238 255
225 238 255
225 238 255
225 238 255
225 238 255
225 238 255
225 238 255
225 238 255
225 238 255
225 238 255
225 238 255
225 238 255
225 238 255
225 238 255
225 238 255
225 238 255
225 238 255
225 238 255
225 238 255
225 238 255
225 238 255
225 238 255
225 238 255
225 238 255
225 238 255
225 238 255
225 238 255
225 238 255
225 238 255
225 238 255
225 238 255
225 238 255
225 238 255
225 238 255
225 238 255
225 238 255
225 238 255
225 238 255
225 238 255
225 238 255
225 238 255
225 238 255
225 238 255
225 238 255
225 238 255
225 238 255
225 238 255
225 238 255
225 238 255
225 238 255
225 238 255
225 238 255
225 238 255
225 238 255
225 238 255
225 238 255
225 238 255
225 238 255
225 238 255
225 238 255
225 238 255
225 238 255
225 238 255
225 238 255
225 238 255
225 238 255
225 238 255
225 238 255
225 238 255
225 238 255
225 238 255
225 238 255
225 238 255
225 238 255
225 238 255
225 238 255
225 238 255
225 238 255
225 238 255
225 238 255
225 238 255
225 238 255
225 238 255
225 238 255
225 238 255
225 238 255
225 238 255
225 238 255
225 238 255
225 238 255
225 238 255
225 238 255
225 238 255
225 238 255
225 238 255
225 238 255
225 238 255
225 238 255
225 238 255
225 238 255
225 238 255
225 238 255
225 238 255
225 238 255
225 238 255
225 238 255
225 238 255
225 238 255
225 238 255
225 238 255
225 238 255
225 238 255
225 238 255
225 238 255
225 238 255
225 238 255
225 238 255
225 238 255
225 238 255
225 238 255
225 238 255
225 238 255
225 238 255
225 238 255
225 238 255
225 238 255
225 238 255
225 238 255
225 238 255
225 238 255
225 238 255
225 238 255
225 238 255
225 238 255
225 238 255
225 238 255
225 238 255
225 238 255
225 238 255
225 238 255
225 238 255
225 238 255
225 238 255
225 238 255
225 238 255
225 238 255
225 238 255
225 238 255
225 238 255
225 238 255
225 238 255
225 238 255
225 238 255
225 238 255
225 238 255
225 238 255
225 238 255
225 238 255
225 238 255
225 238 255
225 238 255
225 238 255
225 238 255
225 238 255
225 238 255
225 238 255
225 238 255
174 184 198
0 0 14
0 0 14
0 0 14
0 0 2
0 0 0
0 0 6
0 0 7
0 0 2
0 0 0
0 0 0
0 0 12
0 0 16
0 0 18
0 0 19
0 0 21
0 0 23
0 0 26
0 3 33
0 12 42
8 24 55
0 15 49
0 13 48
0 13 46
0 4 37
0 1 35
0 3 36
0 0 35
0 0 37
0 0 37
0 0 36
0 5 38
0 7 40
0 15 48
0 15 49
0 14 48
0 15 48
0 15 51
0 15 53
0 15 56
0 15 57
0 19 57
0 21 56
0 21 58
0 22 62
0 26 67
0 27 71
0 24 66
0 21 64
0 21 60
0 23 63
0 22 63
0 20 60
0 21 60
0 21 61
0 21 60
0 17 58
0 15 57
0 18 55
0 15 53
0 15 51
0 15 50
0 15 50
0 15 50
0 15 50
0 15 50
0 15 48
0 15 48
0 15 48
0 15 48
0 15 48
0 15 48
0 15 48
0 15 48
0 15 47
0 15 46
0 15 48
0 15 49
0 15 49
0 15 48
0 15 49
0 15 48
0 15 49
0 15 49
0 15 49
0 15 50
0 16 50
0 15 47
0 15 47
0 15 47
0 15 45
0 15 45
0 13 43
0 14 42
0 15 44
0 15 45
0 15 45
0 14 45
0 13 44
0 14 42
0 13 45
0 9 43
0 10 41
0 0 38
0 0 35
0 3 35
0 3 35
0 3 35
0 5 34
0 1 30
0 0 27
0 0 29
0 0 35
8 17 51
0 6 43
0 3 28
15 37 68
20 43 58
27 29 19
115 114 117
127 127 124
66 61 43
76 65 43
68 53 34
69 56 36
62 54 30
66 58 36
75 64 43
75 65 42
71 66 42
58 57 30
61 58 32
63 59 34
60 57 31
63 61 35
55 54 29
35 38 9
43 47 19
47 51 19
49 55 21
44 54 23
41 53 26
46 51 27
37 48 50
26 54 99
16 58 112
9 46 90
2 27 75
0 17 58
0 14 46
0 1 33
0 0 27
0 0 20
0 0 17
0 0 17
0 0 17
0 0 18
0 0 16
0 0 16
0 0 16
0 0 19
0 0 23
0 0 26
0 0 28
0 4 32
0 2 29
0 5 35
0 14 42
0 17 52
168 178 196
225 238 255
225 238 255
225 238 255
225 238 255
225 238 255
225 238 255
225 238 255
225 238 255
225 238 255
225 238 255
225 238 255
225 238 255
225 238 255
225 238 255
225 238 255
225 238 255
225 238 255
225 238 255
225 238 255
225 238 255
225 238 255
225 238 255
225 238 255
225 238 255
225 238 255
225 238 255
225 238 255
225 238 255
225 238 255
225 238 255
225 238 255
225 238 255
225 238 255
225 238 255
225 238 255
225 238 255
225 238 255
225 238 255
225 238 255
225 238 255
225 238 255
225 238 255
225 238 255
225 238 255
225 238 255
225 238 255
225 238 255
225 238 255
225 238 255
225 238 255
225 238 255
225 238 255
225 238 255
225 238 255
225 238 255
225 238 255
225 238 255
225 238 255
225 238 255
225 238 255
225 238 255
225 238 255
225 238 255
225 238 255
225 238 255
225 238 255
225 238 255
225 238 255
225 238 255
225 238 255
225 238 255
225 238 255
225 238 255
225 238 255
225 238 255
225 238 255
225 238 255
225 238 255
225 238 255
225 238 255
225 238 255
225 238 255
225 238 255
225 238 255
225 238 255
225 238 255
225 238 255
225 238 255
225 238 255
225 238 255
225 238 255
225 238 255
225 238 255
225 238 255
225 238 255
225 238 255
225 238 255
225 238 255
225 238 255
225 238 255
225 238 255
225 238 255
225 238 255
225 238 255
225 238 255
225 238 255
225 238 255
225 238 255
225 238 255
225 238 255
225 238 255
225 238 255
225 238 255
225 238 255
225 238 255
225 238 255
225 238 255
225 238 255
225 238 255
225 238 255
225 238 255
225 238 255
225 238 255
225 238 255
225 238 255
225 238 255
225 238 255
225 238 255
225 238 255
225 238 255
225 238 255
225 238 255
225 238 255
225 238 255
225 238 255
225 238 255
225 238 255
225 238 255
225 238 255
225 238 255
225 238 255
225 238 255
225 238 255
225 238 255
225 238 255
225 238 255
225 238 255
225 238 255
225 238 255
225 238 255
225 238 255
225 238 255
225 238 255
225 238 255
225 238 255
225 238 255
225 238 255
225 238 255
225 238 255
225 238 255
225 238 255
225 238 255
225 238 255
225 238 255
225 238 255
225 238 255
225 238 255
225 238 255
225 238 255
225 238 255
225 238 255
225 238 255
225 238 255
225 238 255
225 238 255
225 238 255
225 238 255
225 238 255
225 238 255
225 238 255
225 238 255
225 238 255
225 238 255
225 238 255
225 238 255
225 238 255
225 238 255
225 238 255
225 238 255
225 238 255
225 238 255
225 238 255
225 238 255
225 238 255
225 238 255
225 238 255
225 238 255
225 238 255
225 238 255
225 238 255
225 238 255
225 238 255
225 238 255
225 238 255
225 238 255
225 238 255
225 238 255
225 238 255
225 238 255
225 238 255
225 238 255
225 238 255
225 238 255
225 238 255
225 238 255
225 238 255
225 238 255
225 238 255
225 238 255
225 238 255
225 238 255
225 238 255
225 238 255
225 238 255
225 238 255
225 238 255
225 238 255
225 238 255
225 238 255
225 238 255
225 238 255
131 138 149
0 0 16
0 0 16
0 0 10
0 0 0
0 0 8
0 0 15
0 0 15
0 0 14
0 0 13
0 0 5
0 0 12
0 0 15
0 0 16
0 0 16
0 0 20
0 0 23
0 0 28
4 14 40
3 12 39
0 14 43
0 14 45
0 17 50
0 14 46
0 10 41
2 12 43
5 16 44
0 6 39
0 0 38
0 0 36
0 0 36
0 1 36
0 12 41
0 12 46
0 13 46
0 13 46
0 15 48
0 15 48
0 15 51
0 15 51
0 15 52
0 16 56
0 19 58
0 19 61
2 26 68
4 27 69
0 23 64
0 22 64
0 21 63
0 21 63
0 19 60
0 19 59
0 20 59
0 20 59
0 21 60
0 21 58
0 19 56
0 21 56
0 18 55
0 15 53
0 15 52
0 15 51
0 15 51
0 15 51
0 15 50
0 15 48
0 15 48
0 15 48
0 15 48
0 15 48
0 15 48
0 15 48
0 15 48
0 15 48
0 15 48
0 15 48
0 15 48
0 15 48
0 15 48
0 15 50
0 15 50
0 15 50
0 15 51
0 15 51
0 15 48
0 15 45
0 14 45
0 15 45
0 15 46
0 15 44
0 13 42
0 8 42
0 4 42
0 15 42
0 15 45
0 15 45
0 13 44
0 11 43
0 14 44
0 15 47
5 19 51
0 11 44
0 15 46
11 23 53
11 25 54
2 15 44
2 16 42
5 15 41
0 0 30
0 0 29
0 0 33
0 0 36
0 2 39
0 0 33
14 30 65
28 55 85
19 37 34
41 44 36
134 138 135
125 124 117
68 56 40
71 59 36
63 56 31
63 58 33
70 62 37
71 63 39
69 63 36
62 61 33
58 57 27
54 54 25
58 58 28
60 57 31
61 58 31
63 62 36
57 58 31
48 49 20
73 70 46
63 59 28
45 46 23
32 49 32
28 44 41
32 47 70
28 55 101
19 57 118
7 44 91
0 27 66
0 13 51
0 4 35
0 0 28
0 0 22
0 0 19
0 0 16
0 0 16
0 0 16
0 0 16
0 0 16
0 0 16
0 0 16
0 0 16
0 0 22
0 0 26
0 0 26
0 0 31
0 0 30
0 0 32
0 11 40
0 16 48
127 136 153
225 238 255
225 238 255
225 238 255
225 238 255
225 238 255
225 238 255
225 238 255
225 238 255
225 238 255
225 238 255
225 238 255
225 238 255
225 238 255
225 238 255
225 238 255
225 238 255
225 238 255
225 238 255
225 238 255
225 238 255
225 238 255
225 238 255
225 238 255
225 238 255
225 238 255
225 238 255
225 238 255
225 238 255
225 238 255
225 238 255
225 238 255
225 238 255
225 238 255
225 238 255
225 238 255
225 238 255
225 238 255
225 238 255
225 238 255
225 238 255
225 238 255
225 238 255
225 238 255
225 238 255
225 238 255
225 238 255
225 238 255
225 238 255
225 238 255
225 238 255
225 238 255
225 238 255
225 238 255
225 238 255
225 238 255
225 238 255
225 238 255
225 238 255
225 238 255
225 238 255
225 238 255
225 238 255
225 238 255
225 238 255
225 238 255
225 238 255
225 238 255
225 238 255
225 238 255
225 238 255
225 238 255
225 238 255
225 238 255
225 238 255
225 238 255
225 238 255
225 238 255
225 238 255
225 238 255
225 238 255
225 238 255
225 238 255
225 238 255
225 238 255
225 238 255
225 238 255
225 238 255
225 238 255
225 238 255
225 238 255
225 238 255
225 238 255
225 238 255
225 238 255
225 238 255
225 238 255
225 238 255
225 238 255
225 238 255
225 238 255
225 238 255
225 238 255
225 238 255
225 238 255
225 238 255
225 238 255
225 238 255
225 238 255
225 238 255
225 238 255
225 238 255
225 238 255
225 238 255
225 238 255
225 238 255
225 238 255
225 238 255
225 238 255
225 238 255
225 238 255
225 238 255
225 238 255
225 238 255
225 238 255
225 238 255
225 238 255
225 238 255
225 238 255
225 238 255
225 238 255
225 238 255
225 238 255
225 238 255
225 238 255
225 238 255
225 238 255
225 238 255
225 238 255
225 238 255
225 238 255
225 238 255
225 238 255
225 238 255
225 238 255
225 238 255
225 238 255
225 238 255
225 238 255
225 238 255
225 238 255
225 238 255
225 238 255
225 238 255
225 238 255
225 238 255
225 238 255
225 238 255
225 238 255
225 238 255
225 238 255
225 238 255
225 238 255
225 238 255
225 238 255
225 238 255
225 238 255
225 238 255
225 238 255
225 238 255
225 238 255
225 238 255
225 238 255
225 238 255
225 238 255
225 238 255
225 238 255
225 238 255
225 238 255
225 238 255
225 238 255
225 238 255
225 238 255
225 238 255
225 238 255
225 238 255
225 238 255
225 238 255
225 238 255
225 238 255
225 238 255
225 238 255
225 238 255
225 238 255
225 238 255
225 238 255
225 238 255
225 238 255
225 238 255
225 238 255
225 238 255
225 238 255
225 238 255
225 238 255
225 238 255
225 238 255
225 238 255
225 238 255
225 238 255
225 238 255
225 238 255
225 238 255
225 238 255
225 238 255
225 238 255
225 238 255
225 238 255
225 238 255
225 238 255
225 238 255
225 238 255
225 238 255
225 238 255
225 238 255
225 238 255
225 238 255
225 238 255
225 238 255
225 238 255
225 238 255
225 238 255
225 238 255
225 238 255
222 234 252
98 103 112
0 0 16
0 0 15
0 0 7
0 0 0
0 0 11
0 0 16
0 0 16
0 0 16
0 0 14
0 0 6
0 0 10
0 0 15
0 0 16
0 0 16
0 0 21
0 0 21
0 0 28
0 0 29
0 1 32
0 6 36
0 0 37
0 5 37
0 2 37
2 16 46
5 18 48
0 2 38
0 3 37
0 0 38
0 0 37
0 0 34
0 7 37
3 17 48
0 9 43
0 14 46
0 18 50
0 10 45
0 14 46
0 15 47
0 15 49
0 18 56
0 19 57
0 18 58
2 21 63
4 22 64
0 22 63
0 22 63
0 21 63
0 21 64
0 21 61
0 21 60
0 21 58
0 21 57
0 21 56
0 21 56
0 21 55
0 17 55
0 20 56
0 18 55
0 15 53
0 15 53
0 15 53
0 15 54
0 15 52
0 15 50
0 15 48
0 15 48
0 15 48
0 15 48
0 15 48
0 15 48
0 15 48
0 15 48
0 15 48
0 15 48
0 15 49
0 15 48
0 15 49
0 15 50
0 15 48
0 15 49
0 15 48
0 15 46
0 15 45
0 15 43
0 15 44
0 15 45
0 15 45
0 15 43
0 15 43
0 15 42
0 15 42
0 15 42
0 15 42
0 15 42
0 14 43
0 15 45
0 15 46
0 16 48
0 15 48
0 11 46
0 15 47
3 12 45
0 4 38
0 2 34
0 2 33
0 0 33
0 0 32
0 0 32
0 0 33
0 0 33
0 0 24
7 18 48
20 46 88
19 42 60
30 35 16
76 78 73
180 185 179
103 97 89
71 57 40
73 61 39
64 61 34
66 61 36
71 61 37
70 62 39
64 60 34
58 57 29
57 57 27
54 53 24
49 47 17
58 55 25
56 54 24
58 58 27
48 51 18
52 55 24
63 62 32
74 79 60
28 42 59
22 57 96
22 56 97
19 58 112
20 57 116
7 38 91
0 25 62
0 14 48
0 2 31
0 0 21
0 0 17
0 0 16
0 0 16
0 0 16
0 0 16
0 0 16
0 0 16
0 0 16
0 0 16
0 0 16
0 0 16
0 0 19
0 0 25
0 4 30
0 5 38
0 3 35
0 9 39
0 13 42
103 110 128
221 233 251
225 238 255
225 238 255
225 238 255
225 238 255
225 238 255
225 238 255
225 238 255
225 238 255
225 238 255
225 238 255
225 238 255
225 238 255
225 238 255
225 238 255
225 238 255
225 238 255
225 238 255
225 238 255
225 238 255
225 238 255
225 238 255
225 238 255
225 238 255
225 238 255
225 238 255
225 238 255
225 238 255
225 238 255
225 238 255
225 238 255
225 238 255
225 238 255
225 238 255
225 238 255
225 238 255
225 238 255
225 238 255
225 238 255
225 238 255
225 238 255
225 238 255
225 238 255
225 238 255
225 238 255
225 238 255
225 238 255
225 238 255
225 238 255
225 238 255
225 238 255
225 238 255
225 238 255
225 238 255
225 238 255
225 238 255
225 238 255
225 238 255
225 238 255
225 238 255
225 238 255
225 238 255
225 238 255
225 238 255
225 238 255
225 238 255
225 238 255
225 238 255
225 238 255
225 238 255
225 238 255
225 238 255
225 238 255
225 238 255
225 238 255
225 238 255
225 238 255
225 238 255
225 238 255
225 238 255
225 238 255
225 238 255
225 238 255
225 238 255
225 238 255
225 238 255
225 238 255
225 238 255
225 238 255
225 238 255
225 238 255
225 238 255
225 238 255
225 238 255
225 238 255
225 238 255
225 238 255
225 238 255
225 238 255
225 238 255
225 238 255
225 238 255
225 238 255
225 238 255
225 238 255
225 238 255
225 238 255
225 238 255
225 238 255
225 238 255
225 238 255
225 238 255
225 238 255
225 238 255
225 238 255
225 238 255
225 238 255
225 238 255
225 238 255
225 238 255
225 238 255
225 238 255
225 238 255
225 238 255
225 238 255
225 238 255
225 238 255
225 238 255
225 238 255
225 238 255
225 238 255
225 238 255
225 238 255
225 238 255
225 238 255
225 238 255
225 238 255
225 238 255
225 238 255
225 238 255
225 238 255
225 238 255
225 238 255
225 238 255
225 238 255
225 238 255
225 238 255
225 238 255
225 238 255
225 238 255
225 238 255
225 238 255
225 238 255
225 238 255
225 238 255
225 238 255
225 238 255
225 238 255
225 238 255
225 238 255
225 238 255
225 238 255
225 238 255
225 238 255
225 238 255
225 238 255
225 238 255
225 238 255
225 238 255
225 238 255
225 238 255
225 238 255
225 238 255
225 238 255
225 238 255
225 238 255
225 238 255
225 238 255
225 238 255
225 238 255
225 238 255
225 238 255
225 238 255
225 238 255
225 238 255
225 238 255
225 238 255
225 238 255
225 238 255
225 238 255
225 238 255
225 238 255
225 238 255
225 238 255
225 238 255
225 238 255
225 238 255
225 238 255
225 238 255
225 238 255
225 238 255
225 238 255
225 238 255
225 238 255
225 238 255
225 238 255
225 238 255
225 238 255
225 238 255
225 238 255
225 238 255
225 238 255
225 238 255
225 238 255
225 238 255
225 238 255
225 238 255
225 238 255
225 238 255
225 238 255
225 238 255
225 238 255
225 238 255
225 238 255
225 238 255
225 238 255
225 238 255
225 238 255
225 238 255
225 238 255
225 238 255
225 238 255
225 238 255
225 238 255
211 223 240
71 75 82
0 0 15
0 0 11
0 0 2
0 0 3
0 0 14
0 0 16
0 0 16
0 0 16
0 0 14
0 0 2
0 0 11
0 0 15
0 0 16
0 0 17
0 0 21
0 0 24
0 0 26
0 0 27
0 0 29
0 0 33
0 0 29
0 0 31
0 0 33
0 1 35
0 2 35
0 14 43
0 0 36
0 0 36
0 0 35
0 0 34
0 4 36
0 3 37
0 12 39
0 9 39
0 11 41
0 12 43
0 15 44
0 15 45
0 16 49
0 15 54
0 16 55
0 21 59
0 20 59
0 21 62
0 22 62
0 26 66
0 22 63
0 21 61
0 21 59
0 20 58
0 19 55
0 19 55
0 20 58
0 21 58
0 16 58
0 19 58
0 18 58
0 15 57
0 16 56
0 15 56
0 15 55
0 15 52
0 15 50
0 15 48
0 15 48
0 15 48
0 15 49
0 15 51
0 16 52
0 15 49
0 15 49
0 15 49
0 15 50
0 19 53
0 17 51
0 15 48
0 15 48
0 15 48
0 15 48
0 15 46
0 15 44
0 15 43
0 9 42
0 11 44
0 15 45
0 15 45
0 15 44
0 15 44
0 15 43
0 15 42
0 15 42
0 15 42
0 15 42
0 9 42
0 11 42
0 9 42
0 15 43
0 14 44
0 9 43
0 13 44
0 6 41
0 0 38
0 0 35
0 0 35
0 0 35
0 0 36
0 0 33
0 0 28
0 0 23
4 19 43
19 44 83
25 50 77
22 35 25
35 36 22
170 172 166
144 146 137
78 66 51
72 57 38
64 56 31
59 57 31
65 58 34
69 60 36
59 53 28
54 53 24
57 56 28
56 55 27
55 54 26
53 50 22
53 50 22
56 55 28
54 55 28
51 57 26
47 51 20
38 47 25
35 56 72
16 55 117
14 59 122
15 57 113
17 57 115
9 34 87
0 21 59
0 14 47
0 0 28
0 0 17
0 0 14
0 0 15
0 0 16
0 0 16
0 0 16
0 0 16
0 0 16
0 0 15
0 0 15
0 0 16
0 0 16
0 0 16
0 0 19
0 0 26
0 9 39
0 9 41
0 7 38
0 12 42
67 73 93
214 226 243
225 238 255
225 238 255
225 238 255
225 238 255
225 238 255
225 238 255
225 238 255
225 238 255
225 238 255
225 238 255
225 238 255
225 238 255
225 238 255
225 238 255
225 238 255
225 238 255
225 238 255
225 238 255
225 238 255
225 238 255
225 238 255
225 238 255
225 238 255
225 238 255
225 238 255
225 238 255
225 238 255
225 238 255
225 238 255
225 238 255
225 238 255
225 238 255
225 238 255
225 238 255
225 238 255
225 238 255
225 238 255
225 238 255
225 238 255
225 238 255
225 238 255
225 238 255
225 238 255
225 238 255
225 238 255
225 238 255
225 238 255
225 238 255
225 238 255
225 238 255
225 238 255
225 238 255
225 238 255
225 238 255
225 238 255
225 238 255
225 238 255
225 238 255
225 238 255
225 238 255
225 238 255
225 238 255
225 238 255
225 238 255
225 238 255
225 238 255
225 238 255
225 238 255
225 238 255
225 238 255
225 238 255
225 238 255
225 238 255
225 238 255
225 238 255
225 238 255
225 238 255
225 238 255
225 238 255
225 238 255
225 238 255
225 238 255
225 238 255
225 238 255
225 238 255
225 238 255
225 238 255
225 238 255
225 238 255
225 238 255
225 238 255
225 238 255
225 238 255
225 238 255
225 238 255
225 238 255
225 238 255
225 238 255
225 238 255
225 238 255
225 238 255
225 238 255
225 238 255
225 238 255
225 238 255
225 238 255
225 238 255
225 238 255
225 238 255
225 238 255
225 238 255
225 238 255
225 238 255
225 238 255
225 238 255
225 238 255
225 238 255
225 238 255
225 238 255
225 238 255
225 238 255
225 238 255
225 238 255
225 238 255
225 238 255
225 238 255
225 238 255
225 238 255
225 238 255
225 238 255
225 238 255
225 238 255
225 238 255
225 238 255
225 238 255
225 238 255
225 238 255
225 238 255
225 238 255
225 238 255
225 238 255
225 238 255
225 238 255
225 238 255
225 238 255
225 238 255
225 238 255
225 238 255
225 238 255
225 238 255
225 238 255
225 238 255
225 238 255
225 238 255
225 238 255
225 238 255
225 238 255
225 238 255
225 238 255
225 238 255
225 238 255
225 238 255
225 238 255
225 238 255
225 238 255
225 238 255
225 238 255
225 238 255
225 238 255
225 238 255
225 238 255
225 238 255
225 238 255
225 238 255
225 238 255
225 238 255
225 238 255
225 238 255
225 238 255
225 238 255
225 238 255
225 238 255
225 238 255
225 238 255
225 238 255
225 238 255
225 238 255
225 238 255
225 238 255
225 238 255
225 238 255
225 238 255
225 238 255
225 238 255
225 238 255
225 238 255
225 238 255
225 238 255
225 238 255
225 238 255
225 238 255
225 238 255
225 238 255
225 238 255
225 238 255
225 238 255
225 238 255
225 238 255
225 238 255
225 238 255
225 238 255
225 238 255
225 238 255
225 238 255
225 238 255
225 238 255
225 238 255
225 238 255
225 238 255
225 238 255
225 238 255
225 238 255
225 238 255
225 238 255
225 238 255
225 238 255
225 238 255
225 238 255
225 238 255
225 238 255
225 238 255
225 238 255
225 238 255
225 238 255
225 238 255
205 217 233
45 47 53
0 0 11
0 0 0
0 0 0
0 0 5
0 0 15
0 0 13
0 0 12
0 0 16
0 0 11
0 0 0
0 0 3
0 0 14
0 0 16
0 0 16
0 0 22
0 0 21
0 0 23
0 0 26
0 0 28
0 0 29
0 0 26
0 0 29
0 0 28
0 2 29
0 10 39
0 2 36
0 0 35
0 0 35
0 0 34
0 0 35
0 0 33
0 0 35
0 0 35
0 6 36
0 6 40
0 3 40
0 10 41
0 15 45
0 15 50
0 15 52
0 20 57
0 21 58
0 21 62
0 22 63
0 25 67
0 24 66
0 22 63
0 20 59
0 17 57
0 15 54
0 15 53
0 15 54
0 16 54
0 19 57
0 20 58
0 17 56
0 20 57
0 18 57
0 16 55
0 15 53
0 15 53
0 15 52
0 15 50
0 15 50
0 15 48
0 15 48
0 15 50
0 20 53
0 19 52
0 15 50
0 15 50
0 15 50
0 17 51
0 18 52
0 17 52
0 15 49
0 15 47
0 15 45
0 15 43
0 13 42
0 14 43
0 11 42
0 11 43
0 15 43
0 15 45
0 15 45
0 15 46
0 14 44
0 13 42
0 10 42
0 12 42
0 13 42
0 14 44
0 15 45
0 15 44
0 13 41
0 11 41
0 6 40
0 0 39
0 0 39
0 0 38
0 0 36
0 0 35
0 0 35
0 0 35
0 0 28
0 0 23
0 7 35
14 43 82
26 58 93
16 30 31
27 37 15
123 122 120
191 191 186
90 81 66
87 71 55
71 58 37
62 57 32
62 58 33
69 61 36
61 52 29
56 50 23
57 56 27
62 62 32
58 57 28
55 54 25
56 52 30
55 52 29
51 49 26
50 50 26
53 49 25
49 45 20
31 42 47
24 55 101
17 58 117
19 56 116
17 51 109
6 33 79
0 19 57
0 9 40
0 0 28
0 0 16
0 0 6
0 0 5
0 0 15
0 0 16
0 0 16
0 0 16
0 0 12
0 0 2
0 0 5
0 0 15
0 0 16
0 0 16
0 0 16
0 0 21
0 3 33
0 4 34
0 0 35
0 10 41
45 50 73
205 217 234
225 238 255
225 238 255
225 238 255
225 238 255
225 238 255
225 238 255
225 238 255
225 238 255
225 238 255
225 238 255
225 238 255
225 238 255
225 238 255
225 238 255
225 238 255
225 238 255
225 238 255
225 238 255
225 238 255
225 238 255
225 238 255
225 238 255
225 238 255
225 238 255
225 238 255
225 238 255
225 238 255
225 238 255
225 238 255
225 238 255
225 238 255
225 238 255
225 238 255
225 238 255
225 238 255
225 238 255
225 238 255
225 238 255
225 238 255
225 238 255
225 238 255
225 238 255
225 238 255
225 238 255
225 238 255
225 238 255
225 238 255
225 238 255
225 238 255
225 238 255
225 238 255
225 238 255
225 238 255
225 238 255
225 238 255
225 238 255
225 238 255
225 238 255
225 238 255
225 238 255
225 238 255
225 238 255
225 238 255
225 238 255
225 238 255
225 238 255
225 238 255
225 238 255
225 238 255
225 238 255
225 238 255
225 238 255
225 238 255
225 238 255
225 238 255
225 238 255
225 238 255
225 238 255
225 238 255
225 238 255
225 238 255
225 238 255
225 238 255
225 238 255
225 238 255
225 238 255
225 238 255
225 238 255
225 238 255
225 238 255
225 238 255
225 238 255
225 238 255
225 238 255
225 238 255
225 238 255
225 238 255
225 238 255
225 238 255
225 238 255
225 238 255
225 238 255
225 238 255
225 238 255
225 238 255
225 238 255
225 238 255
225 238 255
225 238 255
225 238 255
225 238 255
225 238 255
225 238 255
225 238 255
225 238 255
225 238 255
225 238 255
225 238 255
225 238 255
225 238 255
225 238 255
225 238 255
225 238 255
225 238 255
225 238 255
225 238 255
225 238 255
225 238 255
225 238 255
225 238 255
225 238 255
225 238 255
225 238 255
225 238 255
225 238 255
225 238 255
225 238 255
225 238 255
225 238 255
225 238 255
225 238 255
225 238 255
225 238 255
225 238 255
225 238 255
225 238 255
225 238 255
225 238 255
225 238 255
225 238 255
225 238 255
225 238 255
225 238 255
225 238 255
225 238 255
225 238 255
225 238 255
225 238 255
225 238 255
225 238 255
225 238 255
225 238 255
225 238 255
225 238 255
225 238 255
225 238 255
225 238 255
225 238 255
225 238 255
225 238 255
225 238 255
225 238 255
225 238 255
225 238 255
225 238 255
225 238 255
225 238 255
225 238 255
225 238 255
225 238 255
225 238 255
225 238 255
225 238 255
225 238 255
225 238 255
225 238 255
225 238 255
225 238 255
225 238 255
225 238 255
225 238 255
225 238 255
225 238 255
225 238 255
225 238 255
225 238 255
225 238 255
225 238 255
225 238 255
225 238 255
225 238 255
225 238 255
225 238 255
225 238 255
225 238 255
225 238 255
225 238 255
225 238 255
225 238 255
225 238 255
225 238 255
225 238 255
225 238 255
225 238 255
225 238 255
225 238 255
225 238 255
225 238 255
225 238 255
225 238 255
225 238 255
225 238 255
225 238 255
225 238 255
225 238 255
225 238 255
225 238 255
225 238 255
225 238 255
225 238 255
225 238 255
225 238 255
225 238 255
225 238 255
225 238 255
225 238 255
225 238 255
205 217 233
22 23 28
0 0 8
0 0 0
0 0 0
0 0 8
0 0 15
0 0 9
0 0 13
0 0 15
0 0 7
0 0 6
0 0 15
0 0 16
0 0 16
0 0 16
0 0 16
0 0 16
0 0 20
0 0 24
0 0 26
0 0 24
0 0 22
0 0 22
0 0 23
0 0 25
0 0 29
0 0 33
0 0 35
0 0 34
0 0 34
0 0 32
0 0 32
0 0 34
0 4 36
0 7 39
0 5 39
0 7 40
0 15 44
0 15 48
0 15 50
0 21 56
0 21 58
0 20 60
0 22 63
0 24 65
0 26 67
0 22 64
0 21 61
0 17 57
0 15 54
0 15 53
0 15 49
0 15 47
0 15 47
0 18 52
0 15 48
0 10 45
0 12 45
0 14 48
0 17 51
0 18 53
0 15 52
0 15 53
0 19 53
0 20 54
0 17 53
0 16 50
0 16 51
0 19 53
0 16 52
0 15 51
0 15 51
0 17 52
0 15 52
0 15 52
0 15 47
0 15 45
0 15 43
0 15 41
0 15 41
0 15 44
0 13 42
0 9 42
0 10 42
0 15 44
0 15 46
0 11 44
0 1 41
0 1 42
0 8 43
0 15 44
0 15 44
0 15 44
0 9 43
0 12 42
0 10 38
0 0 38
0 0 37
0 0 36
0 0 38
0 0 39
0 0 37
0 0 35
0 0 35
0 0 35
0 0 28
0 3 29
16 41 88
22 61 111
10 37 57
25 34 17
58 65 52
175 175 177
147 144 134
81 68 50
82 67 46
79 71 47
72 68 42
63 59 34
60 52 28
52 47 22
49 45 17
56 54 26
62 60 33
58 56 31
56 53 28
56 52 27
53 53 26
46 49 22
40 45 19
45 45 25
36 44 26
22 49 75
16 57 119
18 57 120
12 49 105
1 34 79
0 14 51
0 6 37
0 0 26
0 0 15
0 0 6
0 0 3
0 0 12
0 0 16
0 0 16
0 0 16
0 0 14
0 0 3
0 0 3
0 0 14
0 0 16
0 0 15
0 0 14
0 0 16
0 0 27
0 0 29
0 4 33
0 12 41
31 38 65
203 214 232
225 238 255
225 238 255
225 238 255
225 238 255
225 238 255
225 238 255
225 238 255
225 238 255
225 238 255
225 238 255
225 238 255
225 238 255
225 238 255
225 238 255
225 238 255
225 238 255
225 238 255
225 238 255
225 238 255
225 238 255
225 238 255
225 238 255
225 238 255
225 238 255
225 238 255
225 238 255
225 238 255
225 238 255
225 238 255
225 238 255
225 238 255
225 238 255
225 238 255
225 238 255
225 238 255
225 238 255
225 238 255
225 238 255
225 238 255
225 238 255
225 238 255
225 238 255
225 238 255
225 238 255
225 238 255
225 238 255
225 238 255
225 238 255
225 238 255
225 238 255
225 238 255
225 238 255
225 238 255
225 238 255
225 238 255
225 238 255
225 238 255
225 238 255
225 238 255
225 238 255
225 238 255
225 238 255
225 238 255
225 238 255
225 238 255
225 238 255
225 238 255
225 238 255
225 238 255
225 238 255
225 238 255
225 238 255
225 238 255
225 238 255
225 238 255
225 238 255
225 238 255
225 238 255
225 238 255
225 238 255
225 238 255
225 238 255
225 238 255
225 238 255
225 238 255
225 238 255
225 238 255
225 238 255
225 238 255
225 238 255
225 238 255
225 238 255
225 238 255
225 238 255
225 238 255
225 238 255
225 238 255
225 238 255
225 238 255
225 238 255
225 238 255
225 238 255
225 238 255
225 238 255
225 238 255
225 238 255
225 238 255
225 238 255
225 238 255
225 238 255
225 238 255
225 238 255
225 238 255
225 238 255
225 238 255
225 238 255
225 238 255
225 238 255
225 238 255
225 238 255
225 238 255
225 238 255
225 238 255
225 238 255
225 238 255
225 238 255
225 238 255
225 238 255
225 238 255
225 238 255
225 238 255
225 238 255
225 238 255
225 238 255
225 238 255
225 238 255
225 238 255
225 238 255
225 238 255
225 238 255
225 238 255
225 238 255
225 238 255
225 238 255
225 238 255
225 238 255
225 238 255
225 238 255
225 238 255
225 238 255
225 238 255
225 238 255
225 238 255
225 238 255
225 238 255
225 238 255
225 238 255
225 238 255
225 238 255
225 238 255
225 238 255
225 238 255
225 238 255
225 238 255
225 238 255
225 238 255
225 238 255
225 238 255
225 238 255
225 238 255
225 238 255
225 238 255
225 238 255
225 238 255
225 238 255
225 238 255
225 238 255
225 238 255
225 238 255
225 238 255
225 238 255
225 238 255
225 238 255
225 238 255
225 238 255
225 238 255
225 238 255
225 238 255
225 238 255
225 238 255
225 238 255
225 238 255
225 238 255
225 238 255
225 238 255
225 238 255
225 238 255
225 238 255
225 238 255
225 238 255
225 238 255
225 238 255
225 238 255
225 238 255
225 238 255
225 238 255
225 238 255
225 238 255
225 238 255
225 238 255
225 238 255
225 238 255
225 238 255
225 238 255
225 238 255
225 238 255
225 238 255
225 238 255
225 238 255
225 238 255
225 238 255
225 238 255
225 238 255
225 238 255
225 238 255
225 238 255
225 238 255
225 238 255
225 238 255
225 238 255
225 238 255
225 238 255
225 238 255
225 238 255
225 238 255
225 238 255
225 238 255
225 238 255
225 238 255
187 198 212
31 33 37
0 0 5
0 0 3
0 0 0
0 0 12
0 0 13
0 0 3
0 0 15
0 0 14
0 0 4
0 0 4
0 0 10
0 0 16
0 0 16
0 0 16
0 0 15
0 0 16
0 0 16
0 0 19
0 0 22
0 0 22
0 0 22
0 0 22
0 0 21
0 0 25
0 0 30
0 0 32
0 0 33
0 0 33
0 0 32
0 0 30
0 0 32
0 0 35
0 0 36
0 0 37
0 2 39
0 14 43
0 15 48
0 15 51
0 16 55
0 20 59
0 21 61
0 22 64
0 26 67
0 27 70
0 25 67
0 22 61
0 21 57
0 17 54
0 15 50
0 15 50
0 15 47
0 15 47
0 9 43
0 0 39
0 6 41
0 4 42
0 7 41
0 9 42
0 16 48
0 15 50
0 15 52
0 15 50
0 15 50
0 15 51
0 21 57
0 20 54
0 18 54
0 23 57
0 24 61
0 21 59
0 21 58
0 19 55
0 15 54
0 15 50
0 15 47
0 15 45
0 15 43
0 14 41
0 12 44
0 10 43
0 1 42
0 5 41
0 9 41
0 8 41
0 10 41
0 14 42
0 12 41
0 8 41
0 12 42
0 13 42
0 15 43
0 13 42
0 15 42
0 6 38
0 0 37
0 0 38
0 0 37
0 0 36
0 0 36
0 0 37
0 0 39
0 0 40
0 0 39
0 0 25
3 18 54
23 54 95
22 47 72
18 29 20
24 28 9
123 123 118
134 132 124
100 93 74
72 60 35
74 64 36
74 66 39
68 64 38
61 57 32
57 54 29
51 49 24
54 52 26
53 51 25
51 49 24
50 47 24
52 51 18
52 51 17
52 52 14
54 55 16
48 46 23
36 40 30
29 54 78
19 57 112
16 55 121
10 47 103
7 31 71
0 10 45
0 5 33
0 0 24
0 0 11
0 0 10
0 0 3
0 0 15
0 0 16
0 0 16
0 0 16
0 0 16
0 0 15
0 0 15
0 0 15
0 0 14
0 0 15
0 0 14
0 0 10
0 0 22
0 0 27
0 0 31
0 7 36
22 28 56
180 191 208
225 238 255
225 238 255
225 238 255
225 238 255
225 238 255
225 238 255
225 238 255
225 238 255
225 238 255
225 238 255
225 238 255
225 238 255
225 238 255
225 238 255
225 238 255
225 238 255
225 238 255
225 238 255
225 238 255
225 238 255
225 238 255
225 238 255
225 238 255
225 238 255
225 238 255
225 238 255
225 238 255
225 238 255
225 238 255
225 238 255
225 238 255
225 238 255
225 238 255
225 238 255
225 238 255
225 238 255
225 238 255
225 238 255
225 238 255
225 238 255
225 238 255
225 238 255
225 238 255
225 238 255
225 238 255
225 238 255
225 238 255
225 238 255
225 238 255
225 238 255
225 238 255
225 238 255
225 238 255
225 238 255
225 238 255
225 238 255
225 238 255
225 238 255
225 238 255
225 238 255
225 238 255
225 238 255
225 238 255
225 238 255
225 238 255
225 238 255
225 238 255
225 238 255
225 238 255
225 238 255
225 238 255
225 238 255
225 238 255
225 238 255
225 238 255
225 238 255
225 238 255
225 238 255
225 238 255
225 238 255
225 238 255
225 238 255
225 238 255
225 238 255
225 238 255
225 238 255
225 238 255
225 238 255
225 238 255
225 238 255
225 238 255
225 238 255
225 238 255
225 238 255
225 238 255
225 238 255
225 238 255
225 238 255
225 238 255
225 238 255
225 238 255
225 238 255
225 238 255
225 238 255
225 238 255
225 238 255
225 238 255
225 238 255
225 238 255
225 238 255
225 238 255
225 238 255
225 238 255
225 238 255
225 238 255
225 238 255
225 238 255
225 238 255
225 238 255
225 238 255
225 238 255
225 238 255
225 238 255
225 238 255
225 238 255
225 238 255
225 238 255
225 238 255
225 238 255
225 238 255
225 238 255
225 238 255
225 238 255
225 238 255
225 238 255
225 238 255
225 238 255
225 238 255
225 238 255
225 238 255
225 238 255
225 238 255
225 238 255
225 238 255
225 238 255
225 238 255
225 238 255
225 238 255
225 238 255
225 238 255
225 238 255
225 238 255
225 238 255
225 238 255
225 238 255
225 238 255
225 238 255
225 238 255
225 238 255
225 238 255
225 238 255
225 238 255
225 238 255
225 238 255
225 238 255
225 238 255
225 238 255
225 238 255
225 238 255
225 238 255
225 238 255
225 238 255
225 238 255
225 238 255
225 238 255
225 238 255
225 238 255
225 238 255
225 238 255
225 238 255
225 238 255
225 238 255
225 238 255
225 238 255
225 238 255
225 238 255
225 238 255
225 238 255
225 238 255
225 238 255
225 238 255
225 238 255
225 238 255
225 238 255
225 238 255
225 238 255
225 238 255
225 238 255
225 238 255
225 238 255
225 238 255
225 238 255
225 238 255
225 238 255
225 238 255
225 238 255
225 238 255
225 238 255
225 238 255
225 238 255
225 238 255
225 238 255
225 238 255
225 238 255
225 238 255
225 238 255
225 238 255
225 238 255
225 238 255
225 238 255
225 238 255
225 238 255
225 238 255
225 238 255
225 238 255
225 238 255
225 238 255
225 238 255
225 238 255
225 238 255
225 238 255
225 238 255
225 238 255
225 238 255
225 238 255
225 238 255
225 238 255
225 238 255
225 238 255
225 238 255
225 238 255
176 186 200
0 0 11
0 0 13
0 0 12
0 0 8
0 0 13
0 0 11
0 0 7
0 0 16
0 0 12
0 0 13
0 0 8
0 0 8
0 0 8
0 0 5
0 0 10
0 0 8
0 0 10
0 0 15
0 0 16
0 0 16
0 0 16
0 0 17
0 0 16
0 0 20
0 0 25
0 0 26
0 0 25
0 0 27
0 0 29
0 0 28
0 0 30
0 0 34
0 0 35
0 0 35
0 5 38
0 12 42
0 14 46
0 15 51
0 17 55
0 21 58
0 21 60
0 22 64
0 26 67
0 29 71
0 26 67
0 23 63
0 21 58
0 19 55
0 15 52
0 15 50
0 15 49
0 14 45
0 6 43
0 7 41
0 0 40
0 0 40
0 9 41
0 3 40
0 7 40
0 11 44
0 14 45
0 14 45
0 15 47
0 15 51
0 18 55
0 18 54
0 15 53
0 18 55
0 20 60
0 19 59
0 18 59
0 21 59
0 21 58
0 18 54
0 15 49
0 15 48
0 15 46
0 15 45
0 14 46
0 13 44
0 10 42
0 4 41
0 0 39
0 0 39
0 4 39
0 5 39
0 3 39
0 8 40
0 10 40
0 9 40
0 7 40
0 8 40
0 15 42
0 4 39
0 0 39
0 0 39
0 0 39
0 0 35
0 0 35
0 0 38
0 0 41
0 5 42
0 0 33
0 2 38
19 39 81
18 40 64
10 21 15
23 28 9
75 75 74
137 137 130
73 67 46
79 67 43
81 68 42
72 61 36
66 60 36
69 65 40
57 54 29
49 46 21
45 43 18
47 46 19
53 52 26
56 55 29
53 51 28
52 48 28
53 50 26
55 49 24
49 50 29
39 51 44
29 54 93
22 56 122
15 57 116
10 49 108
11 35 77
0 10 41
0 0 27
0 0 17
0 0 10
0 0 0
0 0 0
0 0 12
0 0 14
0 0 13
0 0 12
0 0 11
0 0 8
0 0 7
0 0 7
0 0 15
0 0 10
0 0 12
0 0 13
0 0 18
0 0 25
0 0 27
0 4 32
22 27 54
169 179 196
225 238 255
225 238 255
225 238 255
225 238 255
225 238 255
225 238 255
225 238 255
225 238 255
225 238 255
225 238 255
225 238 255
225 238 255
225 238 255
225 238 255
225 238 255
225 238 255
225 238 255
225 238 255
225 238 255
225 238 255
225 238 255
225 238 255
225 238 255
225 238 255
225 238 255
225 238 255
225 238 255
225 238 255
225 238 255
225 238 255
225 238 255
225 238 255
225 238 255
225 238 255
225 238 255
225 238 255
225 238 255
225 238 255
225 238 255
225 238 255
225 238 255
225 238 255
225 238 255
225 238 255
225 238 255
225 238 255
225 238 255
225 238 255
225 238 255
225 238 255
225 238 255
225 238 255
225 238 255
225 238 255
225 238 255
225 238 255
225 238 255
225 238 255
225 238 255
225 238 255
225 238 255
225 238 255
225 238 255
225 238 255
225 238 255
225 238 255
225 238 255
225 238 255
225 238 255
225 238 255
225 238 255
225 238 255
225 238 255
225 238 255
225 238 255
225 238 255
225 238 255
225 238 255
225 238 255
225 238 255
225 238 255
225 238 255
225 238 255
225 238 255
225 238 255
225 238 255
225 238 255
225 238 255
225 238 255
225 238 255
225 238 255
225 238 255
225 238 255
225 238 255
225 238 255
225 238 255
225 238 255
225 238 255
225 238 255
225 238 255
225 238 255
225 238 255
225 238 255
225 238 255
225 238 255
225 238 255
225 238 255
225 238 255
225 238 255
225 238 255
225 238 255
225 238 255
225 238 255
225 238 255
225 238 255
225 238 255
225 238 255
225 238 255
225 238 255
225 238 255
225 238 255
225 238 255
225 238 255
225 238 255
225 238 255
225 238 255
225 238 255
225 238 255
225 238 255
225 238 255
225 238 255
225 238 255
225 238 255
225 238 255
225 238 255
225 238 255
225 238 255
225 238 255
225 238 255
225 238 255
225 238 255
225 238 255
225 238 255
225 238 255
225 238 255
225 238 255
225 238 255
225 238 255
225 238 255
225 238 255
225 238 255
225 238 255
225 238 255
225 238 255
225 238 255
225 238 255
225 238 255
225 238 255
225 238 255
225 238 255
225 238 255
225 238 255
225 238 255
225 238 255
225 238 255
225 238 255
225 238 255
225 238 255
225 238 255
225 238 255
225 238 255
225 238 255
225 238 255
225 238 255
225 238 255
225 238 255
225 238 255
225 238 255
225 238 255
225 238 255
225 238 255
225 238 255
225 238 255
225 238 255
225 238 255
225 238 255
225 238 255
225 238 255
225 238 255
225 238 255
225 238 255
225 238 255
225 238 255
225 238 255
225 238 255
225 238 255
225 238 255
225 238 255
225 238 255
225 238 255
225 238 255
225 238 255
225 238 255
225 238 255
225 238 255
225 238 255
225 238 255
225 238 255
225 238 255
225 238 255
225 238 255
225 238 255
225 238 255
225 238 255
225 238 255
225 238 255
225 238 255
225 238 255
225 238 255
225 238 255
225 238 255
225 238 255
225 238 255
225 238 255
225 238 255
225 238 255
225 238 255
225 238 255
225 238 255
225 238 255
225 238 255
225 238 255
225 238 255
225 238 255
225 238 255
225 238 255
225 238 255
225 238 255
225 238 255
225 238 255
225 238 255
225 238 255
225 238 255
173 183 196
0 0 7
0 0 14
0 0 15
0 0 8
0 0 14
0 0 7
0 0 8
0 0 13
0 0 10
0 0 14
0 0 5
0 0 0
0 0 0
0 0 11
0 0 14
0 0 2
0 0 14
0 0 16
0 0 17
0 0 16
0 0 16
0 0 18
0 0 18
0 0 22
0 0 23
0 0 23
0 0 26
0 0 27
0 0 27
0 0 30
0 0 33
0 0 35
0 0 35
0 0 36
0 13 42
0 15 44
0 15 50
0 16 54
0 21 58
0 21 59
0 21 62
0 25 67
0 27 69
0 25 67
0 24 66
0 21 58
0 21 56
0 16 53
0 15 52
0 15 49
0 15 45
0 15 45
0 11 42
0 5 39
0 0 37
0 0 38
0 0 38
0 0 38
0 0 37
0 9 39
0 3 38
0 7 39
0 9 41
0 12 46
0 12 46
0 15 51
0 15 53
0 16 55
0 21 60
0 21 62
0 22 63
0 21 62
0 20 58
0 15 52
0 15 52
0 15 51
0 15 49
0 15 49
0 15 48
0 15 46
0 8 42
0 6 40
0 7 40
0 3 39
0 0 39
0 0 39
0 5 39
0 8 40
0 7 40
0 1 39
0 7 40
0 15 42
0 4 39
0 0 38
0 0 39
0 7 39
0 0 35
0 0 35
0 0 39
0 2 41
0 9 39
0 0 31
6 17 58
32 55 97
14 32 39
23 29 9
25 27 17
70 68 64
106 104 91
79 69 46
75 61 35
84 69 44
73 61 39
61 55 30
57 53 28
53 50 25
51 48 25
43 42 17
41 41 14
49 50 22
51 53 25
45 53 32
42 53 39
42 55 52
39 55 70
31 56 84
20 57 110
17 57 124
18 59 113
11 53 108
10 38 87
3 10 40
0 0 21
0 0 12
0 0 11
0 0 0
0 0 0
0 0 0
0 0 0
0 0 0
0 0 0
0 0 4
0 0 5
0 0 9
0 0 10
0 0 15
0 0 15
0 0 5
0 0 11
0 0 15
0 0 24
0 0 27
0 0 28
0 12 44
166 175 192
225 238 255
225 238 255
225 238 255
225 238 255
225 238 255
225 238 255
225 238 255
225 238 255
225 238 255
225 238 255
225 238 255
225 238 255
225 238 255
225 238 255
225 238 255
225 238 255
225 238 255
225 238 255
225 238 255
225 238 255
225 238 255
225 238 255
225 238 255
225 238 255
225 238 255
225 238 255
225 238 255
225 238 255
225 238 255
225 238 255
225 238 255
225 238 255
225 238 255
225 238 255
225 238 255
225 238 255
225 238 255
225 238 255
225 238 255
225 238 255
225 238 255
225 238 255
225 238 255
225 238 255
225 238 255
225 238 255
225 238 255
225 238 255
225 238 255
225 238 255
225 238 255
225 238 255
225 238 255
225 238 255
225 238 255
225 238 255
225 238 255
225 238 255
225 238 255
225 238 255
225 238 255
225 238 255
225 238 255
225 238 255
225 238 255
225 238 255
225 238 255
225 238 255
225 238 255
225 238 255
225 238 255
225 238 255
225 238 255
225 238 255
225 238 255
225 238 255
225 238 255
225 238 255
225 238 255
225 238 255
225 238 255
225 238 255
225 238 255
225 238 255
225 238 255
225 238 255
225 238 255
225 238 255
225 238 255
225 238 255
225 238 255
225 238 255
225 238 255
225 238 255
225 238 255
225 238 255
225 238 255
225 238 255
225 238 255
225 238 255
225 238 255
225 238 255
225 238 255
225 238 255
225 238 255
225 238 255
225 238 255
225 238 255
225 238 255
225 238 255
225 238 255
225 238 255
225 238 255
225 238 255
225 238 255
225 238 255
225 238 255
225 238 255
225 238 255
225 238 255
225 238 255
225 238 255
225 238 255
225 238 255
225 238 255
225 238 255
225 238 255
225 238 255
225 238 255
225 238 255
225 238 255
225 238 255
225 238 255
225 238 255
225 238 255
225 238 255
225 238 255
225 238 255
225 238 255
225 238 255
225 238 255
225 238 255
225 238 255
225 238 255
225 238 255
225 238 255
225 238 255
225 238 255
225 238 255
225 238 255
225 238 255
225 238 255
225 238 255
225 238 255
225 238 255
225 238 255
225 238 255
225 238 255
225 238 255
225 238 255
225 238 255
225 238 255
225 238 255
225 238 255
225 238 255
225 238 255
225 238 255
225 238 255
225 238 255
225 238 255
225 238 255
225 238 255
225 238 255
225 238 255
225 238 255
225 238 255
225 238 255
225 238 255
225 238 255
225 238 255
225 238 255
225 238 255
225 238 255
225 238 255
225 238 255
225 238 255
225 238 255
225 238 255
225 238 255
225 238 255
225 238 255
225 238 255
225 238 255
225 238 255
225 238 255
225 238 255
225 238 255
225 238 255
225 238 255
225 238 255
225 238 255
225 238 255
225 238 255
225 238 255
225 238 255
225 238 255
225 238 255
225 238 255
225 238 255
225 238 255
225 238 255
225 238 255
225 238 255
225 238 255
225 238 255
225 238 255
225 238 255
225 238 255
225 238 255
225 238 255
225 238 255
225 238 255
225 238 255
225 238 255
225 238 255
225 238 255
225 238 255
225 238 255
225 238 255
225 238 255
225 238 255
225 238 255
225 238 255
225 238 255
225 238 255
225 238 255
225 238 255
225 238 255
225 238 255
225 238 255
225 238 255
225 238 255
226 238 255
225 238 255
225 238 255
172 181 195
2 3 7
0 0 13
0 0 15
0 0 8
0 0 14
0 0 6
0 0 0
0 0 0
0 0 1
0 0 6
0 0 8
0 0 0
0 0 0
0 0 11
0 0 11
0 0 5
0 0 15
0 0 16
0 0 16
0 0 16
0 0 20
0 0 22
0 0 27
0 0 27
0 0 27
0 0 27
0 0 24
0 0 27
0 0 27
0 0 28
0 0 34
0 0 35
0 0 35
0 8 40
0 14 44
0 15 48
0 15 54
0 16 57
0 20 58
0 21 61
0 21 64
0 24 66
0 26 67
0 24 66
0 21 59
0 20 57
0 15 53
0 15 50
0 15 50
0 15 47
0 15 45
0 10 43
0 9 40
0 6 38
0 0 36
0 0 35
0 0 35
0 0 35
0 0 35
0 0 35
0 0 35
0 0 36
0 8 41
0 5 42
0 15 48
0 15 51
0 16 53
0 17 54
0 18 57
0 20 61
0 21 64
0 21 63
0 21 61
0 19 58
0 15 54
0 15 52
0 16 53
0 15 52
0 15 48
0 15 45
0 14 44
0 15 42
0 12 41
0 0 39
0 0 39
0 0 39
0 11 41
0 12 41
0 12 41
0 8 40
0 13 41
0 13 41
0 4 39
0 0 39
0 6 39
0 0 35
0 4 37
0 7 40
0 0 40
0 3 37
0 3 32
8 31 78
25 55 95
12 31 40
25 37 20
47 53 42
80 80 70
105 100 86
86 74 49
88 73 46
83 69 46
71 60 41
61 56 31
54 50 24
54 50 25
51 50 26
45 44 22
42 41 18
52 53 31
48 58 48
28 54 84
22 57 99
19 59 110
21 56 115
16 58 115
14 59 119
16 57 119
13 47 108
5 35 79
0 8 34
0 0 14
0 0 11
0 0 6
0 0 7
0 0 7
0 0 9
0 0 11
0 0 12
0 0 13
0 0 14
0 0 15
0 0 16
0 0 16
0 0 16
0 0 16
0 0 12
0 0 8
0 0 15
0 0 23
0 0 27
0 0 28
0 11 42
154 164 180
226 238 255
226 238 255
226 238 255
225 238 255
225 238 255
225 238 255
225 238 255
225 238 255
225 238 255
225 238 255
225 238 255
225 238 255
225 238 255
225 238 255
225 238 255
225 238 255
225 238 255
225 238 255
225 238 255
225 238 255
225 238 255
225 238 255
225 238 255
225 238 255
225 238 255
225 238 255
225 238 255
225 238 255
225 238 255
225 238 255
225 238 255
225 238 255
225 238 255
225 238 255
225 238 255
225 238 255
225 238 255
225 238 255
225 238 255
225 238 255
225 238 255
225 238 255
225 238 255
225 238 255
225 238 255
225 238 255
225 238 255
225 238 255
225 238 255
225 238 255
225 238 255
225 238 255
225 238 255
225 238 255
225 238 255
225 238 255
225 238 255
225 238 255
225 238 255
225 238 255
225 238 255
225 238 255
225 238 255
225 238 255
225 238 255
225 238 255
225 238 255
225 238 255
225 238 255
225 238 255
225 238 255
225 238 255
225 238 255
225 238 255
225 238 255
225 238 255
225 238 255
225 238 255
225 238 255
225 238 255
225 238 255
225 238 255
225 238 255
225 238 255
225 238 255
225 238 255
225 238 255
225 238 255
225 238 255
225 238 255
225 238 255
225 238 255
225 238 255
225 238 255
225 238 255
225 238 255
225 238 255
225 238 255
225 238 255
225 238 255
225 238 255
225 238 255
225 238 255
225 238 255
225 238 255
225 238 255
225 238 255
225 238 255
225 238 255
225 238 255
225 238 255
225 238 255
225 238 255
225 238 255
225 238 255
225 238 255
225 238 255
225 238 255
225 238 255
225 238 255
225 238 255
225 238 255
225 238 255
225 238 255
225 238 255
225 238 255
225 238 255
225 238 255
225 238 255
225 238 255
225 238 255
225 238 255
225 238 255
225 238 255
225 238 255
225 238 255
225 238 255
225 238 255
225 238 255
225 238 255
225 238 255
225 238 255
225 238 255
225 238 255
225 238 255
225 238 255
225 238 255
225 238 255
225 238 255
225 238 255
225 238 255
225 238 255
225 238 255
225 238 255
225 238 255
225 238 255
225 238 255
225 238 255
225 238 255
225 238 255
225 238 255
225 238 255
225 238 255
225 238 255
225 238 255
225 238 255
225 238 255
225 238 255
225 238 255
225 238 255
225 238 255
225 238 255
225 238 255
225 238 255
225 238 255
225 238 255
225 238 255
225 238 255
225 238 255
225 238 255
225 238 255
225 238 255
225 238 255
225 238 255
225 238 255
225 238 255
225 238 255
225 238 255
225 238 255
225 238 255
225 238 255
225 238 255
226 238 255
226 238 255
226 238 255
226 238 255
226 238 255
226 238 255
226 238 255
226 238 255
226 238 255
226 238 255
226 238 255
226 238 255
226 238 255
226 238 255
226 238 255
226 238 255
226 238 255
226 238 255
226 238 255
226 238 255
226 238 255
226 238 255
226 238 255
226 238 255
226 238 255
226 238 255
226 238 255
226 238 255
226 238 255
226 238 255
226 238 255
226 238 255
226 238 255
226 238 255
226 238 255
226 238 255
226 238 255
226 238 255
226 238 255
226 238 255
226 238 255
226 238 255
226 238 255
226 238 255
226 238 255
226 238 255
226 238 255
226 238 255
226 238 255
226 238 255
226 238 255
226 238 255
226 238 255
226 238 255
226 238 255
178 187 201
0 0 8
0 0 9
0 0 13
0 0 11
0 0 15
0 0 4
0 0 0
0 0 0
0 0 0
0 0 11
0 0 5
0 0 0
0 0 0
0 0 0
0 0 0
0 0 7
0 0 12
0 0 13
0 0 16
0 0 16
0 0 19
0 0 25
0 0 27
0 0 27
0 0 27
0 0 26
0 0 27
0 0 27
0 0 26
0 0 29
0 0 35
0 0 35
0 0 39
0 12 42
0 15 46
0 15 53
0 19 58
0 21 59
0 21 61
0 22 64
0 26 67
0 26 67
0 25 67
0 21 62
0 20 59
0 15 57
0 15 54
0 15 52
0 15 48
0 15 48
0 12 44
0 7 41
0 12 41
0 6 39
0 0 36
0 0 35
0 0 34
0 0 32
0 0 32
0 0 31
0 0 29
0 0 33
0 10 41
0 15 49
0 15 53
0 15 54
0 15 52
0 15 55
0 15 59
0 19 63
0 21 64
0 21 63
0 21 61
0 20 59
0 15 57
0 17 54
0 16 53
0 15 51
0 15 48
0 14 46
0 15 43
0 13 41
0 9 40
0 0 38
0 3 38
0 5 39
0 9 40
0 12 41
0 13 41
0 15 42
0 14 41
0 9 40
0 0 38
0 0 36
0 0 36
0 8 37
0 4 36
0 0 35
0 0 36
5 20 53
13 48 102
28 58 94
17 28 34
20 30 19
39 46 32
60 56 42
72 60 43
74 60 42
74 60 39
75 62 41
79 66 43
67 61 42
58 52 30
58 50 27
49 46 23
45 39 11
49 45 19
48 57 38
30 53 82
21 57 114
16 59 117
19 56 122
18 58 120
15 58 119
18 57 118
15 43 99
10 31 72
2 10 32
0 0 11
0 0 5
0 0 11
0 0 12
0 0 14
0 0 12
0 0 12
0 0 15
0 0 16
0 0 16
0 0 16
0 0 16
0 0 16
0 0 16
0 0 16
0 0 15
0 0 6
0 0 15
0 0 23
0 0 27
0 0 27
0 8 38
172 182 198
226 238 255
226 238 255
226 238 255
226 238 255
226 238 255
226 238 255
226 238 255
226 238 255
226 238 255
226 238 255
226 238 255
226 238 255
226 238 255
226 238 255
226 238 255
226 238 255
226 238 255
226 238 255
226 238 255
226 238 255
226 238 255
226 238 255
226 238 255
226 238 255
226 238 255
226 238 255
226 238 255
226 238 255
226 238 255
226 238 255
226 238 255
226 238 255
226 238 255
226 238 255
226 238 255
226 238 255
226 238 255
226 238 255
226 238 255
226 238 255
226 238 255
226 238 255
226 238 255
226 238 255
226 238 255
226 238 255
226 238 255
226 238 255
226 238 255
226 238 255
226 238 255
226 238 255
226 238 255
226 238 255
226 238 255
226 238 255
225 238 255
225 238 255
225 238 255
225 238 255
225 238 255
225 238 255
225 238 255
225 238 255
225 238 255
225 238 255
225 238 255
225 238 255
225 238 255
225 238 255
225 238 255
225 238 255
225 238 255
225 238 255
225 238 255
225 238 255
225 238 255
225 238 255
225 238 255
225 238 255
225 238 255
225 238 255
225 238 255
225 238 255
225 238 255
225 238 255
225 238 255
225 238 255
225 238 255
225 238 255
225 238 255
225 238 255
225 238 255
225 238 255
225 238 255
225 238 255
225 238 255
225 238 255
225 238 255
225 238 255
225 238 255
225 238 255
225 238 255
225 238 255
225 238 255
225 238 255
225 238 255
225 238 255
225 238 255
225 238 255
225 238 255
225 238 255
225 238 255
225 238 255
225 238 255
225 238 255
225 238 255
225 238 255
225 238 255
225 238 255
225 238 255
225 238 255
225 238 255
225 238 255
225 238 255
225 238 255
225 238 255
225 238 255
225 238 255
225 238 255
225 238 255
225 238 255
225 238 255
225 238 255
225 238 255
225 238 255
225 238 255
225 238 255
225 238 255
225 238 255
225 238 255
225 238 255
225 238 255
225 238 255
225 238 255
225 238 255
225 238 255
225 238 255
225 238 255
225 238 255
225 238 255
225 238 255
225 238 255
225 238 255
225 238 255
225 238 255
226 238 255
226 238 255
226 238 255
226 238 255
226 238 255
226 238 255
226 238 255
226 238 255
226 238 255
226 238 255
226 238 255
226 238 255
226 238 255
226 238 255
226 238 255
226 238 255
226 238 255
226 238 255
226 238 255
226 238 255
226 238 255
226 238 255
226 238 255
226 238 255
226 238 255
226 238 255
226 238 255
226 238 255
226 238 255
226 238 255
226 238 255
226 238 255
226 238 255
226 238 255
226 238 255
226 238 255
226 238 255
226 238 255
226 238 255
226 238 255
226 238 255
226 238 255
226 238 255
226 238 255
226 238 255
226 238 255
226 238 255
226 238 255
226 238 255
226 238 255
226 238 255
226 238 255
226 238 255
226 238 255
226 238 255
226 238 255
226 238 255
226 238 255
226 238 255
226 238 255
226 238 255
226 238 255
226 238 255
226 238 255
226 238 255
226 238 255
226 238 255
226 238 255
226 238 255
226 238 255
226 238 255
226 238 255
226 238 255
226 238 255
226 238 255
226 238 255
226 238 255
226 238 255
226 238 255
226 238 255
226 238 255
226 238 255
226 238 255
226 238 255
226 238 255
226 238 255
226 238 255
226 238 255
226 238 255
226 238 255
226 238 255
226 238 255
226 238 255
179 189 203
0 0 11
0 0 6
0 0 13
0 0 13
0 0 4
0 0 0
0 0 0
0 0 0
0 0 0
0 0 5
0 0 0
0 0 0
0 0 0
0 0 0
0 0 0
0 0 1
0 0 0
0 0 11
0 0 16
0 0 16
0 0 21
0 0 26
0 0 27
0 0 27
0 0 28
0 0 29
0 0 29
0 0 28
0 0 29
0 0 32
0 1 36
0 4 39
0 11 42
0 15 46
0 15 51
0 16 57
0 21 59
0 21 60
0 22 64
0 26 67
0 26 67
0 26 67
0 22 64
0 21 60
0 16 58
0 15 55
0 15 53
0 15 49
0 15 49
0 15 47
0 10 44
0 12 43
0 11 40
0 0 37
0 0 35
0 0 35
0 0 33
0 0 32
0 0 30
0 0 27
0 0 30
0 12 39
0 15 46
0 15 50
0 15 52
0 15 51
0 15 52
0 15 55
0 17 57
0 21 63
0 22 63
0 21 60
0 21 59
0 18 56
0 19 55
0 15 52
0 15 50
0 15 48
0 15 46
0 9 43
0 6 39
0 1 35
0 0 32
0 2 35
0 7 37
0 0 38
0 0 40
0 4 41
0 1 38
0 0 37
0 0 36
0 0 36
0 0 37
0 0 36
0 3 34
0 9 35
0 12 39
0 2 37
11 38 87
19 58 106
12 30 40
25 27 13
24 30 24
58 63 54
51 48 29
65 52 33
63 50 31
68 55 36
67 54 33
72 59 40
66 58 44
64 53 36
51 51 43
48 48 40
45 48 29
42 54 42
32 56 72
18 56 112
16 57 120
19 56 117
19 56 124
17 58 121
16 51 108
12 38 90
8 20 55
0 1 22
0 0 10
0 0 0
0 0 5
0 0 9
0 0 15
0 0 16
0 0 16
0 0 16
0 0 16
0 0 16
0 0 16
0 0 16
0 0 16
0 0 16
0 0 16
0 0 16
0 0 15
0 0 15
0 0 18
0 0 27
0 0 27
0 7 36
175 185 200
226 238 255
226 238 255
226 238 255
226 238 255
226 238 255
226 238 255
226 238 255
226 238 255
226 238 255
226 238 255
226 238 255
226 238 255
226 238 255
226 238 255
226 238 255
226 238 255
226 238 255
226 238 255
226 238 255
226 238 255
226 238 255
226 238 255
226 238 255
226 238 255
226 238 255
226 238 255
226 238 255
226 238 255
226 238 255
226 238 255
226 238 255
226 238 255
226 238 255
226 238 255
226 238 255
226 238 255
226 238 255
226 238 255
226 238 255
226 238 255
226 238 255
226 238 255
226 238 255
226 238 255
226 238 255
226 238 255
226 238 255
226 238 255
226 238 255
226 238 255
226 238 255
226 238 255
226 238 255
226 238 255
226 238 255
226 238 255
226 238 255
226 238 255
226 238 255
226 238 255
226 238 255
226 238 255
226 238 255
226 238 255
226 238 255
226 238 255
226 238 255
226 238 255
226 238 255
226 238 255
226 238 255
226 238 255
226 238 255
226 238 255
226 238 255
226 238 255
226 238 255
226 238 255
226 238 255
226 238 255
226 238 255
226 238 255
226 238 255
226 238 255
226 238 255
226 238 255
226 238 255
226 238 255
226 238 255
226 238 255
226 238 255
225 238 255
226 238 255
225 238 255
225 238 255
225 238 255
225 238 255
225 238 255
225 238 255
225 238 255
225 238 255
225 238 255
225 238 255
225 238 255
225 238 255
225 238 255
225 238 255
225 238 255
225 238 255
225 238 255
225 238 255
225 238 255
225 238 255
225 238 255
225 238 255
225 238 255
225 238 255
225 238 255
225 238 255
225 238 255
225 238 255
225 238 255
225 238 255
225 238 255
225 238 255
225 238 255
225 238 255
226 238 255
226 238 255
226 238 255
226 238 255
226 238 255
226 238 255
226 238 255
226 238 255
226 238 255
226 238 255
226 238 255
226 238 255
226 238 255
226 238 255
226 238 255
226 238 255
226 238 255
226 238 255
226 238 255
226 238 255
226 238 255
226 238 255
226 238 255
226 238 255
226 238 255
226 238 255
226 238 255
226 238 255
226 238 255
226 238 255
226 238 255
226 238 255
226 238 255
226 238 255
226 238 255
226 238 255
226 238 255
226 238 255
226 238 255
226 238 255
226 238 255
226 238 255
226 238 255
226 238 255
226 238 255
226 238 255
226 238 255
226 238 255
226 238 255
226 238 255
226 238 255
226 238 255
226 238 255
226 238 255
226 238 255
226 238 255
226 238 255
226 238 255
226 238 255
226 238 255
226 238 255
226 238 255
226 238 255
226 238 255
226 238 255
226 238 255
226 238 255
226 238 255
226 238 255
226 238 255
226 238 255
226 238 255
226 238 255
226 238 255
226 238 255
226 238 255
226 238 255
226 238 255
226 238 255
226 238 255
226 238 255
226 238 255
226 238 255
226 238 255
226 238 255
226 238 255
226 238 255
226 238 255
226 238 255
226 238 255
226 238 255
226 238 255
226 238 255
226 238 255
226 238 255
226 238 255
226 238 255
226 238 255
226 238 255
226 238 255
226 238 255
226 238 255
226 238 255
226 238 255
226 238 255
226 238 255
226 238 255
226 238 255
226 238 255
226 238 255
226 238 255
226 238 255
226 238 255
226 238 255
226 238 255
226 238 255
226 238 255
226 238 255
226 238 255
226 238 255
226 238 255
226 238 255
226 238 255
226 238 255
172 181 195
31 33 39
0 0 10
0 0 14
0 0 5
0 0 0
0 0 0
0 0 0
0 0 0
0 0 0
0 0 0
0 0 0
0 0 0
0 0 0
0 0 0
0 0 12
0 0 14
0 0 14
0 0 16
0 0 16
0 0 17
0 0 20
0 0 24
0 0 27
0 0 28
0 0 31
0 0 32
0 0 32
0 0 34
0 0 35
0 0 37
0 8 41
0 10 43
0 15 47
0 15 50
0 15 56
0 20 58
0 21 61
0 21 61
0 25 67
0 26 68
0 26 67
0 23 65
0 21 61
0 19 59
0 15 57
0 15 53
0 15 51
0 15 50
0 15 48
0 15 46
0 12 44
0 13 42
0 4 39
0 0 35
0 0 35
0 0 35
0 0 34
0 0 31
0 0 27
0 0 29
0 5 35
0 11 40
0 14 45
0 15 47
0 15 47
0 15 49
0 15 51
0 15 53
0 19 58
0 24 61
0 19 57
0 21 58
0 19 56
0 20 56
0 15 52
0 15 48
0 15 48
0 13 46
0 10 45
0 8 41
0 8 41
0 8 40
0 11 43
0 11 43
0 7 42
0 2 42
0 9 42
0 11 41
0 3 39
0 2 38
0 8 40
0 8 41
0 12 44
0 15 43
0 14 41
0 9 45
5 15 57
17 51 99
15 47 73
24 35 24
25 32 17
45 50 46
53 54 45
55 49 27
64 51 31
65 52 33
60 47 28
62 49 30
58 48 30
67 54 34
61 57 49
38 54 78
35 55 86
33 56 79
26 56 98
18 58 114
19 58 122
20 58 110
18 57 116
17 58 118
13 49 101
13 38 84
3 13 48
0 0 23
0 0 7
0 0 12
0 0 9
0 0 11
0 0 14
0 0 16
0 0 16
0 0 15
0 0 14
0 0 12
0 0 14
0 0 16
0 0 16
0 0 16
0 0 16
0 0 16
0 0 16
0 0 16
0 0 16
0 0 25
0 0 27
22 24 43
170 180 196
226 238 255
226 238 255
226 238 255
226 238 255
226 238 255
226 238 255
226 238 255
226 238 255
226 238 255
226 238 255
226 238 255
226 238 255
226 238 255
226 238 255
226 238 255
226 238 255
226 238 255
226 238 255
226 238 255
226 238 255
226 238 255
226 238 255
226 238 255
226 238 255
226 238 255
226 238 255
226 238 255
226 238 255
226 238 255
226 238 255
226 238 255
226 238 255
226 238 255
226 238 255
226 238 255
226 238 255
226 238 255
226 238 255
226 238 255
226 238 255
226 238 255
226 238 255
226 238 255
226 238 255
226 238 255
226 238 255
226 238 255
226 238 255
226 238 255
226 238 255
226 238 255
226 238 255
226 238 255
226 238 255
226 238 255
226 238 255
226 238 255
226 238 255
226 238 255
226 238 255
226 238 255
226 238 255
226 238 255
226 238 255
226 238 255
226 238 255
226 238 255
226 238 255
226 238 255
226 238 255
226 238 255
226 238 255
226 238 255
226 238 255
226 238 255
226 238 255
226 238 255
226 238 255
226 238 255
226 238 255
226 238 255
226 238 255
226 238 255
226 238 255
226 238 255
226 238 255
226 238 255
226 238 255
226 238 255
226 238 255
226 238 255
226 238 255
226 238 255
226 238 255
226 238 255
226 238 255
226 238 255
226 238 255
226 238 255
226 238 255
226 238 255
226 238 255
226 238 255
226 238 255
226 238 255
226 238 255
226 238 255
226 238 255
226 238 255
226 238 255
226 238 255
226 238 255
226 238 255
226 238 255
226 238 255
226 238 255
226 238 255
226 238 255
226 238 255
226 238 255
226 238 255
226 238 255
225 238 255
226 238 255
226 238 255
225 238 255
226 238 255
226 238 255
226 238 255
226 238 255
226 238 255
226 238 255
226 238 255
226 238 255
226 238 255
226 238 255
226 238 255
226 238 255
226 238 255
226 238 255
226 238 255
226 238 255
226 238 255
226 238 255
226 238 255
226 238 255
226 238 255
226 238 255
226 238 255
226 238 255
226 238 255
226 238 255
226 238 255
226 238 255
226 238 255
226 238 255
226 238 255
226 238 255
226 238 255
226 238 255
226 238 255
226 238 255
226 238 255
226 238 255
226 238 255
226 238 255
226 238 255
226 238 255
226 238 255
226 238 255
226 238 255
226 238 255
226 238 255
226 238 255
226 238 255
226 238 255
226 238 255
226 238 255
226 238 255
226 238 255
226 238 255
226 238 255
226 238 255
226 238 255
226 238 255
226 238 255
226 238 255
226 238 255
226 238 255
226 238 255
226 238 255
226 238 255
226 238 255
226 238 255
226 238 255
226 238 255
226 238 255
226 238 255
226 238 255
226 238 255
226 238 255
226 238 255
226 238 255
226 238 255
226 238 255
226 238 255
226 238 255
226 238 255
226 238 255
226 238 255
226 238 255
226 238 255
226 238 255
226 238 255
226 238 255
226 238 255
226 238 255
226 238 255
226 238 255
226 238 255
226 238 255
226 238 255
226 238 255
226 238 255
226 238 255
226 238 255
226 238 255
226 238 255
226 238 255
226 238 255
226 238 255
226 238 255
226 238 255
226 238 255
226 238 255
226 238 255
226 238 255
226 238 255
226 238 255
226 238 255
226 238 255
226 238 255
226 238 255
226 238 255
226 238 255
226 238 255
226 238 255
226 238 255
226 238 255
226 238 255
226 238 255
226 238 255
226 238 255
187 198 212
22 23 31
0 0 13
0 0 12
0 0 4
0 0 0
0 0 0
0 0 0
0 0 0
0 0 0
0 0 0
0 0 0
0 0 0
0 0 0
0 0 1
0 0 13
0 0 16
0 0 16
0 0 16
0 0 16
0 0 16
0 0 20
0 0 22
0 0 26
0 0 29
0 0 32
0 0 34
0 0 35
0 3 38
0 6 40
0 15 43
0 12 44
0 15 47
0 15 49
0 15 54
0 18 57
0 21 60
0 21 61
0 23 65
0 28 70
0 27 69
0 25 66
0 21 63
0 20 59
0 15 57
0 15 53
0 15 52
0 15 51
0 15 49
0 15 47
0 15 45
0 15 43
0 10 40
0 0 36
0 0 35
0 0 35
0 0 34
0 0 31
0 0 27
0 0 29
0 0 34
0 4 37
0 4 39
0 7 42
0 6 41
0 13 43
0 15 48
0 15 51
0 16 50
0 17 53
0 18 53
0 17 52
0 19 55
0 19 56
0 22 56
0 18 52
0 13 45
0 15 47
0 15 49
0 15 49
0 15 49
0 17 52
0 16 51
0 15 48
0 15 47
0 14 47
0 14 45
0 14 45
0 15 47
0 15 46
0 15 48
0 15 48
0 15 47
0 15 46
0 13 46
0 9 53
17 38 96
19 61 103
17 42 61
18 31 39
19 28 27
53 54 45
73 68 55
66 53 32
58 45 23
59 47 29
55 41 24
56 45 23
63 51 27
73 59 39
48 58 62
26 56 95
18 56 108
17 58 116
16 59 116
15 57 120
19 56 121
18 58 118
15 55 113
7 42 92
5 30 68
0 11 37
0 0 19
0 0 5
0 0 10
0 0 16
0 0 16
0 0 16
0 0 16
0 0 16
0 0 15
0 0 10
0 0 0
0 0 2
0 0 15
0 0 16
0 0 16
0 0 16
0 0 16
0 0 15
0 0 16
0 0 15
0 0 21
0 0 26
31 34 50
186 196 212
226 238 255
226 238 255
226 238 255
226 238 255
226 238 255
226 238 255
226 238 255
226 238 255
226 238 255
226 238 255
226 238 255
226 238 255
226 238 255
226 238 255
226 238 255
226 238 255
226 238 255
226 238 255
226 238 255
226 238 255
226 238 255
226 238 255
226 238 255
226 238 255
226 238 255
226 238 255
226 238 255
226 238 255
226 238 255
226 238 255
226 238 255
226 238 255
226 238 255
226 238 255
226 238 255
226 238 255
226 238 255
226 238 255
226 238 255
226 238 255
226 238 255
226 238 255
226 238 255
226 238 255
226 238 255
226 238 255
226 238 255
226 238 255
226 238 255
226 238 255
226 238 255
226 238 255
226 238 255
226 238 255
226 238 255
226 238 255
226 238 255
226 238 255
226 238 255
226 238 255
226 238 255
226 238 255
226 238 255
226 238 255
226 238 255
226 238 255
226 238 255
226 238 255
226 238 255
226 238 255
226 238 255
226 238 255
226 238 255
226 238 255
226 238 255
226 238 255
226 238 255
226 238 255
226 238 255
226 238 255
226 238 255
226 238 255
226 238 255
226 238 255
226 238 255
226 238 255
226 238 255
226 238 255
226 238 255
226 238 255
226 238 255
226 238 255
226 238 255
226 238 255
226 238 255
226 238 255
226 238 255
226 238 255
226 238 255
226 238 255
226 238 255
226 238 255
226 238 255
226 238 255
226 238 255
226 238 255
226 238 255
226 238 255
226 238 255
226 238 255
226 238 255
226 238 255
226 238 255
226 238 255
226 238 255
226 238 255
226 238 255
226 238 255
226 238 255
226 238 255
226 238 255
226 238 255
226 238 255
226 238 255
226 238 255
226 238 255
226 238 255
226 238 255
226 238 255
226 238 255
226 238 255
226 238 255
226 238 255
226 238 255
226 238 255
226 238 255
226 238 255
226 238 255
226 238 255
226 238 255
226 238 255
226 238 255
226 238 255
226 238 255
226 238 255
226 238 255
226 238 255
226 238 255
226 238 255
226 238 255
226 238 255
226 238 255
226 238 255
226 238 255
226 238 255
226 238 255
226 238 255
226 238 255
226 238 255
226 238 255
226 238 255
226 238 255
226 238 255
226 238 255
226 238 255
226 238 255
226 238 255
226 238 255
226 238 255
226 238 255
226 238 255
226 238 255
226 238 255
226 238 255
226 238 255
226 238 255
226 238 255
226 238 255
226 238 255
226 238 255
226 238 255
226 238 255
226 238 255
226 238 255
226 238 255
226 238 255
226 238 255
226 238 255
226 238 255
226 238 255
226 238 255
226 238 255
226 238 255
226 238 255
226 238 255
226 238 255
226 238 255
226 238 255
226 238 255
226 238 255
226 238 255
226 238 255
226 238 255
226 238 255
226 238 255
226 238 255
226 238 255
226 238 255
226 238 255
226 238 255
226 238 255
226 238 255
226 238 255
226 238 255
226 238 255
226 238 255
226 238 255
226 238 255
226 238 255
226 238 255
226 238 255
226 238 255
226 238 255
226 238 255
226 238 255
226 238 255
226 238 255
226 238 255
226 238 255
226 238 255
226 238 255
226 238 255
226 238 255
226 238 255
226 238 255
226 238 255
226 238 255
226 238 255
226 238 255
226 238 255
226 238 255
226 238 255
226 238 255
226 238 255
226 238 255
226 238 255
226 238 255
226 238 255
226 238 255
226 238 255
226 238 255
226 238 255
226 238 255
226 238 255
226 238 255
201 212 227
75 79 86
0 0 15
0 0 15
0 0 9
0 0 0
0 0 5
0 0 11
0 0 9
0 0 8
0 0 2
0 0 0
0 0 0
0 0 0
0 0 0
0 0 10
0 0 16
0 0 16
0 0 16
0 0 16
0 0 18
0 0 21
0 0 23
0 0 27
0 0 31
0 0 35
0 7 38
0 11 43
0 4 42
0 10 43
0 2 43
0 11 45
0 15 47
0 15 52
0 15 55
0 19 59
0 21 62
0 23 65
0 27 69
0 26 68
0 25 66
0 21 62
0 21 59
0 20 57
0 19 57
0 19 56
0 19 54
0 15 52
0 15 48
0 15 45
0 15 45
0 13 42
0 5 38
0 0 36
0 0 35
0 0 33
0 0 28
0 0 27
0 0 28
0 0 33
0 0 35
0 0 35
0 0 36
0 0 36
0 8 38
0 10 40
0 11 43
0 7 40
0 11 42
0 13 43
0 15 46
0 15 49
0 15 50
0 14 48
0 12 46
0 15 47
0 15 47
0 15 50
0 18 54
0 23 59
0 23 60
0 22 61
0 19 57
0 18 53
0 15 51
0 15 49
0 15 50
0 15 49
0 15 51
0 15 50
0 15 49
0 15 49
0 15 47
0 15 48
3 15 65
22 51 109
16 48 81
21 40 56
16 39 58
68 74 70
46 44 28
61 53 36
70 59 35
65 53 33
78 64 48
60 46 31
65 55 39
73 57 39
71 60 47
43 53 60
34 56 86
18 58 113
14 60 118
16 58 118
20 56 122
20 54 123
15 49 109
1 35 83
0 22 58
0 8 32
0 0 11
0 0 14
0 0 14
0 0 16
0 0 15
0 0 12
0 0 16
0 0 16
0 0 9
0 0 0
0 0 0
0 0 0
0 0 11
0 0 15
0 0 13
0 0 12
0 0 10
0 0 7
0 0 13
0 0 14
0 0 19
0 0 25
64 67 80
204 216 232
226 238 255
226 238 255
226 238 255
226 238 255
226 238 255
226 238 255
226 238 255
226 238 255
226 238 255
226 238 255
226 238 255
226 238 255
226 238 255
226 238 255
226 238 255
226 238 255
226 238 255
226 238 255
226 238 255
226 238 255
226 238 255
226 238 255
226 238 255
226 238 255
226 238 255
226 238 255
226 238 255
226 238 255
226 238 255
226 238 255
226 238 255
226 238 255
226 238 255
226 238 255
226 238 255
226 238 255
226 238 255
226 238 255
226 238 255
226 238 255
226 238 255
226 238 255
226 238 255
226 238 255
226 238 255
226 238 255
226 238 255
226 238 255
226 238 255
226 238 255
226 238 255
226 238 255
226 238 255
226 238 255
226 238 255
226 238 255
226 238 255
226 238 255
226 238 255
226 238 255
226 238 255
226 238 255
226 238 255
226 238 255
226 238 255
226 238 255
226 238 255
226 238 255
226 238 255
226 238 255
226 238 255
226 238 255
226 238 255
226 238 255
226 238 255
226 238 255
226 238 255
226 238 255
226 238 255
226 238 255
226 238 255
226 238 255
226 238 255
226 238 255
226 238 255
226 238 255
226 238 255
226 238 255
226 238 255
226 238 255
226 238 255
226 238 255
226 238 255
226 238 255
226 238 255
226 238 255
226 238 255
226 238 255
226 238 255
226 238 255
226 238 255
226 238 255
226 238 255
226 238 255
226 238 255
226 238 255
226 238 255
226 238 255
226 238 255
226 238 255
226 238 255
226 238 255
226 238 255
226 238 255
226 238 255
226 238 255
226 238 255
226 238 255
226 238 255
226 238 255
226 238 255
226 238 255
226 238 255
226 238 255
226 238 255
226 238 255
226 238 255
226 238 255
226 238 255
226 238 255
226 238 255
226 238 255
226 238 255
226 238 255
226 238 255
226 238 255
226 238 255
226 238 255
226 238 255
226 238 255
226 238 255
226 238 255
226 238 255
226 238 255
226 238 255
226 238 255
226 238 255
226 238 255
226 238 255
226 238 255
226 238 255
226 238 255
226 238 255
226 238 255
226 238 255
226 238 255
226 238 255
226 238 255
226 238 255
226 238 255
226 238 255
226 238 255
226 238 255
226 238 255
226 238 255
226 238 255
226 238 255
226 238 255
226 238 255
226 238 255
226 238 255
226 238 255
226 238 255
226 238 255
226 238 255
226 238 255
226 238 255
226 238 255
226 238 255
226 238 255
226 238 255
226 238 255
226 238 255
226 238 255
226 238 255
226 238 255
226 238 255
226 238 255
226 238 255
226 238 255
226 238 255
226 238 255
226 238 255
226 238 255
226 238 255
226 238 255
226 238 255
226 238 255
226 238 255
226 238 255
226 238 255
226 238 255
226 238 255
226 238 255
226 238 255
226 238 255
226 238 255
226 238 255
226 238 255
226 238 255
226 238 255
226 238 255
226 238 255
226 238 255
226 238 255
226 238 255
226 238 255
226 238 255
226 238 255
226 238 255
226 238 255
226 238 255
226 238 255
226 238 255
226 238 255
226 238 255
226 238 255
226 238 255
226 238 255
226 238 255
226 238 255
226 238 255
226 238 255
226 238 255
226 238 255
226 238 255
226 238 255
226 238 255
226 238 255
226 238 255
226 238 255
226 238 255
226 238 255
226 238 255
226 238 255
226 238 255
226 238 255
226 238 255
226 238 255
226 238 255
226 238 255
226 238 255
226 238 255
226 238 255
226 238 255
226 238 255
226 238 255
207 218 234
98 104 112
0 0 19
0 0 20
0 0 10
0 0 1
0 0 10
0 0 15
0 0 16
0 0 14
0 0 4
0 0 10
0 0 11
0 0 13
0 0 11
0 0 14
0 0 16
0 0 16
0 0 17
0 0 18
0 0 20
0 0 22
0 0 24
0 0 29
0 0 35
0 7 38
0 11 42
0 1 42
0 12 44
0 14 45
0 12 45
0 15 46
0 15 50
0 15 54
0 17 57
0 21 61
0 22 64
0 26 67
0 26 69
0 24 66
0 21 62
0 21 59
0 21 57
0 21 57
0 21 57
0 19 55
0 15 52
0 15 50
0 15 47
0 15 45
0 15 44
0 12 42
0 5 38
0 2 35
0 0 33
0 0 31
0 0 30
0 0 30
0 0 31
0 0 33
0 0 33
0 0 33
0 0 32
0 0 34
0 0 34
0 0 38
0 0 38
0 1 39
0 6 39
0 9 42
0 9 42
0 14 42
0 15 45
0 15 47
0 15 48
0 15 49
0 15 50
0 17 55
0 20 57
0 20 59
0 22 62
0 21 60
0 18 58
0 15 56
0 15 54
0 15 53
0 15 53
0 15 53
0 15 51
0 15 49
0 15 49
0 15 48
0 11 48
11 39 86
25 59 101
10 28 50
24 54 73
26 41 49
52 53 44
55 50 35
60 51 30
62 51 28
73 60 40
71 56 38
74 61 41
81 71 51
74 62 44
49 57 64
27 56 102
20 58 116
15 58 122
18 58 120
20 56 120
22 55 120
14 45 101
3 33 80
0 19 55
0 1 27
0 0 8
0 0 0
0 0 12
0 0 16
0 0 16
0 0 10
0 0 15
0 0 16
0 0 13
0 0 8
0 0 10
0 0 10
0 0 3
0 0 6
0 0 0
0 0 0
0 0 0
0 0 1
0 0 13
0 0 15
0 0 17
0 0 27
55 58 71
209 221 237
226 238 255
226 238 255
226 238 255
226 238 255
226 238 255
226 238 255
226 238 255
226 238 255
226 238 255
226 238 255
226 238 255
226 238 255
226 238 255
226 238 255
226 238 255
226 238 255
226 238 255
226 238 255
226 238 255
226 238 255
226 238 255
226 238 255
226 238 255
226 238 255
226 238 255
226 238 255
226 238 255
226 238 255
226 238 255
226 238 255
226 238 255
226 238 255
226 238 255
226 238 255
226 238 255
226 238 255
226 238 255
226 238 255
226 238 255
226 238 255
226 238 255
226 238 255
226 238 255
226 238 255
226 238 255
226 238 255
226 238 255
226 238 255
226 238 255
226 238 255
226 238 255
226 238 255
226 238 255
226 238 255
226 238 255
226 238 255
226 238 255
226 238 255
226 238 255
226 238 255
226 238 255
226 238 255
226 238 255
226 238 255
226 238 255
226 238 255
226 238 255
226 238 255
226 238 255
226 238 255
226 238 255
226 238 255
226 238 255
226 238 255
226 238 255
226 238 255
226 238 255
226 238 255
226 238 255
226 238 255
226 238 255
226 238 255
226 238 255
226 238 255
226 238 255
226 238 255
226 238 255
226 238 255
226 238 255
226 238 255
226 238 255
226 238 255
226 238 255
226 238 255
226 238 255
226 238 255
226 238 255
226 238 255
226 238 255
226 238 255
226 238 255
226 238 255
226 238 255
226 238 255
226 238 255
226 238 255
226 238 255
226 238 255
226 238 255
226 238 255
226 238 255
226 238 255
226 238 255
226 238 255
226 238 255
226 238 255
226 238 255
226 238 255
226 238 255
226 238 255
226 238 255
226 238 255
226 238 255
226 238 255
226 238 255
226 238 255
226 238 255
226 238 255
226 238 255
226 238 255
226 238 255
226 238 255
226 238 255
226 238 255
226 238 255
226 238 255
226 238 255
226 238 255
226 238 255
226 238 255
226 238 255
226 238 255
226 238 255
226 238 255
226 238 255
226 238 255
226 238 255
226 238 255
226 238 255
226 238 255
226 238 255
226 238 255
226 238 255
226 238 255
226 238 255
226 238 255
226 238 255
226 238 255
226 238 255
226 238 255
226 238 255
226 238 255
226 238 255
226 238 255
226 238 255
226 238 255
226 238 255
226 238 255
226 238 255
226 238 255
226 238 255
226 238 255
226 238 255
226 238 255
226 238 255
226 238 255
226 238 255
226 238 255
226 238 255
226 238 255
226 238 255
226 238 255
226 238 255
226 238 255
226 238 255
226 238 255
226 238 255
226 238 255
226 238 255
226 238 255
226 238 255
226 238 255
226 238 255
226 238 255
226 238 255
226 238 255
226 238 255
226 238 255
226 238 255
226 238 255
226 238 255
226 238 255
226 238 255
226 238 255
226 238 255
226 238 255
226 238 255
226 238 255
226 238 255
226 238 255
226 238 255
226 238 255
226 238 255
226 238 255
226 238 255
226 238 255
226 238 255
226 238 255
226 238 255
226 238 255
226 238 255
226 238 255
226 238 255
226 238 255
226 238 255
226 238 255
226 238 255
226 238 255
226 238 255
226 238 255
226 238 255
226 238 255
226 238 255
226 238 255
226 238 255
226 238 255
226 238 255
226 238 255
226 238 255
226 238 255
226 238 255
226 238 255
226 238 255
226 238 255
226 238 255
226 238 255
226 238 255
226 238 255
226 238 255
226 238 255
226 238 255
226 238 255
226 238 255
226 238 255
226 238 255
226 238 255
226 238 255
226 238 255
226 238 255
219 231 248
117 124 133
0 0 18
0 0 22
0 0 15
0 0 9
0 0 13
0 0 15
0 0 16
0 0 13
0 0 3
0 0 14
0 0 16
0 0 16
0 0 16
0 0 16
0 0 16
0 0 17
0 0 16
0 0 20
0 0 22
0 0 25
0 0 28
0 0 34
0 0 36
0 0 39
0 0 41
0 5 42
0 13 44
0 15 45
0 15 47
0 15 49
0 15 53
0 18 56
0 21 59
0 21 63
0 25 66
0 26 69
0 26 67
0 22 63
0 19 57
0 21 58
0 20 57
0 21 57
0 20 56
0 15 53
0 15 51
0 15 48
0 15 45
0 15 46
0 15 44
0 15 42
0 13 39
0 6 35
0 0 32
0 0 32
0 0 31
0 0 34
0 0 34
0 0 32
0 0 32
0 0 33
0 0 32
0 0 32
0 0 36
0 0 36
0 0 35
0 0 35
0 0 36
0 0 36
0 3 39
0 9 42
0 14 45
0 15 48
0 14 48
0 15 47
0 15 50
0 15 53
0 16 56
0 19 59
0 22 61
0 23 62
0 21 60
0 19 55
0 16 54
0 15 53
0 15 53
0 15 52
0 15 52
0 14 51
0 15 53
3 22 68
18 52 108
22 51 100
26 47 89
26 46 68
61 66 65
55 54 46
53 46 29
55 45 23
61 50 27
73 60 39
85 72 48
81 69 39
69 61 33
51 53 53
28 56 106
21 56 122
17 58 118
15 57 119
19 57 121
16 57 119
11 49 100
3 35 83
0 24 64
0 5 33
0 0 14
0 0 8
0 0 7
0 0 7
0 0 9
0 0 8
0 0 14
0 0 16
0 0 16
0 0 16
0 0 16
0 0 15
0 0 8
0 0 11
0 0 9
0 0 9
0 0 0
0 0 3
0 0 13
0 0 15
0 0 20
0 0 27
126 132 145
219 231 248
226 238 255
226 238 255
226 238 255
226 238 255
226 238 255
226 238 255
226 238 255
226 238 255
226 238 255
226 238 255
226 238 255
226 238 255
226 238 255
226 238 255
226 238 255
226 238 255
226 238 255
226 238 255
226 238 255
226 238 255
226 238 255
226 238 255
226 238 255
226 238 255
226 238 255
226 238 255
226 238 255
226 238 255
226 238 255
226 238 255
226 238 255
226 238 255
226 238 255
226 238 255
226 238 255
226 238 255
226 238 255
226 238 255
226 238 255
226 238 255
226 238 255
226 238 255
226 238 255
226 238 255
226 238 255
226 238 255
226 238 255
226 238 255
226 238 255
226 238 255
226 238 255
226 238 255
226 238 255
226 238 255
226 238 255
226 238 255
226 238 255
226 238 255
226 238 255
226 238 255
226 238 255
226 238 255
226 238 255
226 238 255
226 238 255
226 238 255
226 238 255
226 238 255
226 238 255
226 238 255
226 238 255
226 238 255
226 238 255
226 238 255
226 238 255
226 238 255
226 238 255
226 238 255
226 238 255
226 238 255
226 238 255
226 238 255
226 238 255
226 238 255
226 238 255
226 238 255
226 238 255
226 238 255
226 238 255
226 238 255
226 238 255
226 238 255
226 238 255
226 238 255
226 238 255
226 238 255
226 238 255
226 238 255
226 238 255
226 238 255
226 238 255
226 238 255
226 238 255
226 238 255
226 238 255
226 238 255
226 238 255
226 238 255
226 238 255
226 238 255
226 238 255
226 238 255
226 238 255
226 238 255
226 238 255
226 238 255
226 238 255
226 238 255
226 238 255
226 238 255
226 238 255
226 238 255
226 238 255
226 238 255
226 238 255
226 238 255
226 238 255
226 238 255
226 238 255
226 238 255
226 238 255
226 238 255
226 238 255
226 238 255
226 238 255
226 238 255
226 238 255
226 238 255
226 238 255
226 238 255
226 238 255
226 238 255
226 238 255
226 238 255
226 238 255
226 238 255
226 238 255
226 238 255
226 238 255
226 238 255
226 238 255
226 238 255
226 238 255
226 238 255
226 238 255
226 238 255
226 238 255
226 238 255
226 238 255
226 238 255
226 238 255
226 238 255
226 238 255
226 238 255
226 238 255
226 238 255
226 238 255
226 238 255
226 238 255
226 238 255
226 238 255
226 238 255
226 238 255
226 238 255
226 238 255
226 238 255
226 238 255
226 238 255
226 238 255
226 238 255
226 238 255
226 238 255
226 238 255
226 238 255
226 238 255
226 238 255
226 238 255
226 238 255
226 238 255
226 238 255
226 238 255
226 238 255
226 238 255
226 238 255
226 238 255
226 238 255
226 238 255
226 238 255
226 238 255
226 238 255
226 238 255
226 238 255
226 238 255
226 238 255
226 238 255
226 238 255
226 238 255
226 238 255
226 238 255
226 238 255
226 238 255
226 238 255
226 238 255
226 238 255
226 238 255
226 238 255
226 238 255
226 238 255
226 238 255
226 238 255
226 238 255
226 238 255
226 238 255
226 238 255
226 238 255
226 238 255
226 238 255
226 238 255
226 238 255
226 238 255
226 238 255
226 238 255
226 238 255
226 238 255
226 238 255
226 238 255
226 238 255
226 238 255
226 238 255
226 238 255
226 238 255
226 238 255
226 238 255
226 238 255
226 238 255
226 238 255
226 238 255
226 238 255
226 238 255
226 238 255
226 238 255
226 238 255
226 238 255
226 238 255
226 238 255
226 238 255
226 238 255
226 238 255
226 238 255
226 238 255
226 238 255
224 236 253
135 143 154
0 0 17
0 0 25
0 0 21
0 0 16
0 0 13
0 0 10
0 0 10
0 0 7
0 0 0
0 0 6
0 0 14
0 0 16
0 0 16
0 0 17
0 0 17
0 0 20
0 0 21
0 0 24
0 0 27
0 0 30
0 0 35
0 0 35
0 0 35
0 0 38
0 11 42
0 15 45
0 13 45
0 14 47
0 15 49
0 15 53
0 18 56
0 21 59
0 22 63
0 25 66
0 26 71
0 26 68
0 23 64
0 20 60
0 21 58
0 21 58
0 19 57
0 21 57
0 16 53
0 15 52
0 15 49
0 15 47
0 15 48
0 15 45
0 15 42
0 15 39
0 6 39
0 0 36
0 8 37
0 0 34
0 0 35
0 0 35
0 0 35
0 0 32
0 0 30
0 0 29
0 0 31
0 0 35
0 0 34
0 0 35
0 0 35
0 0 35
0 0 35
0 0 39
0 0 42
0 13 45
0 15 47
0 15 46
0 15 47
0 16 50
0 15 50
0 16 55
0 20 59
0 22 62
0 23 63
0 21 61
0 20 56
0 17 54
0 16 53
0 15 53
0 15 53
0 18 57
0 20 61
0 16 59
16 43 99
18 56 109
10 34 69
16 36 65
48 54 57
76 76 69
65 63 54
57 47 28
57 46 23
64 53 28
65 53 27
90 75 54
67 59 49
49 52 63
32 55 100
20 56 124
19 57 116
17 58 117
14 57 122
15 59 123
13 54 113
8 39 90
4 25 70
0 10 40
0 0 16
0 0 7
0 0 15
0 0 16
0 0 15
0 0 15
0 0 16
0 0 16
0 0 16
0 0 16
0 0 16
0 0 15
0 0 11
0 0 11
0 0 9
0 0 3
0 0 0
0 0 7
0 0 14
1 4 19
2 2 24
0 2 28
135 143 156
224 236 253
226 238 255
226 238 255
226 238 255
226 238 255
226 238 255
226 238 255
226 238 255
226 238 255
226 238 255
226 238 255
226 238 255
226 238 255
226 238 255
226 238 255
226 238 255
226 238 255
226 238 255
226 238 255
226 238 255
226 238 255
226 238 255
226 238 255
226 238 255
226 238 255
226 238 255
226 238 255
226 238 255
226 238 255
226 238 255
226 238 255
226 238 255
226 238 255
226 238 255
226 238 255
226 238 255
226 238 255
226 238 255
226 238 255
226 238 255
226 238 255
226 238 255
226 238 255
226 238 255
226 238 255
226 238 255
226 238 255
226 238 255
226 238 255
226 238 255
226 238 255
226 238 255
226 238 255
226 238 255
226 238 255
226 238 255
226 238 255
226 238 255
226 238 255
226 238 255
226 238 255
226 238 255
226 238 255
226 238 255
226 238 255
226 238 255
226 238 255
226 238 255
226 238 255
226 238 255
226 238 255
226 238 255
226 238 255
226 238 255
226 238 255
226 238 255
226 238 255
226 238 255
226 238 255
226 238 255
226 238 255
226 238 255
226 238 255
226 238 255
226 238 255
226 238 255
226 238 255
226 238 255
226 238 255
226 238 255
226 238 255
226 238 255
226 238 255
226 238 255
226 238 255
226 238 255
226 238 255
226 238 255
226 238 255
226 238 255
226 238 255
226 238 255
226 238 255
226 238 255
226 238 255
226 238 255
226 238 255
226 238 255
226 238 255
226 238 255
226 238 255
226 238 255
226 238 255
226 238 255
226 238 255
226 238 255
226 238 255
226 238 255
226 238 255
226 238 255
226 238 255
226 238 255
226 238 255
226 238 255
226 238 255
226 238 255
226 238 255
226 238 255
226 238 255
226 238 255
226 238 255
226 238 255
226 238 255
226 238 255
226 238 255
226 238 255
226 238 255
226 238 255
226 238 255
226 238 255
226 238 255
226 238 255
226 238 255
226 238 255
226 238 255
226 238 255
226 238 255
226 238 255
226 238 255
226 238 255
226 238 255
226 238 255
226 238 255
226 238 255
226 238 255
226 238 255
226 238 255
226 238 255
226 238 255
226 238 255
226 238 255
226 238 255
226 238 255
226 238 255
226 238 255
226 238 255
226 238 255
226 238 255
226 238 255
226 238 255
226 238 255
226 238 255
226 238 255
226 238 255
226 238 255
226 238 255
226 238 255
226 238 255
226 238 255
226 238 255
226 238 255
226 238 255
226 238 255
226 238 255
226 238 255
226 238 255
226 238 255
226 238 255
226 238 255
226 238 255
226 238 255
226 238 255
226 238 255
226 238 255
226 238 255
226 238 255
226 238 255
226 238 255
226 238 255
226 238 255
226 238 255
226 238 255
226 238 255
226 238 255
226 238 255
226 238 255
226 238 255
226 238 255
226 238 255
226 238 255
226 238 255
226 238 255
226 238 255
226 238 255
226 238 255
226 238 255
226 238 255
226 238 255
226 238 255
226 238 255
226 238 255
226 238 255
226 238 255
226 238 255
226 238 255
226 238 255
226 238 255
226 238 255
226 238 255
226 238 255
226 238 255
226 238 255
226 238 255
226 238 255
226 238 255
226 238 255
226 238 255
226 238 255
226 238 255
226 238 255
226 238 255
226 238 255
226 238 255
226 238 255
226 238 255
226 238 255
226 238 255
226 238 255
226 238 255
226 238 255
226 238 255
226 238 255
226 238 255
226 238 255
226 238 255
226 238 255
226 238 255
226 238 255
226 238 255
226 238 255
226 238 255
226 238 255
226 238 255
226 238 255
226 238 255
173 183 196
50 53 59
0 0 23
0 0 25
0 0 19
0 0 20
0 0 17
0 0 15
0 0 13
0 0 11
0 0 8
0 0 15
0 0 16
0 0 17
0 0 18
0 0 22
0 0 23
0 0 25
0 0 30
0 0 32
0 0 35
0 0 35
0 0 35
0 0 37
0 13 41
0 15 44
0 15 46
0 15 50
0 15 50
0 15 53
0 18 57
0 21 59
0 21 63
0 25 66
0 26 70
0 26 68
0 24 64
0 21 61
0 21 58
0 21 57
0 21 57
0 19 57
0 15 57
0 15 54
0 15 53
0 15 49
0 15 48
0 15 46
0 15 44
0 15 43
0 10 40
0 0 37
0 0 35
0 0 34
0 0 35
0 0 33
0 0 30
0 0 28
0 0 28
0 0 27
0 0 29
0 0 31
0 0 33
0 0 35
0 0 35
0 0 35
0 0 35
0 0 38
0 0 41
0 11 42
0 15 43
0 14 43
0 14 44
0 16 49
0 17 49
0 16 53
0 18 56
0 18 57
0 17 58
0 17 57
0 15 51
0 16 53
0 19 58
0 24 62
0 26 66
0 24 66
0 22 66
4 26 78
19 55 109
16 51 81
14 28 42
30 42 52
55 59 58
60 56 47
57 49 36
61 49 30
65 54 30
84 73 49
78 68 50
45 54 70
32 55 101
21 57 116
16 57 119
15 59 118
15 59 117
14 58 121
15 58 123
14 55 118
11 44 97
3 29 74
0 14 48
0 2 22
0 0 5
0 0 10
0 0 16
0 0 16
0 0 15
0 0 14
0 0 12
0 0 12
0 0 16
0 0 16
0 0 15
0 0 13
0 0 11
0 0 10
0 0 13
0 0 9
0 0 16
1 3 20
3 4 21
2 7 31
32 33 47
196 206 222
226 238 255
226 238 255
226 238 255
226 238 255
226 238 255
226 238 255
226 238 255
226 238 255
226 238 255
226 238 255
226 238 255
226 238 255
226 238 255
226 238 255
226 238 255
226 238 255
226 238 255
226 238 255
226 238 255
226 238 255
226 238 255
226 238 255
226 238 255
226 238 255
226 238 255
226 238 255
226 238 255
226 238 255
226 238 255
226 238 255
226 238 255
226 238 255
226 238 255
226 238 255
226 238 255
226 238 255
226 238 255
226 238 255
226 238 255
226 238 255
226 238 255
226 238 255
226 238 255
226 238 255
226 238 255
226 238 255
226 238 255
226 238 255
226 238 255
226 238 255
226 238 255
226 238 255
226 238 255
226 238 255
226 238 255
226 238 255
226 238 255
226 238 255
226 238 255
226 238 255
226 238 255
226 238 255
226 238 255
226 238 255
226 238 255
226 238 255
226 238 255
226 238 255
226 238 255
226 238 255
226 238 255
226 238 255
226 238 255
226 238 255
226 238 255
226 238 255
226 238 255
226 238 255
226 238 255
226 238 255
226 238 255
226 238 255
226 238 255
226 238 255
226 238 255
226 238 255
226 238 255
226 238 255
226 238 255
226 238 255
226 238 255
226 238 255
226 238 255
226 238 255
226 238 255
226 238 255
226 238 255
226 238 255
226 238 255
226 238 255
226 238 255
226 238 255
226 238 255
226 238 255
226 238 255
226 238 255
226 238 255
226 238 255
226 238 255
226 238 255
226 238 255
226 238 255
226 238 255
226 238 255
226 238 255
226 238 255
226 238 255
226 238 255
226 238 255
226 238 255
226 238 255
226 238 255
226 238 255
226 238 255
226 238 255
226 238 255
226 238 255
226 238 255
226 238 255
226 238 255
226 238 255
226 238 255
226 238 255
226 238 255
226 238 255
226 238 255
226 238 255
226 238 255
226 238 255
226 238 255
226 238 255
226 238 255
226 238 255
226 238 255
226 238 255
226 238 255
226 238 255
226 238 255
226 238 255
226 238 255
226 238 255
226 238 255
226 238 255
226 238 255
226 238 255
226 238 255
226 238 255
226 238 255
226 238 255
226 238 255
226 238 255
226 238 255
226 238 255
226 238 255
226 238 255
226 238 255
226 238 255
226 238 255
226 238 255
226 238 255
226 238 255
226 238 255
226 238 255
226 238 255
226 238 255
226 238 255
226 238 255
226 238 255
226 238 255
226 238 255
226 238 255
226 238 255
226 238 255
226 238 255
226 238 255
226 238 255
226 238 255
226 238 255
226 238 255
226 238 255
226 238 255
226 238 255
226 238 255
226 238 255
226 238 255
226 238 255
226 238 255
226 238 255
226 238 255
226 238 255
226 238 255
226 238 255
226 238 255
226 238 255
226 238 255
226 238 255
226 238 255
226 238 255
226 238 255
226 238 255
226 238 255
226 238 255
226 238 255
226 238 255
226 238 255
226 238 255
226 238 255
226 238 255
226 238 255
226 238 255
226 238 255
226 238 255
226 238 255
226 238 255
226 238 255
226 238 255
226 238 255
226 238 255
226 238 255
226 238 255
226 238 255
226 238 255
226 238 255
226 238 255
226 238 255
226 238 255
226 238 255
226 238 255
226 238 255
226 238 255
226 238 255
226 238 255
226 238 255
226 238 255
226 238 255
226 238 255
226 238 255
226 238 255
226 238 255
226 238 255
226 238 255
226 238 255
226 238 255
226 238 255
226 238 255
226 238 255
226 238 255
226 238 255
226 238 255
226 238 255
226 238 255
226 238 255
226 238 255
226 238 255
226 238 255
226 238 255
226 238 255
205 216 231
93 98 106
0 3 26
0 0 27
0 0 26
0 0 26
0 0 23
0 0 20
0 0 18
0 0 17
0 0 16
0 0 16
0 0 16
0 0 20
0 0 25
0 0 27
0 0 27
0 0 31
0 0 33
0 0 35
0 0 36
0 0 36
0 0 36
0 11 39
0 14 42
0 15 45
0 15 49
0 15 50
0 15 51
0 20 55
0 21 58
0 23 63
0 26 66
0 26 68
0 26 69
0 26 66
0 22 62
0 21 60
0 21 57
0 21 57
0 20 57
0 15 57
0 15 55
0 15 53
0 15 50
0 15 48
0 15 47
0 15 44
0 13 42
0 5 39
0 0 37
0 0 35
0 0 32
0 0 32
0 0 32
0 0 30
0 0 27
0 0 28
0 0 27
0 0 27
0 0 27
0 0 31
0 0 35
0 0 35
0 0 35
0 0 35
0 0 35
0 0 37
0 9 39
0 8 39
0 5 39
0 2 35
0 5 36
0 7 39
0 14 45
0 16 51
0 15 53
0 15 57
0 15 53
0 18 54
0 19 56
0 21 59
0 23 61
0 25 65
0 23 65
2 22 65
12 39 84
24 55 95
7 23 38
20 34 32
94 105 104
85 86 82
66 59 50
50 42 28
55 46 25
71 63 39
65 57 36
46 57 64
27 57 101
19 56 124
17 58 120
14 58 117
14 57 120
15 57 121
14 57 120
14 55 118
13 48 103
9 36 84
1 18 55
0 1 35
0 0 20
0 0 13
0 0 7
0 0 9
0 0 6
0 0 8
0 0 12
0 0 12
0 0 12
0 0 12
0 0 11
0 0 7
0 0 10
0 0 8
0 0 14
0 0 12
0 0 15
0 0 15
0 1 18
3 14 39
101 106 117
217 229 245
226 238 255
226 238 255
226 238 255
226 238 255
226 238 255
226 238 255
226 238 255
226 238 255
226 238 255
226 238 255
226 238 255
226 238 255
226 238 255
226 238 255
226 238 255
226 238 255
226 238 255
226 238 255
226 238 255
226 238 255
226 238 255
226 238 255
226 238 255
226 238 255
226 238 255
226 238 255
226 238 255
226 238 255
226 238 255
226 238 255
226 238 255
226 238 255
226 238 255
226 238 255
226 238 255
226 238 255
226 238 255
226 238 255
226 238 255
226 238 255
226 238 255
226 238 255
226 238 255
226 238 255
226 238 255
226 238 255
226 238 255
226 238 255
226 238 255
226 238 255
226 238 255
226 238 255
226 238 255
226 238 255
226 238 255
226 238 255
226 238 255
226 238 255
226 238 255
226 238 255
226 238 255
226 238 255
226 238 255
226 238 255
226 238 255
226 238 255
226 238 255
226 238 255
226 238 255
226 238 255
226 238 255
226 238 255
226 238 255
226 238 255
226 238 255
226 238 255
226 238 255
226 238 255
226 238 255
226 238 255
226 238 255
226 238 255
226 238 255
226 238 255
226 238 255
226 238 255
226 238 255
226 238 255
226 238 255
226 238 255
226 238 255
226 238 255
226 238 255
226 238 255
226 238 255
226 238 255
226 238 255
226 238 255
226 238 255
226 238 255
226 238 255
226 238 255
226 238 255
226 238 255
226 238 255
226 238 255
226 238 255
226 238 255
226 238 255
226 238 255
226 238 255
226 238 255
226 238 255
226 238 255
226 238 255
226 238 255
226 238 255
226 238 255
226 238 255
226 238 255
226 238 255
226 238 255
226 238 255
226 238 255
226 238 255
226 238 255
226 238 255
226 238 255
226 238 255
226 238 255
226 238 255
226 238 255
226 238 255
226 238 255
226 238 255
226 238 255
226 238 255
226 238 255
226 238 255
226 238 255
226 238 255
226 238 255
226 238 255
226 238 255
226 238 255
226 238 255
226 238 255
226 238 255
226 238 255
226 238 255
226 238 255
226 238 255
226 238 255
226 238 255
226 238 255
226 238 255
226 238 255
226 238 255
226 238 255
226 238 255
226 238 255
226 238 255
226 238 255
226 238 255
226 238 255
226 238 255
226 238 255
226 238 255
226 238 255
226 238 255
226 238 255
226 238 255
226 238 255
226 238 255
226 238 255
226 238 255
226 238 255
226 238 255
226 238 255
226 238 255
226 238 255
226 238 255
226 238 255
226 238 255
226 238 255
226 238 255
226 238 255
226 238 255
226 238 255
226 238 255
226 238 255
226 238 255
226 238 255
226 238 255
226 238 255
226 238 255
226 238 255
226 238 255
226 238 255
226 238 255
226 238 255
226 238 255
226 238 255
226 238 255
226 238 255
226 238 255
226 238 255
226 238 255
226 238 255
226 238 255
226 238 255
226 238 255
226 238 255
226 238 255
226 238 255
226 238 255
226 238 255
226 238 255
226 238 255
226 238 255
226 238 255
226 238 255
226 238 255
226 238 255
226 238 255
226 238 255
226 238 255
226 238 255
226 238 255
226 238 255
226 238 255
226 238 255
226 238 255
226 238 255
226 238 255
226 238 255
226 238 255
226 238 255
226 238 255
226 238 255
226 238 255
226 238 255
226 238 255
226 238 255
226 238 255
226 238 255
226 238 255
226 238 255
226 238 255
226 238 255
226 238 255
226 238 255
226 238 255
226 238 255
226 238 255
226 238 255
226 238 255
226 238 255
226 238 255
226 238 255
226 238 255
226 238 255
226 238 255
226 238 255
226 238 255
226 238 255
226 238 255
226 238 255
226 238 255
222 233 250
150 158 170
0 0 25
0 0 28
0 0 33
0 0 32
0 0 28
0 0 25
0 0 24
0 0 21
0 0 19
0 0 16
0 0 16
0 0 23
0 0 27
0 0 28
0 0 31
0 0 36
0 0 38
0 0 39
0 5 39
0 7 39
0 6 39
0 11 42
0 14 45
0 14 48
0 15 51
0 16 52
0 21 54
0 21 56
0 21 60
0 25 64
0 26 67
0 26 70
0 26 68
0 25 65
0 21 61
0 21 58
0 21 57
0 18 57
0 15 55
0 15 53
0 15 51
0 15 49
0 15 47
0 15 44
0 11 41
0 6 39
0 0 36
0 0 36
0 0 35
0 0 33
0 0 32
0 0 32
0 0 32
0 0 30
0 0 28
0 0 27
0 0 27
0 0 27
0 0 29
0 0 34
0 0 35
0 0 34
0 0 34
0 0 35
0 0 36
0 0 37
0 0 36
0 5 39
0 0 36
0 3 38
0 9 41
0 9 43
0 15 48
0 15 49
0 16 52
0 17 50
0 15 45
0 15 48
0 15 52
0 16 53
0 19 56
0 19 59
5 24 63
11 41 80
18 34 64
77 84 87
148 164 163
77 82 79
148 147 145
110 107 97
58 49 27
64 55 29
77 67 41
79 69 46
70 66 56
43 60 80
23 56 107
16 58 113
15 57 118
16 57 123
15 57 121
14 55 117
14 51 108
12 43 95
1 31 77
5 24 62
3 17 48
0 3 26
0 0 16
0 0 10
0 0 10
0 0 9
0 0 15
0 0 13
0 0 6
0 0 6
0 0 15
0 8 30
10 18 44
8 16 40
0 0 14
4 6 23
3 3 22
0 1 25
0 6 31
2 15 45
126 133 145
218 230 247
226 238 255
226 238 255
226 238 255
226 238 255
226 238 255
226 238 255
226 238 255
226 238 255
226 238 255
226 238 255
226 238 255
226 238 255
226 238 255
226 238 255
226 238 255
226 238 255
226 238 255
226 238 255
226 238 255
226 238 255
226 238 255
226 238 255
226 238 255
226 238 255
226 238 255
226 238 255
226 238 255
226 238 255
226 238 255
226 238 255
226 238 255
226 238 255
226 238 255
226 238 255
226 238 255
226 238 255
226 238 255
226 238 255
226 238 255
226 238 255
226 238 255
226 238 255
226 238 255
226 238 255
226 238 255
226 238 255
226 238 255
226 238 255
226 238 255
226 238 255
226 238 255
226 238 255
226 238 255
226 238 255
226 238 255
226 238 255
226 238 255
226 238 255
226 238 255
226 238 255
226 238 255
226 238 255
226 238 255
226 238 255
226 238 255
226 238 255
226 238 255
226 238 255
226 238 255
226 238 255
226 238 255
226 238 255
226 238 255
226 238 255
226 238 255
226 238 255
226 238 255
226 238 255
226 238 255
226 238 255
226 238 255
226 238 255
226 238 255
226 238 255
226 238 255
226 238 255
226 238 255
226 238 255
226 238 255
226 238 255
226 238 255
226 238 255
226 238 255
226 238 255
226 238 255
226 238 255
226 238 255
226 238 255
226 238 255
226 238 255
226 238 255
226 238 255
226 238 255
226 238 255
226 238 255
226 238 255
226 238 255
226 238 255
226 238 255
226 238 255
226 238 255
226 238 255
226 238 255
226 238 255
226 238 255
226 238 255
226 238 255
226 238 255
226 238 255
226 238 255
226 238 255
226 238 255
226 238 255
226 238 255
226 238 255
226 238 255
226 238 255
226 238 255
226 238 255
226 238 255
226 238 255
226 238 255
226 238 255
226 238 255
226 238 255
226 238 255
226 238 255
226 238 255
226 238 255
226 238 255
226 238 255
226 238 255
226 238 255
226 238 255
226 238 255
226 238 255
226 238 255
226 238 255
226 238 255
226 238 255
226 238 255
226 238 255
226 238 255
226 238 255
226 238 255
226 238 255
226 238 255
226 238 255
226 238 255
226 238 255
226 238 255
226 238 255
226 238 255
226 238 255
226 238 255
226 238 255
226 238 255
226 238 255
226 238 255
226 238 255
226 238 255
226 238 255
226 238 255
226 238 255
226 238 255
226 238 255
226 238 255
226 238 255
226 238 255
226 238 255
226 238 255
226 238 255
226 238 255
226 238 255
226 238 255
226 238 255
226 238 255
226 238 255
226 238 255
226 238 255
226 238 255
226 238 255
226 238 255
226 238 255
226 238 255
226 238 255
226 238 255
226 238 255
226 238 255
226 238 255
226 238 255
226 238 255
226 238 255
226 238 255
226 238 255
226 238 255
226 238 255
226 238 255
226 238 255
226 238 255
226 238 255
226 238 255
226 238 255
226 238 255
226 238 255
226 238 255
226 238 255
226 238 255
226 238 255
226 238 255
226 238 255
226 238 255
226 238 255
226 238 255
226 238 255
226 238 255
226 238 255
226 238 255
226 238 255
226 238 255
226 238 255
226 238 255
226 238 255
226 238 255
226 238 255
226 238 255
226 238 255
226 238 255
226 238 255
226 238 255
226 238 255
226 238 255
226 238 255
226 238 255
226 238 255
226 238 255
226 238 255
226 238 255
226 238 255
226 238 255
226 238 255
226 238 255
226 238 255
226 238 255
226 238 255
226 238 255
226 238 255
226 238 255
226 238 255
226 238 255
226 238 255
226 238 255
226 238 255
226 238 255
226 238 255
226 238 255
226 238 255
226 238 255
226 238 255
226 238 255
226 238 255
226 238 255
182 192 207
59 63 72
0 0 29
0 0 34
0 4 35
0 0 32
0 2 29
0 0 27
0 0 26
0 0 23
0 0 20
0 0 21
0 0 24
0 0 27
0 0 28
0 0 33
0 4 38
0 4 41
0 12 44
0 15 45
0 15 44
0 12 44
0 12 46
0 12 47
0 15 51
0 16 54
0 21 56
0 21 58
0 21 62
0 23 66
0 26 68
0 28 71
0 26 68
0 26 66
0 22 63
0 21 60
0 20 58
0 18 57
0 15 55
0 15 53
0 15 50
0 15 47
0 14 45
0 7 41
0 0 39
0 0 37
0 0 35
0 0 35
0 0 34
0 0 33
0 0 32
0 0 32
0 0 32
0 0 31
0 0 27
0 0 27
0 0 27
0 0 27
0 0 27
0 0 31
0 0 32
0 0 32
0 0 32
0 0 35
0 0 35
0 0 36
0 0 35
0 0 39
0 0 39
0 0 39
0 0 39
0 8 42
0 14 43
0 13 42
0 14 41
0 13 42
0 13 43
0 13 44
0 14 45
0 15 48
0 16 52
0 17 53
15 35 80
27 54 105
23 43 71
96 104 112
131 142 150
122 124 124
81 75 63
77 69 45
78 64 37
77 62 32
86 74 46
89 73 51
66 65 62
32 58 91
17 58 116
16 57 116
20 56 119
19 57 121
14 56 120
14 54 116
14 51 111
13 49 105
14 50 101
16 48 97
16 45 89
16 36 78
8 19 50
5 14 39
6 14 36
5 14 38
6 18 46
4 17 41
0 21 52
10 26 63
12 35 81
14 38 86
10 25 66
1 3 24
0 0 17
9 20 50
0 18 55
0 9 38
68 72 86
179 189 204
226 238 255
226 238 255
226 238 255
226 238 255
226 238 255
226 238 255
226 238 255
226 238 255
226 238 255
226 238 255
226 238 255
226 238 255
226 238 255
226 238 255
226 238 255
226 238 255
226 238 255
226 238 255
226 238 255
226 238 255
226 238 255
226 238 255
226 238 255
226 238 255
226 238 255
226 238 255
226 238 255
226 238 255
226 238 255
226 238 255
226 238 255
226 238 255
226 238 255
226 238 255
226 238 255
226 238 255
226 238 255
226 238 255
226 238 255
226 238 255
226 238 255
226 238 255
226 238 255
226 238 255
226 238 255
226 238 255
226 238 255
226 238 255
226 238 255
226 238 255
226 238 255
226 238 255
226 238 255
226 238 255
226 238 255
226 238 255
226 238 255
226 238 255
226 238 255
226 238 255
226 238 255
226 238 255
226 238 255
226 238 255
226 238 255
226 238 255
226 238 255
226 238 255
226 238 255
226 238 255
226 238 255
226 238 255
226 238 255
226 238 255
226 238 255
226 238 255
226 238 255
226 238 255
226 238 255
226 238 255
226 238 255
226 238 255
226 238 255
226 238 255
226 238 255
226 238 255
226 238 255
226 238 255
226 238 255
226 238 255
226 238 255
226 238 255
226 238 255
226 238 255
226 238 255
226 238 255
226 238 255
226 238 255
226 238 255
226 238 255
226 238 255
226 238 255
226 238 255
226 238 255
226 238 255
226 238 255
226 238 255
226 238 255
226 238 255
226 238 255
226 238 255
226 238 255
226 238 255
226 238 255
226 238 255
226 238 255
226 238 255
226 238 255
226 238 255
226 238 255
226 238 255
226 238 255
226 238 255
226 238 255
226 238 255
226 238 255
226 238 255
226 238 255
226 238 255
226 238 255
226 238 255
226 238 255
226 238 255
226 238 255
226 238 255
226 238 255
226 238 255
226 238 255
226 238 255
226 238 255
226 238 255
226 238 255
226 238 255
226 238 255
226 238 255
226 238 255
226 238 255
226 238 255
226 238 255
226 238 255
226 238 255
226 238 255
226 238 255
226 238 255
226 238 255
226 238 255
226 238 255
226 238 255
226 238 255
226 238 255
226 238 255
226 238 255
226 238 255
226 238 255
226 238 255
226 238 255
226 238 255
226 238 255
226 238 255
226 238 255
226 238 255
226 238 255
226 238 255
226 238 255
226 238 255
226 238 255
226 238 255
226 238 255
226 238 255
226 238 255
226 238 255
226 238 255
226 238 255
226 238 255
226 238 255
226 238 255
226 238 255
226 238 255
226 238 255
226 238 255
226 238 255
226 238 255
226 238 255
226 238 255
226 238 255
226 238 255
226 238 255
226 238 255
226 238 255
226 238 255
226 238 255
226 238 255
226 238 255
226 238 255
226 238 255
226 238 255
226 238 255
226 238 255
226 238 255
226 238 255
226 238 255
226 238 255
226 238 255
226 238 255
226 238 255
226 238 255
226 238 255
226 238 255
226 238 255
226 238 255
226 238 255
226 238 255
226 238 255
226 238 255
226 238 255
226 238 255
226 238 255
226 238 255
226 238 255
226 238 255
226 238 255
226 238 255
226 238 255
226 238 255
226 238 255
226 238 255
226 238 255
226 238 255
226 238 255
226 238 255
226 238 255
226 238 255
226 238 255
226 238 255
226 238 255
226 238 255
226 238 255
226 238 255
226 238 255
226 238 255
226 238 255
226 238 255
226 238 255
226 238 255
226 238 255
226 238 255
226 238 255
226 238 255
226 238 255
226 238 255
226 238 255
226 238 255
226 238 255
226 238 255
226 238 255
226 238 255
226 238 255
226 238 255
226 238 255
226 238 255
226 238 255
226 238 255
226 238 255
226 238 255
226 238 255
219 231 248
124 130 142
0 5 33
0 1 35
0 3 36
0 9 37
0 7 33
0 1 28
0 0 27
0 0 27
0 0 27
0 0 25
0 0 23
0 0 27
0 0 29
0 0 34
0 6 38
0 15 46
0 15 47
0 15 47
0 15 47
0 15 49
0 15 52
0 15 55
0 18 57
0 21 60
0 23 63
0 23 63
0 23 65
0 26 67
0 28 70
0 27 68
0 25 64
0 21 61
0 21 60
0 16 58
0 15 55
0 15 52
0 15 50
0 15 49
0 15 47
0 10 44
0 0 42
0 0 41
0 0 38
0 0 35
0 0 35
0 0 35
0 0 35
0 0 32
0 0 33
0 0 31
0 0 28
0 0 27
0 0 27
0 0 27
0 0 26
0 0 24
0 0 27
0 0 28
0 0 28
0 0 29
0 0 31
0 0 31
0 0 31
0 0 32
0 0 33
0 0 36
0 0 37
0 3 36
0 4 36
0 4 37
0 3 38
0 2 39
0 2 39
0 0 39
0 7 39
0 12 42
0 13 43
0 13 47
8 32 74
21 50 93
10 26 41
66 75 80
136 147 156
110 124 125
119 119 102
72 62 38
72 62 33
76 63 35
82 69 49
68 63 57
49 63 82
23 57 114
15 59 119
15 58 121
16 56 119
20 57 116
17 57 116
15 56 117
14 55 117
14 55 116
14 55 117
14 52 113
14 50 107
12 45 99
11 39 88
6 32 77
7 31 75
7 33 80
8 34 82
3 30 78
8 34 80
9 35 83
13 40 87
5 30 71
0 16 49
0 9 42
0 5 36
6 21 59
3 22 62
0 12 38
111 117 128
215 226 243
226 238 255
226 238 255
226 238 255
226 238 255
226 238 255
226 238 255
226 238 255
226 238 255
226 238 255
226 238 255
226 238 255
226 238 255
226 238 255
226 238 255
226 238 255
226 238 255
226 238 255
226 238 255
226 238 255
226 238 255
226 238 255
226 238 255
226 238 255
226 238 255
226 238 255
226 238 255
226 238 255
226 238 255
226 238 255
226 238 255
226 238 255
226 238 255
226 238 255
226 238 255
226 238 255
226 238 255
226 238 255
226 238 255
226 238 255
226 238 255
226 238 255
226 238 255
226 238 255
226 238 255
226 238 255
226 238 255
226 238 255
226 238 255
226 238 255
226 238 255
226 238 255
226 238 255
226 238 255
226 238 255
226 238 255
226 238 255
226 238 255
226 238 255
226 238 255
226 238 255
226 238 255
226 238 255
226 238 255
226 238 255
226 238 255
226 238 255
226 238 255
226 238 255
226 238 255
226 238 255
226 238 255
226 238 255
226 238 255
226 238 255
226 238 255
226 238 255
226 238 255
226 238 255
226 238 255
226 238 255
226 238 255
226 238 255
226 238 255
226 238 255
226 238 255
226 238 255
226 238 255
226 238 255
226 238 255
226 238 255
226 238 255
226 238 255
226 238 255
226 238 255
226 238 255
226 238 255
226 238 255
226 238 255
226 238 255
226 238 255
226 238 255
226 238 255
226 238 255
226 238 255
226 238 255
226 238 255
226 238 255
226 238 255
226 238 255
226 238 255
226 238 255
226 238 255
226 238 255
226 238 255
226 238 255
226 238 255
226 238 255
226 238 255
226 238 255
226 238 255
226 238 255
226 238 255
226 238 255
226 238 255
226 238 255
226 238 255
226 238 255
226 238 255
226 238 255
226 238 255
226 238 255
226 238 255
226 238 255
226 238 255
226 238 255
226 238 255
226 238 255
226 238 255
226 238 255
226 238 255
226 238 255
226 238 255
226 238 255
226 238 255
226 238 255
226 238 255
226 238 255
226 238 255
226 238 255
226 238 255
226 238 255
226 238 255
226 238 255
226 238 255
226 238 255
226 238 255
226 238 255
226 238 255
226 238 255
226 238 255
226 238 255
226 238 255
226 238 255
226 238 255
226 238 255
226 238 255
226 238 255
226 238 255
226 238 255
226 238 255
226 238 255
226 238 255
226 238 255
226 238 255
226 238 255
226 238 255
226 238 255
226 238 255
226 238 255
226 238 255
226 238 255
226 238 255
226 238 255
226 238 255
226 238 255
226 238 255
226 238 255
226 238 255
226 238 255
226 238 255
226 238 255
226 238 255
226 238 255
226 238 255
226 238 255
226 238 255
226 238 255
226 238 255
226 238 255
226 238 255
226 238 255
226 238 255
226 238 255
226 238 255
226 238 255
226 238 255
226 238 255
226 238 255
226 238 255
226 238 255
226 238 255
226 238 255
226 238 255
226 238 255
226 238 255
226 238 255
226 238 255
226 238 255
226 238 255
226 238 255
226 238 255
226 238 255
226 238 255
226 238 255
226 238 255
226 238 255
226 238 255
226 238 255
226 238 255
226 238 255
226 238 255
226 238 255
226 238 255
226 238 255
226 238 255
226 238 255
226 238 255
226 238 255
226 238 255
226 238 255
226 238 255
226 238 255
226 238 255
226 238 255
226 238 255
226 238 255
226 238 255
226 238 255
226 238 255
226 238 255
226 238 255
226 238 255
226 238 255
226 238 255
226 238 255
226 238 255
226 238 255
226 238 255
226 238 255
226 238 255
226 238 255
226 238 255
226 238 255
226 238 255
226 238 255
226 238 255
226 238 255
226 238 255
226 238 255
226 238 255
226 238 255
226 238 255
226 238 255
226 238 255
226 238 255
226 238 255
226 238 255
224 236 253
158 167 181
60 64 77
0 7 39
0 6 37
0 12 43
0 14 46
4 12 41
0 7 34
0 2 29
0 0 28
0 0 25
0 0 24
0 0 30
0 0 34
0 3 36
0 12 40
0 15 46
0 15 49
0 15 51
0 15 51
0 15 52
0 16 55
0 21 58
0 22 62
0 26 67
0 28 72
0 26 66
0 23 62
0 25 65
0 25 66
0 21 62
0 21 59
0 21 58
0 15 57
0 15 54
0 15 51
0 15 48
0 15 46
0 15 45
0 8 42
0 0 40
0 0 38
0 0 36
0 0 35
0 0 33
0 0 35
0 0 35
0 0 33
0 0 35
0 0 33
0 0 28
0 0 27
0 0 27
0 0 26
0 0 22
0 0 22
0 0 22
0 0 24
0 0 27
0 0 27
0 0 28
0 0 27
0 0 28
0 0 27
0 0 27
0 0 28
0 0 31
0 0 32
0 0 31
0 0 32
0 0 36
0 0 38
0 0 39
0 8 40
0 13 41
0 11 43
0 11 44
0 20 60
13 42 87
21 42 69
66 78 86
142 149 162
180 187 194
87 92 77
82 77 51
79 68 41
79 65 43
74 60 46
62 63 57
33 56 88
19 57 114
17 57 120
18 57 115
15 59 119
16 57 119
20 55 120
18 56 120
16 59 116
17 58 116
15 56 120
14 54 118
14 48 104
9 43 95
0 39 91
0 35 84
0 31 78
0 31 76
0 31 77
0 30 74
0 28 70
0 27 72
4 27 72
4 20 56
0 11 48
7 21 61
5 19 57
2 20 57
0 11 38
50 53 64
165 173 187
226 238 255
226 238 255
226 238 255
226 238 255
226 238 255
226 238 255
226 238 255
226 238 255
226 238 255
226 238 255
226 238 255
226 238 255
226 238 255
226 238 255
226 238 255
226 238 255
226 238 255
226 238 255
226 238 255
226 238 255
226 238 255
226 238 255
226 238 255
226 238 255
226 238 255
226 238 255
226 238 255
226 238 255
226 238 255
226 238 255
226 238 255
226 238 255
226 238 255
226 238 255
226 238 255
226 238 255
226 238 255
226 238 255
226 238 255
226 238 255
226 238 255
226 238 255
226 238 255
226 238 255
226 238 255
226 238 255
226 238 255
226 238 255
226 238 255
226 238 255
226 238 255
226 238 255
226 238 255
226 238 255
226 238 255
226 238 255
226 238 255
226 238 255
226 238 255
226 238 255
226 238 255
226 238 255
226 238 255
226 238 255
226 238 255
226 238 255
226 238 255
226 238 255
226 238 255
226 238 255
226 238 255
226 238 255
226 238 255
226 238 255
226 238 255
226 238 255
226 238 255
226 238 255
226 238 255
226 238 255
226 238 255
226 238 255
226 238 255
226 238 255
226 238 255
226 238 255
226 238 255
226 238 255
226 238 255
226 238 255
226 238 255
226 238 255
226 238 255
226 238 255
226 238 255
226 238 255
226 238 255
226 238 255
226 238 255
226 238 255
226 238 255
226 238 255
226 238 255
226 238 255
226 238 255
226 238 255
226 238 255
226 238 255
226 238 255
226 238 255
226 238 255
226 238 255
226 238 255
226 238 255
226 238 255
226 238 255
226 238 255
226 238 255
226 238 255
226 238 255
226 238 255
226 238 255
226 238 255
226 238 255
226 238 255
226 238 255
226 238 255
226 238 255
226 238 255
226 238 255
226 238 255
226 238 255
226 238 255
226 238 255
226 238 255
226 238 255
226 238 255
226 238 255
226 238 255
226 238 255
226 238 255
226 238 255
226 238 255
226 238 255
226 238 255
226 238 255
226 238 255
226 238 255
226 238 255
226 238 255
226 238 255
226 238 255
226 238 255
226 238 255
226 238 255
226 238 255
226 238 255
226 238 255
226 238 255
226 238 255
226 238 255
226 238 255
226 238 255
226 238 255
226 238 255
226 238 255
226 238 255
226 238 255
226 238 255
226 238 255
226 238 255
226 238 255
226 238 255
226 238 255
226 238 255
226 238 255
226 238 255
226 238 255
226 238 255
226 238 255
226 238 255
226 238 255
226 238 255
226 238 255
226 238 255
226 238 255
226 238 255
226 238 255
226 238 255
226 238 255
226 238 255
226 238 255
226 238 255
226 238 255
226 238 255
226 238 255
226 238 255
226 238 255
226 238 255
226 238 255
226 238 255
226 238 255
226 238 255
226 238 255
226 238 255
226 238 255
226 238 255
226 238 255
226 238 255
226 238 255
226 238 255
226 238 255
226 238 255
226 238 255
226 238 255
226 238 255
226 238 255
226 238 255
226 238 255
226 238 255
226 238 255
226 238 255
226 238 255
226 238 255
226 238 255
226 238 255
226 238 255
226 238 255
226 238 255
226 238 255
226 238 255
226 238 255
226 238 255
226 238 255
226 238 255
226 238 255
226 238 255
226 238 255
226 238 255
226 238 255
226 238 255
226 238 255
226 238 255
226 238 255
226 238 255
226 238 255
226 238 255
226 238 255
226 238 255
226 238 255
226 238 255
226 238 255
226 238 255
226 238 255
226 238 255
226 238 255
226 238 255
226 238 255
226 238 255
226 238 255
226 238 255
226 238 255
226 238 255
226 238 255
226 238 255
226 238 255
226 238 255
226 238 255
226 238 255
226 238 255
226 238 255
226 238 255
226 238 255
226 238 255
226 238 255
226 238 255
226 238 255
226 238 255
226 238 255
226 238 255
226 238 255
211 222 239
115 122 135
0 12 46
0 13 44
0 13 45
0 18 52
0 21 56
2 19 56
0 14 47
0 5 35
0 0 29
0 0 27
0 0 29
0 0 34
0 2 38
0 12 42
0 15 46
0 15 50
0 15 52
0 15 52
0 15 53
0 19 56
0 21 60
0 24 63
0 27 70
0 25 67
0 22 63
0 21 62
0 21 61
0 18 58
0 15 55
0 15 54
0 15 55
0 15 53
0 15 49
0 15 47
0 15 44
0 14 43
0 2 40
0 0 38
0 0 35
0 0 35
0 0 33
0 0 32
0 0 35
0 0 35
0 0 35
0 0 35
0 0 35
0 0 31
0 0 27
0 0 27
0 0 25
0 0 22
0 0 21
0 0 18
0 0 21
0 0 23
0 0 24
0 0 23
0 0 24
0 0 25
0 0 25
0 0 26
0 0 27
0 0 29
0 0 29
0 0 28
0 0 31
0 0 35
0 0 38
0 0 39
0 9 40
0 15 44
0 10 45
0 15 49
7 31 74
20 50 95
27 46 71
57 73 86
168 177 190
108 114 106
92 90 70
72 64 39
59 54 25
53 56 47
38 57 96
22 59 109
17 58 119
14 59 119
15 58 119
16 58 116
14 57 117
16 56 118
18 56 118
22 58 107
22 56 92
22 56 100
18 55 112
6 46 103
10 41 95
10 36 87
0 32 80
0 28 75
0 25 70
0 23 65
3 23 65
3 21 64
8 26 69
15 40 85
4 26 68
16 36 75
23 48 91
2 19 55
2 14 38
0 4 19
130 137 148
217 229 245
226 238 255
226 238 255
226 238 255
226 238 255
226 238 255
226 238 255
226 238 255
226 238 255
226 238 255
226 238 255
226 238 255
226 238 255
226 238 255
226 238 255
226 238 255
226 238 255
226 238 255
226 238 255
226 238 255
226 238 255
226 238 255
226 238 255
226 238 255
226 238 255
226 238 255
226 238 255
226 238 255
226 238 255
226 238 255
226 238 255
226 238 255
226 238 255
226 238 255
226 238 255
226 238 255
226 238 255
226 238 255
226 238 255
226 238 255
226 238 255
226 238 255
226 238 255
226 238 255
226 238 255
226 238 255
226 238 255
226 238 255
226 238 255
226 238 255
226 238 255
226 238 255
226 238 255
226 238 255
226 238 255
226 238 255
226 238 255
226 238 255
226 238 255
226 238 255
226 238 255
226 238 255
226 238 255
226 238 255
226 238 255
226 238 255
226 238 255
226 238 255
226 238 255
226 238 255
226 238 255
226 238 255
226 238 255
226 238 255
226 238 255
226 238 255
226 238 255
226 238 255
226 238 255
226 238 255
226 238 255
226 238 255
226 238 255
226 238 255
226 238 255
226 238 255
226 238 255
226 238 255
226 238 255
226 238 255
226 238 255
226 238 255
226 238 255
226 238 255
226 238 255
226 238 255
226 238 255
226 238 255
226 238 255
226 238 255
226 238 255
226 238 255
226 238 255
226 238 255
226 238 255
226 238 255
226 238 255
226 238 255
226 238 255
226 238 255
226 238 255
226 238 255
226 238 255
226 238 255
226 238 255
226 238 255
226 238 255
226 238 255
226 238 255
226 238 255
226 238 255
226 238 255
226 238 255
226 238 255
226 238 255
226 238 255
226 238 255
226 238 255
226 238 255
226 238 255
226 238 255
226 238 255
226 238 255
226 238 255
226 238 255
226 238 255
226 238 255
226 238 255
226 238 255
226 238 255
226 238 255
226 238 255
226 238 255
226 238 255
226 238 255
226 238 255
226 238 255
226 238 255
226 238 255
226 238 255
226 238 255
226 238 255
226 238 255
226 238 255
226 238 255
226 238 255
226 238 255
226 238 255
226 238 255
226 238 255
226 238 255
226 238 255
226 238 255
226 238 255
226 238 255
226 238 255
226 238 255
226 238 255
226 238 255
226 238 255
226 238 255
226 238 255
226 238 255
226 238 255
226 238 255
226 238 255
226 238 255
226 238 255
226 238 255
226 238 255
226 238 255
226 238 255
226 238 255
226 238 255
226 238 255
226 238 255
226 238 255
226 238 255
226 238 255
226 238 255
226 238 255
226 238 255
226 238 255
226 238 255
226 238 255
226 238 255
226 238 255
226 238 255
226 238 255
226 238 255
226 238 255
226 238 255
226 238 255
226 238 255
226 238 255
226 238 255
226 238 255
226 238 255
226 238 255
226 238 255
226 238 255
226 238 255
226 238 255
226 238 255
226 238 255
226 238 255
226 238 255
226 238 255
226 238 255
226 238 255
226 238 255
226 238 255
226 238 255
226 238 255
226 238 255
226 238 255
226 238 255
226 238 255
226 238 255
226 238 255
226 238 255
226 238 255
226 238 255
226 238 255
226 238 255
226 238 255
226 238 255
226 238 255
226 238 255
226 238 255
226 238 255
226 238 255
226 238 255
226 238 255
226 238 255
226 238 255
226 238 255
226 238 255
226 238 255
226 238 255
226 238 255
226 238 255
226 238 255
226 238 255
226 238 255
226 238 255
226 238 255
226 238 255
226 238 255
226 238 255
226 238 255
226 238 255
226 238 255
226 238 255
226 238 255
226 238 255
226 238 255
226 238 255
226 238 255
226 238 255
226 238 255
226 238 255
226 238 255
226 238 255
226 238 255
226 238 255
226 238 255
226 238 255
226 238 255
226 238 255
226 238 255
226 238 255
226 238 255
226 238 255
226 238 255
188 198 214
60 64 83
0 18 55
0 18 53
0 17 52
3 23 62
0 25 69
0 25 66
0 18 56
0 11 41
0 7 35
0 3 32
0 4 36
0 7 41
0 13 44
0 15 48
0 15 51
0 15 52
0 15 52
0 15 55
0 21 59
0 23 63
0 27 69
0 27 69
0 23 64
0 21 60
0 21 60
0 19 58
0 15 54
0 15 52
0 15 50
0 15 50
0 15 49
0 15 47
0 12 43
0 8 40
0 2 39
0 0 39
0 0 39
0 0 38
0 0 35
0 0 32
0 0 32
0 0 32
0 0 33
0 0 32
0 0 30
0 0 27
0 0 24
0 0 23
0 0 23
0 0 20
0 0 16
0 0 16
0 0 17
0 0 20
0 0 22
0 0 22
0 0 22
0 0 22
0 0 23
0 0 25
0 0 28
0 0 29
0 0 28
0 0 30
0 0 31
0 0 33
0 0 36
0 1 38
0 14 43
0 15 48
0 10 45
0 15 48
9 31 75
25 55 105
34 56 82
75 84 94
132 140 147
86 87 76
68 63 42
55 46 22
52 47 18
32 55 79
17 60 110
14 58 117
15 57 119
14 57 119
14 57 117
15 57 116
14 57 116
19 56 111
23 49 89
34 54 82
29 53 92
21 50 103
11 42 95
8 36 84
7 30 74
5 28 71
10 27 74
15 28 70
0 17 55
8 25 66
10 27 68
9 30 74
8 33 78
13 39 85
21 48 100
75 102 143
17 37 73
7 21 54
64 68 80
178 188 202
226 238 255
226 238 255
226 238 255
226 238 255
226 238 255
226 238 255
226 238 255
226 238 255
226 238 255
226 238 255
226 238 255
226 238 255
226 238 255
226 238 255
226 238 255
226 238 255
226 238 255
226 238 255
226 238 255
226 238 255
226 238 255
226 238 255
226 238 255
226 238 255
226 238 255
226 238 255
226 238 255
226 238 255
226 238 255
226 238 255
226 238 255
226 238 255
226 238 255
226 238 255
226 238 255
226 238 255
226 238 255
226 238 255
226 238 255
226 238 255
226 238 255
226 238 255
226 238 255
226 238 255
226 238 255
226 238 255
226 238 255
226 238 255
226 238 255
226 238 255
226 238 255
226 238 255
226 238 255
226 238 255
226 238 255
226 238 255
226 238 255
226 238 255
226 238 255
226 238 255
226 238 255
226 238 255
226 238 255
226 238 255
226 238 255
226 238 255
226 238 255
226 238 255
226 238 255
226 238 255
226 238 255
226 238 255
226 238 255
226 238 255
226 238 255
226 238 255
226 238 255
226 238 255
226 238 255
226 238 255
226 238 255
226 238 255
226 238 255
226 238 255
226 238 255
226 238 255
226 238 255
226 238 255
226 238 255
226 238 255
226 238 255
226 238 255
226 238 255
226 238 255
226 238 255
226 238 255
226 238 255
226 238 255
226 238 255
226 238 255
226 238 255
226 238 255
226 238 255
226 238 255
226 238 255
226 238 255
226 238 255
226 238 255
226 238 255
226 238 255
226 238 255
226 238 255
226 238 255
226 238 255
226 238 255
226 238 255
226 238 255
226 238 255
226 238 255
226 238 255
226 238 255
226 238 255
226 238 255
226 238 255
226 238 255
226 238 255
226 238 255
226 238 255
226 238 255
226 238 255
226 238 255
226 238 255
226 238 255
226 238 255
226 238 255
226 238 255
226 238 255
226 238 255
226 238 255
226 238 255
226 238 255
226 238 255
226 238 255
226 238 255
226 238 255
226 238 255
226 238 255
226 238 255
226 238 255
226 238 255
226 238 255
226 238 255
226 238 255
226 238 255
226 238 255
226 238 255
226 238 255
226 238 255
226 238 255
226 238 255
226 238 255
226 238 255
226 238 255
226 238 255
226 238 255
226 238 255
226 238 255
226 238 255
226 238 255
226 238 255
226 238 255
226 238 255
226 238 255
226 238 255
226 238 255
226 238 255
226 238 255
226 238 255
226 238 255
226 238 255
226 238 255
226 238 255
226 238 255
226 238 255
226 238 255
226 238 255
226 238 255
226 238 255
226 238 255
226 238 255
226 238 255
226 238 255
226 238 255
226 238 255
226 238 255
226 238 255
226 238 255
226 238 255
226 238 255
226 238 255
226 238 255
226 238 255
226 238 255
226 238 255
226 238 255
226 238 255
226 238 255
226 238 255
226 238 255
226 238 255
226 238 255
226 238 255
226 238 255
226 238 255
226 238 255
226 238 255
226 238 255
226 238 255
226 238 255
226 238 255
226 238 255
226 238 255
226 238 255
226 238 255
226 238 255
226 238 255
226 238 255
226 238 255
226 238 255
226 238 255
226 238 255
226 238 255
226 238 255
226 238 255
226 238 255
226 238 255
226 238 255
226 238 255
226 238 255
226 238 255
226 238 255
226 238 255
226 238 255
226 238 255
226 238 255
226 238 255
226 238 255
226 238 255
226 238 255
226 238 255
226 238 255
226 238 255
226 238 255
226 238 255
226 238 255
226 238 255
226 238 255
226 238 255
226 238 255
226 238 255
226 238 255
226 238 255
226 238 255
226 238 255
226 238 255
226 238 255
226 238 255
226 238 255
226 238 255
226 238 255
226 238 255
226 238 255
226 238 255
226 238 255
226 238 255
226 238 255
226 238 255
226 238 255
226 238 255
226 238 255
226 238 255
226 238 255
226 238 255
226 238 255
226 238 255
226 238 255
226 238 255
223 235 252
163 172 188
22 30 63
0 24 64
0 24 64
3 20 58
0 27 70
0 27 72
0 24 66
0 22 60
0 19 53
0 13 47
0 10 40
0 9 41
0 14 48
0 17 55
0 18 54
0 17 54
0 15 55
0 19 58
0 21 62
0 23 65
0 25 67
0 24 64
0 22 60
0 21 57
0 18 56
0 15 52
0 15 50
0 15 50
0 15 50
0 15 50
0 15 47
0 9 43
0 0 39
0 0 39
0 0 39
0 0 39
0 0 39
0 0 36
0 0 36
0 0 32
0 0 28
0 0 29
0 0 28
0 0 27
0 0 25
0 0 22
0 0 22
0 0 21
0 0 16
0 0 16
0 0 16
0 0 16
0 0 17
0 0 22
0 0 21
0 0 21
0 0 22
0 0 22
0 0 23
0 0 25
0 0 26
0 0 27
0 0 27
0 0 28
0 0 30
0 0 34
0 0 36
0 4 39
0 13 44
0 14 44
0 8 44
14 37 84
31 62 109
49 72 93
76 85 102
73 82 89
74 77 71
76 75 55
45 44 33
42 48 42
27 54 89
16 58 118
14 57 119
15 57 118
15 57 116
15 56 114
15 55 113
15 53 115
13 52 110
15 50 102
13 46 100
9 36 88
3 31 74
6 30 73
13 37 82
16 38 84
12 30 70
6 18 53
1 8 38
0 10 40
0 10 44
0 15 51
1 17 58
0 21 59
1 17 55
4 22 60
3 23 61
45 51 76
165 174 189
217 229 245
226 238 255
226 238 255
226 238 255
226 238 255
226 238 255
226 238 255
226 238 255
226 238 255
226 238 255
226 238 255
226 238 255
226 238 255
226 238 255
226 238 255
226 238 255
226 238 255
226 238 255
226 238 255
226 238 255
226 238 255
226 238 255
226 238 255
226 238 255
226 238 255
226 238 255
226 238 255
226 238 255
226 238 255
226 238 255
226 238 255
226 238 255
226 238 255
226 238 255
226 238 255
226 238 255
226 238 255
226 238 255
226 238 255
226 238 255
226 238 255
226 238 255
226 238 255
226 238 255
226 238 255
226 238 255
226 238 255
226 238 255
226 238 255
226 238 255
226 238 255
226 238 255
226 238 255
226 238 255
226 238 255
226 238 255
226 238 255
226 238 255
226 238 255
226 238 255
226 238 255
226 238 255
226 238 255
226 238 255
226 238 255
226 238 255
226 238 255
226 238 255
226 238 255
226 238 255
226 238 255
226 238 255
226 238 255
226 238 255
226 238 255
226 238 255
226 238 255
226 238 255
226 238 255
226 238 255
226 238 255
226 238 255
226 238 255
226 238 255
226 238 255
226 238 255
226 238 255
226 238 255
226 238 255
226 238 255
226 238 255
226 238 255
226 238 255
226 238 255
226 238 255
226 238 255
226 238 255
226 238 255
226 238 255
226 238 255
226 238 255
226 238 255
226 238 255
226 238 255
226 238 255
226 238 255
226 238 255
226 238 255
226 238 255
226 238 255
226 238 255
226 238 255
226 238 255
226 238 255
226 238 255
226 238 255
226 238 255
226 238 255
226 238 255
226 238 255
226 238 255
226 238 255
226 238 255
226 238 255
226 238 255
226 238 255
226 238 255
226 238 255
226 238 255
226 238 255
226 238 255
226 238 255
226 238 255
226 238 255
226 238 255
226 238 255
226 238 255
226 238 255
226 238 255
226 238 255
226 238 255
226 238 255
226 238 255
226 238 255
226 238 255
226 238 255
226 238 255
226 238 255
226 238 255
226 238 255
226 238 255
226 238 255
226 238 255
226 238 255
226 238 255
226 238 255
226 238 255
226 238 255
226 238 255
226 238 255
226 238 255
226 238 255
226 238 255
226 238 255
226 238 255
226 238 255
226 238 255
226 238 255
226 238 255
226 238 255
226 238 255
226 238 255
226 238 255
226 238 255
226 238 255
226 238 255
226 238 255
226 238 255
226 238 255
226 238 255
226 238 255
226 238 255
226 238 255
226 238 255
226 238 255
226 238 255
226 238 255
226 238 255
226 238 255
226 238 255
226 238 255
226 238 255
226 238 255
226 238 255
226 238 255
226 238 255
226 238 255
226 238 255
226 238 255
226 238 255
226 238 255
226 238 255
226 238 255
226 238 255
226 238 255
226 238 255
226 238 255
226 238 255
226 238 255
226 238 255
226 238 255
226 238 255
226 238 255
226 238 255
226 238 255
226 238 255
226 238 255
226 238 255
226 238 255
226 238 255
226 238 255
226 238 255
226 238 255
226 238 255
226 238 255
226 238 255
226 238 255
226 238 255
226 238 255
226 238 255
226 238 255
226 238 255
226 238 255
226 238 255
226 238 255
226 238 255
226 238 255
226 238 255
226 238 255
226 238 255
226 238 255
226 238 255
226 238 255
226 239 255
226 239 255
226 239 255
226 239 255
226 239 255
226 239 255
226 239 255
226 239 255
226 239 255
226 239 255
226 239 255
226 239 255
226 239 255
226 239 255
226 239 255
226 239 255
226 239 255
226 239 255
226 239 255
226 239 255
226 239 255
226 239 255
226 239 255
226 239 255
226 239 255
226 239 255
226 239 255
226 239 255
226 239 255
226 239 255
226 239 255
226 239 255
226 239 255
226 239 255
226 239 255
226 239 255
226 239 255
226 239 255
227 239 255
226 239 255
226 239 255
227 239 255
227 239 255
227 239 255
227 239 255
227 239 255
227 239 255
227 239 255
215 226 243
134 142 158
0 25 67
0 27 70
0 22 62
0 24 65
0 26 71
0 26 68
0 23 64
0 21 59
0 16 52
0 15 47
0 15 48
0 18 54
0 20 56
0 21 58
0 22 60
0 21 62
0 25 68
0 26 69
0 25 67
3 28 69
0 23 62
0 21 56
0 15 54
0 15 52
0 15 50
0 15 50
0 15 50
0 15 51
0 15 50
0 13 45
0 0 40
0 0 39
0 0 39
0 0 39
0 0 39
0 0 36
0 0 36
0 0 32
0 0 26
0 0 23
0 0 24
0 0 27
0 0 27
0 0 24
0 0 22
0 0 17
0 0 16
0 0 16
0 0 15
0 0 16
0 0 16
0 0 18
0 0 16
0 0 16
0 0 16
0 0 16
0 0 17
0 0 16
0 0 20
0 0 23
0 0 23
0 0 25
0 0 29
0 0 32
0 0 34
0 0 36
0 8 40
0 2 40
0 1 39
15 37 82
22 52 103
34 60 87
101 116 130
104 117 132
71 84 99
35 50 64
40 48 40
47 56 44
28 55 86
21 58 114
16 56 118
15 57 120
14 54 117
14 54 116
18 55 119
19 56 117
16 57 116
17 56 117
20 54 110
16 44 93
10 30 72
6 20 57
0 9 42
0 0 36
0 8 42
0 12 43
0 9 41
0 14 45
0 16 49
0 20 60
5 23 62
1 17 54
0 17 55
23 31 63
138 146 162
205 216 232
227 239 255
227 239 255
227 239 255
227 239 255
227 239 255
227 239 255
227 239 255
227 239 255
226 239 255
226 239 255
226 239 255
226 239 255
226 239 255
226 239 255
226 239 255
226 239 255
226 239 255
226 239 255
226 239 255
226 239 255
226 239 255
226 239 255
226 239 255
226 239 255
226 239 255
226 239 255
226 239 255
226 239 255
226 239 255
226 239 255
226 239 255
226 239 255
226 239 255
226 239 255
226 239 255
226 239 255
226 239 255
226 239 255
226 239 255
226 239 255
226 239 255
226 239 255
226 239 255
226 239 255
226 239 255
226 239 255
226 239 255
226 238 255
226 238 255
226 238 255
226 238 255
226 238 255
226 238 255
226 238 255
226 238 255
226 238 255
226 238 255
226 238 255
226 238 255
226 238 255
226 238 255
226 238 255
226 238 255
226 238 255
226 238 255
226 238 255
226 238 255
226 238 255
226 238 255
226 238 255
226 238 255
226 238 255
226 238 255
226 238 255
226 238 255
226 238 255
226 238 255
226 238 255
226 238 255
226 238 255
226 238 255
226 238 255
226 238 255
226 238 255
226 238 255
226 238 255
226 238 255
226 238 255
226 238 255
226 238 255
226 238 255
226 238 255
226 238 255
226 238 255
226 238 255
226 238 255
226 238 255
226 238 255
226 238 255
226 238 255
226 238 255
226 238 255
226 238 255
226 238 255
226 238 255
226 238 255
226 238 255
226 238 255
226 238 255
226 238 255
226 238 255
226 238 255
226 238 255
226 238 255
226 238 255
226 238 255
226 238 255
226 238 255
226 238 255
226 238 255
226 238 255
226 238 255
226 238 255
226 238 255
226 238 255
226 238 255
226 238 255
226 238 255
226 238 255
226 238 255
226 238 255
226 238 255
226 238 255
226 238 255
226 238 255
226 238 255
226 238 255
226 238 255
226 238 255
226 238 255
226 238 255
226 238 255
226 238 255
226 238 255
226 238 255
226 238 255
226 238 255
226 238 255
226 238 255
226 238 255
226 238 255
226 238 255
226 238 255
226 238 255
226 238 255
226 238 255
226 238 255
226 238 255
226 238 255
226 238 255
226 238 255
226 238 255
226 238 255
226 238 255
226 238 255
226 238 255
226 238 255
226 238 255
226 238 255
226 238 255
226 238 255
226 238 255
226 238 255
226 238 255
226 238 255
226 238 255
226 238 255
226 238 255
226 238 255
226 238 255
226 238 255
226 238 255
226 238 255
226 238 255
226 238 255
226 238 255
226 238 255
226 238 255
226 238 255
226 238 255
226 238 255
226 238 255
226 238 255
226 238 255
226 238 255
226 238 255
226 238 255
226 238 255
226 238 255
226 238 255
226 238 255
226 238 255
226 238 255
226 238 255
226 238 255
226 238 255
226 238 255
226 238 255
226 239 255
226 239 255
226 239 255
226 239 255
226 239 255
226 239 255
226 239 255
226 239 255
226 239 255
226 239 255
226 239 255
226 239 255
226 239 255
226 239 255
226 239 255
226 239 255
226 239 255
226 239 255
226 239 255
226 239 255
226 239 255
226 239 255
226 239 255
226 239 255
226 239 255
227 239 255
226 239 255
227 239 255
227 239 255
227 239 255
227 239 255
227 239 255
227 239 255
227 239 255
227 239 255
227 239 255
227 239 255
227 239 255
227 239 255
227 239 255
227 239 255
227 239 255
227 239 255
227 239 255
227 239 255
227 239 255
227 239 255
227 239 255
227 239 255
227 239 255
227 239 255
227 239 255
227 239 255
227 239 255
227 239 255
227 239 255
227 239 255
227 239 255
227 239 255
227 239 255
227 239 255
227 239 255
227 239 255
227 239 255
227 239 255
227 239 255
227 239 255
227 239 255
227 239 255
227 239 255
227 239 255
227 239 255
227 239 255
227 239 255
227 239 255
227 239 255
227 239 255
227 239 255
227 239 255
227 239 255
227 239 255
227 239 255
227 239 255
227 239 255
227 239 255
227 239 255
200 211 227
117 125 144
1 28 70
0 23 63
0 17 57
0 19 57
0 20 59
0 20 60
0 15 54
0 15 52
0 15 47
0 9 42
0 12 44
0 12 44
0 12 44
0 17 52
2 25 63
4 29 70
0 29 71
0 23 66
0 22 64
0 19 58
0 15 53
0 15 54
0 15 51
0 15 48
0 15 50
0 15 50
0 15 49
0 15 45
0 2 40
0 0 38
0 0 38
0 0 35
0 0 35
0 0 33
0 0 32
0 0 29
0 0 27
0 0 28
0 0 27
0 0 28
0 0 28
0 0 27
0 0 24
0 0 17
0 0 16
0 0 16
0 0 15
0 0 15
0 0 16
0 0 19
0 0 18
0 0 16
0 0 9
0 0 7
0 0 5
0 0 9
0 0 12
0 0 19
0 0 24
0 0 26
0 0 27
0 0 30
0 0 33
0 0 37
0 3 39
0 0 39
0 4 38
3 20 58
13 37 87
29 51 96
84 104 124
91 114 131
99 117 140
107 121 137
98 102 108
72 79 79
41 60 69
23 51 86
19 52 105
17 47 95
12 37 78
13 36 76
13 31 69
15 33 70
8 29 68
7 25 61
4 18 55
8 23 58
0 13 44
0 7 40
0 7 39
0 12 44
0 14 47
0 14 49
0 15 52
0 15 52
0 21 60
2 26 67
0 22 64
4 21 61
124 132 149
205 216 233
227 239 255
227 239 255
227 239 255
227 239 255
227 239 255
227 239 255
227 239 255
227 239 255
227 239 255
227 239 255
227 239 255
227 239 255
227 239 255
227 239 255
227 239 255
227 239 255
227 239 255
227 239 255
227 239 255
227 239 255
227 239 255
227 239 255
227 239 255
227 239 255
227 239 255
227 239 255
227 239 255
227 239 255
227 239 255
227 239 255
227 239 255
227 239 255
227 239 255
227 239 255
227 239 255
227 239 255
227 239 255
227 239 255
227 239 255
227 239 255
227 239 255
227 239 255
227 239 255
227 239 255
227 239 255
227 239 255
227 239 255
227 239 255
227 239 255
227 239 255
227 239 255
227 239 255
227 239 255
227 239 255
227 239 255
227 239 255
227 239 255
227 239 255
227 239 255
227 239 255
226 239 255
226 239 255
226 239 255
226 239 255
226 239 255
226 239 255
226 239 255
226 239 255
226 239 255
226 239 255
226 239 255
226 239 255
226 239 255
226 239 255
226 239 255
226 239 255
226 239 255
226 239 255
226 239 255
226 239 255
226 239 255
226 239 255
226 239 255
226 239 255
226 239 255
226 238 255
226 238 255
226 238 255
226 238 255
226 238 255
226 238 255
226 238 255
226 238 255
226 238 255
226 238 255
226 238 255
226 238 255
226 238 255
226 238 255
226 238 255
226 238 255
226 238 255
226 238 255
226 238 255
226 238 255
226 238 255
226 238 255
226 238 255
226 238 255
226 238 255
226 238 255
226 238 255
226 238 255
226 238 255
226 238 255
226 238 255
226 238 255
226 238 255
226 238 255
226 238 255
226 238 255
226 238 255
226 238 255
226 238 255
226 238 255
226 238 255
226 238 255
226 238 255
226 238 255
226 238 255
226 238 255
226 238 255
226 238 255
226 238 255
226 238 255
226 238 255
226 238 255
226 238 255
226 238 255
226 238 255
226 238 255
226 238 255
226 238 255
226 238 255
226 238 255
226 238 255
226 238 255
226 238 255
226 238 255
226 238 255
226 238 255
226 238 255
226 238 255
226 238 255
226 238 255
226 238 255
226 238 255
226 238 255
226 238 255
226 238 255
226 238 255
226 238 255
226 238 255
226 238 255
226 238 255
226 238 255
226 238 255
226 238 255
226 238 255
226 238 255
226 238 255
226 238 255
226 238 255
226 238 255
226 238 255
226 238 255
226 238 255
226 238 255
226 238 255
226 238 255
226 238 255
226 239 255
226 239 255
226 239 255
226 239 255
226 239 255
226 239 255
226 239 255
226 239 255
226 239 255
226 239 255
226 239 255
226 239 255
226 239 255
226 239 255
226 239 255
226 239 255
226 239 255
226 239 255
226 239 255
226 239 255
227 239 255
227 239 255
227 239 255
227 239 255
227 239 255
227 239 255
227 239 255
227 239 255
227 239 255
227 239 255
227 239 255
227 239 255
227 239 255
227 239 255
227 239 255
227 239 255
227 239 255
227 239 255
227 239 255
227 239 255
227 239 255
227 239 255
227 239 255
227 239 255
227 239 255
227 239 255
227 239 255
227 239 255
227 239 255
227 239 255
227 239 255
227 239 255
227 239 255
227 239 255
227 239 255
227 239 255
227 239 255
227 239 255
227 239 255
227 239 255
227 239 255
227 239 255
227 239 255
227 239 255
227 239 255
227 239 255
227 239 255
227 239 255
227 239 255
227 239 255
227 239 255
227 239 255
227 239 255
227 239 255
227 239 255
227 239 255
227 239 255
227 239 255
227 239 255
227 239 255
227 239 255
227 239 255
227 239 255
227 239 255
227 239 255
227 239 255
227 239 255
227 239 255
227 239 255
227 239 255
227 239 255
227 239 255
227 239 255
227 239 255
227 239 255
227 239 255
227 239 255
227 239 255
227 239 255
227 239 255
227 239 255
227 239 255
227 239 255
227 239 255
227 239 255
227 239 255
227 239 255
227 239 255
227 239 255
227 239 255
227 239 255
227 239 255
227 239 255
227 239 255
227 239 255
227 239 255
227 239 255
192 203 220
106 114 134
0 23 64
0 19 56
0 15 47
0 13 47
0 12 48
0 14 49
0 15 48
0 15 45
0 8 40
0 2 39
0 0 37
0 0 34
0 5 32
0 7 35
0 15 44
0 17 50
0 20 57
0 18 57
0 15 54
0 15 53
0 15 52
0 15 49
0 14 46
0 14 46
0 15 47
0 15 47
0 13 44
0 9 40
0 0 36
0 0 35
0 0 32
0 0 30
0 0 30
0 0 28
0 0 28
0 0 29
0 0 31
0 4 33
0 0 28
0 0 26
0 0 22
0 0 14
0 0 15
0 0 14
0 0 14
0 0 15
0 0 19
0 0 23
0 0 17
0 0 16
0 0 5
0 0 0
0 0 3
0 0 9
0 0 9
0 0 13
0 0 14
0 0 17
0 0 25
0 0 27
0 0 31
0 0 33
0 5 37
0 3 39
0 4 38
0 9 32
3 16 49
13 31 82
18 41 87
31 57 95
66 91 120
93 117 142
78 104 134
69 89 122
29 46 82
5 24 56
0 13 44
0 4 40
0 0 35
0 7 35
0 8 38
0 8 40
0 13 44
0 8 39
0 3 35
0 8 35
0 12 38
0 11 40
0 13 45
0 22 57
2 24 65
2 24 65
0 23 63
1 23 65
8 32 78
4 28 69
88 95 114
203 214 230
227 239 255
227 239 255
227 239 255
227 239 255
227 239 255
227 239 255
227 239 255
227 239 255
227 239 255
227 239 255
227 239 255
227 239 255
227 239 255
227 239 255
227 239 255
227 239 255
227 239 255
227 239 255
227 239 255
227 239 255
227 239 255
227 239 255
227 239 255
227 239 255
227 239 255
227 239 255
227 239 255
227 239 255
227 239 255
227 239 255
227 239 255
227 239 255
227 239 255
227 239 255
227 239 255
227 239 255
227 239 255
227 239 255
227 239 255
227 239 255
227 239 255
227 239 255
227 239 255
227 239 255
227 239 255
227 239 255
227 239 255
227 239 255
227 239 255
227 239 255
227 239 255
227 239 255
227 239 255
227 239 255
227 239 255
227 239 255
227 239 255
227 239 255
227 239 255
227 239 255
227 239 255
227 239 255
227 239 255
227 239 255
227 239 255
227 239 255
227 239 255
227 239 255
227 239 255
227 239 255
227 239 255
227 239 255
227 239 255
227 239 255
227 239 255
227 239 255
227 239 255
227 239 255
227 239 255
227 239 255
227 239 255
227 239 255
227 239 255
227 239 255
227 239 255
227 239 255
227 239 255
227 239 255
227 239 255
227 239 255
227 239 255
227 239 255
227 239 255
227 239 255
227 239 255
227 239 255
227 239 255
227 239 255
226 239 255
226 239 255
226 239 255
226 239 255
226 239 255
226 239 255
226 239 255
226 239 255
226 239 255
226 239 255
226 239 255
226 239 255
226 239 255
226 239 255
226 239 255
226 239 255
226 239 255
226 239 255
226 239 255
226 239 255
226 238 255
226 238 255
226 238 255
226 238 255
226 238 255
226 238 255
226 238 255
226 238 255
226 238 255
226 238 255
226 238 255
226 238 255
226 238 255
226 238 255
226 238 255
226 238 255
226 238 255
226 238 255
226 238 255
226 238 255
226 238 255
226 238 255
226 238 255
226 238 255
226 238 255
226 238 255
226 238 255
226 238 255
226 238 255
226 238 255
226 238 255
226 238 255
226 238 255
226 238 255
226 238 255
226 238 255
226 238 255
226 238 255
226 238 255
226 239 255
226 239 255
226 239 255
226 239 255
226 239 255
226 239 255
226 239 255
226 239 255
226 239 255
226 239 255
226 239 255
226 239 255
226 239 255
226 239 255
226 239 255
226 239 255
226 239 255
227 239 255
227 239 255
227 239 255
227 239 255
227 239 255
227 239 255
227 239 255
227 239 255
227 239 255
227 239 255
227 239 255
227 239 255
227 239 255
227 239 255
227 239 255
227 239 255
227 239 255
227 239 255
227 239 255
227 239 255
227 239 255
227 239 255
227 239 255
227 239 255
227 239 255
227 239 255
227 239 255
227 239 255
227 239 255
227 239 255
227 239 255
227 239 255
227 239 255
227 239 255
227 239 255
227 239 255
227 239 255
227 239 255
227 239 255
227 239 255
227 239 255
227 239 255
227 239 255
227 239 255
227 239 255
227 239 255
227 239 255
227 239 255
227 239 255
227 239 255
227 239 255
227 239 255
227 239 255
227 239 255
227 239 255
227 239 255
227 239 255
227 239 255
227 239 255
227 239 255
227 239 255
227 239 255
227 239 255
227 239 255
227 239 255
227 239 255
227 239 255
227 239 255
227 239 255
227 239 255
227 239 255
227 239 255
227 239 255
227 239 255
227 239 255
227 239 255
227 239 255
227 239 255
227 239 255
227 239 255
227 239 255
227 239 255
227 239 255
227 239 255
227 239 255
227 239 255
227 239 255
227 239 255
227 239 255
227 239 255
227 239 255
227 239 255
227 239 255
227 239 255
227 239 255
227 239 255
227 239 255
227 239 255
227 239 255
227 239 255
227 239 255
227 239 255
227 239 255
227 239 255
227 239 255
227 239 255
227 239 255
227 239 255
227 239 255
227 239 255
227 239 255
227 239 255
227 239 255
227 239 255
227 239 255
227 239 255
227 239 255
227 239 255
227 239 255
227 239 255
227 239 255
227 239 255
227 239 255
227 239 255
227 239 255
227 239 255
227 239 255
227 239 255
195 206 222
108 116 134
0 19 55
0 13 46
0 10 43
0 10 41
0 11 41
0 9 39
0 9 39
0 9 39
0 1 38
0 1 39
0 0 35
0 0 30
0 0 26
0 0 25
0 0 28
0 4 32
0 7 31
0 8 34
0 10 37
0 12 41
0 10 41
0 7 38
0 3 35
0 5 36
0 8 40
0 5 39
0 0 36
0 0 32
0 0 29
0 0 27
0 0 27
0 0 27
0 0 28
0 0 30
0 0 31
0 0 29
0 0 24
0 0 22
0 0 22
0 0 14
0 0 7
0 0 8
0 0 6
0 0 7
0 0 10
0 0 15
0 0 15
0 0 15
0 0 0
0 0 6
0 0 8
0 0 16
0 0 13
0 0 13
0 0 16
0 0 17
0 0 20
0 0 22
0 0 25
0 0 25
0 0 29
0 2 36
0 4 39
0 6 41
0 6 39
0 10 37
3 14 48
11 24 63
13 33 79
20 51 98
17 45 93
9 25 57
0 12 42
0 11 44
0 9 44
0 7 43
0 13 46
0 13 46
0 16 50
0 9 45
0 10 41
0 9 37
0 10 40
0 14 46
0 12 45
0 19 53
7 26 66
11 27 66
7 25 63
7 26 69
3 28 71
5 24 61
93 100 114
188 198 214
227 239 255
227 239 255
227 239 255
227 239 255
227 239 255
227 239 255
227 239 255
227 239 255
227 239 255
227 239 255
227 239 255
227 239 255
227 239 255
227 239 255
227 239 255
227 239 255
227 239 255
227 239 255
227 239 255
227 239 255
227 239 255
227 239 255
227 239 255
227 239 255
227 239 255
227 239 255
227 239 255
227 239 255
227 239 255
227 239 255
227 239 255
227 239 255
227 239 255
227 239 255
227 239 255
227 239 255
227 239 255
227 239 255
227 239 255
227 239 255
227 239 255
227 239 255
227 239 255
227 239 255
227 239 255
227 239 255
227 239 255
227 239 255
227 239 255
227 239 255
227 239 255
227 239 255
227 239 255
227 239 255
227 239 255
227 239 255
227 239 255
227 239 255
227 239 255
227 239 255
227 239 255
227 239 255
227 239 255
227 239 255
227 239 255
227 239 255
227 239 255
227 239 255
227 239 255
227 239 255
227 239 255
227 239 255
227 239 255
227 239 255
227 239 255
227 239 255
227 239 255
227 239 255
227 239 255
227 239 255
227 239 255
227 239 255
227 239 255
227 239 255
227 239 255
227 239 255
227 239 255
227 239 255
227 239 255
227 239 255
227 239 255
227 239 255
227 239 255
227 239 255
227 239 255
227 239 255
227 239 255
227 239 255
227 239 255
227 239 255
227 239 255
227 239 255
227 239 255
227 239 255
227 239 255
227 239 255
227 239 255
227 239 255
227 239 255
227 239 255
227 239 255
227 239 255
227 239 255
227 239 255
227 239 255
227 239 255
227 239 255
227 239 255
227 239 255
227 239 255
227 239 255
227 239 255
227 239 255
227 239 255
227 239 255
227 239 255
227 239 255
226 239 255
226 239 255
226 239 255
226 239 255
226 239 255
226 239 255
226 239 255
226 239 255
226 239 255
226 239 255
226 239 255
226 239 255
226 239 255
226 239 255
226 239 255
226 239 255
226 239 255
226 239 255
226 238 255
226 238 255
226 238 255
226 238 255
226 238 255
226 238 255
226 238 255
226 239 255
227 239 255
227 239 255
227 239 255
227 239 255
227 239 255
227 239 255
227 239 255
227 239 255
227 239 255
227 239 255
227 239 255
227 239 255
227 239 255
227 239 255
227 239 255
227 239 255
227 239 255
227 239 255
227 239 255
227 239 255
227 239 255
227 239 255
227 239 255
227 239 255
227 239 255
227 239 255
227 239 255
227 239 255
227 239 255
227 239 255
227 239 255
227 239 255
227 239 255
227 239 255
227 239 255
227 239 255
227 239 255
227 239 255
227 239 255
227 239 255
227 239 255
227 239 255
227 239 255
227 239 255
227 239 255
227 239 255
227 239 255
227 239 255
227 239 255
227 239 255
227 239 255
227 239 255
227 239 255
227 239 255
227 239 255
227 239 255
227 239 255
227 239 255
227 239 255
227 239 255
227 239 255
227 239 255
227 239 255
227 239 255
227 239 255
227 239 255
227 239 255
227 239 255
227 239 255
227 239 255
227 239 255
227 239 255
227 239 255
227 239 255
227 239 255
227 239 255
227 239 255
227 239 255
227 239 255
227 239 255
227 239 255
227 239 255
227 239 255
227 239 255
227 239 255
227 239 255
227 239 255
227 239 255
227 239 255
227 239 255
227 239 255
227 239 255
227 239 255
227 239 255
227 239 255
227 239 255
227 239 255
227 239 255
227 239 255
227 239 255
227 239 255
227 239 255
227 239 255
227 239 255
227 239 255
227 239 255
227 239 255
227 239 255
227 239 255
227 239 255
227 239 255
227 239 255
227 239 255
227 239 255
227 239 255
227 239 255
227 239 255
227 239 255
227 239 255
227 239 255
227 239 255
227 239 255
227 239 255
227 239 255
227 239 255
227 239 255
227 239 255
227 239 255
227 239 255
227 239 255
227 239 255
227 239 255
227 239 255
227 239 255
227 239 255
227 239 255
227 239 255
227 239 255
227 239 255
227 239 255
227 239 255
227 239 255
227 239 255
227 239 255
227 239 255
227 239 255
227 239 255
227 239 255
227 239 255
227 239 255
227 239 255
227 239 255
227 239 255
198 208 225
128 136 152
39 43 64
0 4 39
0 4 38
0 2 36
0 0 34
0 0 30
0 2 32
0 0 34
0 0 35
0 0 33
0 0 28
0 0 27
0 0 27
0 0 27
0 0 25
0 0 21
0 0 17
0 0 17
0 0 23
0 0 24
0 0 22
0 0 24
0 0 27
0 4 30
0 1 32
0 0 29
0 0 26
0 0 26
0 0 26
0 0 26
0 0 26
0 0 27
0 0 27
0 0 24
0 0 21
0 0 16
0 0 16
0 0 16
0 0 15
0 0 11
0 0 3
0 0 11
0 0 12
0 0 12
0 0 3
0 0 0
0 0 0
0 0 14
0 0 16
0 0 16
0 0 15
0 0 15
0 0 16
0 0 17
0 0 21
0 0 19
0 0 21
0 0 18
0 0 21
0 0 21
0 0 25
0 0 32
0 0 42
0 6 44
0 10 42
0 15 46
0 12 47
0 15 48
2 17 49
0 11 46
0 12 47
0 13 42
2 18 52
0 15 50
0 10 45
2 16 47
0 12 44
0 13 43
0 14 45
0 18 53
0 21 57
5 15 50
18 30 63
15 30 67
7 20 54
9 21 55
10 21 56
6 16 45
120 126 139
188 198 213
227 239 255
227 239 255
227 239 255
227 239 255
227 239 255
227 239 255
227 239 255
227 239 255
227 239 255
227 239 255
227 239 255
227 239 255
227 239 255
227 239 255
227 239 255
227 239 255
227 239 255
227 239 255
227 239 255
227 239 255
227 239 255
227 239 255
227 239 255
227 239 255
227 239 255
227 239 255
227 239 255
227 239 255
227 239 255
227 239 255
227 239 255
227 239 255
227 239 255
227 239 255
227 239 255
227 239 255
227 239 255
227 239 255
227 239 255
227 239 255
227 239 255
227 239 255
227 239 255
227 239 255
227 239 255
227 239 255
227 239 255
227 239 255
227 239 255
227 239 255
227 239 255
227 239 255
227 239 255
227 239 255
227 239 255
227 239 255
227 239 255
227 239 255
227 239 255
227 239 255
227 239 255
227 239 255
227 239 255
227 239 255
227 239 255
227 239 255
227 239 255
227 239 255
227 239 255
227 239 255
227 239 255
227 239 255
227 239 255
227 239 255
227 239 255
227 239 255
227 239 255
227 239 255
227 239 255
227 239 255
227 239 255
227 239 255
227 239 255
227 239 255
227 239 255
227 239 255
227 239 255
227 239 255
227 239 255
227 239 255
227 239 255
227 239 255
227 239 255
227 239 255
227 239 255
227 239 255
227 239 255
227 239 255
227 239 255
227 239 255
227 239 255
227 239 255
227 239 255
227 239 255
227 239 255
227 239 255
227 239 255
227 239 255
227 239 255
227 239 255
227 239 255
227 239 255
227 239 255
227 239 255
227 239 255
227 239 255
227 239 255
227 239 255
227 239 255
227 239 255
227 239 255
227 239 255
227 239 255
227 239 255
227 239 255
227 239 255
227 239 255
227 239 255
227 239 255
227 239 255
227 239 255
227 239 255
227 239 255
227 239 255
227 239 255
227 239 255
227 239 255
227 239 255
227 239 255
227 239 255
227 239 255
227 239 255
227 239 255
227 239 255
227 239 255
227 239 255
227 239 255
227 239 255
227 239 255
227 239 255
227 239 255
227 239 255
227 239 255
227 239 255
227 239 255
227 239 255
227 239 255
227 239 255
227 239 255
227 239 255
227 239 255
227 239 255
227 239 255
227 239 255
227 239 255
227 239 255
227 239 255
227 239 255
227 239 255
227 239 255
227 239 255
227 239 255
227 239 255
227 239 255
227 239 255
227 239 255
227 239 255
227 239 255
227 239 255
227 239 255
227 239 255
227 239 255
227 239 255
227 239 255
227 239 255
227 239 255
227 239 255
227 239 255
227 239 255
227 239 255
227 239 255
227 239 255
227 239 255
227 239 255
227 239 255
227 239 255
227 239 255
227 239 255
227 239 255
227 239 255
227 239 255
227 239 255
227 239 255
227 239 255
227 239 255
227 239 255
227 239 255
227 239 255
227 239 255
227 239 255
227 239 255
227 239 255
227 239 255
227 239 255
227 239 255
227 239 255
227 239 255
227 239 255
227 239 255
227 239 255
227 239 255
227 239 255
227 239 255
227 239 255
227 239 255
227 239 255
227 239 255
227 239 255
227 239 255
227 239 255
227 239 255
227 239 255
227 239 255
227 239 255
227 239 255
227 239 255
227 239 255
227 239 255
227 239 255
227 239 255
227 239 255
227 239 255
227 239 255
227 239 255
227 239 255
227 239 255
227 239 255
227 239 255
227 239 255
227 239 255
227 239 255
227 239 255
227 239 255
227 239 255
227 239 255
227 239 255
227 239 255
227 239 255
227 239 255
227 239 255
227 239 255
227 239 255
227 239 255
227 239 255
227 239 255
227 239 255
227 239 255
227 239 255
227 239 255
227 239 255
227 239 255
227 239 255
227 239 255
227 239 255
227 239 255
227 239 255
227 239 255
227 239 255
227 239 255
227 239 255
227 239 255
227 239 255
227 239 255
227 239 255
227 239 255
227 239 255
227 239 255
227 239 255
227 239 255
227 239 255
227 239 255
227 239 255
227 239 255
227 239 255
227 239 255
227 239 255
227 239 255
227 239 255
227 239 255
227 239 255
227 239 255
227 239 255
227 239 255
227 239 255
227 239 255
227 239 255
227 239 255
227 239 255
227 239 255
227 239 255
204 215 231
157 165 180
50 53 69
0 0 37
0 0 33
0 0 28
0 0 27
0 3 28
0 8 33
0 2 28
0 0 20
0 0 21
0 0 20
0 0 19
0 0 18
0 0 18
0 0 16
0 0 16
0 0 15
0 0 9
0 0 8
0 0 16
0 0 16
0 0 16
0 0 16
0 0 16
0 0 17
0 0 20
0 0 22
0 0 23
0 0 23
0 0 23
0 0 21
0 0 16
0 0 16
0 0 15
0 0 16
0 0 16
6 12 28
0 0 16
0 0 16
0 0 16
0 0 17
0 0 14
0 0 8
0 0 8
0 0 9
0 0 16
0 0 16
0 0 16
0 0 16
0 0 15
0 0 16
0 0 15
0 0 14
0 0 17
0 0 16
0 0 16
0 0 17
0 0 22
0 2 24
0 2 28
0 5 37
0 6 41
0 15 48
0 15 48
0 15 49
0 15 52
0 21 58
0 15 50
0 10 43
0 9 41
0 10 45
0 15 48
0 13 45
3 17 52
5 24 63
12 33 75
10 29 69
5 23 63
13 34 81
16 49 104
17 49 100
13 33 80
5 14 41
45 48 58
150 158 170
215 226 242
227 239 255
227 239 255
227 239 255
227 239 255
227 239 255
227 239 255
227 239 255
227 239 255
227 239 255
227 239 255
227 239 255
227 239 255
227 239 255
227 239 255
227 239 255
227 239 255
227 239 255
227 239 255
227 239 255
227 239 255
227 239 255
227 239 255
227 239 255
227 239 255
227 239 255
227 239 255
227 239 255
227 239 255
227 239 255
227 239 255
227 239 255
227 239 255
227 239 255
227 239 255
227 239 255
227 239 255
227 239 255
227 239 255
227 239 255
227 239 255
227 239 255
227 239 255
227 239 255
227 239 255
227 239 255
227 239 255
227 239 255
227 239 255
227 239 255
227 239 255
227 239 255
227 239 255
227 239 255
227 239 255
227 239 255
227 239 255
227 239 255
227 239 255
227 239 255
227 239 255
227 239 255
227 239 255
227 239 255
227 239 255
227 239 255
227 239 255
227 239 255
227 239 255
227 239 255
227 239 255
227 239 255
227 239 255
227 239 255
227 239 255
227 239 255
227 239 255
227 239 255
227 239 255
227 239 255
227 239 255
227 239 255
227 239 255
227 239 255
227 239 255
227 239 255
227 239 255
227 239 255
227 239 255
227 239 255
227 239 255
227 239 255
227 239 255
227 239 255
227 239 255
227 239 255
227 239 255
227 239 255
227 239 255
227 239 255
227 239 255
227 239 255
227 239 255
227 239 255
227 239 255
227 239 255
227 239 255
227 239 255
227 239 255
227 239 255
227 239 255
227 239 255
227 239 255
227 239 255
227 239 255
227 239 255
227 239 255
227 239 255
227 239 255
227 239 255
227 239 255
227 239 255
227 239 255
227 239 255
227 239 255
227 239 255
227 239 255
227 239 255
227 239 255
227 239 255
227 239 255
227 239 255
227 239 255
227 239 255
227 239 255
227 239 255
227 239 255
227 239 255
227 239 255
227 239 255
227 239 255
227 239 255
227 239 255
227 239 255
227 239 255
227 239 255
227 239 255
227 239 255
227 239 255
227 239 255
227 239 255
227 239 255
227 239 255
227 239 255
227 239 255
227 239 255
227 239 255
227 239 255
227 239 255
227 239 255
227 239 255
227 239 255
227 239 255
227 239 255
227 239 255
227 239 255
227 239 255
227 239 255
227 239 255
227 239 255
227 239 255
227 239 255
227 239 255
227 239 255
227 239 255
227 239 255
227 239 255
227 239 255
227 239 255
227 239 255
227 239 255
227 239 255
227 239 255
227 239 255
227 239 255
227 239 255
227 239 255
227 239 255
227 239 255
227 239 255
227 239 255
227 239 255
227 239 255
227 239 255
227 239 255
227 239 255
227 239 255
227 239 255
227 239 255
227 239 255
227 239 255
227 239 255
227 239 255
227 239 255
227 239 255
227 239 255
227 239 255
227 239 255
227 239 255
227 239 255
227 239 255
227 239 255
227 239 255
227 239 255
227 239 255
227 239 255
227 239 255
227 239 255
227 239 255
227 239 255
227 239 255
227 239 255
227 239 255
227 239 255
227 239 255
227 239 255
227 239 255
227 239 255
227 239 255
227 239 255
227 239 255
227 239 255
227 239 255
227 239 255
227 239 255
227 239 255
227 239 255
227 239 255
227 239 255
227 239 255
227 239 255
227 239 255
227 239 255
227 239 255
227 239 255
227 239 255
227 239 255
227 239 255
227 239 255
227 239 255
227 239 255
227 239 255
227 239 255
227 239 255
227 239 255
227 239 255
227 239 255
227 239 255
227 239 255
227 239 255
227 239 255
227 239 255
227 239 255
227 239 255
227 239 255
227 239 255
227 239 255
227 239 255
227 239 255
227 239 255
227 239 255
227 239 255
227 239 255
227 239 255
227 239 255
227 239 255
227 239 255
227 239 255
227 239 255
227 239 255
227 239 255
227 239 255
227 239 255
227 239 255
227 239 255
227 239 255
227 239 255
227 239 255
227 239 255
227 239 255
227 239 255
227 239 255
227 239 255
227 239 255
227 239 255
227 239 255
227 239 255
227 239 255
227 239 255
227 239 255
227 239 255
227 239 255
227 239 255
227 239 255
227 239 255
227 239 255
227 239 255
227 239 255
227 239 255
227 239 255
227 239 255
227 239 255
227 239 255
227 239 255
227 239 255
223 235 252
176 185 199
111 117 129
0 3 34
0 1 29
0 0 24
0 0 26
0 0 26
0 0 22
0 0 13
0 0 13
0 0 13
0 0 13
0 0 12
0 0 8
0 0 12
0 0 15
0 0 14
0 0 5
0 0 2
0 0 14
0 0 15
0 0 15
0 0 15
0 0 16
0 0 15
0 0 16
0 0 16
0 0 16
0 0 16
0 0 15
0 0 15
0 0 14
0 0 13
0 0 15
0 0 18
0 0 23
0 0 17
0 0 19
0 0 16
0 0 16
0 0 15
0 0 7
0 0 14
0 0 15
0 0 11
0 0 13
0 0 12
0 0 16
0 0 14
0 0 11
0 0 15
0 0 15
0 0 14
0 0 14
0 0 15
0 0 19
0 0 24
0 5 30
0 0 31
0 0 35
0 0 35
0 8 41
0 15 48
0 18 56
2 18 58
0 15 49
0 13 47
0 11 47
10 23 54
18 35 69
11 34 76
17 46 96
19 46 97
12 36 82
8 27 67
0 19 57
0 18 58
3 20 57
2 17 48
0 4 27
120 126 136
176 185 198
221 233 249
227 239 255
227 239 255
227 239 255
227 239 255
227 239 255
227 239 255
227 239 255
227 239 255
227 239 255
227 239 255
227 239 255
227 239 255
227 239 255
227 239 255
227 239 255
227 239 255
227 239 255
227 239 255
227 239 255
227 239 255
227 239 255
227 239 255
227 239 255
227 239 255
227 239 255
227 239 255
227 239 255
227 239 255
227 239 255
227 239 255
227 239 255
227 239 255
227 239 255
227 239 255
227 239 255
227 239 255
227 239 255
227 239 255
227 239 255
227 239 255
227 239 255
227 239 255
227 239 255
227 239 255
227 239 255
227 239 255
227 239 255
227 239 255
227 239 255
227 239 255
227 239 255
227 239 255
227 239 255
227 239 255
227 239 255
227 239 255
227 239 255
227 239 255
227 239 255
227 239 255
227 239 255
227 239 255
227 239 255
227 239 255
227 239 255
227 239 255
227 239 255
227 239 255
227 239 255
227 239 255
227 239 255
227 239 255
227 239 255
227 239 255
227 239 255
227 239 255
227 239 255
227 239 255
227 239 255
227 239 255
227 239 255
227 239 255
227 239 255
227 239 255
227 239 255
227 239 255
227 239 255
227 239 255
227 239 255
227 239 255
227 239 255
227 239 255
227 239 255
227 239 255
227 239 255
227 239 255
227 239 255
227 239 255
227 239 255
227 239 255
227 239 255
227 239 255
227 239 255
227 239 255
227 239 255
227 239 255
227 239 255
227 239 255
227 239 255
227 239 255
227 239 255
227 239 255
227 239 255
227 239 255
227 239 255
227 239 255
227 239 255
227 239 255
227 239 255
227 239 255
227 239 255
227 239 255
227 239 255
227 239 255
227 239 255
227 239 255
227 239 255
227 239 255
227 239 255
227 239 255
227 239 255
227 239 255
227 239 255
227 239 255
227 239 255
227 239 255
227 239 255
227 239 255
227 239 255
227 239 255
227 239 255
227 239 255
227 239 255
227 239 255
227 239 255
227 239 255
227 239 255
227 239 255
227 239 255
227 239 255
227 239 255
227 239 255
227 239 255
227 239 255
227 239 255
227 239 255
227 239 255
227 239 255
227 239 255
227 239 255
227 239 255
227 239 255
227 239 255
227 239 255
227 239 255
227 239 255
227 239 255
227 239 255
227 239 255
227 239 255
227 239 255
227 239 255
227 239 255
227 239 255
227 239 255
227 239 255
227 239 255
227 239 255
227 239 255
227 239 255
227 239 255
227 239 255
227 239 255
227 239 255
227 239 255
227 239 255
227 239 255
227 239 255
227 239 255
227 239 255
227 239 255
227 239 255
227 239 255
227 239 255
227 239 255
227 239 255
227 239 255
227 239 255
227 239 255
227 239 255
227 239 255
227 239 255
227 239 255
227 239 255
227 239 255
227 239 255
227 239 255
227 239 255
227 239 255
227 239 255
227 239 255
227 239 255
227 239 255
227 239 255
227 239 255
227 239 255
227 239 255
227 239 255
227 239 255
227 239 255
227 239 255
227 239 255
227 239 255
227 239 255
227 239 255
227 239 255
227 239 255
227 239 255
227 239 255
227 239 255
227 239 255
227 239 255
227 239 255
227 239 255
227 239 255
227 239 255
227 239 255
227 239 255
227 239 255
227 239 255
227 239 255
227 239 255
227 239 255
227 239 255
227 239 255
227 239 255
227 239 255
227 239 255
227 239 255
227 239 255
227 239 255
227 239 255
227 239 255
227 239 255
227 239 255
227 239 255
227 239 255
227 239 255
227 239 255
227 239 255
227 239 255
227 239 255
227 239 255
227 239 255
227 239 255
227 239 255
227 239 255
227 239 255
227 239 255
227 239 255
227 239 255
227 239 255
227 239 255
227 239 255
227 239 255
227 239 255
227 239 255
227 239 255
227 239 255
227 239 255
227 239 255
227 239 255
227 239 255
227 239 255
227 239 255
227 239 255
227 239 255
227 239 255
227 239 255
227 239 255
227 239 255
227 239 255
227 239 255
227 239 255
227 239 255
227 239 255
227 239 255
227 239 255
227 239 255
227 239 255
227 239 255
227 239 255
227 239 255
227 239 255
227 239 255
227 239 255
227 239 255
227 239 255
227 239 255
227 239 255
227 239 255
227 239 255
227 239 255
227 239 255
227 239 255
227 239 255
227 239 255
227 239 255
227 239 255
209 220 236
152 160 174
50 53 66
0 0 29
0 0 25
0 0 24
0 0 22
0 0 18
0 0 13
0 0 11
0 0 14
0 0 15
0 0 15
0 0 14
0 0 8
0 0 4
0 0 0
0 0 0
0 0 0
0 0 0
0 0 2
0 0 8
0 0 14
0 0 13
0 0 10
0 0 5
0 0 2
0 0 0
0 0 1
0 0 3
0 0 0
0 0 4
0 0 12
0 0 16
0 0 16
0 0 16
0 0 14
0 0 13
0 0 13
0 0 13
0 0 16
0 0 20
0 0 21
0 0 23
0 0 20
0 0 19
0 0 16
0 0 15
0 0 14
0 0 15
0 0 16
0 0 17
0 0 20
0 0 25
0 0 29
0 0 31
0 0 34
0 0 36
0 6 39
0 11 43
0 13 46
0 14 49
7 20 53
15 36 78
21 48 93
17 48 96
48 73 115
59 89 135
19 54 109
14 46 99
7 32 75
6 21 59
0 11 41
0 7 33
0 0 24
68 71 78
140 147 158
212 223 238
227 239 255
227 239 255
227 239 255
227 239 255
227 239 255
227 239 255
227 239 255
227 239 255
227 239 255
227 239 255
227 239 255
227 239 255
227 239 255
227 239 255
227 239 255
227 239 255
227 239 255
227 239 255
227 239 255
227 239 255
227 239 255
227 239 255
227 239 255
227 239 255
227 239 255
227 239 255
227 239 255
227 239 255
227 239 255
227 239 255
227 239 255
227 239 255
227 239 255
227 239 255
227 239 255
227 239 255
227 239 255
227 239 255
227 239 255
227 239 255
227 239 255
227 239 255
227 239 255
227 239 255
227 239 255
227 239 255
227 239 255
227 239 255
227 239 255
227 239 255
227 239 255
227 239 255
227 239 255
227 239 255
227 239 255
227 239 255
227 239 255
227 239 255
227 239 255
227 239 255
227 239 255
227 239 255
227 239 255
227 239 255
227 239 255
227 239 255
227 239 255
227 239 255
227 239 255
227 239 255
227 239 255
227 239 255
227 239 255
227 239 255
227 239 255
227 239 255
227 239 255
227 239 255
227 239 255
227 239 255
227 239 255
227 239 255
227 239 255
227 239 255
227 239 255
227 239 255
227 239 255
227 239 255
227 239 255
227 239 255
227 239 255
227 239 255
227 239 255
227 239 255
227 239 255
227 239 255
227 239 255
227 239 255
227 239 255
227 239 255
227 239 255
227 239 255
227 239 255
227 239 255
227 239 255
227 239 255
227 239 255
227 239 255
227 239 255
227 239 255
227 239 255
227 239 255
227 239 255
227 239 255
227 239 255
227 239 255
227 239 255
227 239 255
227 239 255
227 239 255
227 239 255
227 239 255
227 239 255
227 239 255
227 239 255
227 239 255
227 239 255
227 239 255
227 239 255
227 239 255
227 239 255
227 239 255
227 239 255
227 239 255
227 239 255
227 239 255
227 239 255
227 239 255
227 239 255
227 239 255
227 239 255
227 239 255
227 239 255
227 239 255
227 239 255
227 239 255
227 239 255
227 239 255
227 239 255
227 239 255
227 239 255
227 239 255
227 239 255
227 239 255
227 239 255
227 239 255
227 239 255
227 239 255
227 239 255
227 239 255
227 239 255
227 239 255
227 239 255
227 239 255
227 239 255
227 239 255
227 239 255
227 239 255
227 239 255
227 239 255
227 239 255
227 239 255
227 239 255
227 239 255
227 239 255
227 239 255
227 239 255
227 239 255
227 239 255
227 239 255
227 239 255
227 239 255
227 239 255
227 239 255
227 239 255
227 239 255
227 239 255
227 239 255
227 239 255
227 239 255
227 239 255
227 239 255
227 239 255
227 239 255
227 239 255
227 239 255
227 239 255
227 239 255
227 239 255
227 239 255
227 239 255
227 239 255
227 239 255
227 239 255
227 239 255
227 239 255
227 239 255
227 239 255
227 239 255
227 239 255
227 239 255
227 239 255
227 239 255
227 239 255
227 239 255
227 239 255
227 239 255
227 239 255
227 239 255
227 239 255
227 239 255
227 239 255
227 239 255
227 239 255
227 239 255
227 239 255
227 239 255
227 239 255
227 239 255
227 239 255
227 239 255
227 239 255
227 239 255
227 239 255
227 239 255
227 239 255
227 239 255
227 239 255
227 239 255
227 239 255
227 239 255
227 239 255
227 239 255
227 239 255
227 239 255
227 239 255
227 239 255
227 239 255
227 239 255
227 239 255
227 239 255
227 239 255
227 239 255
227 239 255
227 239 255
227 239 255
227 239 255
227 239 255
227 239 255
227 239 255
227 239 255
227 239 255
227 239 255
227 239 255
227 239 255
227 239 255
227 239 255
227 239 255
227 239 255
227 239 255
227 239 255
227 239 255
227 239 255
227 239 255
227 239 255
227 239 255
227 239 255
227 239 255
227 239 255
227 239 255
227 239 255
227 239 255
227 239 255
227 239 255
227 239 255
227 239 255
227 239 255
227 239 255
227 239 255
227 239 255
227 239 255
227 239 255
227 239 255
227 239 255
227 239 255
227 239 255
227 239 255
227 239 255
227 239 255
227 239 255
227 239 255
227 239 255
227 239 255
227 239 255
227 239 255
227 239 255
227 239 255
227 239 255
227 239 255
227 239 255
227 239 255
227 239 255
227 239 255
227 239 255
227 239 255
227 239 255
227 239 255
227 239 255
227 239 255
227 239 255
227 239 255
227 239 255
227 239 255
227 239 255
226 238 254
193 203 218
130 137 150
45 47 61
0 0 31
0 0 23
0 0 20
0 0 17
0 0 16
0 0 16
0 0 16
0 0 15
0 0 13
0 0 13
0 0 8
0 0 7
0 0 10
0 0 10
0 0 11
0 0 8
0 0 1
0 0 10
0 0 5
0 0 5
0 0 9
0 0 7
0 0 11
0 0 15
0 0 14
0 0 8
0 0 5
0 0 8
0 0 9
0 0 9
0 0 13
0 0 15
0 0 14
0 0 16
0 0 20
0 0 24
0 0 26
0 0 27
0 0 27
0 0 26
0 0 25
0 0 20
0 0 21
0 0 26
0 0 28
0 1 27
0 0 31
0 4 34
0 6 35
0 7 38
0 10 44
0 14 49
0 17 52
9 29 68
13 40 84
25 51 95
78 96 132
93 110 142
101 122 153
85 111 150
47 71 120
9 39 89
0 23 65
0 15 50
0 7 38
0 0 31
50 53 63
126 133 144
188 198 213
227 239 255
227 239 255
227 239 255
227 239 255
227 239 255
227 239 255
227 239 255
227 239 255
227 239 255
227 239 255
227 239 255
227 239 255
227 239 255
227 239 255
227 239 255
227 239 255
227 239 255
227 239 255
227 239 255
227 239 255
227 239 255
227 239 255
227 239 255
227 239 255
227 239 255
227 239 255
227 239 255
227 239 255
227 239 255
227 239 255
227 239 255
227 239 255
227 239 255
227 239 255
227 239 255
227 239 255
227 239 255
227 239 255
227 239 255
227 239 255
227 239 255
227 239 255
227 239 255
227 239 255
227 239 255
227 239 255
227 239 255
227 239 255
227 239 255
227 239 255
227 239 255
227 239 255
227 239 255
227 239 255
227 239 255
227 239 255
227 239 255
227 239 255
227 239 255
227 239 255
227 239 255
227 239 255
227 239 255
227 239 255
227 239 255
227 239 255
227 239 255
227 239 255
227 239 255
227 239 255
227 239 255
227 239 255
227 239 255
227 239 255
227 239 255
227 239 255
227 239 255
227 239 255
227 239 255
227 239 255
227 239 255
227 239 255
227 239 255
227 239 255
227 239 255
227 239 255
227 239 255
227 239 255
227 239 255
227 239 255
227 239 255
227 239 255
227 239 255
227 239 255
227 239 255
227 239 255
227 239 255
227 239 255
227 239 255
227 239 255
227 239 255
227 239 255
227 239 255
227 239 255
227 239 255
227 239 255
227 239 255
227 239 255
227 239 255
227 239 255
227 239 255
227 239 255
227 239 255
227 239 255
227 239 255
227 239 255
227 239 255
227 239 255
227 239 255
227 239 255
227 239 255
227 239 255
227 239 255
227 239 255
227 239 255
227 239 255
227 239 255
227 239 255
227 239 255
227 239 255
227 239 255
227 239 255
227 239 255
227 239 255
227 239 255
227 239 255
227 239 255
227 239 255
227 239 255
227 239 255
227 239 255
227 239 255
227 239 255
227 239 255
227 239 255
227 239 255
227 239 255
227 239 255
227 239 255
227 239 255
227 239 255
227 239 255
227 239 255
227 239 255
227 239 255
227 239 255
227 239 255
227 239 255
227 239 255
227 239 255
227 239 255
227 239 255
227 239 255
227 239 255
227 239 255
227 239 255
227 239 255
227 239 255
227 239 255
227 239 255
227 239 255
227 239 255
227 239 255
227 239 255
227 239 255
227 239 255
227 239 255
227 239 255
227 239 255
227 239 255
227 239 255
227 239 255
227 239 255
227 239 255
227 239 255
227 239 255
227 239 255
227 239 255
227 239 255
227 239 255
227 239 255
227 239 255
227 239 255
227 239 255
227 239 255
227 239 255
227 239 255
227 239 255
227 239 255
227 239 255
227 239 255
227 239 255
227 239 255
227 239 255
227 239 255
227 239 255
227 239 255
227 239 255
227 239 255
227 239 255
227 239 255
227 239 255
227 239 255
227 239 255
227 239 255
227 239 255
227 239 255
227 239 255
227 239 255
227 239 255
227 239 255
227 239 255
227 239 255
227 239 255
227 239 255
227 239 255
227 239 255
227 239 255
227 239 255
227 239 255
227 239 255
227 239 255
227 239 255
227 239 255
227 239 255
227 239 255
227 239 255
227 239 255
227 239 255
227 239 255
227 239 255
227 239 255
227 239 255
227 239 255
227 239 255
227 239 255
227 239 255
227 239 255
227 239 255
227 239 255
227 239 255
227 239 255
227 239 255
227 239 255
227 239 255
227 239 255
227 239 255
227 239 255
227 239 255
227 239 255
227 239 255
227 239 255
227 239 255
227 239 255
227 239 255
227 239 255
227 239 255
227 239 255
227 239 255
227 239 255
227 239 255
227 239 255
227 239 255
227 239 255
227 239 255
227 239 255
227 239 255
227 239 255
227 239 255
227 239 255
227 239 255
227 239 255
227 239 255
227 239 255
227 239 255
227 239 255
227 239 255
227 239 255
227 239 255
227 239 255
227 239 255
227 239 255
227 239 255
227 239 255
227 239 255
227 239 255
227 239 255
227 239 255
227 239 255
227 239 255
227 239 255
227 239 255
227 239 255
227 239 255
227 239 255
227 239 255
227 239 255
227 239 255
227 239 255
227 239 255
227 239 255
227 239 255
227 239 255
227 239 255
227 239 255
227 239 255
227 239 255
227 239 255
227 239 255
227 239 255
227 239 255
227 239 255
227 239 255
227 239 255
227 239 255
227 239 255
227 239 255
227 239 255
227 239 255
227 239 255
224 235 252
183 192 207
138 145 158
60 63 74
0 0 27
0 0 25
0 0 23
0 0 23
0 0 20
0 0 19
0 0 18
0 0 16
0 0 16
0 0 16
0 0 16
0 0 16
0 0 16
0 0 15
0 0 12
0 0 14
0 0 16
0 0 16
0 0 16
0 0 16
0 0 16
0 0 16
0 0 16
0 0 16
0 0 16
0 0 16
0 0 16
0 0 18
0 0 21
0 0 20
0 0 16
0 0 18
0 0 23
0 0 24
0 0 24
0 0 27
0 0 27
0 0 27
0 0 27
0 0 30
0 1 37
0 4 37
0 11 40
0 12 43
0 14 47
0 17 52
6 27 65
11 41 89
18 49 101
24 52 106
113 127 155
157 172 193
103 122 149
82 102 140
33 60 113
13 45 100
9 35 83
2 21 61
0 16 50
0 10 43
82 86 98
157 165 178
184 194 208
226 238 254
227 239 255
227 239 255
227 239 255
227 239 255
227 239 255
227 239 255
227 239 255
227 239 255
227 239 255
227 239 255
227 239 255
227 239 255
227 239 255
227 239 255
227 239 255
227 239 255
227 239 255
227 239 255
227 239 255
227 239 255
227 239 255
227 239 255
227 239 255
227 239 255
227 239 255
227 239 255
227 239 255
227 239 255
227 239 255
227 239 255
227 239 255
227 239 255
227 239 255
227 239 255
227 239 255
227 239 255
227 239 255
227 239 255
227 239 255
227 239 255
227 239 255
227 239 255
227 239 255
227 239 255
227 239 255
227 239 255
227 239 255
227 239 255
227 239 255
227 239 255
227 239 255
227 239 255
227 239 255
227 239 255
227 239 255
227 239 255
227 239 255
227 239 255
227 239 255
227 239 255
227 239 255
227 239 255
227 239 255
227 239 255
227 239 255
227 239 255
227 239 255
227 239 255
227 239 255
227 239 255
227 239 255
227 239 255
227 239 255
227 239 255
227 239 255
227 239 255
227 239 255
227 239 255
227 239 255
227 239 255
227 239 255
227 239 255
227 239 255
227 239 255
227 239 255
227 239 255
227 239 255
227 239 255
227 239 255
227 239 255
227 239 255
227 239 255
227 239 255
227 239 255
227 239 255
227 239 255
227 239 255
227 239 255
227 239 255
227 239 255
227 239 255
227 239 255
227 239 255
227 239 255
227 239 255
227 239 255
227 239 255
227 239 255
227 239 255
227 239 255
227 239 255
227 239 255
227 239 255
227 239 255
227 239 255
227 239 255
227 239 255
227 239 255
227 239 255
227 239 255
227 239 255
227 239 255
227 239 255
227 239 255
227 239 255
227 239 255
227 239 255
227 239 255
227 239 255
227 239 255
227 239 255
227 239 255
227 239 255
227 239 255
227 239 255
227 239 255
227 239 255
227 239 255
227 239 255
227 239 255
227 239 255
227 239 255
227 239 255
227 239 255
227 239 255
227 239 255
227 239 255
227 239 255
227 239 255
227 239 255
227 239 255
227 239 255
227 239 255
227 239 255
227 239 255
227 239 255
227 239 255
227 239 255
227 239 255
227 239 255
227 239 255
227 239 255
227 239 255
227 239 255
227 239 255
227 239 255
227 239 255
227 239 255
227 239 255
227 239 255
227 239 255
227 239 255
227 239 255
227 239 255
227 239 255
227 239 255
227 239 255
227 239 255
227 239 255
227 239 255
227 239 255
227 239 255
227 239 255
227 239 255
227 239 255
227 239 255
227 239 255
227 239 255
227 239 255
227 239 255
227 239 255
227 239 255
227 239 255
227 239 255
227 239 255
227 239 255
227 239 255
227 239 255
227 239 255
227 239 255
227 239 255
227 239 255
227 239 255
227 239 255
227 239 255
227 239 255
227 239 255
227 239 255
227 239 255
227 239 255
227 239 255
227 239 255
227 239 255
227 239 255
227 239 255
227 239 255
227 239 255
227 239 255
227 239 255
227 239 255
227 239 255
227 239 255
227 239 255
227 239 255
227 239 255
227 239 255
227 239 255
227 239 255
227 239 255
227 239 255
227 239 255
227 239 255
227 239 255
227 239 255
227 239 255
227 239 255
227 239 255
227 239 255
227 239 255
227 239 255
227 239 255
227 239 255
227 239 255
227 239 255
227 239 255
227 239 255
227 239 255
227 239 255
227 239 255
227 239 255
227 239 255
227 239 255
227 239 255
227 239 255
227 239 255
227 239 255
227 239 255
227 239 255
227 239 255
227 239 255
227 239 255
227 239 255
227 239 255
227 239 255
227 239 255
227 239 255
227 239 255
227 239 255
227 239 255
227 239 255
227 239 255
227 239 255
227 239 255
227 239 255
227 239 255
227 239 255
227 239 255
227 239 255
227 239 255
227 239 255
227 239 255
227 239 255
227 239 255
227 239 255
227 239 255
227 239 255
227 239 255
227 239 255
227 239 255
227 239 255
227 239 255
227 239 255
227 239 255
227 239 255
227 239 255
227 239 255
227 239 255
227 239 255
227 239 255
227 239 255
227 239 255
227 239 255
227 239 255
227 239 255
227 239 255
227 239 255
227 239 255
227 239 255
227 239 255
227 239 255
227 239 255
227 239 255
227 239 255
227 239 255
227 239 255
227 239 255
227 239 255
227 239 255
227 239 255
227 239 255
227 239 255
227 239 255
227 239 255
227 239 255
227 239 255
227 239 255
227 239 255
227 239 255
227 239 255
227 239 255
227 239 255
227 239 255
227 239 255
227 239 255
227 239 255
226 238 254
209 220 236
184 194 208
93 98 110
55 58 71
0 5 36
0 8 38
0 6 37
0 6 35
0 2 30
0 1 28
0 0 27
0 0 24
0 0 24
0 0 25
0 0 25
0 0 25
0 0 26
0 0 22
0 0 19
0 0 20
0 0 19
0 0 20
0 0 18
0 0 18
0 0 19
0 0 19
0 0 18
1 4 21
0 2 23
0 9 32
0 1 25
0 0 24
0 0 26
0 0 27
0 0 28
0 0 31
0 0 31
0 0 30
0 0 31
0 8 40
0 13 45
0 13 45
4 18 55
9 32 75
11 39 88
57 78 119
84 102 136
110 124 152
171 184 200
207 221 234
189 200 211
137 151 173
14 52 110
10 42 94
3 27 70
0 20 58
45 50 71
113 120 134
165 174 188
206 216 232
227 239 255
227 239 255
227 239 255
227 239 255
227 239 255
227 239 255
227 239 255
227 239 255
227 239 255
227 239 255
227 239 255
227 239 255
227 239 255
227 239 255
227 239 255
227 239 255
227 239 255
227 239 255
227 239 255
227 239 255
227 239 255
227 239 255
227 239 255
227 239 255
227 239 255
227 239 255
227 239 255
227 239 255
227 239 255
227 239 255
227 239 255
227 239 255
227 239 255
227 239 255
227 239 255
227 239 255
227 239 255
227 239 255
227 239 255
227 239 255
227 239 255
227 239 255
227 239 255
227 239 255
227 239 255
227 239 255
227 239 255
227 239 255
227 239 255
227 239 255
227 239 255
227 239 255
227 239 255
227 239 255
227 239 255
227 239 255
227 239 255
227 239 255
227 239 255
227 239 255
227 239 255
227 239 255
227 239 255
227 239 255
227 239 255
227 239 255
227 239 255
227 239 255
227 239 255
227 239 255
227 239 255
227 239 255
227 239 255
227 239 255
227 239 255
227 239 255
227 239 255
227 239 255
227 239 255
227 239 255
227 239 255
227 239 255
227 239 255
227 239 255
227 239 255
227 239 255
227 239 255
227 239 255
227 239 255
227 239 255
227 239 255
227 239 255
227 239 255
227 239 255
227 239 255
227 239 255
227 239 255
227 239 255
227 239 255
227 239 255
227 239 255
227 239 255
227 239 255
227 239 255
227 239 255
227 239 255
227 239 255
227 239 255
227 239 255
227 239 255
227 239 255
227 239 255
227 239 255
227 239 255
227 239 255
227 239 255
227 239 255
227 239 255
227 239 255
227 239 255
227 239 255
227 239 255
227 239 255
227 239 255
227 239 255
227 239 255
227 239 255
227 239 255
227 239 255
227 239 255
227 239 255
227 239 255
227 239 255
227 239 255
227 239 255
227 239 255
227 239 255
227 239 255
227 239 255
227 239 255
227 239 255
227 239 255
227 239 255
227 239 255
227 239 255
227 239 255
227 239 255
227 239 255
227 239 255
227 239 255
227 239 255
227 239 255
227 239 255
227 239 255
227 239 255
227 239 255
227 239 255
227 239 255
227 239 255
227 239 255
227 239 255
227 239 255
227 239 255
227 239 255
227 239 255
227 239 255
227 239 255
227 239 255
227 239 255
227 239 255
227 239 255
227 239 255
227 239 255
227 239 255
227 239 255
227 239 255
227 239 255
227 239 255
227 239 255
227 239 255
227 239 255
227 239 255
227 239 255
227 239 255
227 239 255
227 239 255
227 239 255
227 239 255
227 239 255
227 239 255
227 239 255
227 239 255
227 239 255
227 239 255
227 239 255
227 239 255
227 239 255
227 239 255
227 239 255
227 239 255
227 239 255
227 239 255
227 239 255
227 239 255
227 239 255
227 239 255
227 239 255
227 239 255
227 239 255
227 239 255
227 239 255
227 239 255
227 239 255
227 239 255
227 239 255
227 239 255
227 239 255
227 239 255
227 239 255
227 239 255
227 239 255
227 239 255
227 239 255
227 239 255
227 239 255
227 239 255
227 239 255
227 239 255
227 239 255
227 239 255
227 239 255
227 239 255
227 239 255
227 239 255
227 239 255
227 239 255
227 239 255
227 239 255
227 239 255
227 239 255
227 239 255
227 239 255
227 239 255
227 239 255
227 239 255
227 239 255
227 239 255
227 239 255
227 239 255
227 239 255
227 239 255
227 239 255
227 239 255
227 239 255
227 239 255
227 239 255
227 239 255
227 239 255
227 239 255
227 239 255
227 239 255
227 239 255
227 239 255
227 239 255
227 239 255
227 239 255
227 239 255
227 239 255
227 239 255
227 239 255
227 239 255
227 239 255
227 239 255
227 239 255
227 239 255
227 239 255
227 239 255
227 239 255
227 239 255
227 239 255
227 239 255
227 239 255
227 239 255
227 239 255
227 239 255
227 239 255
227 239 255
227 239 255
227 239 255
227 239 255
227 239 255
227 239 255
227 239 255
227 239 255
227 239 255
227 239 255
227 239 255
227 239 255
227 239 255
227 239 255
227 239 255
227 239 255
227 239 255
227 239 255
227 239 255
227 239 255
227 239 255
227 239 255
227 239 255
227 239 255
227 239 255
227 239 255
227 239 255
227 239 255
227 239 255
227 239 255
227 239 255
227 239 255
227 239 255
227 239 255
227 239 255
227 239 255
227 239 255
227 239 255
227 239 255
227 239 255
227 239 255
227 239 255
227 239 255
227 239 255
227 239 255
227 239 255
227 239 255
227 239 255
227 239 255
227 239 255
227 239 255
227 239 255
227 239 255
227 239 255
227 239 255
227 239 255
227 239 255
221 233 249
189 198 213
154 162 176
109 115 130
64 71 93
2 24 66
6 24 64
3 21 60
6 20 58
4 17 55
3 11 44
0 12 44
0 10 44
0 6 38
0 2 34
0 1 29
0 0 27
0 0 26
0 0 27
0 0 28
0 0 27
0 0 32
0 0 30
0 0 28
0 0 27
0 0 27
9 14 39
0 6 34
0 9 39
0 9 42
0 8 41
0 8 44
0 9 46
0 13 49
1 14 52
8 26 64
9 29 71
12 42 91
26 52 100
92 111 146
92 111 143
118 131 160
139 152 171
197 206 216
207 218 232
181 193 211
134 148 173
28 58 110
10 44 97
72 83 115
122 131 152
152 161 179
194 204 220
224 235 252
227 239 255
227 239 255
227 239 255
227 239 255
227 239 255
227 239 255
227 239 255
227 239 255
227 239 255
227 239 255
227 239 255
227 239 255
227 239 255
227 239 255
227 239 255
227 239 255
227 239 255
227 239 255
227 239 255
227 239 255
227 239 255
227 239 255
227 239 255
227 239 255
227 239 255
227 239 255
227 239 255
227 239 255
227 239 255
227 239 255
227 239 255
227 239 255
227 239 255
227 239 255
227 239 255
227 239 255
227 239 255
227 239 255
227 239 255
227 239 255
227 239 255
227 239 255
227 239 255
227 239 255
227 239 255
227 239 255
227 239 255
227 239 255
227 239 255
227 239 255
227 239 255
227 239 255
227 239 255
227 239 255
227 239 255
227 239 255
227 239 255
227 239 255
227 239 255
227 239 255
227 239 255
227 239 255
227 239 255
227 239 255
227 239 255
227 239 255
227 239 255
227 239 255
227 239 255
227 239 255
227 239 255
227 239 255
227 239 255
227 239 255
227 239 255
227 239 255
227 239 255
227 239 255
227 239 255
227 239 255
227 239 255
227 239 255
227 239 255
227 239 255
227 239 255
227 239 255
227 239 255
227 239 255
227 239 255
227 239 255
227 239 255
227 239 255
227 239 255
227 239 255
227 239 255
227 239 255
227 239 255
227 239 255
227 239 255
227 239 255
227 239 255
227 239 255
227 239 255
227 239 255
227 239 255
227 239 255
227 239 255
227 239 255
227 239 255
227 239 255
227 239 255
227 239 255
227 239 255
227 239 255
227 239 255
227 239 255
227 239 255
227 239 255
227 239 255
227 239 255
227 239 255
227 239 255
227 239 255
227 239 255
227 239 255
227 239 255
227 239 255
227 239 255
227 239 255
227 239 255
227 239 255
227 239 255
227 239 255
227 239 255
227 239 255
227 239 255
227 239 255
227 239 255
227 239 255
227 239 255
227 239 255
227 239 255
227 239 255
227 239 255
227 239 255
227 239 255
227 239 255
227 239 255
227 239 255
227 239 255
227 239 255
227 239 255
227 239 255
227 239 255
227 239 255
227 239 255
227 239 255
227 239 255
227 239 255
227 239 255
227 239 255
227 239 255
227 239 255
227 239 255
227 239 255
227 239 255
227 239 255
227 239 255
227 239 255
227 239 255
227 239 255
227 239 255
227 239 255
227 239 255
227 239 255
227 239 255
227 239 255
227 239 255
227 239 255
227 239 255
227 239 255
227 239 255
227 239 255
227 239 255
227 239 255
227 239 255
227 239 255
227 239 255
227 239 255
227 239 255
227 239 255
227 239 255
227 239 255
227 239 255
227 239 255
227 239 255
227 239 255
227 239 255
227 239 255
227 239 255
227 239 255
227 239 255
227 239 255
227 239 255
227 239 255
227 239 255
227 239 255
227 239 255
227 239 255
227 239 255
227 239 255
227 239 255
227 239 255
227 239 255
227 239 255
227 239 255
227 239 255
227 239 255
227 239 255
227 239 255
227 239 255
227 239 255
227 239 255
227 239 255
227 239 255
227 239 255
227 239 255
227 239 255
227 239 255
227 239 255
227 239 255
227 239 255
227 239 255
227 239 255
227 239 255
227 239 255
227 239 255
227 239 255
227 239 255
227 239 255
227 239 255
227 239 255
227 239 255
227 239 255
227 239 255
227 239 255
227 239 255
227 239 255
227 239 255
227 239 255
227 239 255
227 239 255
227 239 255
227 239 255
227 239 255
227 239 255
227 239 255
227 239 255
227 239 255
227 239 255
227 239 255
227 239 255
227 239 255
227 239 255
227 239 255
227 239 255
227 239 255
227 239 255
227 239 255
227 239 255
227 239 255
227 239 255
227 239 255
227 239 255
227 239 255
227 239 255
227 239 255
227 239 255
227 239 255
227 239 255
227 239 255
227 239 255
227 239 255
227 239 255
227 239 255
227 239 255
227 239 255
227 239 255
227 239 255
227 239 255
227 239 255
227 239 255
227 239 255
227 239 255
227 239 255
227 239 255
227 239 255
227 239 255
227 239 255
227 239 255
227 239 255
227 239 255
227 239 255
227 239 255
227 239 255
227 239 255
227 239 255
227 239 255
227 239 255
227 239 255
227 239 255
227 239 255
227 239 255
227 239 255
227 239 255
227 239 255
227 239 255
227 239 255
227 239 255
227 239 255
227 239 255
227 239 255
227 239 255
227 239 255
227 239 255
227 239 255
227 239 255
227 239 255
227 239 255
227 239 255
227 239 255
227 239 255
227 239 255
227 239 255
227 239 255
227 239 255
227 239 255
227 239 255
227 239 255
227 239 255
227 239 255
227 239 255
227 239 255
227 239 255
227 239 255
227 239 255
227 239 255
227 239 255
227 239 255
227 239 255
227 239 255
215 227 244
195 206 225
164 174 194
150 159 178
146 155 171
110 119 142
81 94 125
37 55 97
7 35 80
5 33 79
5 31 75
9 36 81
9 36 83
9 35 80
28 44 83
41 55 86
37 51 81
28 44 79
13 36 80
10 37 82
9 32 76
10 36 81
10 38 88
10 38 88
12 44 97
13 48 102
13 48 103
14 49 105
17 52 107
15 52 108
61 87 132
113 132 159
188 196 209
209 218 230
212 222 233
211 216 225
216 223 230
192 198 211
152 165 185
123 137 166
129 142 171
149 162 188
185 197 218
212 224 242
227 239 255
227 239 255
227 239 255
227 239 255
227 239 255
227 239 255
227 239 255
227 239 255
227 239 255
227 239 255
227 239 255
227 239 255
227 239 255
227 239 255
227 239 255
227 239 255
227 239 255
227 239 255
227 239 255
227 239 255
227 239 255
227 239 255
227 239 255
227 239 255
227 239 255
227 239 255
227 239 255
227 239 255
227 239 255
227 239 255
227 239 255
227 239 255
227 239 255
227 239 255
227 239 255
227 239 255
227 239 255
227 239 255
227 239 255
227 239 255
227 239 255
227 239 255
227 239 255
227 239 255
227 239 255
227 239 255
227 239 255
227 239 255
227 239 255
227 239 255
227 239 255
227 239 255
227 239 255
227 239 255
227 239 255
227 239 255
227 239 255
227 239 255
227 239 255
227 239 255
227 239 255
227 239 255
227 239 255
227 239 255
227 239 255
227 239 255
227 239 255
227 239 255
227 239 255
227 239 255
227 239 255
227 239 255
227 239 255
227 239 255
227 239 255
227 239 255
227 239 255
227 239 255
227 239 255
227 239 255
227 239 255
227 239 255
227 239 255
227 239 255
227 239 255
227 239 255
227 239 255
227 239 255
227 239 255
227 239 255
227 239 255
227 239 255
227 239 255
227 239 255
227 239 255
227 239 255
227 239 255
227 239 255
227 239 255
227 239 255
227 239 255
227 239 255
227 239 255
227 239 255
227 239 255
227 239 255
227 239 255
227 239 255
227 239 255
227 239 255
227 239 255
227 239 255
227 239 255
227 239 255
227 239 255
227 239 255
227 239 255
227 239 255
227 239 255
227 239 255
227 239 255
227 239 255
227 239 255
227 239 255
227 239 255
227 239 255
227 239 255
227 239 255
227 239 255
227 239 255
227 239 255
227 239 255
227 239 255
227 239 255
227 239 255
227 239 255
227 239 255
227 239 255
227 239 255
227 239 255
227 239 255
227 239 255
227 239 255
227 239 255
227 239 255
227 239 255
227 239 255
227 239 255
227 239 255
227 239 255
227 239 255
227 239 255
227 239 255
227 239 255
227 239 255
227 239 255
227 239 255
227 239 255
227 239 255
227 239 255
227 239 255
227 239 255
227 239 255
227 239 255
227 239 255
227 239 255
227 239 255
227 239 255
227 239 255
227 239 255
227 239 255
227 239 255
227 239 255
227 239 255
227 239 255
227 239 255
227 239 255
227 239 255
227 239 255
227 239 255
227 239 255
227 239 255
227 239 255
227 239 255
227 239 255
227 239 255
227 239 255
227 239 255
227 239 255
227 239 255
227 239 255
227 239 255
227 239 255
227 239 255
227 239 255
227 239 255
227 239 255
227 239 255
227 239 255
227 239 255
227 239 255
227 239 255
227 239 255
227 239 255
227 239 255
227 239 255
227 239 255
227 239 255
227 239 255
227 239 255
227 239 255
227 239 255
227 239 255
227 239 255
227 239 255
227 239 255
227 239 255
227 239 255
227 239 255
227 239 255
227 239 255
227 239 255
227 239 255
227 239 255
227 239 255
227 239 255
227 239 255
227 239 255
227 239 255
227 239 255
227 239 255
227 239 255
227 239 255
227 239 255
227 239 255
227 239 255
227 239 255
227 239 255
227 239 255
227 239 255
227 239 255
227 239 255
227 239 255
227 239 255
227 239 255
227 239 255
227 239 255
227 239 255
227 239 255
227 239 255
227 239 255
227 239 255
227 239 255
227 239 255
227 239 255
227 239 255
227 239 255
227 239 255
227 239 255
227 239 255
227 239 255
227 239 255
227 239 255
227 239 255
227 239 255
227 239 255
227 239 255
227 239 255
227 239 255
227 239 255
227 239 255
227 239 255
227 239 255
227 239 255
227 239 255
227 239 255
227 239 255
227 239 255
227 239 255
227 239 255
227 239 255
227 239 255
227 239 255
227 239 255
227 239 255
227 239 255
227 239 255
227 239 255
227 239 255
227 239 255
227 239 255
227 239 255
227 239 255
227 239 255
227 239 255
227 239 255
227 239 255
227 239 255
227 239 255
227 239 255
227 239 255
227 239 255
227 239 255
227 239 255
227 239 255
227 239 255
227 239 255
227 239 255
227 239 255
227 239 255
227 239 255
227 239 255
227 239 255
227 239 255
227 239 255
227 239 255
227 239 255
227 239 255
227 239 255
227 239 255
227 239 255
227 239 255
227 239 255
227 239 255
227 239 255
227 239 255
227 239 255
227 239 255
227 239 255
227 239 255
227 239 255
227 239 255
227 239 255
227 239 255
227 239 255
227 239 255
227 239 255
227 239 255
227 239 255
227 239 255
227 239 255
227 239 255
227 239 255
227 239 255
227 239 255
227 239 255
227 239 255
227 239 255
227 239 255
227 239 255
227 239 255
227 239 255
227 239 255
227 239 255
227 239 255
227 239 255
227 239 255
227 239 255
227 239 255
227 239 255
227 239 255
227 239 255
226 237 252
217 227 241
205 216 232
205 214 227
177 186 201
172 181 197
170 179 196
158 167 185
180 188 201
211 217 223
212 218 226
213 219 228
201 208 218
193 201 212
180 185 199
181 187 200
192 200 213
175 182 198
165 173 190
162 172 190
159 166 183
182 191 205
185 194 207
199 206 218
205 213 225
207 215 224
224 231 240
225 233 243
225 233 246
215 225 237
207 218 235
205 216 235
220 232 249
227 239 255
227 239 255
227 239 255
227 239 255
227 239 255
227 239 255
227 239 255
227 239 255
227 239 255
227 239 255
227 239 255
227 239 255
227 239 255
227 239 255
227 239 255
227 239 255
227 239 255
227 239 255
227 239 255
227 239 255
227 239 255
227 239 255
227 239 255
227 239 255
227 239 255
227 239 255
227 239 255
227 239 255
227 239 255
227 239 255
227 239 255
227 239 255
227 239 255
227 239 255
227 239 255
227 239 255
227 239 255
227 239 255
227 239 255
227 239 255
227 239 255
227 239 255
227 239 255
227 239 255
227 239 255
227 239 255
227 239 255
227 239 255
227 239 255
227 239 255
227 239 255
227 239 255
227 239 255
227 239 255
227 239 255
227 239 255
227 239 255
227 239 255
227 239 255
227 239 255
227 239 255
227 239 255
227 239 255
227 239 255
227 239 255
227 239 255
227 239 255
227 239 255
227 239 255
227 239 255
227 239 255
227 239 255
227 239 255
227 239 255
227 239 255
227 239 255
227 239 255
227 239 255
227 239 255
227 239 255
227 239 255
227 239 255
227 239 255
227 239 255
227 239 255
227 239 255
227 239 255
227 239 255
227 239 255
227 239 255
227 239 255
227 239 255
227 239 255
227 239 255
227 239 255
227 239 255
227 239 255
227 239 255
227 239 255
227 239 255
227 239 255
227 239 255
227 239 255
227 239 255
227 239 255
227 239 255
227 239 255
227 239 255
227 239 255
227 239 255
227 239 255
227 239 255
227 239 255
227 239 255
227 239 255
227 239 255
227 239 255
227 239 255
227 239 255
227 239 255
227 239 255
227 239 255
227 239 255
227 239 255
227 239 255
227 239 255
227 239 255
227 239 255
227 239 255
227 239 255
227 239 255
227 239 255
227 239 255
227 239 255
227 239 255
227 239 255
227 239 255
227 239 255
227 239 255
227 239 255
227 239 255
227 239 255
227 239 255
227 239 255
227 239 255
227 239 255
227 239 255
227 239 255
227 239 255
227 239 255
227 239 255
227 239 255
227 239 255
227 239 255
227 239 255
227 239 255
227 239 255
227 239 255
227 239 255
227 239 255
227 239 255
227 239 255
227 239 255
227 239 255
227 239 255
227 239 255
227 239 255
227 239 255
227 239 255
227 239 255
227 239 255
227 239 255
227 239 255
227 239 255
227 239 255
227 239 255
227 239 255
227 239 255
227 239 255
227 239 255
227 239 255
227 239 255
227 239 255
227 239 255
227 239 255
227 239 255
227 239 255
227 239 255
227 239 255
227 239 255
227 239 255
227 239 255
227 239 255
227 239 255
227 239 255
227 239 255
227 239 255
227 239 255
227 239 255
227 239 255
227 239 255
227 239 255
227 239 255
227 239 255
227 239 255
227 239 255
227 239 255
227 239 255
227 239 255
227 239 255
227 239 255
227 239 255
227 239 255
227 239 255
227 239 255
227 239 255
227 239 255
227 239 255
227 239 255
227 239 255
227 239 255
227 239 255
227 239 255
227 239 255
227 239 255
227 239 255
227 239 255
227 239 255
227 239 255
227 239 255
227 239 255
227 239 255
227 239 255
227 239 255
227 239 255
227 239 255
227 239 255
227 239 255
227 239 255
227 239 255
227 239 255
227 239 255
227 239 255
227 239 255
227 239 255
227 239 255
227 239 255
227 239 255
227 239 255
227 239 255
227 239 255
227 239 255
227 239 255
227 239 255
227 239 255
227 239 255
227 239 255
227 239 255
227 239 255
227 239 255
227 239 255
227 239 255
227 239 255
227 239 255
227 239 255
227 239 255
227 239 255
227 239 255
227 239 255
227 239 255
227 239 255
227 239 255
227 239 255
227 239 255
227 239 255
227 239 255
227 239 255
227 239 255
227 239 255
227 239 255
227 239 255
227 239 255
227 239 255
227 239 255
227 239 255
227 239 255
227 239 255
227 239 255
227 239 255
227 239 255
227 239 255
227 239 255
227 239 255
227 239 255
227 239 255
227 239 255
227 239 255
227 239 255
227 239 255
227 239 255
227 239 255
227 239 255
227 239 255
227 239 255
227 239 255
227 239 255
227 239 255
227 239 255
227 239 255
227 239 255
227 239 255
227 239 255
227 239 255
227 239 255
227 239 255
227 239 255
227 239 255
227 239 255
227 239 255
227 239 255
227 239 255
227 239 255
227 239 255
227 239 255
227 239 255
227 239 255
227 239 255
227 239 255
227 239 255
227 239 255
227 239 255
227 239 255
227 239 255
227 239 255
227 239 255
227 239 255
227 239 255
227 239 255
227 239 255
227 239 255
227 239 255
227 239 255
227 239 255
227 239 255
227 239 255
227 239 255
227 239 255
227 239 255
227 239 255
227 239 255
227 239 255
227 239 255
227 239 255
227 239 255
227 239 255
227 239 255
227 239 255
227 239 255
227 239 255
227 239 255
227 239 255
227 239 255
227 239 255
227 239 255
227 239 255
227 239 255
227 239 255
227 239 255
227 239 255
227 239 255
227 239 255
227 239 255
227 239 255
227 239 255
227 239 255
227 238 254
228 238 254
228 238 253
228 238 253
228 237 251
226 236 249
227 236 250
228 237 251
227 236 250
224 234 247
227 237 250
228 238 251
228 238 252
228 239 254
227 238 253
227 239 255
227 239 255
227 239 255
227 239 255
227 239 255
227 239 255
227 239 255
227 239 255
227 239 255
227 239 255
227 239 255
227 239 255
227 239 255
227 239 255
227 239 255
227 239 255
227 239 255
227 239 255
227 239 255
227 239 255
227 239 255
227 239 255
227 239 255
227 239 255
227 239 255
227 239 255
227 239 255
227 239 255
227 239 255
227 239 255
227 239 255
227 239 255
227 239 255
227 239 255
227 239 255
227 239 255
227 239 255
227 239 255
227 239 255
227 239 255
227 239 255
227 239 255
227 239 255
227 239 255
227 239 255
227 239 255
227 239 255
227 239 255
227 239 255
227 239 255
227 239 255
227 239 255
227 239 255
227 239 255
227 239 255
227 239 255
227 239 255
227 239 255
227 239 255
227 239 255
227 239 255
227 239 255
227 239 255
227 239 255
227 239 255
227 239 255
227 239 255
227 239 255
227 239 255
227 239 255
227 239 255
227 239 255
227 239 255
227 239 255
227 239 255
227 239 255
227 239 255
227 239 255
227 239 255
227 239 255
227 239 255
227 239 255
227 239 255
227 239 255
227 239 255
227 239 255
227 239 255
227 239 255
227 239 255
227 239 255
227 239 255
227 239 255
227 239 255
227 239 255
227 239 255
227 239 255
227 239 255
227 239 255
227 239 255
227 239 255
227 239 255
227 239 255
227 239 255
227 239 255
227 239 255
227 239 255
227 239 255
227 239 255
227 239 255
227 239 255
227 239 255
227 239 255
227 239 255
227 239 255
227 239 255
227 239 255
227 239 255
227 239 255
227 239 255
227 239 255
227 239 255
227 239 255
227 239 255
227 239 255
227 239 255
227 239 255
227 239 255
227 239 255
227 239 255
227 239 255
227 239 255
227 239 255
227 239 255
227 239 255
227 239 255
227 239 255
227 239 255
227 239 255
227 239 255
227 239 255
227 239 255
227 239 255
227 239 255
227 239 255
227 239 255
227 239 255
227 239 255
227 239 255
227 239 255
227 239 255
227 239 255
227 239 255
227 239 255
227 239 255
227 239 255
227 239 255
227 239 255
227 239 255
227 239 255
227 239 255
227 239 255
227 239 255
227 239 255
227 239 255
227 239 255
227 239 255
227 239 255
227 239 255
227 239 255
227 239 255
227 239 255
227 239 255
227 239 255
227 239 255
227 239 255
227 239 255
227 239 255
227 239 255
227 239 255
227 239 255
227 239 255
227 239 255
227 239 255
227 239 255
227 239 255
227 239 255
227 239 255
227 239 255
227 239 255
227 239 255
227 239 255
227 239 255
227 239 255
227 239 255
227 239 255
227 239 255
227 239 255
227 239 255
227 239 255
227 239 255
227 239 255
227 239 255
227 239 255
227 239 255
227 239 255
227 239 255
227 239 255
227 239 255
227 239 255
227 239 255
227 239 255
227 239 255
227 239 255
227 239 255
227 239 255
227 239 255
227 239 255
227 239 255
227 239 255
227 239 255
227 239 255
227 239 255
227 239 255
227 239 255
227 239 255
227 239 255
227 239 255
227 239 255
227 239 255
227 239 255
227 239 255
227 239 255
227 239 255
227 239 255
227 239 255
227 239 255
227 239 255
227 239 255
227 239 255
227 239 255
227 239 255
227 239 255
227 239 255
227 239 255
227 239 255
227 239 255
227 239 255
227 239 255
227 239 255
227 239 255
227 239 255
227 239 255
227 239 255
227 239 255
227 239 255
227 239 255
227 239 255
227 239 255
227 239 255
227 239 255
227 239 255
227 239 255
227 239 255
227 239 255
227 239 255
227 239 255
227 239 255
227 239 255
227 239 255
227 239 255
227 239 255
227 239 255
227 239 255
227 239 255
227 239 255
227 239 255
227 239 255
227 239 255
227 239 255
227 239 255
227 239 255
227 239 255
227 239 255
227 239 255
227 239 255
227 239 255
227 239 255
227 239 255
227 239 255
227 239 255
227 239 255
227 239 255
227 239 255
227 239 255
227 239 255
227 239 255
227 239 255
227 239 255
227 239 255
227 239 255
227 239 255
227 239 255
227 239 255
227 239 255
227 239 255
227 239 255
227 239 255
227 239 255
227 239 255
227 239 255
227 239 255
227 239 255
227 239 255
227 239 255
227 239 255
227 239 255
227 239 255
227 239 255
227 239 255
227 239 255
227 239 255
227 239 255
227 239 255
227 239 255
227 239 255
227 239 255
227 239 255
227 239 255
227 239 255
227 239 255
227 239 255
227 239 255
227 239 255
227 239 255
227 239 255
227 239 255
227 239 255
227 239 255
227 239 255
227 239 255
227 239 255
227 239 255
227 239 255
227 239 255
227 239 255
227 239 255
227 239 255
227 239 255
227 239 255
227 239 255
227 239 255
227 239 255
227 239 255
227 239 255
227 239 255
227 239 255
227 239 255
227 239 255
227 239 255
227 239 255
227 239 255
227 239 255
227 239 255
227 239 255
227 239 255
227 239 255
227 239 255
227 239 255
227 239 255
227 239 255
227 239 255
227 239 255
227 239 255
227 239 255
227 239 255
227 239 255
227 239 255
227 239 255
227 239 255
227 239 255
227 239 255
227 239 255
227 239 255
227 239 255
227 239 255
227 239 255
227 239 255
227 239 255
227 239 255
227 239 255
227 239 255
227 239 255
227 239 255
227 239 255
227 239 255
227 239 255
227 239 255
227 239 255
227 239 255
227 239 255
227 239 255
227 239 255
227 239 255
227 239 255
227 239 255
227 239 255
227 239 255
227 239 255
227 239 255
227 239 255
227 239 255
227 239 255
227 239 255
227 239 255
227 239 255
227 239 255
227 239 255
227 239 255
227 239 255
227 239 255
227 239 255
227 239 255
227 239 255
227 239 255
227 239 255
227 239 255
227 239 255
227 239 255
227 239 255
227 239 255
227 239 255
227 239 255
227 239 255
227 239 255
227 239 255
227 239 255
227 239 255
227 239 255
227 239 255
227 239 255
227 239 255
227 239 255
227 239 255
227 239 255
227 239 255
227 239 255
227 239 255
227 239 255
227 239 255
227 239 255
227 239 255
227 239 255
227 239 255
227 239 255
227 239 255
227 239 255
227 239 255
227 239 255
227 239 255
227 239 255
227 239 255
227 239 255
227 239 255
227 239 255
227 239 255
227 239 255
227 239 255
227 239 255
227 239 255
227 239 255
227 239 255
227 239 255
227 239 255
227 239 255
227 239 255
227 239 255
227 239 255
227 239 255
227 239 255
227 239 255
227 239 255
227 239 255
227 239 255
227 239 255
227 239 255
227 239 255
227 239 255
227 239 255
227 239 255
227 239 255
227 239 255
227 239 255
227 239 255
227 239 255
227 239 255
227 239 255
227 239 255
227 239 255
227 239 255
227 239 255
227 239 255
227 239 255
227 239 255
227 239 255
227 239 255
227 239 255
227 239 255
227 239 255
227 239 255
227 239 255
227 239 255
227 239 255
227 239 255
227 239 255
227 239 255
227 239 255
227 239 255
227 239 255
227 239 255
227 239 255
227 239 255
227 239 255
227 239 255
227 239 255
227 239 255
227 239 255
227 239 255
227 239 255
227 239 255
227 239 255
227 239 255
227 239 255
227 239 255
227 239 255
227 239 255
227 239 255
227 239 255
227 239 255
227 239 255
227 239 255
227 239 255
227 239 255
227 239 255
227 239 255
227 239 255
227 239 255
227 239 255
227 239 255
227 239 255
227 239 255
227 239 255
227 239 255
227 239 255
227 239 255
227 239 255
227 239 255
227 239 255
227 239 255
227 239 255
227 239 255
227 239 255
227 239 255
227 239 255
227 239 255
227 239 255
227 239 255
227 239 255
227 239 255
227 239 255
227 239 255
227 239 255
227 239 255
227 239 255
227 239 255
227 239 255
227 239 255
227 239 255
227 239 255
227 239 255
227 239 255
227 239 255
227 239 255
227 239 255
227 239 255
227 239 255
227 239 255
227 239 255
227 239 255
227 239 255
227 239 255
227 239 255
227 239 255
227 239 255
227 239 255
227 239 255
227 239 255
227 239 255
227 239 255
227 239 255
227 239 255
227 239 255
227 239 255
227 239 255
227 239 255
227 239 255
227 239 255
227 239 255
227 239 255
227 239 255
227 239 255
227 239 255
227 239 255
227 239 255
227 239 255
227 239 255
227 239 255
227 239 255
227 239 255
227 239 255
227 239 255
227 239 255
227 239 255
227 239 255
227 239 255
227 239 255
227 239 255
227 239 255
227 239 255
227 239 255
227 239 255
227 239 255
227 239 255
227 239 255
227 239 255
227 239 255
227 239 255
227 239 255
227 239 255
227 239 255
227 239 255
227 239 255
227 239 255
227 239 255
227 239 255
227 239 255
227 239 255
227 239 255
227 239 255
227 239 255
227 239 255
227 239 255
227 239 255
227 239 255
227 239 255
227 239 255
227 239 255
227 239 255
227 239 255
227 239 255
227 239 255
227 239 255
227 239 255
227 239 255
227 239 255
227 239 255
227 239 255
227 239 255
227 239 255
227 239 255
227 239 255
227 239 255
227 239 255
227 239 255
227 239 255
227 239 255
227 239 255
227 239 255
227 239 255
227 239 255
227 239 255
227 239 255
227 239 255
227 239 255
227 239 255
227 239 255
227 239 255
227 239 255
227 239 255
227 239 255
227 239 255
227 239 255
227 239 255
227 239 255
227 239 255
227 239 255
227 239 255
227 239 255
227 239 255
227 239 255
227 239 255
227 239 255
227 239 255
227 239 255
227 239 255
227 239 255
227 239 255
227 239 255
227 239 255
227 239 255
227 239 255
227 239 255
227 239 255
227 239 255
227 239 255
227 239 255
227 239 255
227 239 255
227 239 255
227 239 255
227 239 255
227 239 255
227 239 255
227 239 255
227 239 255
227 239 255
227 239 255
227 239 255
227 239 255
227 239 255
227 239 255
227 239 255
227 239 255
227 239 255
227 239 255
227 239 255
227 239 255
227 239 255
227 239 255
227 239 255
227 239 255
227 239 255
227 239 255
227 239 255
227 239 255
227 239 255
227 239 255
227 239 255
227 239 255
227 239 255
227 239 255
227 239 255
227 239 255
227 239 255
227 239 255
227 239 255
227 239 255
227 239 255
227 239 255
227 239 255
227 239 255
227 239 255
227 239 255
227 239 255
227 239 255
227 239 255
227 239 255
227 239 255
227 239 255
227 239 255
227 239 255
227 239 255
227 239 255
227 239 255
227 239 255
227 239 255
227 239 255
227 239 255
227 239 255
227 239 255
227 239 255
227 239 255
227 239 255
227 239 255
227 239 255
227 239 255
227 239 255
227 239 255
227 239 255
227 239 255
227 239 255
227 239 255
227 239 255
227 239 255
227 239 255
227 239 255
227 239 255
227 239 255
227 239 255
227 239 255
227 239 255
227 239 255
227 239 255
227 239 255
227 239 255
227 239 255
227 239 255
227 239 255
227 239 255
227 239 255
227 239 255
227 239 255
227 239 255
227 239 255
227 239 255
227 239 255
227 239 255
227 239 255
227 239 255
227 239 255
227 239 255
227 239 255
227 239 255
227 239 255
227 239 255
227 239 255
227 239 255
227 239 255
227 239 255
227 239 255
227 239 255
227 239 255
227 239 255
227 239 255
227 239 255
227 239 255
227 239 255
227 239 255
227 239 255
227 239 255
227 239 255
227 239 255
227 239 255
227 239 255
227 239 255
227 239 255
227 239 255
227 239 255
227 239 255
227 239 255
227 239 255
227 239 255
227 239 255
227 239 255
227 239 255
227 239 255
227 239 255
227 239 255
227 239 255
227 239 255
227 239 255
227 239 255
227 239 255
227 239 255
227 239 255
227 239 255
227 239 255
227 239 255
227 239 255
227 239 255
227 239 255
227 239 255
227 239 255
227 239 255
227 239 255
227 239 255
227 239 255
227 239 255
227 239 255
227 239 255
227 239 255
227 239 255
227 239 255
227 239 255
227 239 255
227 239 255
227 239 255
227 239 255
227 239 255
227 239 255
227 239 255
227 239 255
227 239 255
227 239 255
227 239 255
227 239 255
227 239 255
227 239 255
227 239 255
227 239 255
227 239 255
227 239 255
227 239 255
227 239 255
227 239 255
227 239 255
227 239 255
227 239 255
227 239 255
227 239 255
227 239 255
227 239 255
227 239 255
227 239 255
227 239 255
227 239 255
227 239 255
227 239 255
227 239 255
227 239 255
227 239 255
227 239 255
227 239 255
227 239 255
227 239 255
227 239 255
227 239 255
227 239 255
227 239 255
227 239 255
227 239 255
227 239 255
227 239 255
227 239 255
227 239 255
227 239 255
227 239 255
227 239 255
227 239 255
227 239 255
227 239 255
227 239 255
227 239 255
227 239 255
227 239 255
227 239 255
227 239 255
227 239 255
227 239 255
227 239 255
227 239 255
227 239 255
227 239 255
227 239 255
227 239 255
227 239 255
227 239 255
227 239 255
227 239 255
227 239 255
227 239 255
227 239 255
227 239 255
227 239 255
227 239 255
227 239 255
227 239 255
227 239 255
227 239 255
227 239 255
227 239 255
227 239 255
227 239 255
227 239 255
227 239 255
227 239 255
227 239 255
227 239 255
227 239 255
227 239 255
227 239 255
227 239 255
227 239 255
227 239 255
227 239 255
227 239 255
227 239 255
227 239 255
227 239 255
227 239 255
227 239 255
227 239 255
227 239 255
227 239 255
227 239 255
227 239 255
227 239 255
227 239 255
227 239 255
227 239 255
227 239 255
227 239 255
227 239 255
227 239 255
227 239 255
227 239 255
227 239 255
227 239 255
227 239 255
227 239 255
227 239 255
227 239 255
227 239 255
227 239 255
227 239 255
227 239 255
227 239 255
227 239 255
227 239 255
227 239 255
227 239 255
227 239 255
227 239 255
227 239 255
227 239 255
227 239 255
227 239 255
227 239 255
227 239 255
227 239 255
227 239 255
227 239 255
227 239 255
227 239 255
227 239 255
227 239 255
227 239 255
227 239 255
227 239 255
227 239 255
227 239 255
227 239 255
227 239 255
227 239 255
227 239 255
227 239 255
227 239 255
227 239 255
227 239 255
227 239 255
227 239 255
227 239 255
227 239 255
227 239 255
227 239 255
227 239 255
227 239 255
227 239 255
227 239 255
227 239 255
227 239 255
227 239 255
227 239 255
227 239 255
227 239 255
227 239 255
227 239 255
227 239 255
227 239 255
227 239 255
227 239 255
227 239 255
227 239 255
227 239 255
227 239 255
227 239 255
227 239 255
227 239 255
227 239 255
227 239 255
227 239 255
227 239 255
227 239 255
227 239 255
227 239 255
227 239 255
227 239 255
227 239 255
227 239 255
227 239 255
227 239 255
227 239 255
227 239 255
227 239 255
227 239 255
227 239 255
227 239 255
227 239 255
227 239 255
227 239 255
227 239 255
227 239 255
227 239 255
227 239 255
227 239 255
227 239 255
227 239 255
227 239 255
227 239 255
227 239 255
227 239 255
227 239 255
227 239 255
227 239 255
227 239 255
227 239 255
227 239 255
227 239 255
227 239 255
227 239 255
227 239 255
227 239 255
227 239 255
227 239 255
227 239 255
227 239 255
227 239 255
227 239 255
227 239 255
227 239 255
227 239 255
227 239 255
227 239 255
227 239 255
227 239 255
227 239 255
227 239 255
227 239 255
227 239 255
227 239 255
227 239 255
227 239 255
227 239 255
227 239 255
227 239 255
227 239 255
227 239 255
227 239 255
227 239 255
227 239 255
227 239 255
227 239 255
227 239 255
227 239 255
227 239 255
227 239 255
227 239 255
227 239 255
227 239 255
227 239 255
227 239 255
227 239 255
227 239 255
227 239 255
227 239 255
227 239 255
227 239 255
227 239 255
227 239 255
227 239 255
227 239 255
227 239 255
227 239 255
227 239 255
227 239 255
227 239 255
227 239 255
227 239 255
227 239 255
227 239 255
227 239 255
227 239 255
227 239 255
227 239 255
227 239 255
227 239 255
227 239 255
227 239 255
227 239 255
227 239 255
227 239 255
227 239 255
227 239 255
227 239 255
227 239 255
227 239 255
227 239 255
227 239 255
227 239 255
227 239 255
227 239 255
227 239 255
227 239 255
227 239 255
227 239 255
227 239 255
227 239 255
227 239 255
227 239 255
227 239 255
227 239 255
227 239 255
227 239 255
227 239 255
227 239 255
227 239 255
227 239 255
227 239 255
227 239 255
227 239 255
227 239 255
227 239 255
227 239 255
227 239 255
227 239 255
227 239 255
227 239 255
227 239 255
227 239 255
227 239 255
227 239 255
227 239 255
227 239 255
227 239 255
227 239 255
227 239 255
227 239 255
227 239 255
227 239 255
227 239 255
227 239 255
227 239 255
227 239 255
227 239 255
227 239 255
227 239 255
227 239 255
227 239 255
227 239 255
227 239 255
227 239 255
227 239 255
227 239 255
227 239 255
227 239 255
227 239 255
227 239 255
227 239 255
227 239 255
227 239 255
227 239 255
227 239 255
227 239 255
227 239 255
227 239 255
227 239 255
227 239 255
227 239 255
227 239 255
227 239 255
227 239 255
227 239 255
227 239 255
227 239 255
227 239 255
227 239 255
227 239 255
227 239 255
227 239 255
227 239 255
227 239 255
227 239 255
227 239 255
227 239 255
227 239 255
227 239 255
227 239 255
227 239 255
227 239 255
227 239 255
227 239 255
227 239 255
227 239 255
227 239 255
227 239 255
227 239 255
227 239 255
227 239 255
227 239 255
227 239 255
227 239 255
227 239 255
227 239 255
227 239 255
227 239 255
227 239 255
227 239 255
227 239 255
227 239 255
227 239 255
227 239 255
227 239 255
227 239 255
227 239 255
227 239 255
227 239 255
227 239 255
227 239 255
227 239 255
227 239 255
227 239 255
227 239 255
227 239 255
227 239 255
227 239 255
227 239 255
227 239 255
227 239 255
227 239 255
227 239 255
227 239 255
227 239 255
227 239 255
227 239 255
227 239 255
227 239 255
227 239 255
227 239 255
227 239 255
227 239 255
227 239 255
227 239 255
227 239 255
227 239 255
227 239 255
227 239 255
227 239 255
227 239 255
227 239 255
227 239 255
227 239 255
227 239 255
227 239 255
227 239 255
227 239 255
227 239 255
227 239 255
227 239 255
227 239 255
227 239 255
227 239 255
227 239 255
227 239 255
227 239 255
227 239 255
227 239 255
227 239 255
227 239 255
227 239 255
227 239 255
227 239 255
227 239 255
227 239 255
227 239 255
227 239 255
227 239 255
227 239 255
227 239 255
227 239 255
227 239 255
227 239 255
227 239 255
227 239 255
227 239 255
227 239 255
227 239 255
227 239 255
227 239 255
227 239 255
227 239 255
227 239 255
227 239 255
227 239 255
227 239 255
227 239 255
227 239 255
227 239 255
227 239 255
227 239 255
227 239 255
227 239 255
227 239 255
227 239 255
227 239 255
227 239 255
227 239 255
227 239 255
227 239 255
227 239 255
227 239 255
227 239 255
227 239 255
227 239 255
227 239 255
227 239 255
227 239 255
227 239 255
227 239 255
227 239 255
227 239 255
227 239 255
227 239 255
227 239 255
227 239 255
227 239 255
227 239 255
227 239 255
227 239 255
227 239 255
227 239 255
227 239 255
227 239 255
227 239 255
227 239 255
227 239 255
227 239 255
227 239 255
227 239 255
227 239 255
227 239 255
227 239 255
227 239 255
227 239 255
227 239 255
227 239 255
227 239 255
227 239 255
227 239 255
227 239 255
227 239 255
227 239 255
227 239 255
227 239 255
227 239 255
227 239 255
227 239 255
227 239 255
227 239 255
227 239 255
227 239 255
227 239 255
227 239 255
227 239 255
227 239 255
227 239 255
227 239 255
227 239 255
227 239 255
227 239 255
227 239 255
227 239 255
227 239 255
227 239 255
227 239 255
227 239 255
227 239 255
227 239 255
227 239 255
227 239 255
227 239 255
227 239 255
227 239 255
227 239 255
227 239 255
227 239 255
227 239 255
227 239 255
227 239 255
227 239 255
227 239 255
227 239 255
227 239 255
227 239 255
227 239 255
227 239 255
227 239 255
227 239 255
227 239 255
227 239 255
227 239 255
227 239 255
227 239 255
227 239 255
227 239 255
227 239 255
227 239 255
227 239 255
227 239 255
227 239 255
227 239 255
227 239 255
227 239 255
227 239 255
227 239 255
227 239 255
227 239 255
227 239 255
227 239 255
227 239 255
227 239 255
227 239 255
227 239 255
227 239 255
227 239 255
227 239 255
227 239 255
227 239 255
227 239 255
227 239 255
227 239 255
227 239 255
227 239 255
227 239 255
227 239 255
227 239 255
227 239 255
227 239 255
227 239 255
227 239 255
227 239 255
227 239 255
227 239 255
227 239 255
227 239 255
227 239 255
227 239 255
227 239 255
227 239 255
227 239 255
227 239 255
227 239 255
227 239 255
227 239 255
227 239 255
227 239 255
227 239 255
227 239 255
227 239 255
227 239 255
227 239 255
227 239 255
227 239 255
227 239 255
227 239 255
227 239 255
227 239 255
227 239 255
227 239 255
227 239 255
227 239 255
227 239 255
227 239 255
227 239 255
227 239 255
227 239 255
228 239 255
227 239 255
227 239 255
227 239 255
228 239 255
228 239 255
228 239 255
228 239 255
228 239 255
228 239 255
227 239 255
228 239 255
228 239 255
228 239 255
227 239 255
228 239 255
228 239 255
228 239 255
228 239 255
228 239 255
228 239 255
228 239 255
228 239 255
228 239 255
228 239 255
228 239 255
228 239 255
228 239 255
228 239 255
228 239 255
228 239 255
228 239 255
228 239 255
228 239 255
228 239 255
228 239 255
228 239 255
228 239 255
227 239 255
227 239 255
227 239 255
227 239 255
228 239 255
227 239 255
227 239 255
227 239 255
227 239 255
227 239 255
227 239 255
227 239 255
227 239 255
227 239 255
227 239 255
227 239 255
227 239 255
227 239 255
227 239 255
227 239 255
227 239 255
227 239 255
227 239 255
227 239 255
227 239 255
227 239 255
227 239 255
227 239 255
227 239 255
227 239 255
227 239 255
227 239 255
227 239 255
227 239 255
227 239 255
227 239 255
227 239 255
227 239 255
227 239 255
227 239 255
227 239 255
227 239 255
227 239 255
227 239 255
227 239 255
227 239 255
227 239 255
227 239 255
227 239 255
227 239 255
227 239 255
227 239 255
227 239 255
227 239 255
227 239 255
227 239 255
227 239 255
227 239 255
227 239 255
227 239 255
227 239 255
227 239 255
227 239 255
227 239 255
227 239 255
227 239 255
227 239 255
227 239 255
227 239 255
227 239 255
227 239 255
227 239 255
227 239 255
227 239 255
227 239 255
227 239 255
227 239 255
227 239 255
227 239 255
227 239 255
227 239 255
227 239 255
227 239 255
227 239 255
227 239 255
227 239 255
227 239 255
227 239 255
227 239 255
227 239 255
227 239 255
227 239 255
227 239 255
227 239 255
227 239 255
227 239 255
227 239 255
227 239 255
227 239 255
227 239 255
227 239 255
227 239 255
227 239 255
227 239 255
227 239 255
227 239 255
227 239 255
227 239 255
227 239 255
227 239 255
227 239 255
227 239 255
227 239 255
227 239 255
227 239 255
227 239 255
227 239 255
227 239 255
227 239 255
227 239 255
227 239 255
227 239 255
227 239 255
227 239 255
227 239 255
227 239 255
227 239 255
227 239 255
227 239 255
227 239 255
227 239 255
227 239 255
227 239 255
227 239 255
227 239 255
227 239 255
227 239 255
227 239 255
227 239 255
227 239 255
227 239 255
227 239 255
227 239 255
227 239 255
227 239 255
227 239 255
227 239 255
227 239 255
227 239 255
227 239 255
227 239 255
227 239 255
227 239 255
227 239 255
227 239 255
227 239 255
227 239 255
227 239 255
227 239 255
227 239 255
227 239 255
227 239 255
227 239 255
227 239 255
227 239 255
227 239 255
227 239 255
227 239 255
227 239 255
227 239 255
227 239 255
227 239 255
227 239 255
227 239 255
227 239 255
227 239 255
227 239 255
227 239 255
227 239 255
227 239 255
227 239 255
