P3
400 225
255
171 195 0
174 197 0
174 197 0
176 198 0
172 196 0
174 197 0
171 195 0
173 197 0
173 196 0
173 197 0
175 198 0
175 198 0
174 196 0
173 196 0
174 197 0
172 196 0
174 197 0
173 196 0
176 198 0
174 198 0
174 198 0
174 198 0
170 195 0
173 196 0
174 197 0
174 198 0
173 197 0
173 197 0
174 197 0
175 197 0
174 197 0
173 196 0
175 198 0
173 196 0
172 196 0
172 195 0
174 197 0
172 197 0
175 198 0
173 196 0
174 198 0
174 197 0
173 196 0
174 198 0
173 197 0
172 196 0
172 195 0
176 199 0
175 198 0
173 196 0
173 196 0
172 195 0
174 197 0
174 198 0
173 196 0
174 198 0
174 198 0
173 197 0
173 197 0
175 198 0
173 197 0
172 196 0
174 198 0
172 197 0
176 199 0
174 197 0
172 195 0
174 197 0
173 196 0
174 197 0
173 197 0
173 196 0
172 197 0
175 198 0
171 195 0
172 196 0
174 197 0
173 196 0
173 197 0
174 197 0
173 196 0
175 198 0
175 198 0
168 191 0
175 198 0
174 197 0
173 197 0
172 196 0
173 196 0
173 197 0
174 197 0
174 197 0
173 196 0
176 199 0
175 198 0
173 196 0
175 198 0
173 197 0
175 198 0
174 198 0
173 197 0
176 198 0
172 196 0
174 197 0
175 198 0
174 198 0
173 197 0
172 195 0
175 198 0
173 197 0
174 198 0
173 196 0
172 196 0
173 196 0
173 197 0
173 197 0
173 196 0
170 194 0
172 195 0
173 197 0
172 196 0
172 196 0
173 196 0
175 197 0
173 197 0
172 195 0
173 197 0
172 195 0
173 196 0
173 196 0
175 198 0
173 197 0
175 198 0
174 197 0
173 195 0
173 196 0
174 197 0
173 197 0
173 196 0
173 196 0
173 196 0
173 195 0
172 195 0
173 196 0
174 197 0
173 196 0
173 196 0
173 196 0
173 196 0
173 197 0
172 196 0
174 197 0
170 194 0
175 198 0
174 198 0
174 197 0
172 196 0
174 198 0
170 194 0
175 197 0
173 196 0
173 197 0
171 195 0
172 195 0
172 195 0
175 198 0
172 196 0
174 197 0
173 196 0
172 194 0
171 194 0
174 197 0
172 196 0
172 195 0
173 196 0
173 196 0
174 197 0
174 198 0
173 196 0
172 195 0
172 195 0
171 194 0
173 196 0
172 195 0
172 195 0
170 194 0
173 196 0
174 197 0
173 196 0
174 197 0
174 198 0
174 197 0
173 196 0
174 197 0
172 196 0
173 196 0
175 198 0
173 197 0
172 196 0
173 195 0
175 198 0
175 198 0
174 197 0
172 195 0
174 198 0
172 195 0
172 196 0
171 195 0
173 196 0
174 197 0
173 197 0
174 197 0
173 197 0
173 196 0
173 196 0
175 197 0
173 196 0
171 195 0
173 197 0
174 197 0
175 198 0
173 197 0
172 196 0
173 196 0
173 196 0
174 196 0
173 196 0
173 196 0
174 197 0
174 197 0
175 198 0
173 196 0
175 197 0
174 197 0
172 195 0
174 197 0
174 197 0
174 197 0
175 197 0
172 194 0
172 195 0
172 196 0
173 196 0
173 197 0
174 197 0
173 196 0
174 197 0
173 197 0
160 173 44
125 119 65
129 124 67
135 130 71
141 135 77
127 122 70
139 134 78
154 148 92
149 143 87
144 139 81
149 143 86
142 138 84
151 146 84
155 150 91
157 151 96
154 150 90
157 152 94
157 152 95
146 141 88
153 147 93
162 157 99
160 154 101
156 152 98
154 150 96
155 151 99
156 151 99
157 152 99
161 157 102
160 155 102
157 153 100
157 154 102
156 153 101
156 152 101
158 155 102
166 162 106
165 162 107
154 150 98
163 159 104
161 159 106
157 155 103
166 161 106
162 159 106
160 157 104
162 159 105
162 160 106
163 160 106
166 163 108
163 159 106
155 152 101
168 164 109
169 166 110
169 166 110
161 160 107
166 163 109
164 162 109
164 162 108
165 163 109
160 158 105
167 164 109
164 162 108
163 160 107
167 164 109
165 162 108
169 166 110
168 166 110
163 160 107
159 158 106
166 163 109
168 165 110
169 166 110
166 164 109
164 162 109
156 154 103
165 163 109
165 163 109
163 160 107
168 166 111
161 159 106
165 162 108
165 162 108
163 161 108
162 160 107
163 160 106
162 159 106
164 161 108
166 163 108
162 160 107
162 159 106
161 159 106
159 157 105
166 163 109
162 159 106
158 155 102
164 160 106
159 156 103
161 158 104
161 158 104
164 161 107
162 158 103
163 159 104
172 167 110
162 158 103
158 156 103
161 157 103
159 155 102
157 153 99
158 153 100
164 159 104
153 147 94
157 152 98
163 158 101
152 148 95
153 148 95
146 142 91
159 153 98
153 148 95
160 154 97
153 147 91
147 142 89
145 140 87
144 139 84
145 140 88
155 150 90
145 140 84
146 140 84
142 137 84
139 134 83
145 139 84
147 140 83
140 134 75
126 120 67
138 142 56
172 196 0
172 196 0
173 197 0
176 199 0
174 198 0
174 197 0
173 197 0
175 198 0
175 198 0
173 197 0
173 197 0
175 198 0
174 197 0
174 197 0
173 197 0
175 197 0
174 197 0
174 197 0
174 198 0
174 197 0
174 197 0
174 198 0
174 198 0
175 198 0
175 198 0
176 199 0
174 197 0
176 198 0
173 197 0
175 198 0
174 197 0
176 199 0
173 197 0
173 197 0
171 196 0
173 197 0
172 196 0
174 197 0
175 198 0
171 196 0
174 197 0
173 197 0
173 197 0
173 196 0
173 197 0
174 198 0
173 197 0
176 198 0
175 198 0
173 197 0
176 199 0
174 197 0
172 197 0
173 197 0
175 198 0
175 198 0
173 196 0
175 198 0
175 198 0
173 196 0
173 197 0
174 197 0
173 196 0
174 197 0
173 196 0
173 197 0
174 198 0
174 198 0
173 197 0
174 197 0
175 198 0
174 197 0
176 198 0
175 198 0
174 196 0
172 195 0
174 197 0
173 196 0
174 197 0
174 197 0
174 197 0
175 198 0
171 196 0
175 198 0
173 197 0
172 196 0
174 198 0
174 198 0
175 198 0
173 197 0
171 194 0
172 196 0
174 197 0
174 197 0
173 196 0
172 196 0
173 196 0
175 198 0
174 198 0
173 197 0
174 197 0
174 197 0
175 198 0
174 197 0
175 198 0
175 198 0
175 198 0
174 197 0
171 195 0
173 196 0
174 197 0
173 197 0
173 197 0
172 196 0
174 197 0
175 198 0
173 197 0
174 198 0
173 196 0
174 198 0
176 199 0
174 197 0
175 198 0
174 197 0
173 197 0
174 197 0
173 197 0
173 197 0
173 196 0
175 198 0
172 195 0
173 196 0
173 196 0
173 196 0
174 197 0
174 197 0
171 195 0
173 196 0
173 195 0
171 194 0
175 197 0
175 198 0
174 197 0
174 198 0
173 197 0
172 195 0
174 197 0
173 197 0
176 198 0
173 197 0
174 197 0
173 197 0
172 196 0
173 197 0
173 197 0
170 194 0
171 194 0
175 198 0
173 195 0
173 196 0
173 196 0
174 197 0
173 197 0
173 197 0
172 196 0
174 197 0
174 198 0
175 198 0
172 195 0
173 197 0
174 197 0
174 197 0
173 197 0
173 197 0
172 196 0
174 197 0
173 196 0
173 197 0
171 195 0
172 195 0
174 197 0
172 195 0
171 195 0
174 198 0
169 191 0
173 196 0
173 196 0
173 196 0
173 196 0
174 198 0
174 197 0
174 197 0
174 197 0
172 195 0
173 196 0
174 198 0
175 198 0
173 196 0
174 197 0
173 195 0
175 197 0
173 195 0
173 196 0
170 194 0
174 197 0
172 196 0
173 196 0
173 196 0
175 198 0
174 197 0
168 192 0
174 197 0
172 195 0
172 196 0
173 196 0
170 193 0
173 197 0
175 198 0
175 198 0
172 195 0
174 197 0
175 198 0
173 196 0
173 196 0
170 194 0
174 197 0
171 194 0
172 196 0
174 197 0
172 196 0
173 197 0
174 197 0
172 194 0
171 195 0
175 198 0
175 198 0
172 195 0
173 196 0
171 194 0
174 197 0
171 195 0
173 196 0
172 195 0
174 197 0
171 194 0
173 196 0
174 197 0
173 196 0
173 196 0
173 196 0
175 198 0
170 192 0
173 196 0
174 197 0
172 195 0
172 196 0
173 196 0
171 195 0
169 192 0
172 196 0
173 197 0
175 198 0
171 194 0
175 198 0
170 193 0
174 196 0
171 194 0
163 182 25
122 117 62
130 125 63
138 132 72
158 151 84
134 128 72
149 144 83
150 145 84
148 142 83
149 144 90
152 146 87
153 148 90
145 140 83
159 153 95
155 149 97
146 140 88
151 145 93
155 150 94
142 138 87
153 148 93
154 149 94
155 151 95
155 151 96
161 156 98
158 153 97
150 146 94
159 154 98
159 154 100
159 155 101
164 159 101
157 153 102
156 153 100
158 154 101
159 155 102
163 160 106
157 154 101
164 160 106
158 156 102
164 161 107
163 160 106
166 163 108
166 163 108
164 160 107
159 156 104
163 161 108
162 158 105
165 162 107
162 160 106
161 158 105
162 159 106
163 160 108
162 160 107
163 162 109
168 165 110
160 157 105
164 161 108
169 166 110
164 161 108
165 163 109
167 165 110
164 163 109
165 162 108
170 167 112
165 162 108
165 163 109
164 161 108
163 161 108
171 168 112
163 160 107
171 168 112
165 162 108
168 165 110
168 165 110
169 167 112
165 163 109
162 160 107
167 164 110
160 158 106
165 162 108
167 164 110
164 162 109
163 161 108
162 160 107
166 162 108
157 155 104
162 159 106
166 164 109
161 158 105
165 162 108
160 157 104
166 163 108
164 161 108
166 163 108
167 163 108
163 160 106
160 157 104
159 156 103
162 159 104
158 155 101
165 161 106
161 158 104
163 160 106
160 156 102
160 156 103
161 157 102
157 153 100
160 155 100
160 156 102
156 151 99
152 148 96
163 157 103
156 152 97
165 160 104
153 148 95
155 152 100
155 150 97
163 157 99
146 141 90
154 149 93
153 148 92
160 154 95
154 148 91
161 155 95
153 149 93
152 147 88
145 140 85
148 143 87
140 135 80
145 139 80
144 138 83
148 141 81
145 140 79
120 116 61
160 172 51
175 198 0
173 197 0
174 198 0
175 198 0
174 197 0
175 198 0
175 198 0
174 198 0
174 198 0
173 197 0
175 198 0
173 196 0
175 198 0
175 197 0
172 196 0
175 198 0
174 198 0
173 196 0
173 197 0
174 197 0
175 198 0
176 199 0
174 197 0
174 198 0
176 199 0
172 196 0
173 197 0
175 198 0
176 199 0
174 197 0
174 197 0
174 197 0
173 197 0
174 197 0
175 198 0
173 197 0
173 197 0
173 197 0
173 196 0
175 198 0
173 197 0
173 197 0
174 198 0
174 197 0
172 196 0
173 196 0
174 198 0
174 197 0
174 198 0
173 197 0
175 198 0
175 198 0
175 198 0
172 196 0
174 197 0
175 198 0
174 197 0
175 198 0
173 197 0
174 198 0
175 197 0
176 198 0
174 197 0
174 198 0
174 198 0
173 195 0
174 197 0
174 198 0
172 196 0
175 198 0
173 197 0
172 196 0
174 198 0
174 197 0
174 197 0
173 196 0
175 198 0
172 196 0
175 197 0
175 198 0
174 197 0
172 196 0
176 198 0
172 196 0
173 196 0
175 198 0
172 196 0
174 197 0
173 196 0
172 196 0
173 196 0
173 197 0
175 198 0
173 197 0
171 195 0
172 195 0
173 196 0
175 198 0
173 197 0
176 199 0
174 197 0
171 195 0
174 197 0
175 198 0
173 197 0
173 196 0
172 196 0
174 198 0
176 198 0
173 197 0
171 195 0
173 197 0
173 196 0
172 196 0
173 195 0
173 196 0
173 196 0
174 197 0
172 196 0
174 197 0
175 198 0
171 195 0
172 196 0
175 197 0
171 194 0
172 195 0
174 197 0
173 197 0
172 195 0
174 197 0
175 198 0
173 196 0
174 197 0
174 197 0
171 195 0
174 198 0
174 197 0
175 197 0
172 196 0
174 197 0
173 197 0
172 195 0
171 194 0
174 196 0
174 197 0
174 198 0
171 194 0
174 197 0
174 197 0
172 196 0
174 198 0
174 198 0
173 197 0
174 197 0
174 197 0
172 196 0
173 197 0
172 195 0
173 197 0
172 195 0
174 197 0
171 195 0
174 197 0
173 196 0
175 198 0
174 197 0
172 196 0
172 196 0
174 197 0
174 197 0
173 197 0
172 196 0
173 197 0
174 197 0
175 198 0
172 195 0
172 196 0
174 197 0
173 197 0
173 196 0
173 196 0
171 195 0
173 196 0
172 195 0
175 198 0
172 195 0
174 197 0
176 198 0
174 197 0
173 197 0
175 198 0
173 196 0
172 195 0
173 196 0
173 197 0
173 196 0
174 197 0
171 195 0
174 197 0
175 198 0
173 196 0
173 196 0
174 197 0
174 197 0
173 196 0
175 198 0
172 195 0
174 198 0
171 195 0
175 198 0
174 198 0
171 193 0
175 198 0
174 197 0
171 195 0
172 195 0
174 197 0
171 194 0
175 197 0
173 196 0
173 196 0
173 197 0
174 197 0
176 198 0
173 196 0
173 196 0
174 197 0
173 196 0
172 195 0
173 196 0
172 195 0
171 195 0
171 195 0
172 196 0
171 195 0
173 196 0
173 196 0
174 198 0
173 197 0
173 197 0
173 197 0
174 197 0
173 196 0
173 196 0
172 196 0
174 197 0
174 197 0
174 197 0
168 192 0
171 195 0
173 196 0
173 197 0
171 194 0
172 196 0
175 198 0
174 196 0
172 196 0
172 195 0
173 196 0
174 197 0
174 196 0
174 197 0
170 193 0
174 197 0
173 196 0
174 196 0
128 128 51
138 133 68
136 131 74
139 134 72
147 140 82
140 134 80
149 143 82
143 137 78
150 144 87
149 143 87
152 147 86
153 147 91
161 155 94
157 151 93
155 149 93
146 141 88
152 148 90
164 158 99
159 154 100
149 145 93
153 149 95
154 150 97
161 157 102
150 146 93
160 155 100
149 145 94
161 156 103
156 153 101
156 153 100
158 155 102
161 157 101
160 155 101
166 161 105
163 159 106
161 157 103
158 155 102
162 158 103
163 161 106
168 164 108
165 161 107
162 159 105
166 162 108
163 160 107
160 157 105
162 159 106
161 159 106
169 166 110
161 159 107
165 162 107
162 160 107
164 162 108
165 162 108
164 161 108
168 165 110
165 162 108
163 160 106
164 162 108
164 162 109
164 162 109
169 166 111
164 162 108
163 161 108
162 161 108
167 165 110
161 159 106
172 169 113
166 164 110
166 165 110
168 165 110
165 163 109
168 166 110
167 165 110
168 166 111
163 161 108
165 163 109
166 164 110
166 164 109
168 166 110
167 164 110
159 157 105
167 165 110
165 162 108
169 166 110
160 157 104
162 160 106
163 161 108
164 161 107
163 160 106
165 162 108
161 158 105
165 162 107
160 157 104
163 160 106
166 162 107
167 163 108
161 158 105
164 160 106
159 155 103
163 159 105
163 158 103
170 165 109
163 160 106
156 153 99
166 162 106
161 157 104
157 153 101
163 158 104
160 156 102
162 157 102
156 152 97
159 155 100
164 159 103
151 148 93
152 147 93
165 160 104
155 150 97
160 155 101
154 149 93
159 153 97
160 155 97
157 152 95
145 140 91
145 140 86
149 144 91
156 150 92
143 138 81
154 149 90
150 144 86
139 134 79
137 132 81
143 137 82
139 132 76
136 130 70
131 127 68
170 190 30
173 196 0
174 198 0
172 195 0
174 197 0
175 198 0
174 198 0
174 197 0
174 197 0
173 197 0
173 195 0
175 197 0
176 199 0
173 197 0
174 197 0
174 197 0
174 197 0
173 197 0
176 198 0
174 198 0
175 198 0
174 197 0
174 197 0
174 197 0
172 196 0
173 197 0
174 197 0
175 198 0
174 197 0
175 198 0
175 198 0
174 197 0
172 196 0
173 196 0
172 195 0
172 196 0
174 197 0
173 197 0
174 198 0
172 196 0
173 197 0
172 196 0
174 197 0
174 198 0
174 197 0
171 196 0
175 198 0
173 196 0
171 195 0
174 197 0
174 197 0
174 197 0
174 197 0
174 198 0
174 197 0
174 198 0
176 198 0
173 197 0
173 196 0
176 199 0
174 197 0
173 196 0
173 196 0
173 196 0
173 196 0
172 196 0
173 196 0
174 197 0
175 198 0
173 196 0
173 197 0
173 197 0
174 197 0
175 198 0
173 197 0
173 197 0
173 196 0
174 198 0
175 197 0
174 197 0
173 197 0
173 197 0
173 196 0
174 197 0
172 196 0
173 196 0
172 196 0
174 197 0
173 196 0
172 194 0
174 198 0
173 197 0
173 197 0
175 198 0
174 197 0
174 198 0
176 199 0
172 195 0
173 196 0
171 195 0
172 196 0
174 197 0
175 198 0
174 197 0
174 197 0
173 196 0
173 197 0
172 195 0
174 197 0
172 195 0
174 198 0
175 198 0
172 196 0
172 195 0
171 195 0
174 197 0
172 195 0
171 195 0
174 197 0
172 195 0
174 197 0
173 196 0
173 197 0
173 197 0
172 195 0
173 197 0
174 197 0
173 196 0
173 196 0
172 195 0
171 195 0
171 195 0
174 197 0
173 197 0
174 198 0
175 198 0
173 196 0
172 195 0
176 199 0
174 197 0
172 196 0
171 195 0
175 197 0
175 198 0
173 196 0
175 198 0
174 197 0
174 198 0
175 198 0
174 197 0
173 196 0
171 195 0
172 196 0
173 196 0
174 197 0
173 196 0
174 197 0
174 197 0
172 196 0
174 197 0
175 197 0
174 197 0
173 196 0
175 198 0
176 198 0
173 197 0
174 197 0
173 196 0
172 196 0
172 195 0
173 197 0
172 196 0
172 195 0
171 195 0
172 195 0
171 194 0
173 195 0
174 197 0
175 198 0
172 195 0
174 197 0
169 193 0
175 198 0
174 197 0
174 197 0
172 196 0
175 198 0
175 198 0
173 196 0
174 198 0
174 198 0
171 195 0
174 197 0
172 194 0
174 197 0
173 196 0
172 196 0
173 194 0
173 197 0
174 197 0
174 197 0
173 196 0
173 196 0
172 195 0
173 197 0
174 197 0
172 196 0
172 195 0
172 195 0
175 198 0
174 198 0
172 194 0
172 195 0
174 197 0
174 197 0
173 197 0
172 196 0
172 195 0
173 196 0
173 197 0
172 196 0
174 197 0
172 196 0
174 197 0
172 196 0
173 196 0
175 197 0
173 197 0
172 195 0
173 197 0
174 196 0
175 198 0
171 193 0
169 192 0
172 196 0
174 198 0
173 197 0
173 197 0
171 195 0
171 194 0
173 196 0
172 195 0
175 197 0
173 195 0
173 196 0
169 192 0
174 197 0
173 196 0
173 196 0
172 195 0
171 194 0
170 193 0
173 197 0
171 195 0
175 197 0
172 194 0
173 196 0
174 197 0
174 197 0
174 198 0
173 196 0
174 197 0
173 197 0
171 194 0
174 197 0
150 161 47
125 119 65
131 125 69
148 142 78
133 128 71
131 126 70
150 144 84
146 140 82
149 143 83
148 143 87
144 139 84
147 143 90
147 142 88
155 148 91
151 145 88
154 148 94
144 140 88
158 152 97
158 151 93
151 146 93
158 153 100
150 146 94
156 152 97
153 149 96
162 158 103
152 149 95
155 152 99
163 158 102
164 159 104
157 154 99
154 151 99
167 164 108
157 154 102
154 151 101
160 156 103
168 164 108
160 157 104
159 156 104
158 155 104
165 162 108
156 154 102
163 160 106
155 153 103
165 162 108
162 159 105
164 161 107
166 163 109
157 154 102
166 163 109
166 163 109
165 162 108
165 163 109
164 162 108
166 164 109
166 162 108
165 162 108
164 161 108
164 161 107
169 166 110
166 163 109
170 168 112
162 161 108
169 166 110
163 161 108
167 164 109
166 163 109
167 165 110
169 167 111
169 167 112
163 161 108
166 164 109
170 168 112
166 163 109
169 166 111
171 168 112
165 163 109
165 162 108
167 165 110
167 164 109
160 158 105
164 162 108
162 160 107
166 164 109
169 165 110
164 161 107
167 164 109
164 161 107
168 166 110
164 161 108
169 166 110
163 160 106
159 156 103
163 160 106
164 161 107
160 158 106
168 164 109
165 162 108
165 161 106
163 160 105
163 160 106
164 161 106
166 161 104
161 157 103
165 160 104
161 157 104
161 158 103
158 155 102
168 163 106
153 149 97
163 159 103
159 155 100
161 157 101
161 156 102
153 148 95
159 154 99
155 150 97
162 156 102
160 154 98
147 142 90
158 153 97
154 149 93
153 147 93
141 137 83
155 150 93
159 153 95
148 143 88
149 143 87
146 141 87
151 144 88
148 143 87
148 141 82
137 132 76
139 133 75
134 129 70
126 122 69
145 146 63
172 195 0
173 196 0
173 197 0
174 198 0
173 197 0
172 195 0
173 197 0
174 197 0
174 197 0
175 198 0
173 197 0
175 198 0
174 198 0
172 195 0
174 197 0
173 196 0
174 196 0
174 197 0
175 198 0
174 197 0
175 198 0
173 196 0
174 197 0
174 197 0
175 198 0
174 198 0
173 197 0
171 196 0
174 198 0
174 197 0
175 197 0
174 197 0
174 197 0
176 198 0
172 196 0
174 198 0
173 197 0
174 198 0
174 197 0
173 196 0
173 197 0
174 198 0
173 197 0
173 197 0
173 197 0
175 198 0
175 198 0
173 196 0
174 196 0
173 196 0
173 196 0
173 196 0
174 198 0
176 198 0
174 198 0
171 195 0
175 198 0
171 195 0
173 197 0
173 197 0
176 198 0
173 196 0
175 198 0
173 197 0
173 197 0
173 196 0
173 196 0
173 197 0
173 197 0
175 198 0
174 198 0
174 197 0
174 197 0
173 196 0
174 197 0
174 197 0
174 197 0
175 198 0
173 196 0
171 195 0
171 195 0
175 197 0
173 197 0
172 196 0
174 197 0
174 198 0
174 197 0
173 197 0
172 195 0
173 196 0
173 197 0
172 196 0
171 196 0
174 197 0
172 196 0
174 198 0
173 197 0
173 197 0
173 196 0
176 198 0
174 197 0
173 196 0
174 197 0
173 197 0
174 197 0
173 197 0
173 196 0
174 197 0
172 195 0
174 198 0
172 195 0
172 196 0
171 194 0
173 196 0
173 197 0
173 197 0
170 194 0
173 197 0
170 194 0
173 197 0
172 196 0
172 197 0
174 197 0
171 195 0
173 197 0
174 197 0
173 197 0
174 197 0
172 196 0
173 196 0
175 198 0
172 196 0
174 197 0
173 197 0
173 197 0
174 197 0
171 195 0
172 195 0
173 197 0
175 198 0
171 196 0
172 195 0
170 195 0
173 197 0
174 196 0
176 198 0
173 196 0
173 196 0
171 196 0
176 198 0
175 197 0
173 197 0
171 195 0
172 195 0
171 195 0
175 198 0
173 197 0
172 196 0
175 198 0
176 199 0
171 194 0
171 195 0
173 197 0
174 197 0
170 194 0
173 197 0
172 196 0
174 197 0
173 196 0
171 195 0
173 197 0
173 197 0
173 196 0
171 196 0
174 197 0
175 197 0
173 195 0
173 197 0
174 196 0
174 197 0
174 197 0
173 197 0
173 196 0
172 195 0
173 197 0
173 197 0
174 197 0
169 193 0
172 195 0
174 196 0
172 195 0
173 196 0
173 197 0
174 197 0
173 196 0
169 192 0
173 196 0
174 197 0
170 193 0
174 197 0
174 197 0
172 197 0
174 196 0
171 194 0
174 196 0
174 197 0
169 193 0
171 194 0
173 195 0
172 196 0
174 197 0
174 197 0
171 195 0
173 196 0
170 193 0
173 196 0
173 196 0
173 196 0
173 196 0
173 196 0
171 194 0
172 195 0
173 195 0
174 198 0
173 196 0
175 198 0
174 197 0
173 197 0
172 195 0
170 194 0
173 196 0
173 196 0
175 198 0
173 196 0
172 196 0
173 197 0
173 196 0
173 196 0
173 196 0
172 196 0
173 195 0
172 195 0
173 196 0
173 196 0
169 191 0
173 196 0
174 196 0
173 197 0
172 196 0
174 197 0
174 196 0
172 194 0
172 196 0
172 195 0
174 197 0
172 196 0
174 197 0
174 197 0
172 196 0
172 195 0
174 197 0
172 195 0
173 196 0
162 178 37
119 114 62
141 135 75
130 124 73
148 141 77
143 138 81
133 128 78
140 134 75
148 143 87
149 142 87
146 141 85
157 151 93
149 144 88
154 148 93
157 151 93
159 152 94
150 144 87
152 147 91
152 147 93
151 146 91
161 156 101
156 151 96
150 146 94
158 154 99
158 153 99
159 155 100
153 148 96
162 158 101
163 158 103
154 151 98
160 157 104
157 154 102
161 158 103
159 155 102
156 152 100
164 159 104
163 160 106
163 158 104
156 152 100
160 155 102
163 160 105
157 154 102
162 158 105
159 157 104
168 164 108
165 162 109
166 164 109
165 162 108
167 163 108
162 159 105
169 166 110
162 160 107
162 159 107
166 163 108
164 161 107
164 161 108
167 164 109
169 166 110
165 163 109
163 160 107
163 162 108
170 167 111
171 168 112
164 162 108
166 164 109
168 165 110
167 165 111
167 164 110
165 163 109
169 166 111
161 159 106
167 164 109
164 162 108
167 165 110
168 166 110
167 164 109
168 166 110
166 163 109
160 158 106
166 163 109
168 165 110
166 163 109
165 163 109
167 164 109
168 165 110
165 163 109
169 165 110
168 166 110
164 161 108
165 162 108
168 165 109
164 161 108
168 164 109
167 163 108
160 157 103
165 162 106
167 164 108
156 153 101
167 163 108
164 161 106
162 159 104
161 158 104
161 157 103
166 162 107
164 159 103
162 159 104
158 155 102
162 157 103
160 157 103
160 155 101
166 162 105
161 156 101
163 158 99
155 150 97
151 147 93
159 154 100
161 155 99
154 150 97
152 147 95
154 149 94
156 150 93
158 153 95
160 154 95
154 150 95
154 149 93
155 150 93
158 152 94
141 135 80
147 141 87
148 143 88
139 133 79
144 138 82
141 135 79
143 137 81
139 133 80
143 137 78
126 122 58
159 172 44
174 198 0
176 198 0
173 197 0
173 196 0
174 197 0
174 197 0
173 197 0
175 198 0
175 198 0
173 196 0
174 198 0
173 197 0
172 196 0
174 198 0
173 197 0
175 198 0
174 197 0
174 198 0
173 196 0
174 198 0
173 197 0
175 198 0
174 197 0
173 196 0
171 195 0
174 198 0
173 196 0
173 196 0
172 196 0
173 197 0
174 198 0
175 198 0
175 198 0
174 197 0
174 197 0
173 197 0
175 197 0
175 198 0
173 197 0
174 197 0
173 196 0
175 198 0
174 198 0
174 197 0
173 196 0
174 197 0
172 196 0
172 196 0
174 197 0
174 197 0
173 196 0
172 196 0
173 196 0
171 195 0
175 198 0
175 198 0
174 197 0
174 197 0
175 198 0
174 198 0
173 197 0
175 198 0
173 197 0
173 196 0
174 198 0
172 196 0
172 195 0
173 196 0
173 196 0
174 197 0
175 197 0
174 197 0
172 196 0
174 197 0
175 198 0
172 196 0
176 198 0
173 196 0
174 197 0
174 197 0
174 197 0
174 198 0
173 196 0
172 196 0
172 195 0
174 198 0
175 198 0
172 196 0
175 198 0
174 197 0
174 198 0
173 196 0
174 197 0
173 196 0
172 195 0
172 195 0
172 196 0
173 197 0
176 198 0
174 198 0
173 197 0
173 197 0
172 196 0
174 197 0
175 198 0
172 196 0
173 197 0
174 197 0
173 197 0
175 198 0
174 197 0
174 198 0
174 198 0
174 198 0
173 196 0
172 196 0
173 197 0
173 195 0
175 198 0
174 197 0
173 196 0
173 197 0
171 195 0
171 194 0
173 195 0
174 198 0
174 197 0
174 198 0
171 195 0
174 197 0
174 197 0
174 197 0
174 197 0
172 196 0
171 194 0
171 195 0
173 197 0
174 197 0
173 196 0
174 197 0
172 196 0
174 197 0
171 195 0
173 196 0
173 196 0
173 197 0
173 195 0
174 197 0
175 197 0
171 195 0
172 195 0
172 196 0
170 195 0
173 196 0
173 197 0
172 195 0
172 195 0
173 196 0
174 197 0
171 195 0
175 198 0
175 198 0
172 196 0
171 195 0
173 195 0
172 196 0
174 197 0
173 196 0
173 196 0
173 196 0
173 196 0
175 198 0
173 196 0
173 196 0
170 194 0
173 196 0
171 194 0
173 196 0
175 198 0
173 196 0
174 196 0
174 197 0
172 196 0
175 198 0
173 196 0
174 196 0
175 198 0
173 196 0
172 195 0
173 197 0
173 196 0
173 196 0
175 197 0
172 196 0
173 196 0
172 195 0
175 198 0
170 193 0
171 194 0
174 197 0
169 193 0
172 196 0
175 197 0
174 197 0
173 196 0
173 197 0
171 196 0
173 196 0
173 195 0
175 197 0
173 196 0
173 196 0
172 196 0
173 196 0
172 195 0
172 197 0
173 196 0
172 196 0
171 194 0
172 195 0
173 197 0
174 197 0
171 195 0
171 194 0
175 196 0
173 195 0
171 194 0
172 195 0
172 196 0
170 194 0
173 197 0
171 194 0
174 197 0
173 196 0
170 193 0
174 197 0
174 197 0
174 197 0
173 196 0
171 195 0
173 196 0
171 194 0
172 195 0
174 196 0
171 194 0
173 196 0
174 197 0
172 196 0
174 198 0
173 197 0
174 197 0
172 194 0
172 196 0
171 194 0
173 196 0
172 195 0
174 197 0
173 197 0
174 197 0
173 196 0
172 196 0
172 194 0
138 136 60
140 134 72
136 130 68
136 131 72
138 132 75
149 143 82
142 136 78
143 139 82
141 135 76
149 143 86
142 138 79
146 141 80
152 146 90
147 142 87
155 149 91
142 138 87
160 154 95
157 152 96
147 143 91
155 150 93
157 152 99
155 150 97
163 159 102
148 145 95
158 154 100
159 155 101
150 146 95
158 155 102
156 153 100
160 156 101
157 154 101
160 155 101
164 161 106
160 157 104
158 154 101
160 157 105
159 156 103
166 163 108
163 158 104
162 158 104
159 156 104
163 160 107
163 160 107
165 163 108
164 160 107
163 160 107
161 158 104
163 160 106
163 160 107
165 162 108
164 162 108
167 164 109
163 160 107
166 164 110
167 164 109
164 162 108
164 162 108
167 164 109
169 166 110
162 159 106
167 164 110
169 167 112
168 165 110
167 165 110
168 165 110
169 167 112
167 164 110
161 159 106
171 168 112
168 166 111
167 164 109
167 164 110
164 161 107
169 167 112
165 163 109
166 164 109
164 162 109
166 164 109
168 166 110
169 166 111
159 156 104
173 170 113
163 161 108
167 163 109
167 164 109
168 164 109
166 163 109
170 167 111
164 162 108
170 167 110
165 162 108
168 164 109
165 161 106
162 158 105
162 159 105
165 162 108
171 168 110
166 163 108
168 165 109
164 161 106
164 161 106
161 157 103
161 158 105
159 155 103
169 164 107
152 148 97
163 160 106
168 163 106
170 165 108
158 154 101
154 152 99
158 154 98
158 153 100
162 158 100
160 155 100
156 152 97
157 153 97
156 152 96
150 145 92
156 150 93
159 153 96
148 142 89
152 147 92
153 147 93
156 149 93
148 142 88
151 146 89
152 146 93
151 146 89
144 139 83
151 144 84
147 141 84
148 141 84
141 136 77
141 136 79
150 143 80
134 128 74
144 140 75
172 193 19
174 197 0
173 197 0
172 195 0
176 198 0
174 196 0
175 198 0
173 196 0
176 199 0
175 198 0
174 198 0
173 196 0
174 197 0
173 197 0
175 198 0
174 197 0
176 198 0
174 197 0
173 197 0
173 196 0
174 197 0
174 197 0
176 198 0
174 198 0
174 197 0
175 198 0
174 197 0
175 198 0
175 198 0
174 197 0
175 198 0
175 198 0
173 197 0
174 198 0
175 198 0
174 197 0
174 198 0
175 198 0
173 196 0
175 198 0
173 196 0
174 197 0
175 198 0
175 198 0
173 197 0
172 196 0
173 197 0
175 198 0
174 197 0
174 197 0
173 197 0
175 198 0
173 197 0
173 197 0
171 195 0
175 198 0
173 196 0
173 196 0
173 197 0
173 196 0
174 197 0
173 196 0
173 196 0
175 198 0
174 198 0
175 198 0
173 196 0
174 198 0
174 197 0
175 198 0
175 198 0
173 197 0
176 199 0
174 197 0
174 196 0
172 196 0
172 195 0
172 195 0
174 197 0
174 198 0
175 198 0
173 197 0
175 198 0
173 196 0
172 196 0
174 198 0
175 198 0
175 198 0
173 197 0
174 197 0
172 196 0
173 197 0
172 195 0
175 198 0
172 196 0
174 197 0
174 198 0
174 196 0
173 197 0
171 195 0
173 196 0
172 195 0
175 198 0
173 197 0
172 196 0
173 197 0
173 196 0
175 197 0
171 195 0
175 198 0
175 197 0
171 194 0
174 197 0
173 197 0
173 197 0
176 199 0
172 196 0
173 197 0
173 196 0
174 197 0
175 198 0
172 196 0
173 196 0
173 197 0
173 197 0
174 198 0
172 195 0
175 198 0
172 196 0
174 198 0
173 196 0
173 197 0
173 197 0
175 198 0
175 198 0
173 196 0
172 196 0
175 198 0
175 198 0
176 198 0
170 194 0
173 197 0
173 196 0
173 197 0
172 195 0
173 195 0
172 196 0
174 196 0
173 196 0
174 196 0
174 196 0
174 197 0
174 197 0
174 196 0
173 196 0
172 196 0
173 196 0
174 198 0
175 198 0
173 196 0
171 195 0
174 197 0
174 197 0
173 196 0
175 198 0
174 197 0
172 197 0
173 196 0
173 196 0
172 196 0
173 196 0
173 195 0
172 195 0
172 196 0
172 195 0
172 195 0
172 195 0
174 197 0
173 196 0
173 196 0
173 196 0
172 196 0
172 195 0
169 193 0
174 198 0
173 197 0
172 195 0
174 196 0
173 196 0
173 196 0
174 197 0
171 195 0
173 195 0
171 194 0
174 196 0
172 195 0
174 197 0
173 196 0
174 197 0
173 196 0
172 195 0
174 196 0
172 195 0
173 196 0
170 193 0
173 196 0
173 195 0
169 192 0
173 197 0
173 196 0
174 197 0
171 195 0
172 195 0
171 194 0
174 197 0
171 194 0
174 198 0
172 196 0
170 194 0
174 196 0
174 197 0
171 195 0
173 197 0
173 196 0
172 196 0
174 197 0
172 196 0
172 195 0
173 197 0
174 197 0
173 197 0
173 196 0
172 196 0
173 195 0
174 197 0
173 195 0
173 196 0
174 198 0
171 194 0
171 195 0
172 195 0
174 198 0
172 195 0
171 195 0
173 197 0
171 195 0
173 195 0
172 195 0
174 197 0
173 195 0
171 194 0
174 197 0
174 197 0
174 197 0
173 195 0
173 197 0
171 194 0
171 194 0
171 195 0
171 194 0
173 196 0
151 164 42
140 135 69
132 127 67
135 130 70
139 133 78
139 134 69
151 145 86
145 139 86
145 139 79
147 141 86
139 135 77
142 137 80
144 139 83
149 144 88
149 144 88
151 146 89
149 144 88
149 145 91
160 154 95
150 146 94
155 151 98
158 153 100
153 148 96
156 151 96
163 159 103
154 150 97
162 158 103
158 153 98
151 148 97
152 147 95
155 152 99
153 150 98
158 154 102
158 155 103
158 154 101
156 152 99
162 158 105
157 155 104
154 152 99
165 162 107
161 159 105
158 155 101
164 160 107
164 161 108
170 166 110
164 161 108
167 163 108
165 162 109
159 156 104
163 161 108
166 163 108
163 160 106
161 158 106
168 165 110
167 164 110
165 162 108
166 163 109
167 164 109
166 164 109
165 163 109
170 167 111
165 163 109
163 160 107
163 161 108
162 159 106
168 165 110
169 166 110
167 165 110
169 167 111
168 165 110
164 162 108
168 165 110
170 167 112
166 164 109
168 166 111
166 164 109
163 161 108
171 168 112
168 166 110
161 158 105
159 157 105
167 164 109
169 166 110
166 163 108
166 163 109
167 164 109
169 165 110
166 162 108
163 161 108
163 160 107
162 159 106
167 165 110
164 161 108
167 164 109
163 160 106
166 163 109
166 162 106
168 164 108
164 161 106
160 157 103
164 161 106
169 165 109
166 162 106
160 157 103
157 154 102
160 157 104
167 163 107
163 159 104
165 160 105
154 151 98
166 161 105
163 159 103
158 154 99
158 153 97
155 151 99
162 157 101
154 150 94
163 158 102
161 156 101
158 153 99
159 154 96
155 150 95
155 150 97
154 148 90
162 157 99
157 151 93
153 148 90
149 145 87
150 145 90
151 145 88
147 142 88
156 149 91
142 136 77
147 141 83
143 137 79
137 131 76
138 132 74
131 126 69
131 124 70
149 159 48
175 198 0
174 196 0
174 197 0
174 197 0
175 198 0
172 196 0
172 195 0
175 198 0
174 198 0
175 198 0
172 195 0
173 196 0
174 196 0
173 196 0
176 198 0
172 195 0
175 198 0
175 198 0
173 196 0
173 197 0
172 196 0
172 196 0
173 196 0
174 198 0
174 198 0
171 195 0
173 197 0
174 197 0
175 198 0
174 197 0
173 197 0
175 198 0
173 196 0
173 196 0
175 198 0
176 198 0
173 197 0
173 197 0
175 198 0
173 196 0
174 197 0
173 197 0
173 197 0
173 197 0
174 197 0
173 196 0
173 197 0
176 198 0
175 198 0
172 196 0
175 198 0
174 197 0
176 198 0
175 198 0
175 198 0
173 197 0
172 196 0
175 198 0
174 197 0
175 198 0
173 197 0
173 197 0
173 197 0
173 197 0
172 195 0
173 197 0
174 198 0
173 196 0
175 198 0
173 197 0
175 198 0
172 196 0
173 196 0
175 198 0
175 198 0
173 196 0
173 196 0
173 197 0
174 197 0
173 196 0
174 197 0
172 195 0
174 198 0
171 195 0
172 196 0
174 197 0
174 198 0
176 199 0
174 198 0
169 193 0
174 197 0
173 196 0
173 196 0
176 198 0
175 198 0
174 197 0
174 197 0
173 197 0
172 195 0
172 195 0
175 198 0
173 197 0
173 196 0
171 195 0
173 196 0
173 197 0
173 196 0
172 196 0
174 197 0
175 197 0
171 195 0
174 197 0
170 194 0
176 199 0
172 195 0
172 196 0
173 196 0
174 197 0
173 197 0
174 197 0
174 196 0
173 196 0
174 198 0
173 197 0
174 197 0
173 197 0
174 197 0
171 195 0
172 195 0
172 195 0
173 196 0
173 196 0
172 196 0
174 197 0
174 198 0
173 197 0
174 197 0
174 196 0
172 196 0
171 195 0
172 195 0
175 197 0
173 196 0
172 196 0
173 195 0
173 195 0
173 197 0
173 196 0
174 197 0
173 196 0
173 197 0
172 195 0
173 196 0
173 197 0
171 194 0
171 193 0
176 199 0
173 196 0
174 196 0
171 195 0
173 196 0
172 196 0
172 195 0
173 196 0
173 196 0
174 197 0
171 194 0
171 196 0
171 195 0
175 198 0
173 196 0
173 197 0
174 197 0
172 196 0
173 197 0
173 196 0
173 196 0
171 194 0
174 196 0
174 197 0
174 197 0
175 198 0
172 196 25
169 193 36
163 186 65
154 178 86
148 172 100
148 173 92
149 174 97
147 171 102
151 175 95
148 172 99
148 172 101
147 172 99
151 175 90
160 183 76
160 183 74
169 192 40
173 196 0
173 196 0
173 196 0
173 197 0
172 195 0
174 196 0
171 194 0
174 197 0
174 197 0
174 197 0
172 196 0
171 195 0
173 196 0
172 195 0
172 196 0
171 194 0
174 197 0
172 196 0
172 196 0
174 196 0
170 193 0
174 197 0
171 195 0
172 195 0
173 195 0
173 195 0
173 196 0
170 193 0
171 195 0
171 194 0
172 195 0
172 195 0
174 197 0
174 197 0
174 197 0
172 196 0
173 196 0
170 195 0
173 196 0
171 194 0
174 197 0
172 195 0
173 196 0
171 195 0
174 198 0
172 195 0
173 196 0
172 196 0
174 198 0
174 196 0
171 194 0
175 197 0
173 195 0
174 197 0
173 196 0
172 196 0
174 196 0
174 197 0
174 198 0
170 194 0
171 194 0
165 184 22
140 137 65
137 131 67
143 137 75
134 128 70
146 140 80
139 135 82
150 144 86
139 133 77
149 143 86
149 143 86
151 145 86
150 145 89
153 147 90
153 149 92
154 149 90
147 143 89
143 139 89
153 148 94
153 148 94
153 149 94
146 142 89
152 148 95
155 150 99
154 150 97
145 141 92
151 148 97
161 157 102
146 143 93
154 151 96
160 156 102
152 149 98
160 157 103
155 152 99
163 160 105
158 154 102
160 156 103
164 161 106
164 160 107
160 157 104
162 158 106
154 151 101
166 163 108
166 162 107
164 161 106
160 157 105
165 162 107
167 163 108
161 157 105
168 165 109
163 160 107
166 163 108
169 166 110
171 167 111
164 162 108
158 156 105
166 163 108
167 165 110
169 166 111
169 166 110
167 165 110
166 164 110
167 166 111
164 161 108
167 164 110
166 165 110
167 164 109
166 164 110
169 167 111
168 166 111
167 164 109
162 159 106
167 166 112
165 163 109
165 163 109
167 165 110
165 162 108
168 165 110
165 163 109
170 168 112
171 169 113
164 162 109
166 164 110
172 169 112
170 166 110
167 164 109
167 165 110
170 167 111
168 165 110
162 160 106
167 164 109
169 165 109
162 159 106
170 167 111
173 168 111
164 160 106
165 163 108
162 159 105
170 166 110
167 162 107
167 163 108
156 153 102
164 160 106
163 159 104
164 160 105
162 159 105
164 160 106
165 160 104
163 159 102
159 156 103
165 160 104
156 153 101
156 152 99
163 159 103
165 160 104
163 159 101
162 157 98
170 164 104
161 156 101
153 149 95
156 151 95
162 156 100
160 155 97
157 152 95
153 148 91
144 140 88
158 153 96
160 155 98
149 144 88
152 147 93
152 147 89
148 142 86
153 147 88
149 143 87
143 137 80
148 141 87
149 142 82
145 140 83
135 130 74
130 125 66
141 136 66
169 187 30
173 197 0
174 197 0
173 197 0
172 196 0
175 198 0
174 197 0
173 197 0
175 197 0
175 198 0
175 198 0
175 198 0
172 195 0
175 197 0
174 198 0
173 197 0
174 197 0
176 199 0
174 197 0
175 198 0
172 196 0
174 198 0
172 196 0
175 198 0
173 196 0
175 197 0
174 197 0
173 197 0
174 197 0
174 197 0
173 196 0
173 197 0
176 199 0
173 196 0
174 197 0
174 197 0
172 196 0
172 196 0
174 197 0
176 199 0
175 197 0
171 195 0
176 199 0
174 197 0
173 197 0
173 197 0
173 196 0
175 198 0
173 196 0
172 196 0
176 199 0
174 197 0
174 197 0
173 197 0
174 197 0
174 197 0
173 197 0
174 197 0
174 197 0
173 197 0
172 195 0
172 196 0
174 197 0
173 196 0
174 197 0
174 197 0
175 198 0
174 197 0
172 196 0
174 197 0
174 198 0
173 197 0
173 196 0
173 195 0
173 197 0
174 197 0
175 198 0
172 195 0
173 197 0
173 197 0
172 196 0
171 195 0
174 197 0
173 197 0
173 197 0
172 196 0
173 196 0
173 197 0
174 197 0
174 197 0
175 198 0
174 197 0
174 197 0
173 196 0
175 198 0
174 197 0
173 196 0
174 197 0
172 195 0
172 196 0
174 197 0
174 197 0
173 197 0
173 196 0
175 198 0
169 194 0
173 197 0
174 198 0
173 196 0
173 196 0
172 196 0
174 198 0
173 196 0
172 196 0
174 197 0
173 197 0
172 196 0
171 194 0
172 195 0
174 197 0
173 197 0
171 194 0
176 199 0
172 194 0
175 198 0
175 198 0
173 196 0
171 194 0
173 195 0
173 195 0
174 198 0
174 198 0
172 195 0
173 197 0
172 196 0
172 195 0
174 196 0
174 197 0
172 196 0
172 194 0
171 195 0
172 195 0
174 197 0
171 195 0
174 197 0
174 197 0
173 197 0
172 196 0
174 197 0
175 197 0
174 197 0
173 197 0
170 194 0
172 194 0
173 196 0
172 195 0
175 197 0
172 196 0
173 197 0
172 195 0
173 197 0
174 196 0
172 195 0
173 194 0
173 196 0
174 197 0
173 196 0
174 197 0
175 198 0
173 197 0
172 195 0
171 195 0
173 197 0
173 196 0
173 197 0
162 185 65
144 168 105
135 160 120
118 145 139
100 130 154
94 124 162
73 107 173
62 99 179
62 99 180
62 99 180
61 98 180
61 99 181
63 100 180
62 99 181
62 99 181
62 99 180
62 99 181
62 99 179
62 99 180
62 99 179
62 99 181
62 99 179
61 98 178
72 106 175
89 119 165
107 135 150
123 149 132
120 146 137
140 165 114
162 185 70
170 194 31
170 193 0
174 197 0
172 195 0
174 197 0
174 197 0
173 196 0
172 195 0
174 197 0
172 196 0
173 196 0
172 194 0
172 196 0
173 196 0
172 196 0
172 195 0
174 196 0
170 194 0
174 197 0
172 196 0
173 197 0
172 196 0
173 194 0
172 196 0
174 197 0
172 195 0
174 197 0
172 195 0
171 195 0
171 194 0
173 196 0
173 196 0
173 196 0
173 197 0
172 195 0
171 194 0
174 197 0
172 194 0
172 196 0
173 196 0
173 195 0
170 193 0
171 194 0
175 198 0
173 196 0
170 193 0
171 194 0
172 194 0
170 193 0
171 195 0
172 195 0
171 192 0
172 195 0
173 196 0
136 140 51
132 127 60
142 136 74
143 137 74
141 134 79
132 127 72
144 138 80
145 140 76
142 137 82
153 147 86
146 142 83
146 141 88
150 145 91
161 154 96
149 145 91
154 149 92
157 152 92
156 151 95
153 149 93
148 144 90
158 153 95
160 156 99
153 148 93
159 155 99
161 156 99
163 159 105
157 153 100
157 153 99
153 150 99
153 150 98
163 158 102
161 158 104
166 161 105
164 160 105
160 156 104
160 157 104
158 155 101
160 157 104
166 162 108
154 151 100
159 155 103
161 158 106
168 165 110
157 155 104
162 160 106
162 158 105
162 159 107
164 162 109
168 165 110
161 158 105
171 168 112
164 162 109
167 164 110
170 167 112
161 159 107
168 164 110
164 162 108
168 165 110
170 167 112
164 162 108
165 163 110
169 165 110
169 166 110
164 162 109
165 163 110
164 162 108
167 164 109
169 166 111
170 167 112
167 164 110
168 165 110
167 164 109
165 163 109
168 165 110
169 165 110
164 162 108
163 161 108
167 164 109
169 167 112
169 166 111
167 165 110
160 157 104
168 166 111
168 166 110
168 164 109
166 164 109
171 168 111
167 165 110
164 161 107
164 162 108
171 168 112
165 161 106
167 164 108
166 162 107
167 164 109
165 161 107
164 161 106
164 161 106
165 161 107
166 163 108
165 162 105
160 158 104
158 155 102
167 163 108
160 157 102
171 167 109
163 160 104
164 161 105
171 165 106
155 152 96
156 152 100
169 165 107
165 160 104
159 155 98
165 160 104
159 155 99
157 152 97
159 155 99
168 163 103
161 155 98
158 153 98
154 148 93
157 153 98
155 150 95
150 145 93
154 149 90
156 149 91
155 149 93
149 144 88
143 137 84
138 134 80
150 145 84
138 133 80
146 140 83
148 142 82
142 136 78
150 145 87
144 137 80
143 137 80
134 128 69
125 120 66
145 148 61
174 196 0
173 197 0
174 197 0
174 196 0
174 197 0
174 198 0
173 197 0
176 198 0
173 197 0
175 198 0
172 196 0
175 198 0
175 198 0
174 198 0
173 197 0
172 196 0
170 194 0
174 197 0
174 197 0
174 197 0
174 198 0
174 197 0
172 196 0
172 197 0
174 197 0
175 198 0
175 198 0
175 198 0
174 198 0
173 197 0
173 197 0
175 198 0
174 198 0
175 198 0
172 196 0
172 196 0
171 195 0
172 196 0
174 197 0
172 196 0
174 197 0
174 198 0
174 197 0
172 196 0
173 196 0
172 196 0
174 197 0
173 197 0
174 198 0
172 195 0
173 197 0
174 197 0
173 196 0
174 197 0
173 197 0
176 198 0
173 197 0
172 196 0
175 198 0
174 197 0
173 197 0
173 197 0
174 197 0
174 197 0
172 196 0
173 196 0
172 196 0
172 197 0
171 195 0
173 196 0
173 197 0
175 198 0
173 196 0
174 196 0
173 196 0
173 196 0
175 197 0
172 196 0
172 196 0
171 195 0
174 197 0
172 195 0
172 196 0
173 197 0
171 195 0
175 198 0
174 197 0
176 198 0
172 196 0
173 196 0
172 196 0
174 197 0
175 197 0
173 197 0
173 196 0
173 196 0
174 197 0
173 197 0
172 194 0
173 196 0
173 197 0
173 195 0
174 198 0
173 197 0
174 197 0
174 197 0
175 198 0
173 196 0
171 195 0
174 197 0
172 196 0
173 196 0
174 198 0
172 196 0
174 197 0
175 198 0
171 195 0
171 195 0
173 196 0
173 197 0
174 197 0
173 197 0
173 197 0
173 197 0
171 195 0
174 197 0
174 198 0
171 195 0
175 198 0
172 196 0
170 193 0
173 197 0
173 197 0
171 195 0
174 197 0
173 195 0
174 197 0
172 196 0
172 194 0
173 196 0
174 197 0
172 196 0
172 195 0
172 195 0
174 197 0
173 196 0
174 197 0
173 196 0
173 197 0
173 196 0
174 197 0
172 196 0
171 194 0
172 196 0
174 198 0
173 196 0
173 196 0
173 197 0
174 196 0
174 197 0
173 196 0
174 197 0
173 195 0
173 197 0
171 194 0
174 197 0
171 194 0
172 196 0
174 197 0
166 189 60
142 167 110
122 148 134
96 125 159
76 109 173
61 99 179
62 99 179
62 99 180
61 99 181
61 99 181
62 99 181
62 99 181
61 99 181
62 99 181
62 99 181
62 99 181
62 99 181
62 99 181
61 99 180
62 99 181
62 99 181
61 99 181
62 99 181
61 98 181
61 99 181
61 98 181
61 98 179
61 98 180
62 99 181
61 98 181
62 99 179
62 99 181
61 98 178
61 98 178
61 98 176
64 100 178
90 121 165
115 142 141
128 153 129
150 174 88
171 194 36
174 196 0
174 196 0
173 196 0
174 197 0
172 195 0
172 195 0
172 195 0
171 194 0
174 197 0
171 195 0
174 197 0
174 197 0
174 196 0
173 195 0
172 195 0
170 193 0
175 197 0
175 198 0
171 194 0
172 194 0
172 196 0
173 196 0
175 197 0
172 194 0
175 196 0
174 197 0
174 197 0
174 196 0
170 193 0
167 189 0
173 196 0
173 196 0
174 197 0
172 195 0
173 196 0
171 195 0
172 195 0
171 193 0
174 197 0
173 196 0
172 194 0
174 197 0
173 196 0
175 198 0
174 197 0
173 196 0
172 195 0
158 173 32
137 132 73
129 125 64
136 131 75
141 136 83
136 131 76
135 131 72
147 141 78
141 135 80
139 135 78
138 134 81
147 141 86
153 148 89
150 144 89
147 141 87
147 143 88
159 153 95
151 147 90
150 146 93
156 151 94
153 149 95
148 143 90
157 153 96
163 158 103
156 151 97
156 152 99
150 146 94
157 153 100
149 146 97
155 152 100
163 158 102
160 157 104
160 156 102
161 157 103
154 152 100
158 155 103
156 154 102
161 159 106
160 156 104
158 155 103
166 161 106
161 157 103
158 156 105
163 161 107
161 158 106
164 161 108
166 163 108
162 160 107
157 155 104
163 160 107
166 162 108
160 158 106
163 160 107
168 164 110
162 159 106
165 163 108
159 157 106
168 165 110
171 168 111
162 160 106
165 164 110
170 166 110
168 165 111
168 166 111
160 158 106
165 162 108
168 165 110
165 162 108
170 167 111
171 168 112
166 164 109
171 168 112
169 167 112
169 167 112
168 165 109
171 168 112
169 166 110
167 165 110
167 164 110
165 163 109
170 167 112
168 166 111
168 165 110
169 165 109
168 166 111
164 162 108
171 168 112
168 165 109
162 161 108
165 162 108
170 167 111
172 168 111
167 164 109
171 168 112
167 164 109
166 163 108
168 165 109
170 166 109
171 167 110
170 165 109
167 163 108
163 159 104
163 160 106
159 156 103
158 155 103
163 160 105
165 160 105
166 161 104
164 160 104
169 164 107
159 155 99
161 157 103
160 156 99
162 158 103
168 164 106
163 158 101
161 157 101
162 158 99
164 159 102
161 157 101
165 160 105
166 161 103
159 155 99
159 155 98
162 158 98
158 153 95
155 150 95
158 153 95
153 148 89
163 157 99
156 149 90
158 152 95
149 143 86
147 142 84
148 142 84
142 137 82
148 143 84
143 137 81
139 133 77
140 134 74
138 132 76
130 124 66
123 117 65
163 181 34
174 197 0
174 197 0
173 197 0
173 196 0
174 198 0
175 198 0
175 198 0
174 196 0
173 197 0
173 196 0
172 196 0
175 198 0
175 198 0
175 198 0
173 197 0
175 198 0
174 196 0
173 197 0
175 198 0
174 198 0
172 195 0
174 197 0
173 197 0
173 197 0
174 197 0
175 198 0
173 197 0
175 198 0
175 198 0
174 198 0
172 195 0
175 198 0
172 196 0
173 197 0
172 195 0
174 198 0
171 194 0
175 198 0
172 196 0
173 197 0
173 196 0
173 197 0
173 197 0
172 196 0
173 196 0
173 196 0
175 198 0
175 198 0
171 195 0
173 196 0
174 197 0
173 197 0
174 198 0
173 197 0
173 196 0
174 197 0
173 196 0
174 196 0
173 197 0
173 197 0
175 198 0
172 196 0
173 197 0
173 197 0
174 197 0
174 198 0
173 197 0
172 196 0
172 195 0
171 194 0
176 199 0
172 196 0
173 197 0
172 195 0
171 194 0
171 195 0
172 197 0
172 196 0
172 195 0
172 196 0
175 198 0
173 196 0
173 196 0
173 196 0
171 195 0
173 197 0
173 196 0
174 198 0
175 198 0
174 197 0
174 197 0
172 195 0
175 197 0
172 195 0
172 196 0
172 196 0
172 196 0
172 196 0
173 197 0
171 194 0
172 195 0
175 198 0
172 196 0
174 197 0
172 195 0
175 198 0
174 197 0
175 198 0
174 196 0
172 196 0
174 197 0
173 196 0
172 196 0
174 197 0
171 194 0
174 196 0
172 195 0
174 197 0
174 197 0
173 196 0
173 196 0
173 196 0
174 197 0
172 196 0
171 195 0
175 198 0
173 196 0
172 195 0
171 195 0
171 195 0
173 196 0
172 195 0
175 197 0
173 197 0
174 197 0
173 197 0
173 196 0
173 196 0
172 195 0
173 196 0
174 197 0
173 196 0
170 193 0
171 195 0
173 196 0
175 198 0
168 191 0
173 196 0
173 196 0
175 198 0
172 195 0
175 198 0
175 198 0
173 196 0
173 196 0
171 195 0
174 198 0
173 196 0
174 197 0
173 196 0
173 196 0
172 196 0
173 196 0
172 195 0
159 183 72
137 162 117
113 140 143
76 109 174
61 99 180
61 99 181
61 99 181
62 99 181
61 99 180
62 99 180
62 99 181
62 99 180
61 99 180
61 98 181
62 99 181
62 99 181
62 99 181
62 99 181
61 99 181
61 99 181
62 99 181
62 99 181
61 99 181
61 99 181
62 99 181
62 99 181
62 99 181
61 99 181
61 98 181
62 99 180
61 99 181
62 99 181
62 99 181
61 98 180
62 99 179
62 99 180
61 98 179
62 99 180
61 99 181
61 99 179
61 99 180
62 99 180
62 99 180
62 99 180
67 102 172
100 128 155
122 147 135
145 170 101
170 193 36
173 196 0
172 196 0
171 194 0
174 197 0
170 193 0
174 197 0
171 193 0
174 197 0
172 195 0
169 191 0
171 194 0
174 197 0
172 195 0
172 194 0
174 195 0
172 193 0
173 197 0
172 195 0
174 196 0
173 196 0
173 196 0
173 196 0
170 193 0
174 197 0
171 194 0
171 194 0
173 197 0
173 196 0
175 198 0
173 196 0
171 193 0
171 194 0
171 195 0
172 196 0
172 196 0
171 194 0
173 195 0
173 196 0
172 195 0
172 195 0
173 196 0
173 197 0
173 196 0
136 136 51
137 131 71
138 132 68
142 136 72
142 136 80
142 137 75
140 135 70
144 139 80
157 151 86
142 138 80
148 143 88
147 142 80
152 147 93
155 150 89
150 145 91
153 147 91
143 139 86
153 148 94
150 147 94
154 149 95
156 152 98
146 142 91
155 151 95
152 149 97
147 145 96
151 146 90
157 153 100
155 151 99
155 151 99
151 148 97
160 155 101
157 154 103
164 159 105
157 154 102
161 158 104
161 158 104
163 160 106
161 158 105
157 154 103
157 154 103
158 155 103
154 152 102
160 157 104
157 155 105
162 160 107
160 158 106
167 165 110
162 159 107
160 158 106
165 162 108
161 158 106
161 158 105
166 163 109
167 164 109
165 161 107
166 163 108
163 160 107
165 162 108
164 161 107
164 162 109
165 163 109
164 162 109
163 161 108
168 165 110
166 163 109
167 164 110
168 165 110
165 163 110
171 168 112
165 163 109
168 165 110
165 162 108
165 163 109
170 168 112
166 164 109
174 171 113
167 164 110
169 166 110
170 167 112
169 166 111
173 170 113
170 168 112
169 166 110
169 166 110
168 166 110
165 162 108
164 163 109
170 167 112
166 163 108
170 166 110
168 164 109
165 162 108
166 163 108
168 165 109
170 166 110
170 167 109
168 166 110
169 165 110
163 159 104
164 161 107
166 163 108
166 162 106
169 165 108
167 163 108
166 163 108
163 159 103
166 162 106
165 161 106
165 161 105
166 162 106
155 151 99
166 160 103
163 160 103
166 161 104
161 156 98
158 154 100
162 158 101
162 156 101
156 151 98
165 160 99
161 156 97
157 152 96
162 156 97
158 154 97
157 153 97
159 154 95
158 154 97
149 143 90
156 150 94
155 149 91
151 146 87
153 147 91
159 153 93
147 142 84
146 142 88
156 150 91
148 141 87
137 132 76
152 146 86
138 132 75
140 134 77
147 141 75
129 124 65
137 138 62
173 197 0
173 196 0
173 197 0
175 198 0
176 198 0
173 197 0
173 197 0
172 194 0
174 197 0
175 198 0
173 196 0
174 198 0
174 196 0
173 196 0
174 197 0
174 197 0
174 197 0
175 198 0
173 197 0
173 196 0
174 196 0
174 197 0
173 197 0
174 198 0
173 197 0
174 198 0
173 197 0
173 197 0
171 194 0
173 196 0
173 197 0
173 197 0
174 197 0
172 196 0
172 196 0
175 198 0
172 195 0
175 198 0
175 198 0
173 197 0
175 198 0
174 197 0
173 197 0
173 196 0
173 196 0
174 197 0
173 197 0
172 196 0
174 198 0
171 195 0
175 198 0
171 195 0
175 197 0
174 198 0
171 195 0
172 196 0
174 197 0
173 196 0
172 196 0
171 194 0
173 197 0
174 197 0
174 197 0
175 198 0
173 196 0
174 197 0
174 197 0
172 196 0
173 196 0
174 197 0
174 197 0
173 196 0
172 196 0
173 196 0
172 196 0
174 197 0
173 197 0
173 197 0
172 196 0
173 196 0
173 196 0
174 197 0
172 195 0
175 197 0
173 196 0
174 197 0
173 196 0
174 197 0
174 197 0
175 198 0
173 196 0
171 195 0
175 198 0
172 196 0
170 193 0
173 197 0
175 198 0
174 196 0
174 197 0
172 195 0
172 196 0
172 196 0
174 197 0
173 197 0
175 198 0
173 196 0
175 197 0
172 196 0
172 195 0
174 198 0
173 197 0
174 197 0
173 197 0
171 194 0
172 195 0
174 196 0
171 195 0
172 196 0
174 197 0
173 197 0
172 196 0
173 195 0
175 197 0
173 196 0
171 195 0
173 197 0
174 197 0
174 197 0
175 198 0
172 195 0
172 196 0
171 193 0
172 195 0
175 198 0
175 198 0
173 197 0
173 196 0
172 196 0
173 197 0
173 196 0
174 198 0
173 196 0
173 196 0
173 196 0
173 196 0
173 196 0
174 197 0
173 197 0
172 194 0
173 196 0
173 197 0
174 197 0
174 197 0
172 195 0
170 195 0
172 196 0
172 194 0
172 196 0
174 197 0
173 196 0
169 193 47
146 171 103
122 147 139
85 117 166
62 99 181
62 99 181
62 99 181
62 99 181
62 99 181
62 99 181
61 99 181
62 99 180
62 99 181
62 99 181
62 99 181
62 99 181
62 99 181
61 99 181
62 99 181
62 99 181
62 99 181
61 99 181
61 99 181
61 99 180
61 99 181
61 98 181
62 99 181
62 99 181
62 99 181
61 98 181
61 98 181
62 99 181
61 99 181
61 98 180
61 99 181
62 99 181
62 99 181
62 99 181
61 99 181
61 98 180
62 99 180
62 99 181
62 99 181
62 99 180
61 98 177
61 98 178
61 98 179
61 98 179
61 98 177
61 99 181
61 98 178
62 99 180
78 110 169
108 135 151
129 155 121
164 187 62
172 195 0
172 195 0
171 195 0
171 194 0
174 197 0
173 196 0
176 198 0
172 195 0
172 196 0
172 196 0
172 195 0
171 195 0
172 196 0
171 194 0
172 195 0
173 195 0
171 195 0
170 193 0
173 196 0
173 196 0
171 194 0
173 196 0
172 195 0
170 193 0
171 194 0
175 198 0
171 194 0
172 195 0
172 195 0
170 194 0
172 195 0
173 197 0
173 196 0
174 196 0
173 196 0
171 195 0
170 193 0
172 195 0
174 197 0
159 176 28
130 125 66
138 132 71
135 130 69
143 137 77
137 133 73
146 140 82
134 131 76
141 134 79
141 136 77
149 145 85
147 142 88
150 146 90
143 139 83
148 144 86
152 147 93
154 148 92
148 144 92
148 145 91
152 147 92
153 148 94
150 145 92
151 147 97
158 154 99
144 141 93
152 149 98
153 150 97
157 153 99
155 152 98
150 147 97
151 148 97
158 155 103
157 154 101
162 159 105
157 154 104
158 156 105
154 152 102
159 156 104
158 155 104
156 154 103
160 157 106
162 159 107
160 158 104
158 155 103
161 158 104
164 160 107
160 157 105
167 163 108
164 161 107
165 162 108
160 157 105
167 164 109
161 159 107
166 164 110
166 163 109
165 163 109
168 164 109
166 162 108
169 166 110
167 164 109
166 164 110
168 165 110
168 166 110
165 163 109
171 168 112
167 165 111
168 166 110
172 169 112
165 162 108
167 165 110
169 166 111
170 168 112
169 166 110
171 168 112
170 167 111
164 162 108
170 167 111
172 168 112
172 169 113
169 166 111
169 165 109
165 162 108
169 166 110
170 167 112
168 166 110
166 162 108
167 165 110
167 164 109
168 165 109
171 167 110
168 165 109
166 163 109
168 165 110
168 164 109
164 162 108
169 165 109
169 165 109
170 166 109
167 163 108
165 162 108
161 158 104
165 162 106
172 167 110
168 165 109
170 165 108
167 163 107
168 163 105
170 165 106
161 157 101
164 160 105
162 157 102
158 154 99
163 158 103
166 162 104
160 155 102
158 153 95
168 163 106
164 159 104
165 161 105
161 155 100
166 161 104
156 151 97
147 143 91
157 153 97
166 160 103
158 153 95
159 153 94
158 154 95
156 151 91
161 155 93
159 153 95
158 152 92
149 143 87
151 146 90
143 138 84
155 149 88
143 138 83
154 148 90
145 138 81
155 148 86
140 134 78
146 139 82
138 133 75
133 127 70
130 123 68
161 181 19
174 197 0
172 196 0
175 198 0
173 197 0
172 195 0
173 197 0
173 197 0
174 198 0
175 197 0
173 196 0
174 197 0
175 197 0
175 198 0
175 198 0
174 198 0
173 197 0
173 196 0
171 195 0
172 196 0
173 197 0
175 198 0
173 197 0
174 197 0
173 197 0
175 198 0
174 197 0
173 196 0
173 197 0
175 198 0
174 197 0
172 195 0
174 197 0
173 196 0
173 197 0
173 197 0
174 197 0
173 197 0
174 197 0
175 198 0
173 197 0
174 197 0
175 198 0
174 197 0
176 199 0
174 197 0
174 197 0
175 198 0
174 197 0
173 196 0
174 198 0
173 197 0
171 195 0
171 195 0
171 195 0
172 196 0
175 197 0
172 196 0
173 197 0
175 198 0
172 196 0
174 198 0
172 196 0
173 196 0
172 196 0
172 196 0
174 197 0
171 194 0
173 196 0
172 196 0
174 198 0
173 196 0
172 196 0
173 196 0
174 197 0
172 196 0
175 198 0
172 195 0
173 197 0
173 195 0
175 198 0
174 197 0
173 196 0
173 196 0
174 197 0
172 195 0
174 197 0
174 198 0
173 196 0
173 196 0
171 195 0
174 197 0
171 194 0
174 198 0
174 197 0
173 196 0
172 195 0
174 197 0
172 196 0
173 196 0
173 196 0
172 196 0
174 197 0
174 197 0
174 197 0
172 196 0
173 196 0
173 196 0
173 197 0
173 196 0
176 199 0
175 197 0
175 198 0
173 196 0
173 196 0
170 195 0
174 196 0
174 198 0
172 196 0
175 198 0
171 195 0
174 197 0
172 196 0
172 195 0
175 197 0
170 195 0
174 196 0
173 196 0
172 196 0
172 196 0
174 197 0
173 197 0
174 197 0
172 196 0
172 196 0
173 197 0
173 197 0
174 197 0
174 197 0
171 194 0
174 197 0
172 196 0
173 195 0
173 196 0
174 196 0
173 196 0
171 195 0
174 198 0
174 197 0
173 197 0
173 196 0
173 197 0
172 194 0
174 196 0
170 193 0
173 197 0
175 198 0
170 194 31
152 176 88
120 146 139
71 105 176
61 98 179
61 99 179
62 99 181
61 99 181
62 99 180
62 99 181
62 99 181
62 99 180
62 99 181
61 98 181
62 99 181
62 99 181
61 99 181
62 99 181
61 99 181
61 98 181
61 98 181
61 98 181
62 99 181
62 99 181
62 99 181
62 99 181
62 99 181
62 99 181
61 98 181
61 98 181
61 99 181
61 98 181
61 99 181
61 99 181
61 99 181
61 99 181
61 99 181
61 99 181
62 99 181
62 99 181
62 99 181
61 99 181
61 98 181
61 99 181
62 99 181
62 99 181
62 99 181
61 98 181
62 99 181
61 99 181
61 99 180
62 99 181
61 99 180
62 99 181
62 99 181
61 98 179
61 99 180
62 99 179
61 98 178
101 129 152
141 165 107
162 185 55
173 196 0
172 195 0
172 195 0
172 194 0
173 196 0
172 195 0
175 198 0
170 193 0
173 195 0
171 194 0
174 196 0
172 195 0
172 195 0
173 196 0
173 195 0
173 196 0
172 195 0
173 197 0
173 195 0
171 193 0
171 194 0
172 196 0
172 196 0
173 196 0
172 195 0
173 197 0
173 197 0
173 197 0
172 194 0
173 197 0
172 195 0
172 196 0
174 197 0
173 197 0
173 196 0
172 196 0
139 141 57
130 125 65
142 135 80
136 130 73
147 140 78
137 132 73
134 129 70
138 132 75
139 133 78
147 141 84
147 143 82
145 141 84
140 136 85
152 146 87
142 137 86
158 153 93
156 151 95
154 149 93
141 138 88
143 140 90
149 144 90
151 147 93
148 144 92
147 144 95
164 158 102
152 148 97
155 151 98
148 146 96
152 148 95
155 151 99
161 157 103
150 147 98
161 158 104
161 157 104
160 157 104
159 156 104
164 161 106
153 151 99
161 159 106
155 153 103
163 159 105
157 154 103
153 150 100
161 158 106
164 161 107
156 154 104
162 159 107
166 164 110
169 166 111
162 160 108
164 161 108
161 159 107
165 163 110
166 163 109
165 161 108
163 160 105
165 162 109
165 162 107
168 164 110
169 166 110
165 162 108
169 165 110
161 159 106
169 166 111
164 162 108
170 167 111
166 164 110
169 167 111
167 165 110
163 160 107
171 168 112
170 168 112
168 166 110
167 165 111
167 164 109
170 166 110
169 165 110
168 166 111
169 166 110
170 167 110
166 164 110
171 167 110
173 170 113
172 169 112
167 164 109
165 163 109
170 167 110
170 167 111
166 163 108
168 166 110
169 166 110
171 168 112
167 164 109
172 168 111
169 165 109
167 164 109
167 164 108
170 167 110
171 166 109
168 165 108
167 163 108
166 162 107
168 164 106
167 162 106
163 160 105
169 164 108
171 166 109
167 163 107
168 164 107
170 165 108
167 164 106
165 160 105
163 159 103
165 161 104
159 155 100
159 154 100
162 157 101
163 158 99
164 159 101
167 162 104
166 161 103
159 154 97
158 152 97
152 147 92
148 144 90
169 162 102
155 150 95
156 151 93
155 151 95
156 151 91
146 141 86
151 145 92
148 143 88
151 146 89
145 141 80
158 152 91
154 149 91
146 140 83
141 134 78
144 139 80
137 132 75
142 135 79
151 144 84
137 132 75
135 129 69
148 152 59
174 197 0
174 197 0
173 196 0
174 197 0
172 196 0
174 197 0
175 198 0
174 197 0
174 197 0
173 196 0
173 196 0
174 197 0
173 196 0
175 198 0
171 195 0
173 196 0
173 197 0
174 197 0
174 198 0
174 198 0
175 198 0
174 198 0
173 197 0
172 196 0
174 198 0
173 197 0
174 198 0
174 197 0
176 199 0
176 199 0
174 197 0
174 197 0
174 197 0
174 198 0
175 197 0
175 198 0
174 197 0
173 196 0
173 197 0
172 197 0
173 197 0
174 197 0
173 196 0
174 197 0
174 198 0
174 197 0
174 198 0
173 196 0
174 197 0
174 197 0
173 196 0
173 197 0
174 197 0
173 196 0
174 198 0
174 197 0
174 197 0
173 197 0
172 196 0
174 197 0
175 198 0
169 193 0
174 198 0
173 196 0
172 196 0
172 195 0
172 196 0
174 197 0
174 197 0
174 197 0
176 198 0
174 197 0
172 195 0
173 197 0
172 195 0
174 198 0
172 195 0
175 198 0
174 197 0
172 196 0
173 196 0
174 198 0
174 198 0
174 197 0
173 196 0
173 197 0
172 196 0
171 194 0
175 198 0
174 197 0
173 196 0
175 198 0
174 197 0
173 196 0
172 196 0
174 197 0
173 196 0
172 196 0
174 197 0
173 196 0
174 196 0
173 196 0
173 195 0
172 196 0
172 195 0
174 197 0
173 197 0
173 197 0
172 196 0
173 196 0
171 194 0
172 195 0
174 197 0
173 197 0
174 197 0
173 197 0
172 195 0
170 194 0
171 195 0
172 196 0
174 197 0
172 195 0
171 194 0
174 197 0
173 196 0
172 196 0
174 197 0
173 195 0
174 197 0
173 197 0
172 196 0
170 194 0
173 195 0
173 197 0
171 195 0
172 195 0
173 197 0
172 196 0
173 196 0
175 198 0
172 196 0
172 195 0
175 197 0
171 194 0
173 197 0
173 196 0
173 197 0
174 197 0
172 196 0
173 197 0
172 196 0
170 194 0
175 198 0
174 197 0
161 185 70
125 151 133
84 115 167
61 99 178
62 99 181
62 99 179
62 99 180
62 99 180
61 99 180
62 99 181
62 99 181
62 99 181
62 99 181
61 98 181
62 99 181
62 99 181
62 99 181
61 98 180
61 99 181
61 99 181
61 99 181
61 99 181
61 99 181
61 98 181
61 98 181
61 99 181
61 99 181
61 99 181
61 99 181
61 99 181
62 99 181
62 99 181
61 98 181
61 98 181
61 99 181
61 99 181
62 99 181
61 98 181
61 99 181
61 99 181
61 98 179
62 99 181
62 99 181
61 99 181
62 99 181
62 99 181
61 98 181
62 99 180
61 98 180
62 99 181
61 98 179
61 99 181
62 99 180
62 99 181
62 99 181
61 98 180
61 98 177
61 98 180
62 99 181
61 98 177
61 98 178
61 98 178
62 99 179
66 101 176
110 137 142
145 170 103
170 193 25
170 193 0
172 195 0
173 196 0
171 194 0
170 193 0
173 196 0
174 196 0
171 195 0
171 195 0
174 197 0
175 197 0
171 194 0
174 196 0
174 197 0
173 195 0
171 195 0
171 194 0
173 195 0
174 197 0
173 196 0
173 196 0
171 193 0
173 196 0
172 194 0
173 196 0
172 195 0
171 195 0
173 196 0
172 195 0
174 197 0
173 196 0
174 197 0
160 177 19
128 123 62
125 119 65
131 125 71
146 139 76
136 131 78
137 132 71
139 134 78
131 127 73
147 141 81
141 136 77
151 146 86
153 147 88
152 147 93
150 145 89
137 133 82
156 150 93
153 148 94
146 142 89
139 135 85
151 147 93
149 145 94
150 146 93
148 144 91
151 147 96
149 145 94
148 146 95
146 143 94
151 149 97
160 156 103
149 146 99
150 147 98
150 148 99
149 146 97
154 151 101
152 150 99
162 159 106
159 156 103
158 155 104
157 154 104
149 147 99
163 159 106
162 158 106
161 158 105
160 157 105
160 158 105
158 155 104
159 157 105
162 159 106
157 155 104
166 163 108
161 158 107
167 164 110
164 162 108
162 159 106
166 162 108
166 163 109
166 163 109
167 164 109
166 163 109
168 165 110
167 165 110
169 166 111
167 165 110
163 160 107
171 168 111
167 164 110
168 165 110
169 166 111
167 164 109
169 167 111
169 167 111
169 167 111
170 166 111
168 165 110
172 169 113
172 168 112
168 166 110
170 167 111
167 165 110
172 169 112
168 166 110
170 167 111
168 165 110
170 167 110
166 163 108
171 168 112
172 168 112
165 163 109
165 162 108
170 167 111
167 165 109
169 166 110
168 165 109
165 162 106
171 167 110
169 166 109
164 161 106
165 162 106
168 165 109
168 163 108
167 162 107
169 164 107
166 164 108
164 161 106
163 160 105
170 165 105
166 161 103
172 168 109
168 164 108
165 162 106
162 159 104
166 161 105
157 153 101
163 158 102
164 159 101
159 154 99
166 160 103
161 156 99
156 152 95
157 152 97
160 155 99
166 161 102
163 157 99
164 157 101
158 154 98
152 147 93
154 149 93
157 151 90
159 154 97
168 161 101
151 146 91
160 154 95
150 144 86
156 151 90
163 157 96
150 144 86
156 150 90
140 135 77
147 141 84
149 142 84
148 142 80
145 139 78
130 125 62
136 130 74
127 122 66
130 123 68
169 189 16
175 198 0
174 197 0
172 196 0
173 196 0
174 196 0
174 198 0
173 196 0
173 195 0
173 197 0
171 194 0
175 198 0
173 197 0
174 198 0
172 196 0
174 197 0
172 196 0
172 196 0
173 197 0
175 198 0
174 198 0
174 197 0
174 197 0
174 197 0
174 197 0
173 196 0
174 197 0
172 196 0
174 198 0
173 196 0
174 197 0
175 198 0
174 197 0
172 196 0
174 197 0
174 196 0
174 197 0
171 194 0
172 196 0
173 197 0
173 197 0
174 197 0
174 197 0
175 198 0
174 198 0
175 198 0
173 197 0
176 198 0
174 197 0
174 198 0
174 197 0
175 198 0
172 196 0
173 196 0
172 196 0
173 197 0
174 198 0
175 198 0
175 198 0
174 197 0
173 196 0
173 196 0
173 197 0
174 197 0
172 196 0
172 196 0
170 194 0
173 197 0
173 197 0
173 197 0
174 198 0
172 196 0
173 197 0
174 197 0
172 196 0
173 196 0
174 197 0
173 196 0
174 197 0
173 196 0
172 195 0
173 196 0
175 198 0
174 197 0
172 195 0
174 198 0
175 198 0
172 195 0
174 198 0
173 196 0
174 197 0
171 194 0
175 198 0
173 196 0
174 197 0
172 195 0
172 195 0
174 197 0
174 196 0
173 197 0
175 198 0
173 197 0
172 195 0
171 195 0
173 196 0
173 197 0
172 194 0
173 197 0
169 194 0
168 192 0
174 198 0
173 197 0
174 197 0
170 194 0
173 196 0
173 196 0
172 196 0
173 196 0
175 198 0
174 197 0
173 196 0
175 197 0
173 197 0
173 197 0
172 195 0
172 194 0
171 196 0
171 194 0
172 196 0
174 197 0
172 195 0
169 192 0
171 194 0
173 196 0
173 196 0
173 197 0
174 198 0
175 198 0
175 197 0
172 195 0
173 197 0
172 195 0
173 196 0
174 196 0
174 197 0
170 194 0
174 197 0
170 193 0
173 197 0
174 196 0
175 198 0
168 192 31
148 172 100
100 129 155
62 99 177
62 99 179
62 99 181
61 98 179
62 99 179
62 99 181
62 99 180
62 99 180
61 99 181
62 99 179
61 98 181
62 99 179
62 99 181
62 99 181
62 99 181
62 99 181
60 98 181
61 99 181
62 99 180
61 99 181
61 99 181
61 99 181
61 99 181
61 99 181
61 99 181
62 99 181
61 98 181
62 99 181
61 98 181
61 98 181
61 99 181
62 99 181
61 99 181
61 99 181
61 99 181
61 98 181
61 99 181
61 99 181
61 99 181
61 99 181
61 98 180
62 99 181
61 99 181
61 99 181
61 98 180
61 99 181
61 98 180
61 99 181
62 99 181
61 99 181
61 98 180
61 99 181
61 99 180
61 97 178
61 98 180
62 99 179
62 99 180
61 98 179
61 98 177
62 99 181
61 99 181
61 98 176
62 99 178
62 99 179
61 98 178
61 97 175
68 102 170
114 141 142
157 181 70
172 194 0
174 197 0
171 195 0
171 194 0
173 195 0
173 196 0
171 194 0
172 196 0
171 195 0
173 196 0
173 196 0
174 197 0
171 194 0
173 195 0
171 195 0
170 193 0
174 196 0
170 193 0
170 193 0
173 196 0
170 194 0
172 195 0
173 197 0
171 194 0
173 195 0
173 197 0
175 197 0
173 196 0
171 194 0
173 196 11
139 141 54
111 107 49
131 125 64
126 122 61
124 120 61
132 127 71
142 136 78
142 136 73
152 146 88
145 140 83
147 142 86
150 145 89
145 140 85
155 150 93
150 145 84
139 135 84
148 143 87
151 147 96
149 146 95
145 141 88
151 148 95
156 152 98
145 142 92
147 144 94
148 145 93
148 144 94
151 148 97
150 147 94
157 155 101
153 150 100
156 153 101
151 148 97
148 146 98
155 151 101
152 150 100
153 149 99
154 152 101
163 159 104
147 145 99
155 153 103
156 154 104
160 158 105
159 156 104
156 155 105
166 163 109
163 161 108
164 161 107
160 158 106
162 159 106
166 163 108
161 158 105
161 158 106
161 157 104
166 163 109
166 162 108
167 164 109
164 161 108
164 162 108
166 164 110
167 165 110
163 161 108
167 164 110
159 157 105
163 161 108
165 163 109
166 163 108
166 164 109
167 164 110
169 166 111
169 166 111
165 162 108
169 166 110
167 166 111
166 164 109
170 166 110
165 162 108
167 165 110
170 167 111
167 164 110
171 167 110
169 165 110
172 169 113
172 168 112
164 162 108
173 169 112
171 168 111
169 166 110
172 168 112
170 165 109
172 168 111
173 170 113
170 167 111
171 167 111
168 165 109
169 166 109
170 166 108
170 166 109
165 162 108
167 164 109
168 164 108
171 168 111
170 166 109
165 161 106
168 165 110
163 159 102
165 161 103
168 164 106
167 163 108
169 164 107
169 164 107
158 155 101
168 162 106
169 164 106
162 158 101
161 156 101
165 160 103
166 162 103
164 159 100
172 166 106
167 162 101
161 157 98
161 156 97
170 164 103
158 153 98
159 154 100
157 151 92
157 153 98
160 155 97
160 155 95
155 150 94
154 148 87
155 149 89
147 143 86
158 152 93
156 150 93
142 136 79
141 136 77
146 140 83
142 137 78
146 139 84
150 143 85
159 152 90
144 139 80
148 142 77
146 139 82
134 128 70
142 137 72
145 154 49
175 197 0
173 196 0
172 196 0
172 196 0
175 198 0
174 196 0
175 198 0
175 198 0
173 197 0
172 196 0
174 196 0
175 198 0
173 196 0
173 197 0
171 195 0
174 197 0
173 197 0
175 198 0
173 197 0
174 198 0
171 195 0
175 198 0
173 196 0
173 197 0
173 197 0
174 197 0
176 198 0
175 198 0
172 195 0
174 197 0
175 198 0
174 198 0
174 197 0
174 198 0
175 198 0
173 196 0
175 198 0
174 197 0
174 197 0
172 196 0
175 198 0
172 195 0
173 196 0
173 196 0
173 196 0
173 196 0
173 196 0
174 198 0
175 198 0
173 196 0
175 198 0
172 196 0
174 197 0
175 198 0
171 195 0
173 197 0
173 196 0
172 195 0
173 196 0
173 197 0
174 198 0
173 197 0
171 195 0
172 196 0
172 196 0
172 196 0
171 195 0
172 196 0
174 197 0
172 196 0
174 197 0
173 196 0
175 198 0
174 198 0
172 196 0
171 195 0
171 195 0
173 196 0
173 197 0
175 198 0
174 197 0
173 197 0
172 196 0
174 198 0
171 194 0
174 198 0
174 198 0
171 194 0
172 195 0
171 195 0
174 197 0
174 196 0
171 195 0
173 196 0
173 196 0
173 197 0
171 194 0
175 198 0
171 195 0
173 197 0
172 195 0
173 195 0
172 196 0
173 197 0
176 198 0
175 197 0
171 195 0
173 195 0
173 195 0
170 194 0
174 197 0
172 196 0
173 196 0
172 196 0
172 196 0
173 196 0
172 196 0
174 198 0
172 196 0
174 197 0
172 196 0
173 196 0
171 195 0
170 194 0
170 193 0
172 195 0
173 196 0
173 197 0
173 197 0
170 193 0
170 195 0
172 195 0
172 196 0
173 196 0
171 195 0
174 197 0
171 194 0
171 195 0
173 196 0
170 193 0
172 195 0
172 196 0
171 195 0
172 195 0
173 196 0
172 196 0
171 194 0
173 197 0
169 193 44
124 150 131
73 107 172
62 99 181
62 99 178
61 99 178
62 99 179
61 99 179
62 99 180
62 99 179
61 99 181
62 99 180
62 99 179
62 99 181
61 99 181
62 99 181
62 99 180
62 99 181
62 99 181
61 99 181
62 99 181
61 99 181
61 99 181
62 99 181
61 99 181
62 99 181
61 99 181
61 99 181
61 99 181
62 99 181
61 98 181
61 99 181
61 99 181
61 98 181
61 99 181
61 99 181
62 99 181
62 99 181
61 99 181
61 98 181
61 99 181
61 98 181
61 98 181
61 99 181
61 99 181
62 99 181
61 99 181
61 99 181
61 99 181
62 99 181
61 99 181
61 98 181
62 99 181
61 98 181
62 99 181
62 99 179
61 98 180
62 99 181
62 99 181
61 99 179
62 99 181
61 98 180
62 99 179
61 98 179
61 98 178
61 98 179
61 98 178
61 98 178
61 98 177
61 98 178
62 99 179
61 98 178
61 98 176
61 98 176
96 123 150
154 178 81
173 196 0
172 195 0
172 195 0
174 197 0
170 192 0
173 196 0
173 196 0
172 195 0
174 198 0
173 196 0
172 195 0
174 197 0
170 193 0
168 191 0
172 194 0
172 194 0
173 196 0
175 197 0
173 196 0
173 196 0
173 197 0
173 196 0
173 196 0
172 196 0
172 194 0
170 193 0
174 196 0
159 175 28
124 118 64
130 125 64
146 139 77
144 138 79
146 140 76
136 130 73
145 140 76
137 132 75
141 135 81
149 144 84
142 138 80
144 139 84
150 144 87
143 140 88
152 147 87
141 137 84
145 142 91
155 150 94
155 149 92
152 147 92
141 139 89
150 145 92
152 149 98
150 146 93
149 145 95
156 153 99
151 148 98
147 145 98
151 149 100
152 149 99
152 148 98
150 148 99
152 149 99
153 149 100
160 157 103
159 156 104
153 149 99
160 156 102
159 155 103
156 153 102
164 160 105
162 159 105
153 151 102
162 160 107
161 159 106
166 163 109
162 158 106
163 160 107
162 160 107
163 161 108
165 162 109
164 162 109
166 163 108
162 159 107
164 162 108
165 162 109
165 162 108
164 162 109
165 161 107
168 165 109
173 169 112
171 167 112
170 166 110
168 165 110
162 160 106
172 169 112
171 167 110
165 163 109
171 167 111
165 163 109
163 161 108
167 164 109
170 167 111
167 164 110
171 168 112
164 161 107
173 169 112
170 167 111
171 168 113
172 169 112
172 169 113
168 164 109
170 166 109
168 163 108
168 165 109
169 166 110
171 168 111
172 168 111
172 168 111
170 167 111
173 169 112
166 162 108
170 166 109
169 165 109
172 168 110
170 166 110
168 164 108
172 168 110
170 166 110
172 168 110
167 164 108
172 168 110
167 163 107
171 166 107
167 163 106
169 165 109
162 158 102
171 167 107
163 159 104
170 165 108
163 160 102
168 164 106
169 165 107
166 161 105
170 165 106
162 159 103
170 165 106
165 160 102
165 159 103
162 156 99
166 161 103
163 159 102
165 160 104
161 156 97
159 154 97
160 154 96
161 157 98
160 156 94
162 156 101
162 156 97
158 152 92
155 149 92
156 150 90
149 144 87
161 154 94
156 150 91
146 142 84
148 143 84
150 144 87
148 142 84
152 145 87
146 140 78
147 141 77
147 141 80
134 128 69
137 132 77
137 131 73
121 116 59
169 191 16
173 197 0
176 198 0
173 196 0
173 196 0
174 198 0
173 196 0
172 195 0
174 197 0
175 198 0
173 197 0
172 195 0
172 196 0
172 196 0
174 197 0
172 196 0
174 197 0
173 196 0
174 197 0
173 197 0
172 195 0
173 196 0
174 197 0
175 198 0
172 196 0
172 195 0
176 198 0
173 197 0
173 197 0
175 198 0
173 196 0
174 198 0
175 198 0
173 196 0
174 197 0
171 194 0
172 195 0
175 198 0
172 196 0
172 196 0
174 197 0
172 196 0
173 197 0
175 198 0
172 196 0
174 197 0
173 197 0
172 197 0
173 196 0
171 194 0
173 195 0
170 193 0
174 198 0
174 197 0
173 197 0
174 197 0
173 196 0
173 197 0
172 196 0
172 196 0
174 197 0
173 196 0
173 196 0
173 196 0
174 198 0
174 198 0
172 195 0
174 197 0
171 195 0
172 196 0
173 197 0
173 196 0
172 196 0
174 197 0
172 196 0
173 196 0
170 195 0
172 196 0
172 196 0
172 196 0
173 197 0
173 196 0
172 196 0
174 197 0
171 195 0
173 196 0
172 196 0
172 195 0
172 195 0
172 196 0
171 195 0
172 196 0
173 196 0
172 195 0
173 197 0
172 196 0
170 193 0
172 196 0
170 194 0
172 196 0
171 194 0
173 196 0
174 197 0
172 196 0
171 194 0
170 194 0
174 197 0
172 195 0
175 198 0
174 197 0
173 196 0
173 196 0
173 197 0
174 197 0
174 197 0
174 197 0
172 196 0
172 196 0
172 195 0
173 196 0
173 196 0
170 194 0
173 196 0
172 196 0
175 197 0
173 197 0
174 197 0
172 196 0
171 194 0
171 195 0
172 196 0
172 196 0
171 195 0
172 196 0
173 196 0
173 196 0
175 198 0
174 197 0
174 197 0
174 197 0
173 196 0
171 195 0
172 194 0
173 196 0
175 197 0
172 196 0
160 183 74
121 147 137
68 103 172
62 99 181
62 99 180
63 100 180
63 100 179
62 99 180
62 99 181
61 99 179
62 99 181
62 99 181
61 99 181
62 99 180
61 98 180
61 98 179
63 100 180
61 98 181
62 99 180
62 99 181
61 99 181
62 99 181
61 99 181
61 99 181
62 99 181
62 99 181
61 99 181
61 99 181
61 98 181
61 98 181
61 98 181
61 99 181
61 99 181
61 99 181
61 98 181
62 99 181
62 99 181
61 98 181
61 98 181
61 99 181
61 98 181
61 99 181
61 98 181
61 98 181
61 98 181
62 99 181
61 98 181
61 99 181
62 99 181
61 99 181
61 99 180
61 99 181
61 98 181
61 99 181
61 99 181
61 99 181
62 99 181
61 99 181
61 98 181
62 99 181
61 99 180
61 99 180
62 99 180
62 99 180
61 97 177
61 98 180
62 98 179
62 99 180
62 99 180
61 98 178
62 99 180
62 99 178
62 98 176
61 98 177
62 98 177
61 97 176
62 99 180
61 98 178
94 122 156
138 163 108
171 194 18
171 194 0
170 193 0
172 196 0
172 196 0
169 192 0
173 196 0
172 195 0
171 195 0
173 196 0
171 195 0
171 194 0
173 195 0
172 195 0
172 194 0
169 192 0
170 193 0
173 196 0
172 196 0
174 196 0
173 195 0
175 198 0
170 193 0
171 194 0
173 196 0
136 144 45
129 123 64
140 134 71
128 123 63
141 136 76
144 139 75
140 134 72
141 136 75
135 132 76
144 138 84
140 135 81
148 143 86
139 135 85
139 136 86
136 132 84
149 145 91
143 139 87
160 155 95
152 147 94
151 145 94
154 149 94
146 141 90
144 142 95
148 143 94
156 152 98
151 148 97
153 150 98
153 149 98
149 147 95
145 144 94
156 153 102
155 152 100
152 149 98
150 147 97
155 152 101
152 151 103
155 152 102
152 149 100
162 159 106
161 157 104
155 153 103
156 153 103
157 154 103
157 155 104
154 151 101
162 159 107
165 162 109
160 157 104
155 154 104
158 156 104
165 161 108
165 162 108
162 160 108
166 163 109
161 158 106
168 165 111
166 163 109
165 162 109
166 163 109
170 168 112
163 160 107
164 161 109
169 166 111
165 163 109
167 164 110
169 166 111
164 162 108
166 164 109
171 168 111
168 166 111
167 164 109
167 164 109
173 169 112
171 167 112
170 167 111
170 167 111
171 168 111
170 167 111
172 168 112
168 165 110
168 165 110
167 164 109
175 170 112
172 168 112
172 169 112
172 169 112
170 166 110
169 166 110
172 168 111
173 168 110
172 168 112
172 168 110
174 169 112
168 164 109
167 163 107
170 165 109
168 165 108
169 165 108
168 164 108
171 167 110
165 161 104
165 162 107
173 169 110
171 166 108
167 164 108
166 161 105
171 166 108
168 164 107
170 165 108
168 164 107
167 163 104
174 169 108
166 161 103
164 161 105
164 159 103
167 163 104
169 165 105
170 165 108
169 164 106
167 162 104
158 154 96
161 157 99
164 158 100
162 157 100
164 159 99
161 155 98
162 157 97
161 156 98
162 156 97
163 156 97
158 153 94
150 144 87
151 145 91
162 154 93
160 154 92
158 152 95
150 144 85
146 141 81
161 153 93
156 151 86
150 144 84
156 148 89
143 137 78
143 137 80
146 140 77
147 141 81
140 134 75
127 123 58
134 129 69
154 170 28
175 198 0
173 196 0
173 196 0
173 197 0
174 197 0
172 195 0
172 195 0
174 197 0
175 198 0
171 194 0
175 198 0
174 197 0
174 197 0
174 198 0
172 196 0
174 198 0
171 195 0
174 197 0
173 197 0
174 197 0
173 196 0
173 197 0
174 197 0
173 197 0
174 197 0
173 197 0
173 196 0
174 197 0
175 198 0
172 196 0
174 197 0
174 198 0
172 196 0
175 197 0
174 198 0
174 197 0
173 196 0
172 197 0
171 196 0
175 198 0
175 198 0
174 198 0
173 197 0
173 196 0
172 196 0
173 196 0
174 198 0
172 196 0
172 195 0
175 197 0
174 197 0
172 195 0
173 196 0
173 196 0
173 196 0
173 196 0
173 197 0
172 195 0
172 195 0
173 197 0
173 196 0
174 197 0
175 197 0
173 196 0
176 199 0
174 197 0
174 197 0
174 197 0
171 195 0
174 197 0
175 198 0
173 196 0
173 197 0
170 194 0
174 197 0
173 196 0
172 196 0
174 197 0
174 197 0
175 198 0
174 197 0
173 197 0
170 193 0
173 196 0
173 197 0
173 196 0
173 197 0
170 194 0
170 194 0
172 195 0
174 197 0
173 196 0
174 197 0
173 197 0
174 198 0
173 196 0
173 196 0
171 194 0
175 198 0
173 197 0
172 196 0
173 196 0
172 196 0
173 196 0
172 195 0
172 195 0
170 194 0
173 197 0
174 197 0
174 197 0
174 197 0
174 197 0
171 194 0
173 196 0
173 197 0
173 196 0
174 198 0
172 196 0
174 198 0
171 195 0
173 197 0
175 198 0
174 197 0
174 197 0
171 195 0
171 193 0
175 198 0
171 195 0
174 197 0
174 196 0
175 198 0
174 196 0
173 195 0
174 197 0
172 195 0
173 196 0
172 195 0
173 197 0
171 195 0
173 197 0
173 196 0
170 194 0
172 195 0
160 183 60
121 146 136
66 102 177
62 99 179
61 98 176
62 99 180
62 99 180
63 99 178
61 99 179
62 99 179
62 99 181
62 99 181
62 99 179
62 99 181
61 99 181
61 99 181
62 99 181
62 99 181
61 98 180
61 99 180
62 99 180
61 98 181
62 99 180
61 99 181
61 99 181
62 99 181
62 99 181
62 99 181
61 99 181
62 99 181
61 99 181
62 99 181
61 99 181
61 99 181
61 98 181
62 99 181
61 98 181
62 99 181
62 99 181
61 99 181
61 98 181
61 98 181
62 99 181
62 99 181
61 99 181
61 99 181
61 98 181
61 99 181
61 99 181
61 99 181
61 99 181
61 99 180
61 98 180
62 99 181
62 99 181
61 98 180
61 98 181
62 99 181
61 99 181
62 99 181
62 99 180
61 99 180
61 99 181
62 99 181
61 99 181
62 99 180
62 99 180
62 99 180
62 99 180
62 99 179
62 99 181
62 98 178
62 99 179
62 99 181
62 99 179
62 99 179
61 98 177
62 99 178
61 98 178
62 99 179
62 98 177
62 98 177
94 123 156
145 169 103
171 195 0
172 195 0
172 195 0
172 196 0
169 191 0
172 195 0
172 195 0
170 194 0
172 195 0
172 195 0
172 194 0
171 194 0
170 193 0
173 197 0
174 197 0
169 192 0
174 197 0
170 192 0
174 196 0
171 194 0
173 197 0
171 194 0
169 191 11
132 126 66
137 132 69
139 133 71
131 126 69
134 129 69
135 129 72
145 139 76
139 134 76
155 149 90
133 128 79
145 140 84
141 136 79
139 134 81
148 144 89
149 144 85
144 140 87
140 137 89
143 139 84
138 134 84
149 144 91
147 144 93
146 142 89
146 143 94
148 145 94
146 142 91
143 140 93
145 143 95
152 149 98
157 153 101
160 156 102
148 145 98
152 149 98
158 154 103
148 147 99
155 152 102
162 158 104
158 156 105
157 154 102
152 151 102
156 154 103
156 153 103
156 153 103
159 156 105
162 159 106
162 159 107
163 161 107
161 159 106
164 162 108
153 151 99
165 162 108
163 161 108
167 164 109
163 159 106
169 166 111
166 163 109
170 168 113
160 158 106
168 165 110
162 159 106
168 164 110
166 164 110
163 160 107
166 164 110
166 164 110
168 166 111
171 168 112
168 166 111
169 166 112
170 167 111
166 163 108
169 166 110
171 168 111
169 166 111
173 169 112
172 169 112
172 168 111
171 167 111
167 164 109
171 167 111
174 171 113
171 168 111
173 169 112
169 166 110
171 167 110
172 169 113
174 169 111
171 168 110
172 168 111
169 165 109
169 165 109
166 163 108
171 167 110
172 168 111
164 161 106
170 166 110
171 167 110
172 167 109
173 168 109
169 166 109
175 171 112
168 164 107
167 163 105
168 165 109
167 164 106
172 168 109
170 166 106
166 162 106
168 164 107
171 166 107
167 162 101
170 165 108
167 163 103
169 164 104
165 160 103
167 163 107
171 167 108
165 161 105
166 160 99
165 161 103
167 162 103
162 158 102
163 159 101
159 155 99
161 157 97
163 157 98
159 154 97
161 156 98
160 155 94
160 156 99
160 154 95
164 157 96
155 149 93
152 147 90
163 156 92
157 152 88
153 146 88
160 154 95
154 147 86
155 149 86
160 153 92
154 148 90
157 150 87
148 142 82
145 139 80
148 141 80
144 137 78
135 130 72
146 139 77
138 133 72
143 144 57
173 196 0
174 197 0
175 198 0
173 196 0
174 196 0
171 195 0
173 197 0
172 195 0
172 196 0
175 198 0
173 197 0
174 197 0
175 197 0
174 198 0
173 197 0
174 197 0
173 197 0
172 196 0
173 197 0
173 196 0
173 196 0
174 198 0
172 196 0
174 198 0
174 197 0
173 197 0
175 198 0
171 195 0
173 197 0
175 198 0
171 196 0
173 196 0
171 195 0
173 196 0
174 198 0
172 197 0
173 197 0
173 197 0
174 197 0
174 197 0
174 197 0
172 195 0
172 196 0
172 196 0
174 198 0
177 199 0
174 198 0
172 195 0
171 196 0
174 197 0
173 197 0
173 196 0
173 196 0
173 197 0
173 197 0
173 196 0
174 197 0
175 198 0
172 195 0
174 198 0
173 197 0
174 197 0
171 195 0
173 196 0
172 196 0
174 198 0
173 196 0
171 194 0
172 195 0
174 197 0
174 196 0
173 196 0
174 197 0
175 197 0
174 197 0
171 195 0
175 198 0
173 197 0
172 196 0
175 198 0
172 195 0
172 195 0
173 196 0
174 197 0
173 197 0
173 196 0
173 196 0
173 197 0
172 196 0
174 197 0
172 195 0
173 197 0
173 196 0
173 197 0
173 196 0
173 197 0
173 197 0
170 194 0
173 196 0
172 196 0
172 195 0
171 194 0
174 197 0
174 198 0
170 193 0
174 197 0
172 196 0
174 198 0
173 197 0
172 196 0
173 196 0
173 196 0
170 194 0
174 197 0
173 196 0
172 195 0
174 197 0
171 195 0
174 197 0
173 196 0
174 197 0
173 197 0
172 195 0
170 194 0
175 197 0
170 194 0
174 197 0
173 196 0
174 197 0
169 193 0
172 196 0
171 194 0
173 196 0
170 194 0
172 196 0
172 195 0
172 196 0
172 196 0
170 193 0
173 196 0
175 198 0
168 191 40
130 155 125
64 100 178
62 99 180
62 99 179
62 99 179
62 99 179
62 99 181
62 99 181
62 99 178
61 98 177
61 99 181
61 98 177
62 99 181
62 99 181
61 99 181
62 99 181
61 98 181
62 99 181
61 99 181
61 99 181
62 99 181
62 99 181
61 98 181
61 98 181
61 98 181
62 99 181
61 98 181
61 99 181
62 99 181
61 99 181
61 99 181
61 99 181
61 99 181
61 98 181
62 99 181
62 99 181
61 99 181
61 99 181
62 99 181
61 99 181
61 98 181
62 99 181
62 99 181
61 98 181
61 99 181
61 98 181
61 99 181
62 99 181
61 99 181
61 99 181
61 98 181
61 99 181
62 99 181
61 99 181
62 99 181
61 99 181
62 99 181
61 99 181
62 99 181
61 99 181
61 99 181
61 99 181
61 98 180
61 99 179
61 98 180
61 98 180
61 98 181
62 99 181
62 99 180
61 98 181
61 98 180
61 98 177
61 99 180
62 99 180
61 98 179
61 98 177
61 98 178
62 99 180
61 99 179
62 99 180
62 99 179
61 98 177
61 97 174
62 99 178
61 97 174
88 118 159
153 177 87
171 195 0
172 195 0
171 194 0
170 193 0
172 195 0
172 194 0
173 196 0
175 198 0
171 194 0
173 196 0
172 194 0
172 195 0
172 194 0
172 196 0
173 195 0
172 195 0
171 194 0
173 195 0
171 195 0
172 196 0
152 160 53
125 120 54
137 131 73
129 124 69
135 130 74
131 127 70
136 130 76
144 138 83
134 130 78
139 135 76
151 146 88
148 142 87
141 135 80
154 148 86
135 131 79
135 132 83
145 140 85
143 140 88
146 142 87
134 132 86
137 134 90
150 146 94
136 134 86
150 147 93
141 137 89
147 144 95
140 138 91
147 145 95
154 150 98
153 149 99
145 143 95
149 146 97
142 141 96
142 140 91
158 155 105
147 146 99
159 156 104
150 148 100
156 153 103
153 151 102
167 163 109
155 153 103
156 154 104
158 155 104
156 153 103
160 158 107
166 162 108
165 162 108
161 158 106
163 161 107
161 158 106
160 157 104
155 153 104
164 161 108
161 158 106
167 164 110
166 163 109
167 164 108
162 160 107
165 162 108
162 159 107
162 160 107
164 163 109
166 163 109
171 167 110
170 167 110
169 166 110
166 163 108
167 164 110
168 165 111
170 167 110
171 168 112
172 168 112
169 166 110
168 166 111
167 164 109
173 170 112
171 168 112
167 164 108
173 170 113
173 169 112
174 170 112
171 168 111
171 167 111
170 167 110
174 170 112
168 166 110
175 171 113
172 168 112
171 167 109
171 167 109
169 165 109
164 162 108
168 164 108
172 169 111
165 162 105
173 169 112
172 168 110
172 168 110
170 166 108
173 168 109
170 166 106
171 168 110
169 164 106
167 162 106
173 168 110
165 160 103
168 164 106
166 163 107
170 166 108
169 164 106
162 159 100
172 166 109
165 161 102
167 163 106
166 162 105
167 162 105
163 159 102
166 161 103
162 158 100
168 163 105
160 155 97
167 162 103
167 162 101
165 159 97
156 152 93
163 157 99
160 156 95
165 160 101
157 153 95
162 157 96
166 159 100
156 150 94
160 155 95
158 153 91
155 149 87
150 145 91
158 151 93
154 148 87
148 142 87
157 150 87
151 145 84
158 151 88
149 143 80
156 150 88
142 136 80
140 133 76
142 137 77
128 123 64
140 134 74
127 121 62
167 184 32
172 196 0
173 196 0
171 195 0
174 197 0
172 196 0
175 197 0
173 196 0
174 196 0
174 196 0
173 197 0
172 197 0
174 198 0
173 197 0
173 197 0
173 196 0
171 195 0
173 197 0
174 197 0
173 197 0
173 196 0
173 197 0
174 197 0
173 196 0
174 197 0
174 197 0
174 197 0
175 198 0
175 198 0
174 196 0
172 196 0
174 198 0
172 196 0
173 196 0
174 197 0
173 197 0
172 195 0
172 196 0
175 198 0
174 198 0
173 196 0
173 197 0
173 197 0
174 197 0
174 196 0
174 197 0
173 197 0
173 196 0
176 198 0
173 196 0
172 196 0
173 196 0
173 196 0
174 196 0
174 196 0
173 196 0
173 196 0
173 196 0
173 197 0
173 196 0
175 198 0
175 198 0
172 195 0
173 197 0
172 196 0
171 194 0
174 197 0
171 194 0
172 196 0
174 197 0
175 198 0
173 196 0
173 196 0
172 195 0
172 196 0
174 197 0
173 196 0
173 197 0
172 196 0
173 196 0
175 197 0
173 197 0
173 195 0
172 196 0
174 197 0
173 197 0
173 197 0
173 197 0
173 196 0
171 194 0
172 197 0
173 197 0
172 196 0
174 197 0
173 197 0
170 195 0
171 195 0
171 195 0
174 197 0
170 194 0
172 196 0
175 198 0
171 193 0
172 195 0
175 198 0
173 196 0
173 196 0
172 196 0
173 197 0
173 197 0
173 196 0
172 195 0
172 196 0
173 197 0
173 196 0
175 197 0
173 196 0
173 197 0
171 195 0
173 196 0
173 197 0
172 196 0
173 197 0
171 194 0
173 196 0
174 196 0
172 195 0
173 197 0
172 196 0
172 196 0
173 196 0
170 192 0
171 195 0
171 194 0
173 196 0
170 194 0
173 196 0
172 196 0
173 197 0
172 194 18
143 168 107
78 111 171
62 99 177
62 99 179
62 99 181
62 99 179
62 99 181
62 99 181
62 99 180
62 99 179
62 99 180
62 99 181
61 98 180
61 99 181
61 98 181
61 99 180
61 99 181
62 99 180
62 99 181
61 99 181
61 99 181
62 99 181
61 99 181
61 98 181
62 99 181
61 98 181
62 99 181
61 98 181
62 99 181
62 99 181
62 99 181
61 99 181
62 99 181
61 99 181
61 99 181
61 98 181
62 99 181
61 99 181
61 98 181
61 99 181
62 99 181
61 98 181
61 99 181
61 98 181
61 99 181
61 98 181
61 98 181
61 98 181
61 98 181
61 99 181
61 99 181
62 99 181
61 99 181
62 99 181
61 99 181
61 99 181
61 98 181
62 99 181
61 99 181
62 99 181
61 98 181
61 99 181
61 98 179
62 99 181
62 99 181
61 99 181
61 99 181
61 99 181
62 99 180
61 99 181
62 99 180
62 99 181
62 99 181
62 99 181
61 98 180
62 98 179
62 99 179
61 98 179
62 99 180
62 98 177
61 98 178
62 99 178
61 98 179
61 99 179
61 98 179
62 98 179
61 97 174
61 98 177
61 97 173
102 130 149
161 183 70
173 196 0
171 193 0
171 194 0
171 194 0
172 194 0
172 196 0
172 195 0
170 194 0
173 196 0
172 195 0
172 195 0
174 196 0
174 197 0
169 191 0
174 196 0
173 195 0
173 196 0
165 186 11
125 124 51
136 131 65
141 135 75
138 132 78
135 131 61
141 135 76
142 136 76
135 130 75
148 143 83
127 123 70
139 135 81
149 144 86
135 132 79
147 142 88
153 147 89
137 134 83
142 138 85
147 144 92
150 146 95
139 136 87
151 146 94
139 136 88
140 137 89
149 146 97
147 145 95
146 143 93
150 147 96
145 142 91
146 143 93
146 144 97
149 146 98
151 149 99
145 143 96
147 146 99
152 149 99
152 149 99
153 151 102
155 152 102
149 149 102
154 152 103
150 148 100
157 154 104
153 152 102
159 157 105
163 160 108
160 157 105
156 153 103
159 157 106
162 159 107
163 159 106
166 163 109
166 162 108
158 157 106
170 166 111
169 165 109
165 162 108
163 161 108
166 162 108
166 163 109
161 158 106
165 162 108
164 161 107
167 164 110
166 163 109
169 166 111
165 162 108
166 163 110
163 160 107
162 160 107
168 165 110
171 168 111
168 166 111
169 166 111
172 168 111
171 167 110
172 169 113
168 165 110
174 171 113
170 167 110
168 165 110
172 168 110
171 168 112
175 171 113
173 169 113
171 169 110
177 172 113
169 165 108
171 167 111
170 167 111
170 167 110
172 168 110
169 166 109
173 169 111
167 162 106
169 166 109
170 166 109
173 169 110
172 167 110
166 162 107
173 168 110
173 169 110
172 167 109
167 164 108
165 161 103
170 167 109
167 163 106
168 164 108
166 162 106
171 167 109
168 164 106
169 165 106
167 162 103
164 160 104
166 162 105
168 163 103
166 162 103
172 165 106
171 165 105
161 156 99
166 161 102
160 155 99
171 166 107
164 158 100
168 162 102
165 160 99
158 153 97
157 152 93
158 153 97
163 158 99
157 152 93
157 153 95
162 156 97
164 158 97
157 151 93
157 152 94
160 153 93
157 152 92
163 157 92
149 144 84
157 150 91
150 143 79
144 140 81
159 153 87
153 147 87
151 145 87
154 148 87
142 136 82
143 137 75
137 131 73
135 129 71
131 125 70
145 153 47
173 196 0
172 196 0
174 197 0
173 196 0
175 197 0
174 197 0
173 196 0
174 197 0
173 197 0
174 198 0
173 197 0
174 197 0
174 197 0
175 198 0
174 197 0
173 196 0
170 194 0
172 196 0
173 196 0
174 197 0
172 197 0
173 196 0
171 195 0
173 196 0
173 197 0
170 194 0
173 197 0
172 196 0
172 197 0
174 197 0
172 196 0
174 197 0
173 196 0
173 196 0
175 198 0
173 197 0
173 197 0
173 196 0
171 195 0
175 198 0
174 197 0
174 197 0
173 197 0
174 197 0
174 197 0
171 195 0
173 196 0
173 197 0
172 196 0
171 195 0
172 196 0
174 197 0
173 196 0
171 194 0
175 198 0
174 197 0
172 196 0
172 195 0
173 197 0
171 194 0
174 196 0
173 196 0
172 195 0
174 197 0
175 198 0
175 198 0
173 197 0
174 198 0
174 197 0
175 198 0
174 196 0
172 194 0
173 197 0
173 197 0
172 195 0
172 196 0
173 197 0
170 194 0
171 194 0
173 197 0
174 198 0
171 195 0
172 196 0
174 197 0
173 197 0
174 197 0
173 196 0
173 196 0
170 193 0
174 197 0
170 194 0
171 194 0
173 197 0
171 195 0
174 196 0
173 196 0
173 197 0
173 196 0
173 197 0
173 197 0
171 195 0
174 197 0
173 197 0
173 196 0
172 195 0
174 197 0
173 197 0
172 195 0
171 194 0
170 194 0
174 197 0
173 196 0
174 198 0
171 195 0
176 198 0
174 197 0
171 195 0
172 196 0
173 196 0
172 196 0
176 198 0
172 195 0
173 197 0
173 197 0
172 195 0
170 193 0
173 196 0
171 194 0
172 195 0
174 197 0
172 196 0
172 196 0
171 193 0
169 193 0
173 197 0
173 196 0
176 198 0
147 171 100
93 123 157
62 99 179
62 99 179
62 99 180
62 99 179
62 99 177
62 99 177
62 99 179
62 99 180
62 99 179
62 99 180
62 99 181
61 99 181
62 99 181
62 99 181
62 99 181
62 99 181
62 99 181
62 99 181
62 99 181
62 99 181
62 99 181
62 99 181
62 99 181
61 98 181
61 99 181
61 98 181
62 99 181
62 99 181
61 99 181
61 98 181
61 99 181
62 99 181
62 99 181
62 99 181
61 99 181
61 99 181
61 98 181
62 99 181
61 98 181
61 99 181
61 99 181
61 98 181
61 99 181
61 98 180
61 99 181
61 98 181
61 98 181
62 99 181
61 98 181
62 99 181
62 99 181
62 99 181
61 99 181
61 98 181
61 99 181
61 99 181
61 99 181
62 99 181
61 99 181
62 99 181
62 99 181
62 99 181
61 99 180
61 99 181
62 99 181
61 98 180
61 99 181
61 98 180
61 99 181
62 99 181
61 98 180
62 99 180
62 99 181
61 98 178
62 99 180
61 98 180
61 98 181
61 99 179
61 98 179
61 98 180
62 99 181
62 99 181
62 99 180
62 99 178
61 99 180
62 99 179
62 98 178
62 98 176
61 98 176
61 97 172
65 100 175
123 148 127
169 192 41
172 195 0
173 195 0
171 194 0
171 194 0
173 196 0
174 197 0
173 196 0
172 195 0
175 198 0
172 196 0
173 195 0
174 197 0
171 195 0
174 196 0
170 193 0
152 166 30
116 111 54
128 124 63
130 125 65
136 131 73
141 136 80
130 126 70
152 146 83
135 130 74
152 146 84
140 135 80
147 143 81
144 140 81
152 146 87
142 139 82
141 138 86
142 138 85
151 147 94
145 142 94
145 141 91
146 143 94
139 136 90
137 135 88
135 133 88
151 147 95
145 142 93
146 143 92
140 137 92
149 145 96
143 141 95
141 139 91
154 151 99
150 147 98
154 151 101
153 151 100
146 144 97
152 149 100
152 150 101
156 153 104
158 155 103
158 154 103
151 149 101
156 153 103
159 156 105
156 153 103
165 161 107
153 151 102
159 156 105
159 157 105
160 157 105
154 153 103
159 156 104
161 158 106
160 157 106
163 160 107
159 156 104
164 161 108
164 161 108
169 167 111
162 159 106
165 163 110
166 162 109
164 162 108
168 165 110
170 166 110
169 165 109
173 169 113
168 165 108
165 162 108
170 167 111
172 169 112
170 168 111
169 166 110
165 162 108
173 170 113
170 167 110
173 169 112
171 167 110
171 168 112
173 169 110
173 170 113
171 168 111
174 170 113
171 168 109
170 167 110
174 169 110
174 170 112
172 168 111
171 167 111
172 168 110
172 170 112
173 169 112
174 170 112
171 168 110
171 168 109
171 166 109
172 168 111
168 165 107
168 164 108
168 164 109
174 170 112
173 169 110
167 164 108
166 162 106
171 167 109
168 163 106
161 157 103
169 165 108
166 162 107
173 168 110
168 163 106
162 158 104
169 165 106
169 164 106
171 166 106
162 159 103
168 162 101
168 163 104
170 164 106
166 162 105
165 159 101
169 164 104
164 159 99
163 159 100
160 155 95
167 162 99
160 155 99
161 155 97
161 156 96
163 158 95
165 159 100
167 162 103
161 155 94
159 152 94
161 156 95
163 158 96
156 151 87
162 155 92
154 148 89
149 143 87
153 147 90
153 147 87
151 144 80
148 142 85
153 148 87
152 146 86
151 144 80
148 142 81
144 137 80
140 134 77
133 128 62
131 126 66
135 132 60
174 195 16
175 197 0
173 196 0
174 197 0
176 198 0
173 196 0
171 195 0
174 197 0
175 198 0
173 196 0
174 197 0
175 197 0
174 197 0
173 196 0
174 197 0
173 197 0
173 196 0
172 195 0
175 198 0
172 196 0
175 197 0
173 197 0
174 197 0
171 194 0
169 193 0
172 196 0
173 197 0
173 197 0
174 197 0
174 198 0
173 197 0
173 197 0
175 198 0
173 196 0
171 194 0
173 197 0
174 197 0
171 195 0
172 196 0
174 197 0
174 197 0
174 197 0
173 197 0
175 198 0
173 197 0
175 197 0
174 197 0
173 197 0
174 197 0
173 197 0
174 197 0
173 196 0
173 197 0
172 196 0
172 196 0
172 195 0
174 197 0
171 194 0
170 194 0
173 197 0
173 197 0
170 193 0
171 195 0
173 196 0
174 198 0
175 198 0
174 197 0
172 197 0
175 198 0
172 196 0
173 196 0
171 195 0
175 198 0
174 197 0
174 197 0
174 197 0
173 197 0
174 197 0
173 196 0
176 198 0
172 195 0
173 197 0
173 196 0
174 197 0
171 194 0
173 196 0
174 197 0
173 197 0
174 197 0
172 196 0
173 196 0
173 196 0
172 196 0
173 196 0
172 195 0
173 196 0
172 195 0
172 195 0
175 198 0
172 196 0
171 195 0
171 195 0
176 198 0
173 197 0
174 197 0
172 196 0
172 195 0
173 195 0
170 194 0
175 198 0
173 196 0
173 196 0
172 195 0
174 197 0
171 195 0
172 196 0
174 197 0
174 197 0
171 194 0
174 197 0
172 195 0
169 192 0
171 194 0
172 196 0
171 195 0
173 197 0
173 196 0
172 196 0
173 196 0
172 194 0
174 196 0
169 193 0
172 195 0
171 195 0
171 194 0
167 190 54
114 141 140
62 99 178
62 99 179
62 99 178
62 99 179
63 100 180
62 99 180
62 99 179
62 99 178
62 99 180
63 99 178
61 99 180
62 99 181
62 99 179
62 99 181
62 99 181
62 99 180
62 99 179
62 99 179
61 98 181
62 99 180
62 99 181
61 98 181
61 99 181
61 99 181
61 98 181
62 99 181
61 99 181
61 99 181
62 99 181
62 99 181
61 99 181
61 99 181
61 98 181
61 98 181
61 99 181
62 99 181
62 99 181
62 99 181
61 99 181
62 99 181
61 99 181
61 99 181
61 99 181
61 99 181
61 99 181
61 99 181
62 99 181
62 99 181
61 98 181
61 98 181
61 98 181
61 99 181
62 99 181
61 99 181
62 99 181
61 99 181
61 99 181
61 99 181
61 98 180
62 99 181
62 99 181
61 99 181
62 99 181
61 98 181
61 99 181
61 98 181
61 98 179
61 98 179
62 99 181
60 98 180
62 99 180
62 99 181
62 99 181
61 98 179
62 99 180
61 98 180
61 98 178
62 99 179
61 97 177
61 99 181
61 98 180
61 98 176
61 98 179
61 98 178
61 98 178
61 98 177
62 99 178
62 98 177
61 97 176
62 98 174
61 97 173
61 98 176
61 97 172
61 97 175
76 108 165
149 173 92
174 197 0
173 197 0
173 195 0
174 197 0
173 196 0
171 192 0
172 196 0
173 196 0
171 195 0
172 194 0
168 192 0
169 192 0
172 194 0
173 196 0
135 141 45
126 121 57
134 128 67
136 129 66
138 133 69
130 125 67
135 130 75
140 135 73
139 135 82
138 134 80
136 132 73
142 137 84
131 127 80
143 138 85
143 139 82
138 135 84
147 143 86
127 124 76
145 141 90
143 140 88
147 143 91
137 134 84
153 149 94
142 139 92
141 138 88
141 138 90
149 147 96
146 144 92
145 144 96
148 145 97
141 140 94
151 148 98
150 147 97
157 154 101
136 135 91
147 146 99
157 155 104
153 151 102
154 151 101
150 148 101
150 148 101
145 144 100
148 147 99
157 155 103
162 160 107
152 150 101
153 150 101
155 153 102
159 157 105
162 159 106
163 159 107
169 165 110
161 159 107
159 156 106
161 158 106
165 161 108
162 159 107
161 159 106
162 159 107
163 160 106
160 157 104
166 162 109
170 167 111
165 163 108
166 163 108
164 162 108
167 163 108
170 166 110
171 167 111
171 168 111
167 164 109
170 167 110
172 168 111
169 165 109
171 168 111
167 165 110
173 169 112
171 167 111
167 164 109
173 169 111
170 167 111
173 169 111
171 168 112
174 169 110
176 172 113
170 167 109
171 168 111
170 166 110
171 167 110
170 166 109
172 169 112
171 167 110
167 164 108
171 167 110
171 167 110
170 165 109
171 167 110
172 168 108
174 169 110
174 170 110
169 165 107
166 162 105
172 167 109
174 169 109
169 165 106
173 168 110
168 165 108
168 164 105
175 169 110
170 166 106
162 158 102
171 166 104
166 161 103
170 166 109
167 162 103
164 159 100
155 150 95
171 167 108
166 161 104
160 155 101
170 165 103
165 161 103
163 159 99
171 166 103
163 157 103
164 158 97
160 155 98
153 148 90
161 156 99
162 156 97
153 148 90
162 157 96
159 153 92
159 154 96
157 151 94
160 154 91
156 150 90
156 151 90
152 146 84
155 149 90
153 148 87
153 147 88
152 146 85
143 137 76
146 141 81
140 135 79
145 139 75
153 148 87
146 140 79
145 140 79
135 129 65
142 136 77
128 122 60
159 176 32
174 197 0
171 193 0
174 196 0
176 198 0
173 196 0
172 195 0
175 197 0
175 198 0
174 197 0
175 197 0
173 197 0
173 196 0
174 197 0
172 195 0
175 197 0
174 197 0
173 197 0
172 195 0
172 196 0
175 198 0
176 198 0
173 197 0
174 197 0
174 197 0
173 197 0
173 196 0
174 197 0
173 196 0
172 195 0
172 195 0
175 198 0
174 198 0
174 198 0
175 198 0
170 194 0
171 195 0
174 197 0
172 196 0
173 196 0
174 197 0
175 198 0
172 195 0
174 197 0
174 197 0
174 197 0
173 197 0
175 198 0
175 198 0
175 198 0
174 197 0
171 195 0
173 196 0
173 197 0
174 197 0
173 197 0
173 196 0
174 198 0
174 197 0
174 197 0
174 198 0
171 194 0
174 197 0
172 196 0
174 197 0
172 196 0
170 193 0
174 197 0
175 197 0
172 195 0
174 197 0
173 196 0
172 196 0
172 196 0
172 195 0
171 195 0
172 196 0
174 198 0
173 196 0
173 196 0
174 197 0
173 197 0
173 197 0
172 195 0
172 196 0
174 197 0
171 195 0
174 197 0
172 196 0
170 193 0
172 195 0
173 197 0
175 197 0
172 196 0
173 196 0
173 195 0
171 194 0
173 196 0
173 196 0
174 197 0
173 196 0
172 196 0
171 194 0
173 196 0
173 196 0
171 195 0
173 196 0
172 196 0
176 198 0
173 196 0
174 197 0
175 198 0
173 197 0
174 197 0
173 196 0
171 195 0
171 194 0
174 197 0
174 198 0
168 191 0
172 196 0
173 196 0
173 196 0
169 193 0
172 195 0
170 194 0
172 195 0
174 198 0
172 195 0
172 195 0
173 196 0
171 195 0
172 196 0
170 194 0
146 171 102
74 108 172
62 99 179
63 100 178
61 98 177
62 99 181
62 99 175
62 99 179
63 99 179
61 99 179
62 99 179
61 99 180
62 99 179
62 99 178
62 99 178
61 99 180
62 99 180
62 99 181
61 99 181
62 99 180
62 99 181
61 98 181
62 99 181
62 99 181
62 99 181
61 99 181
61 98 181
62 99 181
62 99 181
61 99 181
62 99 181
62 99 181
62 99 181
62 99 181
62 99 181
62 99 181
62 99 181
62 99 181
61 99 181
61 98 181
61 98 181
61 99 181
62 99 181
62 99 181
62 99 181
61 99 181
62 99 181
61 99 181
62 99 181
61 98 181
61 99 181
62 99 181
62 99 181
62 99 181
61 99 181
61 98 181
61 99 181
61 99 181
61 99 181
61 99 181
61 99 181
62 99 181
61 99 181
61 98 181
61 99 181
62 99 181
61 99 181
61 98 181
61 99 181
61 98 181
61 98 181
62 99 180
62 99 181
62 99 181
62 99 180
62 99 181
62 99 179
62 99 180
62 99 179
61 98 180
62 99 180
62 99 179
62 99 180
62 99 180
62 99 180
62 99 179
61 99 181
62 99 181
62 99 179
61 98 179
61 98 179
62 99 180
60 97 174
62 98 178
62 99 178
61 98 177
60 96 169
61 97 174
62 98 175
110 136 138
168 191 51
168 191 0
170 192 0
172 195 0
170 193 0
174 197 0
170 193 0
172 194 0
170 194 0
172 195 0
171 194 0
172 194 0
171 191 11
127 123 58
135 130 65
135 130 67
126 122 61
145 139 75
133 128 71
138 133 75
138 134 73
135 131 75
134 130 78
137 134 77
135 132 80
142 137 82
133 130 81
140 137 85
140 137 85
142 137 82
149 144 90
135 132 87
141 139 90
145 143 92
144 142 91
146 143 93
141 139 92
144 141 94
139 137 92
146 144 97
149 147 98
148 146 96
142 141 95
157 154 101
147 145 96
144 142 95
152 150 99
144 142 96
149 147 100
150 147 98
146 146 101
152 150 102
159 155 104
160 157 105
152 149 101
155 153 103
158 156 105
154 151 102
149 146 98
148 146 100
160 157 106
160 158 107
161 158 104
158 156 105
158 154 103
161 158 106
161 158 106
159 157 105
166 162 109
162 160 107
166 163 109
165 162 108
163 161 109
164 162 108
165 162 108
168 164 110
165 162 108
167 164 109
173 168 110
165 162 109
171 168 112
169 166 110
171 168 111
169 165 110
169 166 111
170 167 109
171 167 110
171 167 109
173 169 110
173 169 111
170 166 109
169 166 110
173 170 112
170 167 110
172 168 110
174 170 112
166 163 108
172 169 111
170 167 110
171 168 110
170 166 108
174 170 112
171 167 110
169 164 109
169 167 109
173 169 111
165 162 106
171 167 107
171 168 111
174 169 110
176 171 112
169 165 108
176 172 113
166 163 106
168 164 108
172 167 109
171 167 109
169 164 106
168 164 105
170 165 106
169 164 105
169 165 106
169 164 108
169 165 107
165 161 103
168 163 104
169 164 106
165 162 103
165 160 103
164 160 104
162 157 99
168 162 103
165 162 101
164 159 101
165 160 99
167 161 103
163 159 103
167 162 101
168 163 103
167 162 103
158 154 94
163 156 98
153 148 91
164 159 98
160 156 98
157 151 90
160 153 91
156 151 94
150 145 86
160 154 94
156 150 88
158 153 93
150 145 83
161 155 91
156 151 91
151 145 84
149 143 84
144 139 76
156 150 87
149 143 80
155 149 83
146 140 75
147 142 81
131 126 68
136 131 71
124 119 64
144 153 48
171 194 0
174 197 0
175 197 0
174 197 0
174 197 0
171 196 0
174 197 0
174 197 0
174 197 0
173 196 0
172 196 0
175 198 0
173 197 0
173 197 0
173 196 0
172 195 0
174 197 0
174 197 0
172 196 0
172 196 0
173 196 0
175 198 0
172 196 0
172 196 0
173 196 0
173 197 0
175 198 0
172 196 0
172 196 0
174 197 0
174 197 0
172 195 0
173 197 0
173 196 0
174 197 0
174 197 0
175 198 0
172 195 0
174 196 0
175 197 0
174 197 0
174 197 0
173 197 0
174 197 0
173 196 0
174 196 0
174 196 0
174 197 0
175 198 0
173 196 0
172 196 0
171 195 0
175 198 0
173 197 0
173 196 0
174 198 0
171 195 0
174 197 0
174 197 0
174 198 0
172 196 0
173 197 0
171 195 0
174 196 0
173 196 0
174 198 0
174 198 0
173 197 0
172 196 0
172 196 0
176 199 0
172 196 0
173 196 0
174 197 0
173 197 0
172 196 0
172 195 0
172 195 0
174 198 0
175 198 0
171 195 0
174 197 0
173 196 0
174 198 0
172 196 0
172 196 0
174 197 0
172 196 0
173 196 0
173 196 0
175 197 0
172 195 0
173 196 0
174 197 0
173 196 0
173 196 0
174 197 0
170 193 0
172 196 0
174 196 0
172 195 0
172 196 0
173 196 0
174 196 0
174 197 0
173 197 0
173 196 0
172 196 0
173 196 0
174 197 0
175 198 0
171 195 0
171 195 0
174 197 0
170 193 0
174 197 0
175 197 0
175 198 0
173 195 0
172 196 0
174 197 0
174 197 0
171 194 0
170 194 0
171 195 0
173 197 0
172 194 0
172 195 0
172 195 0
173 196 0
171 195 0
161 184 60
103 132 152
61 98 171
62 99 176
62 99 176
62 98 172
62 99 177
62 99 177
62 99 180
62 99 180
62 99 179
62 99 181
62 99 176
61 98 179
62 99 180
62 99 179
62 99 181
61 99 181
61 99 180
62 99 180
61 99 181
62 99 181
62 99 180
62 99 180
62 99 180
62 99 181
62 99 181
62 99 180
62 99 181
61 99 181
62 99 180
61 98 181
62 99 181
61 99 181
61 99 181
62 99 181
62 99 181
62 99 181
61 98 181
62 99 181
61 99 181
62 99 181
61 99 181
62 99 181
62 99 181
61 99 181
61 99 181
61 98 181
62 99 181
61 98 181
62 99 181
61 99 181
62 99 181
62 99 181
62 99 181
61 99 181
61 99 181
62 99 181
61 99 181
61 99 181
61 99 181
61 98 181
62 99 181
61 99 181
62 99 181
61 99 181
62 99 181
62 99 181
61 99 181
61 98 181
61 98 180
62 99 181
61 98 180
62 99 180
61 99 181
61 99 180
61 99 181
61 98 181
61 98 180
61 99 179
62 99 180
62 99 181
62 99 181
61 98 180
62 99 181
61 99 180
61 98 181
62 98 176
60 97 177
62 98 178
61 98 176
61 98 176
61 98 178
61 98 175
62 99 179
62 98 178
63 100 181
61 97 176
62 98 177
61 97 174
62 98 175
60 96 171
74 105 165
143 166 103
173 195 0
174 197 0
169 192 0
174 196 0
175 198 0
172 196 0
174 196 0
173 195 0
171 193 0
172 194 0
156 171 34
127 122 59
130 125 63
137 131 69
138 132 72
143 137 75
134 129 71
130 127 69
129 125 73
141 135 74
143 138 78
143 139 81
138 134 77
132 128 81
134 130 82
132 128 78
137 133 86
132 129 83
137 134 83
146 142 89
142 139 91
135 133 88
136 134 89
140 138 91
143 140 92
144 141 92
142 141 92
146 143 94
146 143 97
149 146 96
140 138 92
146 143 96
150 147 99
140 139 94
150 148 99
148 146 98
144 143 98
151 149 99
147 145 98
157 154 102
145 144 96
149 147 99
161 158 106
152 150 102
154 152 103
158 155 104
148 145 99
164 161 107
154 152 103
160 158 107
160 157 106
156 153 103
156 154 105
166 163 109
169 165 110
162 160 107
158 156 104
162 160 108
166 164 109
164 161 108
166 164 109
161 158 107
172 167 110
167 164 108
166 163 110
164 162 109
167 164 110
172 168 111
168 164 108
169 166 111
170 166 110
171 168 111
170 167 112
172 169 111
171 167 110
171 167 110
176 171 113
170 166 111
171 167 109
170 166 108
170 167 109
172 169 112
172 168 111
173 170 113
172 167 110
175 170 112
173 170 111
173 170 112
170 166 109
171 167 110
173 169 111
167 165 108
173 169 110
172 168 111
169 165 108
171 167 109
171 167 109
174 169 108
173 168 109
172 167 106
169 164 107
170 166 108
169 166 108
170 165 107
169 164 104
173 169 109
174 169 109
171 166 108
171 167 108
170 165 104
174 169 108
169 164 103
171 166 106
166 161 104
170 165 101
166 162 103
171 165 105
169 164 103
172 166 107
167 162 102
157 152 98
166 160 99
163 158 101
163 158 99
170 164 105
165 159 101
165 159 98
159 154 96
165 160 98
164 158 97
156 152 91
159 153 96
161 154 97
157 152 90
155 150 91
157 152 90
161 155 95
152 146 87
162 156 96
151 145 84
152 146 87
152 146 87
154 147 82
144 138 78
145 140 78
148 143 79
153 148 85
143 138 80
154 147 81
149 143 76
137 132 72
145 139 71
137 131 72
131 125 69
136 137 54
174 197 0
172 196 0
174 197 0
174 197 0
173 196 0
172 196 0
174 196 0
173 196 0
173 196 0
174 197 0
175 198 0
175 198 0
171 194 0
173 196 0
174 197 0
173 196 0
174 197 0
172 196 0
174 198 0
172 197 0
173 197 0
174 196 0
172 196 0
174 196 0
173 197 0
174 197 0
175 198 0
173 196 0
170 194 0
174 197 0
171 195 0
175 198 0
172 196 0
173 197 0
174 197 0
174 197 0
173 196 0
175 198 0
172 195 0
173 196 0
175 198 0
173 197 0
171 195 0
174 197 0
172 196 0
173 196 0
174 197 0
172 195 0
172 195 0
174 196 0
169 193 0
176 198 0
173 196 0
172 196 0
174 197 0
173 197 0
174 197 0
173 197 0
175 198 0
174 197 0
173 196 0
173 196 0
172 195 0
170 194 0
174 197 0
172 196 0
176 199 0
172 196 0
175 197 0
172 195 0
175 198 0
174 197 0
174 197 0
173 196 0
174 197 0
173 197 0
172 195 0
175 198 0
172 195 0
172 195 0
172 195 0
172 196 0
172 196 0
174 197 0
172 195 0
174 198 0
172 195 0
174 197 0
172 195 0
171 195 0
173 196 0
173 196 0
172 196 0
173 196 0
173 196 0
174 197 0
174 197 0
171 194 0
172 196 0
172 196 0
172 196 0
172 195 0
173 197 0
173 197 0
173 196 0
173 196 0
173 196 0
174 198 0
174 196 0
173 195 0
172 195 0
171 195 0
172 195 0
172 194 0
173 197 0
172 196 0
172 195 0
171 195 0
174 197 0
173 196 0
174 197 0
172 195 0
173 195 0
170 194 0
173 196 0
172 195 0
173 196 0
172 196 0
172 196 0
171 194 0
147 172 99
81 113 165
62 99 176
63 99 178
63 99 177
62 99 177
62 99 180
62 99 177
61 99 180
62 99 179
62 99 179
61 98 179
62 99 180
62 99 179
62 99 180
62 99 178
62 99 181
62 99 180
62 99 180
62 99 181
62 99 179
62 99 181
62 99 180
62 99 181
61 99 181
61 98 180
62 99 181
62 99 181
61 99 181
62 99 181
62 99 181
62 99 181
62 99 181
62 99 181
61 99 181
62 99 181
62 99 181
62 99 180
62 99 181
61 99 181
62 99 181
61 98 181
62 99 181
61 99 181
62 99 181
61 99 181
62 99 181
62 99 181
61 98 181
61 99 181
61 98 181
61 99 181
62 99 181
61 98 181
62 99 181
61 99 181
61 99 181
60 98 181
61 99 181
62 99 181
61 99 181
62 99 181
62 99 181
62 99 181
61 98 181
61 99 181
62 99 181
61 99 181
62 99 181
61 99 181
62 99 181
61 99 181
61 98 181
61 98 180
61 99 181
61 99 180
61 99 180
62 99 181
62 99 180
63 99 180
62 99 180
61 98 180
62 99 181
63 100 181
62 99 178
61 98 180
62 99 179
61 98 178
62 99 179
61 99 179
62 99 178
61 98 178
61 97 176
62 99 180
62 99 180
62 99 177
62 98 178
62 98 179
62 99 177
61 97 173
62 98 176
61 98 178
61 97 172
61 96 171
63 98 173
115 140 137
165 188 44
171 193 0
171 194 0
172 195 0
172 195 0
169 191 0
170 194 0
169 193 0
171 194 0
140 145 41
122 117 62
125 121 59
140 134 69
143 138 71
132 128 70
138 133 72
141 135 80
142 136 77
142 137 77
128 124 74
143 138 83
138 135 81
139 136 79
141 136 83
136 132 83
133 131 81
145 141 88
138 134 88
147 143 91
134 133 88
139 137 89
145 142 93
137 135 92
142 141 94
147 144 95
146 143 94
143 140 92
139 137 93
150 147 98
147 144 97
136 136 93
143 141 95
142 140 94
139 139 95
155 153 103
146 145 99
149 147 101
144 143 97
158 155 105
148 146 98
154 151 102
138 138 95
156 154 103
154 153 104
154 151 101
155 153 103
164 160 107
154 153 102
160 157 105
154 153 104
165 162 108
157 155 104
163 160 107
162 159 106
159 156 105
163 161 108
163 160 108
163 160 107
162 159 106
166 163 109
161 159 105
168 164 108
166 162 108
165 162 107
173 169 112
165 162 107
171 167 110
168 164 109
168 165 109
171 168 111
167 164 108
169 166 110
171 167 109
170 166 110
170 167 109
171 168 110
170 167 109
170 167 111
171 167 110
171 168 111
173 170 112
174 169 112
175 171 112
171 167 109
174 170 112
176 172 114
172 167 109
176 171 112
173 170 111
174 170 111
169 166 109
176 170 110
170 166 108
174 170 111
169 165 107
174 169 111
171 167 106
170 167 109
172 168 110
174 169 111
170 167 109
171 168 109
168 163 104
164 159 104
174 170 109
175 169 110
166 162 104
173 168 108
171 166 105
169 165 104
170 166 108
163 159 103
172 166 106
168 163 106
172 167 105
171 166 105
171 165 105
168 163 105
169 164 105
172 167 104
167 163 103
172 167 104
167 162 103
165 159 102
165 159 99
166 160 100
163 158 97
172 165 102
165 159 100
165 158 95
160 154 95
155 150 91
158 152 92
157 153 91
162 154 90
168 162 100
156 151 93
164 158 94
161 155 97
160 155 91
152 146 84
149 144 80
153 148 86
145 140 77
149 142 81
149 143 84
142 136 80
140 134 79
141 135 76
144 138 72
142 135 73
131 125 61
141 134 71
128 122 63
167 184 28
174 196 0
174 197 0
174 197 0
170 194 0
174 197 0
174 197 0
173 196 0
172 196 0
174 197 0
175 198 0
174 198 0
173 197 0
171 196 0
174 198 0
174 197 0
174 198 0
172 196 0
174 198 0
172 196 0
172 197 0
173 197 0
172 195 0
172 196 0
171 195 0
174 197 0
172 195 0
174 197 0
172 196 0
173 197 0
173 196 0
172 195 0
173 196 0
172 196 0
172 196 0
174 197 0
174 198 0
173 197 0
174 197 0
173 197 0
173 196 0
174 198 0
173 196 0
173 197 0
172 196 0
173 196 0
171 195 0
174 197 0
173 196 0
172 196 0
175 198 0
173 197 0
173 196 0
171 195 0
174 197 0
173 196 0
170 193 0
171 195 0
173 196 0
172 195 0
175 197 0
173 197 0
174 197 0
174 198 0
172 196 0
172 195 0
171 194 0
172 196 0
173 197 0
173 197 0
172 195 0
174 197 0
174 197 0
171 195 0
172 196 0
171 195 0
172 196 0
171 194 0
174 197 0
172 195 0
172 196 0
171 195 0
175 198 0
170 194 0
172 196 0
174 196 0
173 197 0
173 197 0
173 196 0
170 194 0
174 197 0
171 194 0
174 197 0
176 199 0
171 195 0
172 195 0
171 194 0
173 196 0
173 197 0
170 193 0
173 195 0
174 197 0
172 196 0
172 195 0
172 195 0
173 196 0
171 195 0
174 197 0
173 197 0
171 195 0
173 197 0
172 195 0
170 193 0
174 197 0
175 198 0
169 193 0
174 197 0
171 195 0
174 197 0
173 196 0
173 196 0
174 197 0
170 194 0
171 194 0
171 195 0
171 194 0
172 196 0
173 196 0
170 194 18
123 150 129
62 99 174
62 99 177
62 99 176
62 99 178
62 99 178
62 99 177
62 99 178
62 99 179
62 99 179
62 99 180
61 99 180
62 99 177
61 99 180
62 99 180
62 99 180
63 99 178
62 99 181
61 98 180
62 99 181
61 99 181
62 99 180
62 99 180
61 99 181
62 99 180
62 99 181
61 98 180
62 99 181
62 99 181
62 100 181
62 99 181
61 99 181
61 98 181
61 99 181
62 99 181
62 99 181
62 99 181
61 99 181
61 99 181
62 99 181
62 99 181
61 99 181
62 99 181
62 99 181
62 99 181
61 99 181
62 99 181
61 98 181
61 98 181
62 99 181
61 98 181
61 98 181
61 98 181
61 99 181
62 99 181
62 99 181
62 99 181
61 99 181
62 99 181
62 99 181
62 99 181
62 99 181
61 99 181
61 99 181
62 99 181
61 99 181
62 99 181
61 99 181
62 99 181
61 99 181
62 99 181
62 99 181
62 99 181
62 99 181
62 99 180
62 99 181
61 99 179
62 99 181
62 99 180
62 99 180
62 99 180
62 99 180
61 99 181
62 99 180
62 99 179
62 99 181
61 98 178
61 99 179
62 99 180
61 98 176
62 99 181
61 98 178
61 98 177
62 99 180
61 98 179
62 98 174
62 98 178
63 99 179
61 98 177
61 98 174
62 98 174
61 97 177
62 98 172
62 98 175
60 96 171
60 97 172
61 97 171
105 132 140
165 188 56
171 193 0
172 195 0
169 192 0
171 195 0
172 194 0
170 193 0
168 188 16
128 124 56
128 124 64
135 130 67
125 120 65
132 127 66
128 123 63
135 130 71
138 133 74
137 131 78
130 126 72
134 131 80
137 133 84
137 134 82
142 138 84
129 126 78
133 130 83
142 139 86
139 135 81
139 136 86
138 135 86
140 137 89
143 140 91
140 138 90
128 127 83
142 141 92
142 140 92
140 139 94
135 134 91
142 141 93
133 132 89
146 144 95
141 139 93
140 138 93
138 137 92
150 148 101
139 138 94
140 138 96
151 149 98
146 144 98
157 154 102
148 146 99
144 144 99
153 150 102
157 154 104
155 153 104
152 151 103
150 149 101
160 156 103
159 157 105
155 153 103
162 158 105
147 146 100
162 160 108
164 160 107
159 157 107
161 158 105
167 163 108
162 158 105
165 162 107
165 163 109
162 160 107
162 160 107
166 163 109
167 164 109
173 169 111
167 164 109
170 167 111
164 161 106
166 163 109
173 169 110
170 166 109
164 162 108
171 167 110
171 168 111
165 162 107
168 164 109
173 169 112
174 170 111
170 166 108
174 170 111
173 169 111
176 171 112
175 172 113
174 169 110
171 167 109
174 170 110
171 168 110
176 171 112
175 171 110
169 166 107
170 167 109
176 171 111
171 167 109
173 169 111
174 170 110
173 168 109
171 168 110
173 168 108
170 166 105
172 168 109
170 166 108
172 168 108
173 168 108
174 169 109
170 165 106
173 168 109
174 169 110
173 169 108
171 167 108
168 164 104
170 166 108
169 164 104
165 160 103
175 169 108
173 167 106
168 163 105
171 165 103
166 162 99
174 169 109
166 162 102
168 164 104
166 160 100
165 159 97
171 165 101
166 161 101
171 165 105
163 158 97
164 157 97
168 162 101
169 164 97
160 154 95
159 154 94
156 151 93
154 148 91
155 149 89
152 146 88
166 160 97
159 153 95
159 152 93
163 156 90
159 153 90
156 150 85
159 153 90
152 147 87
151 144 84
151 145 84
151 145 80
152 145 80
142 137 75
146 139 81
138 132 72
137 133 74
135 129 70
128 124 64
131 125 67
154 167 39
173 196 0
174 197 0
174 197 0
172 196 0
175 198 0
172 196 0
173 196 0
170 194 0
174 198 0
172 196 0
174 196 0
174 198 0
173 197 0
171 194 0
174 197 0
174 197 0
170 194 0
173 196 0
175 198 0
172 196 0
174 197 0
173 196 0
174 197 0
174 197 0
174 198 0
173 196 0
173 196 0
174 198 0
173 196 0
175 197 0
174 197 0
172 195 0
173 197 0
174 197 0
172 195 0
172 195 0
175 197 0
172 195 0
172 195 0
172 196 0
175 198 0
175 197 0
173 197 0
173 197 0
174 197 0
174 197 0
172 195 0
171 196 0
174 197 0
174 198 0
175 198 0
173 196 0
175 198 0
174 197 0
173 196 0
173 196 0
172 195 0
174 197 0
174 197 0
171 194 0
169 193 0
174 197 0
171 194 0
175 198 0
170 193 0
173 197 0
172 196 0
172 194 0
174 197 0
174 197 0
174 198 0
174 197 0
175 198 0
172 195 0
172 196 0
173 196 0
171 195 0
173 196 0
175 198 0
173 197 0
172 195 0
173 195 0
172 195 0
175 198 0
171 194 0
171 195 0
173 196 0
171 195 0
173 196 0
175 198 0
168 193 0
173 196 0
175 198 0
172 196 0
171 195 0
171 194 0
173 196 0
173 196 0
171 195 0
173 196 0
174 196 0
171 195 0
174 197 0
173 196 0
175 197 0
171 195 0
171 194 0
174 197 0
172 196 0
172 195 0
173 196 0
173 196 0
172 195 0
173 196 0
172 196 0
170 194 0
169 192 0
170 193 0
167 192 0
173 196 0
172 196 0
175 197 0
170 193 0
173 196 0
171 195 0
172 196 0
163 187 47
90 120 158
62 99 175
62 99 178
62 99 175
62 99 176
61 99 179
62 99 177
62 99 178
62 99 179
62 99 180
62 99 178
62 99 180
62 99 181
62 99 180
62 99 179
61 99 181
63 100 181
61 99 180
62 99 181
61 99 179
62 99 180
62 99 181
62 99 180
62 99 180
61 99 181
62 99 181
62 99 181
61 99 181
61 98 180
62 99 181
62 99 181
61 98 180
62 99 181
62 99 181
61 99 181
61 99 181
62 99 181
62 99 181
61 99 181
62 99 181
61 99 181
62 99 181
62 99 181
61 98 181
62 99 181
62 99 181
61 99 180
61 98 181
61 99 181
61 99 181
62 99 181
62 99 181
61 99 181
62 99 181
61 98 181
62 99 181
61 98 181
61 99 181
61 99 181
61 99 181
61 99 181
61 98 181
62 99 181
62 99 181
61 98 181
62 99 181
62 99 181
62 99 181
61 99 181
62 99 181
62 99 181
62 99 181
62 99 181
62 99 181
62 99 181
61 99 181
61 98 180
62 99 180
61 99 181
61 99 181
61 99 181
62 99 180
62 99 180
62 99 180
61 99 181
61 98 180
62 99 179
61 98 180
61 98 180
62 99 179
62 99 180
62 99 179
62 99 180
62 99 180
62 99 181
62 99 177
61 98 177
61 98 177
61 98 177
61 98 179
61 97 174
62 99 178
61 96 172
61 98 176
62 98 176
61 96 166
61 97 174
62 98 174
61 97 171
65 100 171
135 158 116
173 194 0
172 196 0
171 193 0
172 195 0
169 191 0
160 178 25
121 116 57
130 124 60
140 134 72
135 129 66
130 126 64
123 119 65
144 138 78
138 134 77
138 133 82
123 120 73
145 139 83
144 139 86
120 118 71
128 124 79
135 132 77
139 136 87
132 129 82
135 133 84
131 130 84
137 135 87
134 131 84
136 134 88
135 133 87
140 137 90
136 135 89
138 136 90
139 138 93
149 147 96
135 133 88
133 131 89
135 134 91
140 137 92
139 137 94
147 145 97
150 148 100
142 141 96
153 150 102
141 139 94
151 149 101
149 147 98
151 148 100
152 151 103
147 145 99
152 150 102
150 148 101
152 150 101
150 148 101
162 159 106
163 160 105
154 153 104
160 158 107
145 145 99
155 152 103
156 154 104
155 153 102
155 153 103
156 154 103
164 161 108
166 163 109
166 163 108
167 165 110
170 166 110
166 163 109
167 164 108
167 164 110
167 164 109
169 165 109
170 166 109
169 165 110
167 164 108
171 168 111
170 167 108
169 167 110
168 165 109
171 168 111
169 166 110
171 167 110
172 169 111
170 166 107
173 169 109
171 168 111
170 166 108
173 169 111
172 168 110
173 168 108
174 170 111
170 167 109
176 171 112
174 169 110
173 169 110
170 166 108
171 167 107
174 169 110
172 168 110
174 169 108
173 169 110
175 171 110
174 168 107
175 170 110
169 165 108
175 170 109
173 168 104
174 169 108
175 170 108
170 166 106
174 170 110
171 166 108
172 167 106
172 167 109
169 165 107
168 165 106
167 163 101
165 161 103
167 162 105
165 161 101
165 160 103
173 168 108
170 164 104
167 163 103
164 160 101
166 161 101
166 162 101
161 155 98
164 158 99
159 155 93
165 159 98
161 155 95
162 157 96
162 158 99
168 162 97
164 160 98
157 151 95
160 154 93
157 152 92
159 154 95
167 160 97
162 156 97
158 153 89
155 150 87
153 147 89
153 148 85
161 156 93
151 145 84
158 151 88
151 146 84
156 150 87
146 141 79
147 141 85
140 135 75
152 145 80
143 137 75
145 138 73
149 143 78
133 128 64
128 123 62
139 145 49
173 197 0
171 194 0
173 196 0
173 196 0
173 197 0
174 196 0
173 196 0
173 196 0
171 195 0
172 196 0
175 198 0
171 195 0
173 196 0
173 197 0
175 198 0
172 195 0
174 197 0
174 197 0
175 198 0
172 195 0
172 196 0
172 194 0
175 198 0
172 195 0
173 197 0
175 198 0
174 198 0
174 197 0
174 197 0
173 197 0
174 197 0
175 198 0
174 198 0
173 196 0
174 197 0
174 198 0
171 196 0
175 198 0
174 197 0
173 197 0
174 198 0
173 195 0
170 193 0
173 197 0
173 196 0
171 195 0
173 196 0
175 197 0
172 196 0
172 196 0
174 197 0
171 196 0
174 197 0
172 196 0
172 197 0
172 195 0
173 197 0
174 198 0
172 195 0
174 197 0
173 197 0
174 197 0
172 195 0
172 195 0
174 197 0
171 194 0
174 197 0
173 196 0
173 196 0
172 196 0
171 196 0
174 197 0
170 194 0
172 195 0
173 196 0
174 197 0
173 196 0
173 196 0
171 194 0
175 198 0
175 198 0
171 195 0
174 197 0
173 197 0
174 197 0
172 195 0
173 196 0
173 197 0
171 195 0
173 196 0
172 195 0
175 197 0
172 196 0
173 197 0
174 197 0
171 194 0
172 196 0
171 195 0
173 196 0
176 198 0
173 196 0
170 193 0
174 197 0
171 195 0
171 195 0
172 195 0
173 196 0
173 196 0
173 196 0
171 194 0
175 198 0
172 196 0
173 196 0
171 195 0
173 195 0
170 194 0
169 192 0
173 196 0
173 196 0
173 197 0
173 196 0
171 195 0
171 195 0
174 196 0
171 193 0
153 176 88
77 110 163
61 98 173
62 99 173
62 99 176
63 100 180
62 99 178
61 98 175
62 99 179
62 99 178
62 99 179
63 100 179
62 99 181
62 99 179
62 99 181
62 99 178
62 99 179
61 99 181
62 99 180
62 99 178
61 99 181
62 99 179
62 99 179
61 98 178
61 99 181
62 99 181
62 99 180
61 99 181
62 99 181
62 99 181
61 98 181
62 99 181
62 99 181
62 99 181
62 99 181
61 99 181
62 99 181
61 98 180
61 98 181
61 98 181
62 99 181
62 99 181
62 99 181
62 99 181
61 99 181
62 99 181
62 99 181
62 99 181
62 99 181
61 99 181
61 98 181
62 99 181
61 99 181
61 98 181
62 99 181
62 99 181
61 99 181
62 99 181
61 98 181
62 99 181
62 99 181
61 99 181
62 99 181
61 98 181
61 99 181
62 99 180
62 99 181
61 99 180
62 99 181
61 99 181
62 99 181
61 98 181
62 99 181
62 99 181
62 99 181
62 99 181
61 99 181
61 99 181
61 99 181
61 99 181
62 99 181
62 99 180
62 99 181
62 99 181
62 99 180
62 99 181
61 98 180
62 99 180
61 98 179
61 98 177
62 99 181
61 98 179
62 99 180
62 99 177
62 99 179
62 99 177
62 99 180
62 99 176
62 98 176
61 98 178
62 99 178
61 98 179
61 98 176
62 98 176
61 98 176
61 98 175
62 98 176
62 99 176
60 96 172
61 98 176
61 96 172
61 97 175
60 96 170
114 140 134
170 194 18
169 192 0
167 190 0
172 195 0
136 145 41
126 121 62
123 118 65
135 129 69
135 130 72
147 140 79
134 129 70
142 136 77
143 138 77
138 134 80
139 134 79
134 130 79
130 128 72
140 136 83
137 133 85
144 140 85
128 125 80
128 126 80
130 128 84
138 136 89
128 126 79
137 135 91
140 137 89
146 142 91
137 136 86
136 134 88
132 130 85
135 133 89
137 136 93
141 139 93
136 135 90
143 142 97
141 139 92
148 145 98
144 143 96
144 142 97
145 143 97
143 142 97
148 146 100
147 145 98
155 153 104
154 152 103
150 148 102
153 152 103
152 150 100
151 149 100
150 148 99
152 150 102
155 152 101
159 157 104
162 159 105
159 157 106
150 149 102
160 158 106
159 156 105
157 155 105
159 156 104
166 162 106
160 158 107
166 163 109
166 163 109
169 165 109
164 161 107
160 157 104
161 158 106
162 160 107
170 167 108
167 164 110
168 165 108
164 162 109
166 163 107
170 167 110
168 164 108
171 167 111
169 165 110
171 167 111
169 166 111
174 170 112
174 170 113
172 169 111
168 165 110
173 169 110
171 167 109
174 170 112
174 170 112
173 169 110
177 172 113
174 169 109
174 169 109
175 171 111
175 171 111
170 167 111
173 169 110
175 170 110
173 167 108
173 169 108
173 168 107
173 169 108
172 168 110
177 172 110
173 169 109
174 168 108
174 169 110
171 167 107
171 167 106
171 167 109
166 162 106
172 167 106
176 170 109
172 167 105
173 168 107
172 167 108
171 167 106
169 165 104
169 165 105
170 165 105
175 169 106
172 166 105
168 162 104
170 165 103
169 163 100
168 164 105
166 161 101
162 158 98
168 162 102
165 160 99
161 156 98
169 163 102
167 162 101
164 160 100
162 157 95
163 158 97
162 156 93
163 158 99
158 152 92
168 161 99
159 153 93
154 149 89
163 157 92
160 154 92
154 149 88
164 158 94
159 153 87
147 141 84
151 145 82
151 146 82
154 148 87
148 141 80
142 137 71
144 138 75
151 144 78
151 144 76
142 136 71
143 138 75
146 139 75
136 129 71
135 131 60
172 195 0
173 196 0
173 196 0
174 198 0
174 197 0
172 195 0
174 196 0
172 195 0
173 196 0
174 197 0
174 197 0
173 197 0
174 197 0
173 197 0
173 196 0
174 198 0
172 196 0
175 198 0
173 197 0
173 196 0
173 197 0
174 198 0
172 195 0
175 198 0
173 197 0
174 197 0
173 197 0
172 196 0
173 197 0
175 198 0
175 198 0
173 197 0
173 197 0
174 197 0
175 198 0
175 198 0
174 197 0
175 198 0
173 196 0
174 197 0
173 196 0
172 196 0
173 196 0
174 196 0
173 196 0
173 196 0
173 197 0
173 196 0
173 196 0
173 196 0
173 197 0
173 197 0
173 196 0
175 198 0
173 196 0
174 197 0
172 196 0
174 197 0
171 195 0
171 194 0
174 197 0
174 197 0
173 196 0
172 196 0
174 197 0
173 195 0
172 196 0
176 198 0
173 197 0
173 197 0
173 197 0
175 198 0
174 196 0
174 197 0
174 196 0
173 197 0
172 196 0
171 194 0
174 197 0
173 197 0
171 195 0
172 195 0
172 195 0
171 194 0
171 194 0
172 196 0
171 194 0
172 196 0
172 196 0
173 197 0
176 198 0
173 197 0
173 197 0
174 197 0
175 197 0
173 196 0
173 195 0
173 197 0
171 195 0
173 197 0
175 197 0
173 196 0
173 197 0
173 196 0
170 194 0
174 196 0
172 196 0
173 195 0
175 198 0
174 196 0
171 194 0
172 195 0
171 194 0
173 196 0
171 195 0
173 196 0
174 198 0
174 197 0
171 194 0
172 195 0
173 197 0
175 198 0
175 197 0
172 196 0
141 166 102
66 101 169
62 99 178
62 99 176
62 99 176
62 99 175
62 99 181
63 100 181
62 99 177
62 99 178
62 99 179
62 99 181
62 99 179
61 99 179
62 99 179
62 99 181
62 99 180
62 99 180
62 99 181
62 99 181
62 99 180
62 99 181
62 99 181
61 99 181
62 99 180
62 99 180
61 99 181
62 99 181
62 99 180
62 99 180
62 99 180
62 99 181
62 99 181
62 99 181
62 99 181
62 99 181
62 99 181
62 99 181
61 99 181
62 99 181
61 99 181
62 99 181
61 98 181
62 99 181
62 99 180
61 99 181
62 99 181
61 99 181
61 98 181
61 99 181
62 99 181
61 99 181
62 99 181
61 99 181
62 99 181
62 99 181
61 99 181
61 99 181
61 98 181
61 98 181
62 99 180
62 99 181
61 99 181
61 99 181
62 99 181
62 99 181
61 99 181
62 99 181
62 99 181
61 99 180
62 99 181
61 99 181
62 99 181
61 98 181
61 99 181
61 98 181
61 99 181
62 99 181
61 99 181
61 99 181
61 98 180
61 99 180
61 99 180
61 99 181
62 99 181
61 98 179
61 99 181
62 99 181
62 99 180
61 98 179
62 99 181
61 98 179
62 99 180
62 98 178
62 99 179
62 99 177
63 100 180
62 99 180
62 99 179
61 98 180
61 99 179
61 98 176
62 98 177
62 99 178
61 98 173
61 98 176
62 99 177
62 98 174
62 98 174
61 96 174
62 98 177
61 98 175
62 98 173
61 97 172
61 96 170
99 127 144
166 189 37
171 194 0
172 195 0
134 134 52
125 120 58
137 132 66
129 124 63
135 131 64
136 132 73
134 130 74
136 130 75
137 133 77
148 143 80
136 131 77
147 141 86
135 132 79
131 127 78
126 123 76
140 136 85
135 132 81
136 133 82
129 128 84
122 121 77
133 132 84
128 126 81
141 139 91
140 138 91
138 136 89
149 145 96
138 137 92
131 130 86
133 132 87
138 137 92
139 137 91
136 135 92
140 139 96
153 150 101
135 135 93
141 140 93
151 149 100
144 143 97
140 140 96
135 135 94
147 145 97
150 148 100
149 148 101
159 157 105
158 155 103
145 143 97
160 157 104
149 148 100
160 158 105
154 151 100
155 152 102
157 155 105
158 155 103
159 157 104
160 157 105
162 159 106
159 157 106
153 152 103
161 158 107
164 161 107
160 157 106
163 160 105
164 161 105
162 161 107
165 162 108
167 165 111
162 159 107
165 161 107
162 159 105
169 165 109
167 164 105
169 166 110
169 166 109
170 166 110
168 165 106
169 165 110
171 167 110
172 168 110
171 168 110
174 170 110
171 167 110
175 171 109
176 171 113
168 166 110
174 169 110
174 169 110
173 169 108
175 171 108
175 170 110
174 170 112
173 170 111
176 171 110
173 168 108
170 167 109
173 169 110
174 170 111
173 168 109
175 170 110
173 169 111
175 170 110
170 165 106
174 169 109
171 167 106
174 169 106
171 167 108
171 166 108
172 167 106
175 170 108
173 168 108
170 166 106
167 162 103
170 165 108
169 164 104
167 162 102
173 167 106
172 167 106
168 163 103
169 164 103
171 166 104
168 163 106
170 165 104
164 160 98
172 167 105
164 158 99
163 158 97
173 168 105
166 161 99
172 166 102
164 158 95
160 155 96
164 158 98
165 160 97
158 154 95
160 154 94
163 156 95
157 152 93
164 158 96
161 155 95
159 153 91
147 142 84
160 154 92
158 152 87
158 153 87
150 145 83
162 155 91
156 150 90
149 143 83
157 151 83
149 143 80
150 142 79
154 147 80
145 138 80
145 139 80
137 132 74
135 130 67
139 134 62
130 125 59
162 180 19
173 196 0
171 194 0
172 195 0
173 194 0
173 197 0
173 197 0
174 196 0
172 195 0
175 198 0
172 196 0
174 198 0
173 196 0
172 196 0
174 197 0
175 198 0
174 196 0
173 196 0
173 197 0
175 198 0
173 197 0
172 196 0
173 197 0
173 197 0
171 194 0
174 197 0
175 198 0
173 196 0
175 198 0
173 196 0
174 197 0
173 197 0
175 198 0
175 198 0
172 195 0
173 196 0
173 196 0
172 195 0
175 198 0
172 196 0
171 195 0
171 194 0
174 197 0
176 199 0
173 197 0
173 196 0
171 195 0
174 197 0
173 196 0
171 195 0
173 197 0
175 197 0
173 196 0
171 195 0
174 198 0
172 195 0
173 196 0
172 195 0
170 194 0
174 197 0
174 197 0
174 197 0
175 198 0
173 196 0
173 196 0
175 198 0
172 196 0
172 196 0
172 197 0
173 196 0
175 197 0
173 197 0
172 195 0
173 197 0
171 194 0
172 195 0
172 196 0
172 196 0
173 196 0
171 196 0
172 196 0
172 195 0
172 196 0
174 197 0
173 196 0
174 197 0
175 197 0
170 194 0
172 195 0
172 194 0
172 196 0
173 196 0
174 198 0
174 198 0
172 196 0
172 196 0
172 196 0
173 197 0
173 197 0
174 198 0
173 197 0
172 195 0
171 195 0
174 197 0
172 196 0
175 198 0
171 194 0
172 196 0
172 196 0
172 195 0
173 196 0
171 193 0
172 195 0
174 197 0
170 194 0
173 197 0
172 195 0
171 194 0
174 196 0
173 196 0
172 196 0
171 194 0
169 193 25
129 154 121
62 99 178
62 99 174
62 99 174
62 99 174
62 99 177
62 99 173
62 99 178
62 99 176
61 98 176
62 99 180
62 99 177
62 99 179
62 99 181
61 98 176
62 99 179
62 99 178
62 99 181
62 99 181
62 99 180
62 99 181
61 99 181
61 99 181
62 99 181
62 99 181
62 99 179
62 99 180
62 99 180
62 99 180
62 99 181
62 99 181
62 99 181
61 98 181
61 99 181
62 99 181
61 99 181
61 99 181
62 99 181
62 99 180
61 99 181
61 99 180
62 99 181
62 99 181
61 99 181
61 98 181
61 99 181
62 99 181
62 99 181
62 99 181
62 99 181
62 99 181
62 99 181
62 99 181
62 99 181
62 99 181
62 99 181
62 99 181
61 98 181
62 99 181
61 99 181
62 99 181
61 98 181
61 99 181
61 98 181
61 99 181
61 99 181
61 98 181
62 99 181
62 99 181
62 99 181
62 99 181
62 99 181
61 98 181
61 98 181
61 98 181
62 99 181
62 99 181
62 99 181
61 98 181
61 99 179
62 99 179
62 99 180
62 99 181
62 99 181
62 99 181
62 99 181
62 99 181
62 99 181
62 99 180
62 99 179
61 98 180
63 100 181
61 99 181
61 99 179
62 99 178
61 98 175
62 98 175
62 99 179
62 99 180
61 98 179
62 99 176
62 98 176
62 99 179
62 99 181
61 98 177
62 99 175
62 98 175
62 98 176
61 98 175
61 98 175
62 98 177
62 99 177
61 97 172
60 96 171
61 97 171
61 97 173
61 96 171
94 123 156
154 177 70
165 185 19
128 123 60
138 132 65
133 128 63
147 141 73
122 118 63
134 129 73
133 128 70
142 136 73
129 126 70
126 122 76
130 128 75
135 131 74
136 133 81
132 129 80
132 128 82
122 121 74
132 130 82
136 134 89
129 128 82
133 130 80
143 140 89
140 137 90
131 129 87
131 130 84
130 128 87
142 140 93
138 137 93
131 130 88
122 122 85
140 139 93
127 128 87
140 138 94
138 137 95
146 145 95
139 138 95
142 141 96
147 144 97
144 142 96
146 144 98
140 140 95
148 146 99
139 137 93
144 143 98
151 149 100
146 145 99
136 136 95
157 154 103
154 152 103
150 149 100
153 151 101
158 155 104
153 151 102
157 156 106
152 150 101
159 156 104
157 155 105
161 160 107
156 153 102
163 161 107
168 164 108
167 164 109
165 161 107
164 160 106
165 161 108
170 166 108
169 165 109
167 163 108
162 159 105
162 160 107
169 166 109
167 164 105
169 165 109
172 168 110
171 168 112
166 162 106
171 166 108
169 166 110
170 165 108
170 167 109
174 171 113
172 168 110
175 171 111
173 169 112
177 171 112
176 171 110
172 168 110
173 168 109
171 167 108
177 171 111
173 169 108
175 170 111
175 170 108
174 170 108
174 170 109
177 172 112
175 170 110
173 169 108
174 169 108
175 171 111
172 168 109
173 167 106
171 166 108
172 167 106
173 168 109
171 166 104
173 168 108
168 163 103
173 167 106
173 168 109
169 164 103
174 168 106
170 166 105
173 167 104
170 165 104
166 161 100
169 164 103
166 161 103
167 162 101
171 164 101
172 166 105
168 163 102
166 160 101
172 166 100
166 160 99
170 165 101
163 157 97
164 160 101
172 166 103
169 164 103
162 156 98
168 162 98
170 163 101
163 157 97
157 151 93
164 159 97
160 155 94
157 152 91
158 152 87
156 150 89
164 158 95
161 155 90
159 152 90
158 152 88
157 151 89
155 150 89
154 148 84
162 155 92
155 149 89
149 143 83
142 136 75
151 146 76
145 140 72
145 139 74
134 129 62
133 127 63
135 130 70
136 130 73
155 169 32
173 196 0
174 197 0
174 197 0
173 196 0
173 196 0
173 196 0
171 194 0
172 196 0
173 197 0
173 197 0
172 196 0
174 197 0
172 195 0
176 198 0
173 196 0
173 197 0
173 197 0
172 196 0
173 197 0
174 197 0
174 197 0
175 198 0
173 196 0
172 196 0
174 197 0
174 198 0
174 196 0
171 193 0
172 196 0
173 196 0
173 197 0
172 196 0
173 197 0
173 197 0
173 196 0
173 197 0
173 195 0
173 196 0
174 198 0
174 198 0
175 198 0
174 198 0
172 196 0
172 195 0
173 196 0
173 196 0
175 198 0
173 196 0
174 197 0
173 196 0
173 197 0
172 196 0
172 196 0
172 196 0
174 197 0
174 198 0
173 197 0
175 198 0
171 195 0
171 194 0
172 195 0
170 193 0
172 196 0
173 196 0
172 196 0
174 198 0
171 195 0
172 195 0
172 195 0
172 195 0
173 197 0
172 195 0
174 197 0
173 196 0
176 198 0
171 195 0
173 197 0
172 196 0
173 196 0
173 197 0
173 197 0
171 195 0
173 196 0
169 192 0
172 196 0
171 195 0
174 197 0
172 196 0
173 196 0
173 196 0
172 196 0
173 197 0
172 195 0
171 195 0
172 196 0
172 195 0
172 195 0
172 195 0
171 195 0
172 195 0
173 197 0
169 193 0
171 194 0
174 197 0
170 194 0
172 196 0
174 197 0
172 195 0
173 196 0
175 197 0
173 196 0
171 194 0
173 196 0
171 195 0
173 197 0
172 195 0
172 194 0
171 195 0
171 195 0
172 196 0
168 191 36
103 131 149
62 99 175
62 99 173
62 99 177
62 98 172
62 99 178
63 100 179
61 99 177
62 99 179
62 99 177
62 99 177
62 99 180
63 99 179
61 98 177
62 99 178
62 99 181
62 99 177
62 99 179
62 99 177
62 99 180
62 99 181
62 99 180
62 99 181
61 99 181
62 99 181
62 99 180
62 99 179
62 99 181
61 98 180
62 99 181
62 99 181
62 99 180
62 99 181
61 98 180
62 99 181
62 99 181
62 99 181
62 99 181
62 99 181
62 99 181
62 99 181
62 99 180
61 99 181
61 98 181
62 99 181
63 100 180
61 99 181
62 99 181
61 99 181
62 99 181
61 99 181
61 99 181
62 99 181
61 99 180
61 99 180
61 99 181
61 99 181
62 99 181
62 99 181
61 99 181
61 98 179
61 98 181
61 99 181
62 99 181
62 99 181
61 99 181
61 99 181
61 98 180
61 99 181
61 99 180
62 99 181
61 99 180
62 99 180
62 99 180
61 99 181
61 99 181
62 99 181
62 99 179
61 99 180
61 99 180
62 99 180
62 99 181
61 99 180
62 99 181
62 99 181
62 99 180
62 99 180
61 99 179
62 99 180
62 99 180
62 99 180
62 99 179
62 99 180
62 99 181
62 99 180
62 99 180
62 99 180
61 99 179
61 98 175
62 99 181
62 99 176
62 98 176
62 98 176
61 98 177
61 98 178
62 99 177
61 98 175
61 97 174
62 98 174
61 98 176
62 98 176
62 98 174
61 98 176
62 98 173
61 97 174
61 97 171
60 97 174
62 99 177
61 97 171
80 111 167
136 152 76
123 118 52
132 127 61
131 127 64
126 122 65
119 117 58
131 126 67
128 124 70
128 125 69
129 125 72
142 137 77
135 131 76
138 133 79
127 125 77
130 129 81
134 132 86
136 132 82
136 134 87
121 121 77
130 127 84
128 126 82
131 129 86
123 121 80
121 120 79
127 124 83
132 130 85
121 122 83
129 127 86
119 119 82
138 136 92
139 138 93
136 134 90
135 134 91
131 132 92
135 134 92
143 141 95
138 137 95
132 133 93
145 143 98
146 144 96
146 145 99
138 137 95
144 143 98
145 143 98
150 149 102
155 153 104
143 143 99
150 149 101
150 148 101
148 147 101
150 148 101
148 147 99
149 147 100
153 151 102
149 149 103
156 155 104
159 157 106
156 154 102
161 159 105
163 160 106
165 162 107
163 160 105
157 156 106
165 162 108
162 159 105
168 164 108
166 162 106
169 165 106
167 164 109
172 168 110
158 155 104
169 165 108
175 170 112
172 168 110
174 169 110
175 170 111
175 170 111
173 168 109
169 165 105
175 170 108
172 168 109
172 168 109
172 167 109
175 170 110
174 169 108
174 170 109
174 169 110
172 167 108
176 171 109
172 168 111
174 171 112
173 168 108
175 170 110
175 170 109
173 169 109
179 173 110
172 168 108
174 170 110
176 171 110
173 168 108
175 170 108
171 166 106
175 170 108
170 165 107
174 169 111
175 170 108
172 168 108
172 168 108
174 169 109
169 164 104
174 169 108
172 167 108
173 168 106
167 161 103
168 164 100
169 164 102
173 167 102
172 166 103
169 163 103
171 166 103
167 162 100
171 165 101
165 160 93
169 162 101
164 159 99
170 164 102
162 157 95
170 164 105
175 168 104
167 161 97
165 159 93
159 154 88
166 160 97
166 161 95
164 159 96
159 154 95
164 157 95
161 154 90
164 158 97
162 156 87
156 148 87
153 148 89
164 157 94
153 147 84
159 153 91
154 148 84
145 139 81
155 149 84
160 153 89
145 139 81
142 137 71
144 138 72
139 133 73
139 134 71
148 141 73
145 139 73
126 121 56
124 119 62
153 161 52
172 195 0
173 196 0
174 197 0
173 196 0
174 197 0
174 197 0
171 193 0
176 198 0
172 196 0
175 197 0
172 196 0
172 196 0
174 198 0
173 196 0
172 196 0
172 195 0
172 196 0
173 196 0
175 198 0
172 196 0
175 198 0
174 198 0
174 197 0
174 198 0
174 197 0
174 198 0
174 197 0
172 196 0
172 195 0
171 195 0
172 196 0
171 195 0
173 196 0
173 197 0
173 196 0
174 197 0
173 197 0
172 196 0
173 196 0
171 195 0
174 196 0
173 196 0
172 196 0
173 196 0
174 198 0
174 197 0
172 196 0
172 195 0
172 195 0
173 196 0
173 197 0
172 195 0
173 197 0
174 196 0
171 194 0
172 196 0
173 196 0
173 197 0
172 195 0
174 197 0
171 195 0
175 198 0
176 198 0
172 195 0
174 197 0
170 194 0
172 196 0
171 195 0
176 198 0
174 197 0
172 196 0
173 197 0
171 194 0
175 198 0
173 196 0
173 196 0
170 193 0
173 196 0
171 194 0
167 191 0
173 196 0
172 195 0
173 197 0
172 196 0
173 197 0
170 195 0
173 196 0
174 197 0
172 195 0
172 196 0
173 196 0
172 195 0
172 195 0
173 197 0
177 199 0
170 194 0
173 196 0
172 196 0
171 194 0
174 197 0
173 196 0
172 197 0
172 196 0
172 195 0
174 196 0
171 195 0
172 195 0
172 195 0
173 196 0
171 195 0
174 197 0
174 197 0
171 194 0
170 193 0
173 195 0
172 195 0
172 196 0
172 196 0
172 195 0
172 195 36
108 136 149
62 99 174
62 99 177
62 99 176
62 99 174
62 99 178
62 99 180
61 98 175
62 99 176
63 100 177
61 98 177
62 99 179
62 99 177
62 99 179
62 99 178
62 99 177
62 99 178
63 100 181
62 99 180
62 99 179
62 99 180
62 99 180
62 99 180
62 99 181
62 99 181
62 99 180
62 99 181
62 99 180
62 99 181
62 99 180
62 99 180
62 99 181
61 99 180
62 99 181
61 98 180
61 98 181
61 99 181
61 99 181
62 99 181
61 99 181
62 99 181
62 99 181
62 99 181
62 99 180
61 99 181
62 99 181
62 99 181
61 98 181
62 99 181
62 99 181
62 99 181
62 99 181
61 99 181
62 99 181
61 99 181
62 99 181
61 99 181
62 99 181
62 99 181
62 99 181
62 99 181
62 99 180
62 99 181
62 99 181
62 99 181
61 99 181
62 99 181
61 99 180
61 99 181
61 99 181
61 99 181
62 99 180
62 99 181
62 99 181
61 99 181
62 99 181
62 99 181
61 99 181
62 99 179
62 99 181
61 98 180
61 99 181
61 98 181
62 99 181
61 99 179
62 99 181
62 99 178
61 99 178
62 99 181
62 99 179
61 99 180
62 99 181
62 99 180
62 99 179
62 99 179
62 99 178
62 99 180
62 99 181
62 99 178
62 99 177
62 99 178
62 99 181
62 99 179
61 98 175
62 99 177
61 98 177
62 99 176
61 98 178
61 98 178
62 98 175
61 98 179
62 99 177
61 97 171
62 99 180
62 98 174
61 98 176
62 99 177
61 97 171
62 98 172
60 96 170
60 96 172
60 95 167
94 101 110
129 124 57
138 133 74
125 121 61
138 134 75
128 124 67
137 133 72
127 124 67
136 131 77
126 124 73
126 123 77
130 127 74
136 132 79
128 124 72
127 124 78
134 130 82
126 125 76
125 124 83
129 127 84
131 129 80
123 121 77
135 134 84
129 128 84
129 128 86
132 131 87
129 127 86
136 134 90
129 130 89
136 135 91
123 123 85
142 140 94
135 133 88
133 132 91
135 135 92
139 138 94
147 145 98
135 136 95
147 145 98
146 145 98
147 146 100
147 145 99
148 146 100
147 147 102
149 146 99
147 145 99
150 148 97
151 149 100
147 145 97
146 144 98
154 152 104
156 154 103
157 155 103
152 150 101
152 150 102
156 155 103
161 158 106
158 156 104
164 160 107
162 159 105
160 158 105
163 160 107
160 157 105
166 164 110
161 159 106
168 165 109
163 160 106
168 163 106
166 162 109
164 161 107
168 164 107
173 168 108
172 167 110
170 167 108
170 167 109
172 168 109
171 167 109
172 168 109
177 171 110
170 167 110
170 166 108
171 167 108
171 167 106
168 165 107
171 167 106
176 171 110
174 169 110
174 169 108
173 169 109
175 170 110
173 168 108
177 172 113
171 167 106
171 167 105
175 170 109
175 170 110
173 169 107
173 169 108
175 170 111
176 170 110
173 169 104
172 168 108
172 167 108
173 168 109
174 169 106
173 169 108
174 169 109
167 162 102
174 169 105
172 167 106
175 168 107
170 165 106
164 160 100
169 164 104
172 167 108
170 165 103
167 163 101
168 164 101
170 165 102
169 163 103
166 160 97
173 167 105
173 167 106
172 167 106
170 165 101
172 166 99
164 158 100
167 161 99
164 158 99
171 165 99
163 157 95
167 161 97
163 157 97
152 147 90
157 152 90
164 158 93
163 158 92
165 159 96
157 152 91
160 154 92
155 150 87
152 147 84
154 148 84
149 141 81
149 143 87
157 151 88
157 150 86
159 152 88
152 147 85
155 149 82
147 140 82
150 143 80
144 138 78
146 141 78
136 131 68
135 129 72
140 133 75
132 126 58
145 147 52
174 196 0
172 195 0
172 196 0
175 198 0
173 195 0
173 195 0
174 198 0
174 198 0
171 195 0
173 197 0
173 196 0
176 199 0
172 196 0
172 195 0
173 196 0
174 198 0
174 197 0
172 196 0
174 197 0
174 197 0
173 196 0
172 196 0
172 196 0
171 195 0
174 197 0
174 197 0
171 195 0
174 197 0
174 197 0
175 198 0
173 197 0
172 196 0
174 197 0
173 197 0
172 196 0
172 195 0
172 196 0
174 197 0
172 195 0
172 196 0
172 196 0
172 195 0
171 195 0
174 197 0
173 196 0
173 196 0
173 197 0
175 198 0
169 193 0
174 198 0
174 196 0
173 196 0
171 195 0
175 198 0
172 196 0
172 196 0
172 195 0
170 195 0
170 193 0
169 193 0
173 197 0
170 195 0
173 196 0
173 197 0
172 196 0
168 192 0
176 198 0
173 197 0
172 195 0
174 198 0
175 197 0
173 196 0
173 197 0
171 195 0
173 196 0
174 198 0
174 197 0
172 195 0
172 196 0
170 193 0
172 195 0
172 196 0
173 196 0
174 198 0
173 197 0
173 197 0
173 196 0
172 195 0
173 196 0
170 194 0
172 196 0
173 197 0
172 195 0
171 195 0
172 194 0
172 196 0
173 196 0
172 195 0
173 196 0
171 195 0
172 195 0
173 197 0
171 195 0
173 196 0
172 195 0
172 195 0
172 196 0
173 196 0
171 195 0
170 194 0
173 196 0
170 194 0
173 196 0
172 195 0
172 195 0
171 194 0
173 196 0
174 197 0
167 191 36
106 132 142
61 98 169
62 99 175
62 99 180
62 99 174
63 99 177
62 99 176
61 99 178
62 99 181
62 99 177
61 98 174
62 99 177
62 99 180
63 100 180
62 99 178
62 99 177
61 99 179
63 100 180
62 99 178
62 99 181
62 99 179
62 99 180
62 99 180
62 99 179
62 99 181
62 99 181
62 99 179
62 99 181
62 99 180
61 98 180
62 99 181
62 99 181
62 99 180
62 99 180
62 99 181
62 99 181
62 99 181
62 99 180
62 99 181
61 99 181
61 99 181
62 99 179
62 99 181
61 99 181
61 98 179
62 100 181
62 99 180
62 99 181
62 99 181
62 99 181
62 99 181
62 99 181
62 99 181
62 99 181
62 99 181
62 99 181
61 98 181
62 99 181
62 99 181
61 99 181
61 99 181
61 98 181
62 99 181
61 98 181
61 99 181
62 99 179
62 99 180
62 99 181
62 99 181
62 99 181
62 99 179
62 99 181
62 99 181
61 98 180
61 99 181
61 99 180
62 99 181
62 99 180
62 99 181
62 99 180
62 99 180
61 99 180
61 99 180
62 99 180
62 99 181
61 99 180
62 99 180
61 98 178
62 99 181
62 99 179
61 99 180
61 98 178
62 99 181
62 99 181
62 99 178
62 99 180
62 99 178
62 99 180
62 99 179
62 99 180
63 100 180
61 99 180
62 99 179
62 99 177
61 98 180
62 99 181
62 98 178
62 98 178
62 98 177
61 98 173
61 98 178
61 98 176
61 97 174
61 97 174
62 98 175
61 98 172
62 98 176
62 98 174
62 98 176
61 96 172
61 96 170
62 97 171
60 95 167
64 97 167
116 119 101
131 126 67
128 123 60
124 120 58
138 134 73
139 134 78
135 131 79
128 125 71
126 122 70
139 134 80
128 125 73
121 119 73
140 136 86
127 124 80
124 122 76
127 126 83
122 122 80
122 121 80
129 127 81
127 126 85
129 127 85
130 129 89
117 117 79
130 128 85
125 125 85
131 131 87
133 132 90
130 130 89
118 119 81
138 137 93
143 141 95
141 140 96
138 137 95
143 141 95
138 136 93
136 135 93
139 138 95
144 144 98
135 135 93
148 146 99
145 144 99
134 133 92
142 141 98
147 147 100
147 146 99
153 151 102
151 149 101
146 145 99
155 153 103
164 161 106
150 150 101
152 150 101
153 151 101
159 156 102
154 152 101
162 159 108
165 162 107
162 159 104
167 164 109
166 162 108
160 158 104
160 158 104
165 162 108
167 163 107
167 163 104
170 165 106
162 159 105
165 161 105
172 168 111
169 165 108
167 164 106
171 167 109
169 165 107
174 170 112
171 167 110
175 170 111
170 166 107
170 166 107
170 167 108
174 169 107
173 168 107
175 170 110
172 168 107
174 169 108
175 171 111
173 168 107
174 169 109
177 171 109
172 168 108
176 170 108
177 172 111
174 170 108
174 170 109
176 171 109
177 172 111
173 169 108
173 169 110
173 168 106
175 170 110
174 169 108
173 167 108
171 166 105
173 168 109
173 169 108
175 170 109
169 164 105
172 167 104
172 167 104
174 168 108
170 166 106
166 162 99
170 165 104
171 166 105
169 164 101
164 159 98
168 163 104
167 163 103
165 160 97
169 164 104
170 165 103
165 160 101
171 166 103
169 163 100
167 161 101
169 163 101
170 164 101
167 161 101
170 164 99
162 156 94
170 162 100
162 156 93
163 158 95
164 158 95
163 157 92
160 153 87
163 157 93
162 155 92
160 154 90
152 147 90
154 148 89
157 150 87
155 148 83
154 147 86
153 147 85
157 151 86
154 148 81
152 146 80
144 139 71
150 144 80
147 141 74
142 136 71
138 132 73
144 137 75
134 130 67
144 137 74
125 120 59
127 124 58
172 196 0
172 195 0
174 196 0
174 197 0
172 195 0
173 196 0
174 196 0
172 196 0
172 196 0
174 197 0
172 196 0
175 198 0
174 197 0
173 197 0
171 195 0
172 195 0
172 196 0
174 198 0
169 193 0
175 198 0
173 197 0
174 197 0
173 197 0
173 197 0
171 195 0
172 195 0
173 197 0
173 196 0
174 197 0
173 197 0
172 196 0
171 194 0
175 198 0
171 195 0
174 198 0
173 196 0
172 196 0
172 196 0
173 196 0
170 194 0
173 197 0
174 196 0
172 195 0
174 197 0
170 194 0
173 196 0
174 197 0
171 195 0
173 197 0
173 196 0
174 197 0
173 196 0
174 197 0
174 197 0
173 196 0
173 196 0
173 196 0
174 197 0
173 196 0
175 198 0
173 196 0
175 198 0
172 194 0
173 197 0
173 196 0
173 196 0
171 194 0
171 195 0
172 195 0
173 196 0
173 195 0
173 196 0
174 197 0
173 196 0
169 193 0
173 197 0
173 196 0
172 196 0
173 197 0
169 193 0
172 195 0
171 194 0
173 197 0
173 196 0
172 195 0
170 193 0
170 194 0
173 196 0
173 196 0
171 194 0
173 196 0
172 195 0
172 196 0
173 196 0
173 196 0
173 196 0
174 197 0
172 196 0
172 196 0
170 194 0
174 197 0
172 196 0
175 198 0
174 197 0
172 196 0
174 197 0
171 195 0
172 194 0
171 195 0
171 194 0
170 194 0
170 194 0
172 196 0
173 196 0
173 197 0
173 195 0
169 193 0
164 188 60
95 124 155
62 99 176
61 98 171
61 98 174
62 99 179
61 98 173
62 99 180
62 99 176
62 99 176
63 100 178
62 99 178
62 99 178
62 99 181
62 99 178
62 99 178
62 99 180
62 99 179
62 99 178
63 100 179
62 99 178
61 98 179
62 99 181
61 98 179
62 99 179
62 99 179
62 99 179
62 99 180
61 99 180
61 99 177
62 99 180
62 99 180
62 99 180
63 100 181
62 99 181
62 99 180
61 99 181
62 99 180
62 99 180
62 99 181
61 99 181
61 99 181
62 99 181
62 99 181
61 99 181
62 99 181
62 99 181
62 99 181
62 99 181
61 99 181
62 99 180
62 99 181
62 99 180
62 99 181
62 99 181
61 98 181
63 100 181
61 99 180
61 98 181
61 98 180
61 99 181
61 99 181
62 99 181
61 98 181
62 99 180
62 99 181
62 99 181
62 99 181
62 99 181
61 99 181
62 99 180
62 99 181
62 99 181
62 99 181
61 99 180
62 99 180
61 99 181
61 99 181
62 99 180
61 99 181
62 99 180
62 99 181
61 99 180
62 99 181
62 99 181
62 99 180
62 99 179
61 99 181
62 99 179
62 99 181
62 99 180
62 99 179
61 98 178
61 99 179
61 98 179
62 99 180
62 99 180
61 98 176
62 99 178
62 99 179
61 98 179
62 99 179
61 98 180
62 99 177
62 98 177
62 98 178
62 99 179
61 99 180
62 99 179
62 99 177
61 97 175
62 98 177
61 98 175
61 98 176
61 98 177
61 98 174
62 99 175
62 98 177
62 99 177
61 97 172
60 96 171
62 98 176
62 98 175
60 95 169
60 95 169
60 95 167
62 96 165
112 118 123
122 119 65
127 123 63
130 126 71
131 128 69
137 133 71
119 117 69
134 130 81
128 124 77
137 133 81
128 125 79
136 131 82
120 118 76
122 120 77
128 127 76
118 118 76
123 122 81
122 121 79
128 126 82
133 130 86
123 122 83
125 125 84
123 122 83
119 119 80
138 136 92
122 121 84
126 126 87
136 135 92
133 132 89
114 117 85
124 124 86
123 123 86
134 133 92
136 135 92
133 133 91
136 136 93
140 139 95
137 136 94
141 140 96
145 143 97
144 142 97
135 135 95
144 143 98
155 153 104
149 148 100
155 153 103
138 138 96
152 151 102
146 144 97
155 153 102
150 148 99
148 147 101
150 149 101
157 154 102
157 155 104
157 155 103
163 159 104
164 161 107
159 156 103
167 164 108
163 160 106
162 159 107
157 155 104
163 160 105
167 163 105
162 159 105
165 161 106
166 163 107
167 163 107
173 169 110
168 165 108
168 164 107
172 168 110
168 165 108
168 164 106
173 168 109
172 168 109
173 168 108
173 168 109
174 169 110
170 166 107
174 169 109
172 168 108
172 168 107
174 169 108
175 170 110
174 170 110
174 169 107
177 172 112
171 167 107
173 168 109
176 170 109
174 170 109
172 168 108
173 168 106
173 169 108
174 169 107
171 167 104
172 167 107
176 170 106
173 167 104
174 169 109
176 171 108
173 167 106
174 167 102
174 169 105
170 165 107
170 164 104
170 165 106
173 168 108
169 164 99
167 162 101
173 167 105
167 162 101
170 164 103
170 165 102
167 161 99
167 162 100
170 163 102
172 166 101
173 167 104
172 166 103
169 163 101
164 159 94
166 161 95
168 162 98
164 159 94
161 155 94
168 162 97
161 157 94
161 155 92
166 160 93
159 154 93
162 156 92
165 159 95
162 156 95
162 156 93
156 150 87
167 161 95
157 152 90
152 147 85
156 150 87
161 155 88
160 154 86
156 149 87
150 144 78
150 145 75
146 139 76
137 131 68
146 140 75
140 134 68
143 138 75
131 127 62
138 133 68
132 126 67
122 117 59
162 184 16
172 196 0
172 195 0
171 196 0
173 196 0
173 196 0
174 197 0
175 198 0
171 195 0
171 195 0
175 197 0
173 196 0
173 196 0
171 194 0
172 196 0
174 197 0
172 196 0
171 195 0
173 196 0
173 196 0
172 196 0
174 197 0
174 197 0
173 197 0
175 198 0
171 195 0
173 196 0
172 196 0
175 198 0
175 198 0
174 197 0
171 195 0
174 197 0
173 197 0
172 195 0
175 198 0
171 194 0
174 197 0
171 195 0
175 198 0
172 195 0
175 198 0
174 197 0
174 197 0
174 197 0
172 196 0
174 198 0
175 198 0
173 197 0
175 198 0
173 195 0
171 194 0
174 197 0
174 196 0
174 197 0
173 196 0
174 198 0
169 193 0
172 195 0
173 196 0
174 197 0
173 197 0
171 195 0
171 194 0
172 196 0
174 197 0
174 198 0
174 198 0
175 198 0
174 198 0
173 196 0
172 196 0
172 196 0
173 196 0
173 197 0
170 194 0
172 195 0
171 195 0
175 197 0
173 197 0
173 196 0
171 195 0
172 196 0
170 194 0
172 195 0
173 196 0
174 197 0
171 195 0
174 197 0
172 195 0
171 194 0
172 196 0
171 195 0
174 196 0
171 194 0
169 193 0
173 197 0
174 196 0
173 196 0
171 194 0
171 194 0
173 195 0
171 194 0
173 196 0
171 194 0
167 191 0
171 196 0
175 198 0
173 197 0
172 196 0
168 191 0
171 194 0
173 196 0
174 197 0
171 195 0
171 194 0
165 189 44
90 120 160
62 99 172
62 99 176
62 99 176
61 98 174
61 98 174
61 98 176
62 99 176
62 99 179
62 99 176
62 99 179
62 99 177
62 99 176
62 99 177
62 99 179
62 99 177
62 99 178
62 99 180
62 99 179
62 99 179
62 99 180
62 99 181
62 99 180
62 99 180
62 99 179
61 98 177
62 99 180
62 99 180
61 99 179
62 99 179
62 99 181
62 99 181
62 99 179
62 99 180
62 99 181
62 99 180
62 99 181
62 99 181
62 99 181
61 99 180
62 99 181
61 99 181
62 99 180
61 98 181
62 99 181
62 99 181
61 98 180
62 99 181
61 98 181
61 99 180
62 99 181
61 99 181
61 99 181
61 99 181
62 99 181
62 99 181
62 99 181
61 99 181
62 99 181
62 99 180
61 98 180
62 99 181
61 99 180
62 99 180
62 99 181
62 99 181
62 99 181
61 99 180
62 99 178
61 99 180
61 99 180
61 98 180
61 99 181
61 99 181
62 99 181
62 99 181
62 99 181
61 99 179
61 98 180
62 99 181
62 99 181
62 99 181
61 98 179
62 99 181
61 99 180
62 99 180
62 99 181
62 99 176
62 99 181
62 99 180
62 99 180
62 99 180
61 98 178
62 99 181
61 99 179
62 99 180
62 99 180
62 99 180
62 99 178
62 99 178
62 99 180
62 99 180
62 99 181
62 99 177
62 99 179
62 99 179
62 98 178
62 99 177
62 99 180
62 99 178
62 98 175
62 98 175
62 99 177
61 98 174
62 99 174
61 98 175
62 99 173
61 98 176
62 98 175
61 98 175
61 98 173
61 97 168
61 96 170
62 97 168
62 98 175
61 98 175
61 96 170
60 94 161
108 114 115
129 125 65
132 128 72
121 117 70
131 128 70
136 133 75
135 131 79
127 122 73
124 122 76
136 132 80
133 130 82
125 123 79
122 120 75
120 118 77
120 119 77
115 115 75
123 121 77
124 122 81
123 122 84
131 130 85
122 123 83
119 120 80
117 118 82
125 125 87
121 122 84
135 135 93
120 120 82
129 128 88
125 126 89
142 141 96
132 132 90
136 135 93
147 145 98
134 133 92
129 129 89
137 137 94
143 142 97
145 144 98
132 131 90
140 140 98
148 146 99
144 143 97
145 144 97
138 138 93
144 143 99
145 144 99
146 145 98
161 158 106
148 146 98
145 144 99
159 156 105
158 155 102
153 151 101
160 157 105
161 157 104
156 154 104
157 155 105
165 161 108
159 156 104
163 160 107
166 162 107
161 158 105
166 163 108
164 161 105
166 163 107
171 167 108
171 167 110
174 169 110
165 161 103
163 159 104
168 164 107
173 168 109
169 165 106
172 168 110
169 165 107
172 167 107
176 170 109
171 167 107
171 167 108
170 166 107
170 166 108
173 168 108
173 169 105
177 172 109
174 168 106
177 171 110
173 169 109
176 171 109
169 165 106
175 170 108
175 170 109
173 168 106
175 170 108
171 167 104
172 167 104
174 169 107
174 168 108
175 170 109
172 167 106
177 171 109
172 168 106
174 169 106
173 168 107
171 166 106
175 170 106
171 166 103
174 169 108
172 167 104
175 169 108
173 169 108
173 168 106
172 166 101
169 164 101
170 164 101
171 166 106
161 156 95
172 165 103
167 162 102
164 160 97
172 166 100
169 164 99
166 160 98
166 161 97
167 162 95
165 159 96
161 155 92
168 162 95
167 161 97
162 157 93
169 162 98
168 161 95
165 159 95
160 154 92
164 158 93
161 154 90
168 161 98
156 151 91
156 150 87
153 147 78
163 157 89
148 143 76
157 151 85
152 146 84
156 150 80
159 152 85
138 133 72
144 139 76
149 143 76
147 141 78
146 140 73
146 140 75
133 126 66
138 133 67
136 131 67
130 125 57
158 174 28
173 196 0
174 196 0
175 198 0
171 194 0
172 194 0
173 196 0
172 196 0
174 198 0
173 196 0
173 197 0
174 198 0
172 196 0
173 196 0
175 198 0
174 197 0
174 197 0
174 197 0
173 197 0
174 197 0
170 194 0
173 196 0
174 197 0
176 199 0
172 196 0
172 196 0
172 196 0
172 196 0
173 195 0
175 198 0
174 198 0
173 196 0
173 196 0
173 196 0
173 196 0
173 196 0
173 196 0
172 195 0
173 196 0
171 194 0
172 195 0
172 196 0
173 196 0
173 196 0
171 194 0
173 197 0
171 195 0
176 198 0
173 196 0
172 195 0
173 197 0
173 197 0
172 195 0
173 197 0
173 196 0
171 195 0
170 194 0
173 196 0
172 196 0
173 197 0
173 197 0
172 196 0
173 197 0
173 195 0
173 197 0
173 197 0
171 195 0
172 195 0
174 198 0
169 192 0
174 197 0
172 196 0
175 197 0
170 194 0
173 196 0
169 192 0
175 198 0
174 197 0
175 198 0
172 196 0
173 196 0
171 195 0
170 193 0
173 197 0
173 196 0
173 196 0
175 198 0
173 195 0
172 196 0
173 196 0
174 197 0
171 194 0
169 193 0
172 195 0
171 194 0
174 197 0
169 193 0
173 196 0
171 195 0
172 195 0
172 195 0
173 196 0
172 195 0
172 195 0
173 196 0
173 196 0
170 194 0
170 195 0
173 197 0
173 197 0
171 195 0
174 196 0
170 194 0
171 194 0
171 194 0
171 194 40
95 124 154
63 99 173
62 99 177
63 99 179
62 99 175
62 99 174
62 99 179
62 99 175
62 99 175
62 99 170
61 98 175
62 99 179
62 99 177
62 99 180
62 99 178
62 99 175
62 99 177
62 99 175
62 99 178
62 99 178
62 99 177
61 98 179
62 99 181
62 99 178
62 99 180
62 99 180
62 99 179
62 99 180
63 100 180
62 99 179
62 99 181
62 99 181
61 99 180
62 99 180
62 99 181
62 99 181
62 99 181
63 100 181
62 99 181
61 99 181
61 99 180
61 99 181
62 99 181
62 99 181
61 99 181
62 99 181
62 99 180
62 99 181
61 99 181
62 99 180
62 99 181
62 99 179
62 99 179
61 98 180
61 99 181
62 99 181
62 99 181
62 99 181
62 99 180
62 99 181
61 99 181
62 99 181
62 99 181
62 99 181
62 99 179
61 99 181
62 99 181
62 99 181
62 99 181
61 99 181
62 99 181
62 99 179
61 99 181
62 99 180
61 98 181
61 98 181
62 99 181
61 99 181
62 99 181
61 98 180
61 98 179
62 99 180
62 99 181
62 99 181
61 99 181
62 99 179
62 99 178
62 99 180
62 99 180
61 99 178
62 99 178
62 99 181
62 99 180
62 99 179
62 99 178
62 99 175
62 99 180
61 98 176
62 99 179
61 99 181
62 99 179
62 99 180
62 99 177
62 99 178
61 99 179
62 99 178
62 99 178
61 98 177
61 98 176
62 99 176
62 99 177
62 99 179
62 99 179
62 99 177
61 98 177
62 98 174
62 98 176
62 99 177
61 98 177
62 98 175
61 98 176
61 98 175
61 97 173
61 97 174
61 98 175
60 95 169
62 97 172
60 95 167
61 96 167
60 93 159
118 121 107
136 131 75
131 126 73
136 131 74
134 130 75
129 126 69
123 120 69
122 120 76
134 131 78
133 131 83
131 127 76
127 126 83
125 122 82
113 113 72
125 123 82
125 124 81
129 127 85
115 115 79
117 117 80
125 124 82
117 117 80
120 120 82
123 124 85
132 130 86
117 118 82
117 118 82
119 120 85
135 134 91
130 130 91
134 133 93
140 140 96
125 126 87
132 132 91
125 126 89
135 135 93
140 139 96
142 142 97
145 144 98
141 141 97
142 141 97
141 140 96
139 139 94
146 145 97
144 142 95
151 149 100
148 146 99
152 150 99
151 149 101
159 157 107
150 149 100
157 154 104
159 156 104
157 154 104
163 160 107
159 156 102
155 153 103
163 159 105
163 159 102
163 160 103
167 164 107
165 162 108
162 160 105
162 159 103
167 164 108
166 163 105
168 164 106
172 168 108
170 166 107
175 169 109
163 160 104
167 164 107
170 166 107
171 167 107
171 167 108
172 167 109
173 169 110
170 166 105
174 169 109
175 170 109
174 170 108
174 169 109
173 169 109
173 168 109
178 172 111
177 172 112
176 171 109
171 167 107
175 169 106
177 171 109
173 168 108
175 170 109
172 168 107
175 170 106
178 172 110
174 169 109
173 168 107
170 165 104
172 168 106
173 169 108
170 165 103
176 171 108
170 165 102
171 166 103
173 168 104
172 167 103
170 165 101
173 168 104
173 167 105
174 168 104
174 168 107
174 168 103
172 167 105
166 161 97
172 166 106
164 160 99
168 163 98
166 162 101
167 162 100
164 159 93
165 160 96
169 163 99
164 158 99
170 165 99
170 163 101
162 157 94
166 160 98
167 161 97
166 160 97
164 157 94
164 157 95
159 154 90
155 149 91
165 159 95
164 158 95
157 151 86
158 153 90
155 149 89
148 142 85
147 141 80
153 147 84
150 144 84
148 142 80
152 146 80
151 145 79
156 149 84
145 139 78
148 142 80
143 138 72
139 132 73
145 138 75
133 128 68
144 138 72
137 132 74
134 129 65
153 166 36
173 196 0
175 197 0
172 194 0
172 195 0
175 198 0
172 195 0
174 198 0
173 196 0
172 196 0
175 198 0
174 197 0
173 196 0
173 196 0
173 196 0
175 197 0
174 197 0
172 196 0
176 198 0
173 197 0
172 195 0
173 196 0
171 195 0
174 197 0
173 197 0
171 195 0
173 197 0
172 196 0
174 196 0
173 197 0
173 196 0
174 197 0
172 195 0
173 197 0
172 196 0
172 196 0
173 197 0
172 195 0
172 195 0
176 198 0
172 197 0
173 196 0
174 197 0
173 197 0
174 198 0
173 196 0
173 197 0
176 199 0
173 197 0
173 197 0
175 198 0
173 197 0
172 195 0
172 196 0
173 197 0
173 196 0
174 197 0
173 196 0
172 195 0
172 195 0
170 193 0
173 197 0
171 194 0
172 195 0
174 198 0
171 194 0
172 195 0
173 196 0
172 195 0
170 193 0
170 195 0
174 198 0
175 198 0
171 194 0
174 197 0
170 194 0
171 194 0
173 196 0
171 194 0
171 194 0
175 198 0
170 193 0
171 194 0
175 198 0
167 190 0
171 194 0
174 197 0
171 194 0
175 198 0
172 196 0
170 194 0
173 196 0
171 195 0
174 197 0
170 193 0
172 196 0
172 196 0
174 197 0
170 193 0
172 193 0
170 194 0
174 197 0
173 197 0
174 197 0
171 194 0
173 196 0
171 194 0
173 196 0
171 194 0
169 193 0
172 195 0
172 196 0
172 195 0
173 195 0
169 192 31
99 127 148
62 99 172
62 98 174
62 98 173
62 99 177
62 98 172
62 99 176
62 99 175
63 99 176
62 99 175
62 99 178
62 99 180
62 99 179
62 99 176
63 99 179
62 99 176
62 99 176
62 99 175
62 99 178
62 99 178
62 99 177
62 99 178
62 99 181
63 100 180
62 99 180
63 100 178
62 99 181
61 98 180
62 99 180
63 100 181
61 99 181
62 99 181
62 99 181
62 99 180
62 99 181
61 99 181
61 99 180
62 99 180
62 99 178
61 99 180
62 99 181
62 99 180
62 99 181
62 99 181
62 99 181
61 98 181
62 99 181
62 99 181
61 99 179
62 99 180
62 99 181
61 99 181
62 99 181
62 99 181
62 99 181
62 99 181
61 99 179
62 99 181
61 99 181
62 99 180
62 99 179
61 99 180
62 99 181
62 99 179
62 99 181
62 99 180
62 99 180
62 99 181
62 99 181
61 99 180
62 99 181
61 99 181
62 99 180
62 99 180
61 99 181
62 99 180
62 99 181
62 99 179
62 99 181
62 99 181
61 99 181
62 99 181
62 99 181
62 99 181
61 99 179
61 99 180
62 99 181
62 99 180
62 99 179
62 99 181
61 98 181
63 100 181
61 99 179
61 98 178
63 100 181
62 99 178
62 99 179
62 99 180
62 99 181
62 99 176
61 99 179
61 98 179
62 99 181
62 99 178
62 99 179
62 99 180
61 98 176
61 99 176
62 99 177
62 99 177
62 99 176
62 99 180
63 99 178
62 99 180
62 98 176
62 99 177
62 99 175
61 98 177
62 99 178
61 98 174
61 98 174
62 98 176
61 98 175
61 97 170
61 97 175
60 96 171
61 96 167
61 97 172
61 97 172
62 97 173
60 95 167
60 96 168
114 118 111
134 129 76
131 128 76
132 128 74
128 124 68
124 121 73
122 120 73
125 123 76
118 116 76
126 123 80
116 115 75
122 121 79
120 119 77
121 121 79
120 119 80
111 112 76
124 123 82
122 121 83
111 112 76
119 119 82
121 121 84
125 124 83
122 123 85
138 135 91
134 134 93
125 125 88
130 130 91
133 132 90
126 125 86
134 133 90
137 137 96
131 131 92
129 129 90
131 131 92
134 134 94
134 133 90
144 144 100
144 143 97
142 141 96
145 143 97
136 136 94
146 145 99
147 146 100
147 146 98
152 150 102
145 143 95
144 143 99
149 147 98
154 151 102
158 155 103
160 157 105
153 152 102
152 151 99
159 156 103
162 159 106
158 155 104
161 157 103
165 161 104
164 162 105
165 162 106
157 155 103
160 157 105
173 168 109
168 164 107
164 161 107
167 164 108
170 166 107
169 165 104
169 165 108
172 167 107
173 168 108
170 166 107
168 164 105
174 170 108
169 165 108
170 166 109
171 167 108
174 169 109
172 168 108
175 170 107
176 171 110
174 170 110
176 171 108
173 168 106
171 167 107
174 169 105
176 171 111
177 172 110
173 169 106
175 170 109
177 172 109
177 171 108
177 170 104
175 170 105
174 169 106
172 168 105
172 167 104
172 168 104
176 170 108
173 168 108
175 170 109
175 170 106
175 170 108
173 167 104
174 168 105
176 169 105
174 168 106
170 165 99
172 166 103
169 164 100
170 164 102
171 165 100
172 166 102
170 164 99
163 159 99
173 167 104
169 163 101
169 163 99
167 161 95
168 162 99
164 159 95
166 160 93
168 163 97
162 157 95
163 157 95
172 165 101
163 157 94
161 155 91
165 159 94
163 157 94
156 149 85
163 157 93
158 153 87
155 149 87
153 148 85
161 154 91
158 153 88
157 150 84
157 151 85
144 139 82
156 149 87
145 139 71
145 140 78
153 146 86
151 145 79
150 144 80
147 141 75
143 138 72
140 133 73
135 129 71
140 132 62
133 128 66
128 122 62
159 170 37
175 197 0
174 197 0
172 195 0
174 197 0
171 195 0
175 198 0
172 196 0
173 197 0
174 197 0
172 196 0
174 198 0
174 197 0
174 198 0
174 197 0
173 196 0
176 198 0
170 193 0
173 197 0
173 197 0
172 196 0
174 197 0
174 197 0
173 197 0
172 196 0
174 197 0
173 196 0
174 197 0
172 196 0
172 196 0
172 196 0
171 194 0
170 193 0
173 197 0
173 196 0
173 197 0
175 198 0
172 196 0
170 194 0
172 195 0
173 196 0
174 197 0
172 195 0
172 195 0
173 196 0
172 196 0
174 197 0
171 195 0
173 197 0
171 195 0
172 196 0
172 196 0
173 196 0
172 195 0
173 197 0
175 198 0
171 194 0
173 197 0
172 195 0
172 195 0
172 195 0
174 197 0
174 197 0
171 194 0
173 196 0
172 196 0
173 196 0
171 194 0
173 197 0
173 196 0
171 195 0
173 196 0
174 197 0
171 195 0
171 195 0
173 196 0
174 197 0
172 196 0
170 193 0
171 194 0
172 196 0
172 196 0
174 197 0
173 195 0
171 195 0
172 194 0
173 196 0
171 194 0
172 195 0
172 196 0
172 195 0
172 196 0
173 196 0
171 195 0
172 196 0
169 192 0
170 194 0
171 194 0
172 194 0
171 195 0
172 196 0
171 195 0
173 196 0
169 192 0
173 196 0
169 193 0
172 196 0
172 196 0
171 195 0
172 196 0
174 197 0
173 197 0
171 194 0
172 196 0
109 137 141
63 99 175
63 99 173
62 99 172
62 99 178
63 100 177
63 99 177
62 99 177
62 99 176
62 99 175
63 99 179
62 99 177
62 99 178
62 99 177
62 99 174
61 98 176
62 99 178
62 99 179
63 99 179
62 99 179
62 99 176
62 99 178
61 98 179
62 99 181
62 99 178
61 99 179
62 99 179
62 99 177
62 99 180
62 99 181
62 99 178
62 99 180
61 98 180
61 99 180
62 99 178
62 99 181
62 99 181
62 99 181
62 99 181
62 99 181
61 99 181
62 99 181
61 98 180
62 99 181
62 99 180
62 99 180
62 99 181
62 99 181
62 99 181
62 99 180
62 99 181
62 99 181
61 99 181
62 99 181
62 99 181
62 99 181
62 99 180
62 99 179
62 99 181
62 99 181
62 99 181
62 99 181
62 99 181
61 98 179
62 99 180
61 98 180
62 99 179
62 99 180
62 99 181
62 99 181
62 99 180
61 99 180
62 99 181
62 99 181
62 100 181
61 99 181
62 99 180
62 99 181
62 99 180
61 98 180
61 98 179
62 99 179
62 99 179
62 99 180
62 99 181
62 99 181
61 99 181
61 98 179
62 99 179
62 99 180
62 99 180
61 99 178
62 99 180
62 99 178
62 99 179
62 99 181
62 98 175
62 99 180
61 99 179
62 99 178
62 99 180
62 99 177
62 99 180
62 99 179
61 98 176
62 99 180
62 99 180
62 99 176
61 98 177
62 99 178
62 99 180
62 98 178
62 99 180
62 99 176
61 98 175
62 99 178
61 98 178
62 99 175
61 98 173
62 98 175
61 98 177
60 97 174
61 96 168
62 98 172
62 97 172
61 96 169
61 97 170
61 97 173
61 97 171
60 96 174
61 96 169
61 97 168
60 94 159
62 95 163
110 112 93
123 121 69
124 122 69
100 100 59
136 133 80
122 120 72
126 122 77
118 117 79
122 120 76
101 101 66
115 114 74
109 110 74
112 112 74
122 120 77
104 104 69
122 122 83
114 115 82
114 113 76
111 111 77
119 120 83
122 121 84
122 123 86
133 132 92
129 129 89
131 130 89
115 117 82
131 130 88
122 122 85
132 132 91
123 123 87
128 128 91
133 133 93
133 133 92
137 136 91
133 134 95
144 143 97
148 146 100
141 141 96
136 135 94
135 135 93
149 147 99
142 142 96
142 141 96
154 152 104
150 148 101
137 137 93
151 149 101
157 155 104
156 154 100
161 157 103
152 149 100
162 158 103
157 154 101
157 154 102
159 156 104
163 159 103
163 160 105
167 163 106
155 152 99
164 160 105
166 162 106
160 158 103
170 166 107
166 163 106
167 164 106
163 160 105
166 163 106
170 166 108
171 167 105
173 168 108
171 166 108
170 166 105
171 167 105
167 164 108
173 168 106
175 170 108
170 166 107
173 167 105
168 165 105
174 168 105
176 170 108
174 169 108
176 171 107
170 165 104
171 166 102
175 170 107
174 169 107
174 169 108
174 169 106
176 169 108
171 166 103
173 168 106
173 168 104
175 169 108
174 168 108
175 169 107
176 171 108
170 165 106
173 169 105
173 167 105
170 164 99
172 166 101
178 172 110
169 164 101
169 163 100
167 162 100
169 164 101
172 167 102
173 168 101
174 167 102
170 164 99
169 164 101
171 166 103
170 164 103
170 163 99
165 160 94
165 160 97
169 162 93
169 163 102
170 163 100
167 161 99
167 161 100
168 162 99
167 160 99
170 164 95
159 153 88
161 156 93
162 155 88
163 157 95
159 153 90
158 152 87
152 146 81
154 148 83
156 149 90
161 155 90
154 148 85
154 148 80
158 152 85
154 148 84
157 150 88
152 145 86
155 149 84
152 146 77
150 144 77
154 147 87
143 137 68
143 136 73
136 131 69
138 133 65
135 130 67
127 122 53
128 122 58
147 154 48
173 195 0
173 196 0
173 196 0
174 197 0
171 195 0
173 196 0
171 195 0
175 198 0
174 197 0
175 198 0
172 195 0
172 196 0
174 197 0
173 196 0
172 196 0
174 197 0
172 196 0
169 192 0
172 195 0
174 197 0
173 197 0
175 197 0
173 196 0
173 196 0
173 197 0
172 196 0
172 197 0
173 195 0
173 196 0
173 197 0
174 197 0
176 198 0
171 194 0
173 197 0
173 196 0
173 197 0
172 195 0
172 196 0
172 195 0
171 195 0
172 195 0
171 194 0
174 198 0
173 196 0
173 196 0
175 197 0
172 195 0
172 196 0
172 195 0
173 197 0
174 197 0
169 193 0
175 198 0
173 197 0
172 196 0
175 198 0
172 195 0
172 195 0
172 196 0
172 195 0
171 195 0
172 196 0
174 197 0
169 193 0
174 196 0
170 193 0
172 196 0
172 195 0
172 196 0
173 197 0
169 192 0
173 196 0
174 197 0
173 197 0
173 196 0
171 194 0
173 196 0
172 196 0
173 197 0
172 195 0
173 197 0
173 196 0
171 195 0
169 193 0
172 195 0
173 197 0
174 196 0
172 195 0
172 195 0
172 196 0
167 191 0
173 197 0
172 196 0
169 193 0
172 195 0
170 193 0
171 194 0
170 194 0
172 195 0
173 197 0
175 197 0
172 195 0
175 198 0
169 192 0
170 193 0
172 196 0
169 192 0
169 192 0
171 195 0
172 195 0
172 194 0
170 192 0
121 147 134
63 100 177
63 99 176
62 98 173
62 99 172
62 99 172
62 99 178
62 99 176
63 99 177
62 99 178
61 98 170
62 99 176
62 99 178
62 99 178
62 99 177
62 99 174
61 99 179
62 99 176
62 99 179
62 99 179
62 99 177
62 99 178
62 99 181
61 99 180
62 99 181
62 99 179
61 98 177
62 99 180
62 99 179
62 99 176
62 99 181
62 99 179
61 98 177
61 99 179
61 99 180
62 99 181
61 99 180
62 99 179
62 99 180
62 99 179
62 99 178
62 99 181
62 99 180
62 99 180
62 99 180
62 99 180
62 99 180
62 99 180
62 99 179
62 99 181
61 99 181
62 99 179
62 99 180
61 98 181
62 99 180
62 99 179
61 99 179
61 99 181
62 99 181
62 99 181
62 99 181
62 99 180
62 99 181
62 99 180
62 99 181
62 99 181
62 99 181
62 99 180
62 99 181
62 99 181
62 99 180
61 99 181
62 99 180
62 99 179
62 99 181
62 99 181
62 99 178
61 98 177
61 99 181
62 99 181
61 98 178
62 99 180
62 99 179
62 99 181
62 99 181
62 99 180
62 99 181
62 99 180
63 100 180
62 99 181
62 99 180
61 99 181
61 99 179
62 99 180
62 99 181
62 99 179
62 99 181
62 99 180
61 98 176
62 99 178
62 99 180
62 99 181
62 99 180
62 99 180
62 99 179
61 98 177
63 100 181
61 99 180
61 99 178
62 99 180
62 99 178
62 99 179
62 99 176
62 99 177
63 100 179
62 99 173
61 98 175
61 98 176
62 99 180
61 98 173
61 97 174
62 98 177
61 98 174
62 98 175
62 99 176
62 99 176
61 98 172
61 97 172
61 97 171
61 97 166
62 98 172
62 98 170
60 95 166
62 97 168
61 96 168
61 94 157
115 117 95
126 122 73
119 116 73
124 122 74
118 114 69
110 111 66
117 116 69
118 116 74
117 116 76
112 112 73
131 130 86
108 108 73
114 114 75
122 121 80
116 116 80
114 114 76
113 114 78
130 129 87
108 109 76
132 131 90
120 119 81
123 124 86
129 128 87
107 111 82
125 125 87
125 124 86
125 126 85
117 118 84
121 122 86
122 123 83
137 135 92
129 130 91
132 132 92
130 131 92
145 144 98
148 147 99
141 140 96
136 135 93
145 144 98
142 141 95
142 141 95
152 150 102
141 140 94
147 145 97
143 143 96
152 150 100
151 150 102
160 157 103
160 157 103
149 147 98
154 152 102
157 155 101
158 155 101
155 153 101
158 155 103
157 155 100
152 151 99
163 160 103
162 158 100
168 164 105
161 158 103
168 164 109
169 165 105
166 163 107
169 165 106
165 162 105
169 165 103
165 162 106
166 163 104
167 163 101
171 166 106
172 167 105
174 169 110
172 168 107
175 170 108
177 171 110
170 165 105
173 168 106
178 171 106
174 169 107
174 169 108
172 167 103
174 169 107
174 169 109
177 172 109
174 168 102
172 168 105
175 169 106
178 171 109
175 169 106
173 169 104
176 170 106
171 166 101
176 170 106
173 167 105
174 169 106
175 170 106
170 165 100
175 169 106
175 169 106
172 167 101
172 166 102
174 169 105
173 167 102
171 166 103
173 168 106
170 165 97
172 167 101
176 169 106
166 161 100
169 162 98
169 163 99
168 162 99
172 166 102
169 164 101
170 165 103
172 166 99
165 159 93
173 166 102
161 156 93
166 161 97
167 162 100
166 160 95
165 158 96
166 159 96
163 158 90
163 157 91
159 153 88
159 153 87
161 155 88
156 151 84
159 153 90
156 150 86
163 157 92
155 150 84
153 147 86
144 138 74
151 145 76
152 146 82
155 149 79
151 144 77
153 146 76
143 136 74
154 148 78
149 142 82
147 141 69
140 135 64
136 130 67
137 132 63
132 127 65
127 122 58
143 147 51
172 195 0
173 195 0
173 196 0
174 197 0
173 196 0
173 196 0
173 196 0
173 196 0
173 196 0
175 197 0
174 197 0
173 197 0
175 197 0
173 196 0
174 197 0
173 196 0
172 197 0
174 197 0
171 195 0
171 194 0
173 196 0
171 195 0
173 195 0
173 196 0
173 196 0
170 194 0
173 196 0
173 197 0
174 197 0
172 196 0
173 196 0
172 196 0
173 196 0
172 195 0
173 196 0
173 196 0
173 195 0
173 197 0
172 196 0
171 195 0
173 197 0
172 195 0
174 197 0
174 198 0
173 196 0
173 196 0
171 195 0
172 196 0
170 194 0
172 195 0
173 197 0
171 195 0
174 197 0
171 194 0
172 196 0
172 195 0
174 197 0
173 196 0
172 196 0
168 192 0
171 195 0
174 196 0
173 196 0
169 191 0
172 196 0
170 193 0
174 197 0
173 196 0
172 195 0
173 196 0
171 195 0
173 196 0
173 197 0
171 194 0
173 196 0
174 197 0
171 195 0
172 196 0
171 195 0
172 195 0
173 196 0
171 195 0
172 195 0
171 195 0
171 194 0
172 196 0
172 195 0
173 195 0
171 194 0
172 194 0
171 194 0
170 192 0
172 196 0
172 196 0
169 193 0
171 194 0
174 197 0
170 193 0
171 194 0
171 194 0
173 196 0
171 194 0
169 193 0
170 194 0
168 193 0
170 194 0
172 195 0
173 196 0
174 198 0
173 196 0
174 197 0
128 153 124
62 98 174
62 99 170
62 99 170
62 98 170
63 99 172
62 99 174
63 100 176
62 99 177
62 99 176
62 98 175
62 99 176
63 99 175
62 99 174
62 99 175
63 100 177
62 99 176
61 98 174
62 99 180
61 98 177
62 99 178
62 99 179
62 99 179
62 99 179
62 99 179
62 99 180
61 98 178
62 99 180
62 99 180
62 99 179
62 99 181
62 99 181
63 100 181
62 99 180
62 99 179
62 99 177
61 98 177
62 99 179
62 99 180
62 99 178
62 99 181
61 99 179
62 99 181
62 99 181
62 99 181
62 99 180
62 99 181
61 99 181
62 99 180
62 99 181
61 99 180
61 98 181
61 99 181
62 99 181
61 99 181
62 99 180
62 99 181
62 99 181
61 99 181
62 99 179
62 99 181
62 99 180
62 99 181
62 100 181
62 99 181
62 99 181
61 99 181
61 99 180
61 98 179
61 99 180
62 99 180
62 100 181
62 99 181
62 99 178
61 99 181
62 99 181
62 99 181
62 99 180
62 99 180
63 99 179
61 98 178
62 99 181
61 98 177
62 99 178
62 99 180
62 99 180
62 99 180
61 99 180
62 99 180
62 99 178
62 99 179
62 99 180
62 99 181
62 99 178
62 99 180
62 99 180
61 99 180
61 98 179
62 99 178
61 99 179
62 99 178
62 99 178
62 99 180
61 99 179
61 99 179
61 98 179
61 98 177
61 98 177
62 99 180
62 99 180
61 98 178
62 99 177
62 99 176
61 98 176
61 99 179
62 98 172
62 99 179
61 98 172
62 98 177
61 98 170
62 99 178
62 99 178
62 99 177
62 98 177
63 99 174
62 98 178
62 98 171
62 98 174
61 98 175
62 98 172
62 98 172
61 97 170
61 96 168
61 96 167
62 98 173
59 93 161
60 94 162
66 95 155
118 120 98
127 124 74
123 120 75
119 117 71
125 123 73
113 112 73
117 116 78
115 115 74
118 116 73
102 102 66
112 112 72
119 119 81
116 115 77
113 113 78
106 107 72
111 112 78
109 109 75
106 107 77
121 119 82
119 120 82
106 109 77
119 119 82
122 122 85
121 122 85
121 121 85
124 126 87
134 135 93
123 123 84
135 134 92
118 119 84
134 133 91
132 132 91
131 131 92
137 137 94
146 145 97
136 135 94
139 138 94
149 147 99
136 136 95
153 150 100
144 143 96
143 141 95
145 144 96
147 145 94
155 153 102
156 154 102
154 152 101
151 149 101
153 151 99
154 152 102
150 148 99
154 151 97
157 155 100
151 150 100
157 154 99
156 154 99
161 157 100
159 157 103
168 164 106
170 166 106
171 166 107
165 162 103
167 164 105
168 165 107
161 158 104
167 164 106
170 166 103
175 170 109
170 166 107
166 162 98
174 169 107
174 168 108
169 165 106
172 168 107
171 166 104
170 166 105
169 165 106
176 170 105
176 171 109
175 170 106
174 169 106
174 169 104
175 169 106
177 171 106
174 169 105
175 169 107
177 171 111
174 169 108
176 170 106
176 170 105
175 169 106
178 172 107
170 165 102
175 169 107
172 168 103
174 167 101
174 169 106
174 168 104
173 167 101
175 169 104
172 167 103
172 166 101
174 169 103
174 168 104
176 170 104
170 165 97
174 168 104
174 168 104
171 165 101
166 161 99
171 165 103
171 165 100
164 160 95
171 164 99
169 164 97
168 161 92
170 163 99
164 158 95
172 166 102
171 165 103
168 162 96
166 160 97
166 160 89
168 163 95
162 156 93
169 163 97
161 155 92
160 154 90
168 161 94
166 160 90
159 153 85
156 149 84
156 150 85
156 150 84
157 151 88
157 150 84
152 147 75
158 151 90
160 154 90
157 150 84
152 146 82
150 144 69
143 137 73
147 141 77
145 138 75
146 140 74
135 130 67
135 130 65
138 131 70
143 137 64
137 137 51
173 196 0
174 197 0
173 195 0
172 195 0
173 196 0
174 196 0
174 197 0
172 196 0
174 198 0
173 197 0
174 197 0
173 196 0
172 195 0
174 198 0
174 197 0
174 197 0
173 196 0
175 197 0
174 197 0
172 194 0
172 195 0
172 196 0
173 197 0
171 195 0
174 197 0
173 196 0
171 194 0
173 197 0
175 198 0
173 197 0
172 196 0
173 197 0
170 194 0
172 196 0
174 197 0
175 197 0
171 194 0
172 195 0
173 197 0
175 198 0
175 198 0
174 197 0
173 197 0
172 195 0
169 192 0
171 195 0
171 195 0
174 197 0
175 198 0
173 197 0
173 196 0
170 195 0
174 197 0
170 194 0
175 198 0
172 196 0
170 194 0
174 197 0
174 197 0
174 197 0
172 196 0
171 194 0
171 194 0
174 197 0
173 196 0
172 195 0
170 193 0
172 196 0
174 197 0
170 193 0
171 194 0
173 196 0
173 196 0
169 193 0
172 196 0
173 196 0
169 192 0
173 196 0
171 195 0
174 196 0
173 196 0
172 196 0
171 195 0
170 194 0
171 194 0
168 193 0
172 195 0
173 196 0
174 197 0
172 196 0
174 196 0
173 196 0
171 194 0
172 196 0
171 194 0
172 196 0
172 195 0
173 196 0
174 196 0
174 197 0
171 195 0
174 198 0
170 193 0
168 192 0
172 195 0
169 192 0
173 196 0
171 194 0
172 195 0
174 197 0
137 162 108
64 100 168
62 99 175
62 98 170
63 99 175
62 99 173
62 99 178
63 99 176
62 99 174
62 99 174
62 99 176
62 99 177
62 99 173
62 99 178
61 98 175
61 98 176
62 99 177
61 98 178
62 99 176
62 99 176
62 99 178
62 99 179
63 100 180
61 98 177
62 99 176
62 99 179
62 99 179
62 99 179
62 99 180
62 99 179
62 99 180
62 99 180
62 99 177
62 99 181
62 99 181
61 99 180
62 99 180
61 98 179
62 99 179
61 99 180
61 99 179
63 100 179
62 99 178
62 99 178
62 99 180
62 99 181
62 99 181
62 99 181
62 99 179
62 99 180
63 100 181
62 99 180
61 99 179
62 99 180
62 99 181
61 99 180
62 99 180
62 99 181
62 99 181
62 99 179
62 99 181
61 99 181
61 99 179
61 98 180
62 99 181
62 99 180
62 99 180
62 99 181
61 98 180
61 99 180
62 99 180
62 99 181
62 99 181
62 99 177
62 99 180
62 99 181
62 99 181
62 99 181
62 99 180
62 99 181
62 99 179
62 99 180
61 99 180
61 98 179
62 99 179
62 99 180
62 99 181
62 99 180
61 99 181
62 99 177
62 99 180
62 99 176
62 99 180
62 99 179
62 99 180
62 99 178
62 99 176
62 99 177
62 99 178
63 99 177
62 99 181
62 99 176
62 99 179
61 98 178
62 99 180
61 98 176
61 99 178
62 99 181
62 99 181
63 100 180
62 98 175
61 99 177
62 99 178
62 98 175
62 98 176
62 99 177
62 99 181
62 98 172
61 98 177
61 97 176
63 100 177
61 98 175
62 99 176
62 99 176
61 97 167
61 98 171
62 98 174
62 98 176
62 99 178
61 97 170
61 98 172
62 99 177
61 96 164
62 98 171
61 97 172
61 98 174
60 96 168
61 96 166
61 97 171
73 97 147
121 119 78
114 112 68
108 107 66
111 112 74
115 113 68
109 108 65
115 115 74
126 122 79
120 120 76
106 106 70
105 106 74
115 114 77
119 118 80
122 121 80
110 111 81
109 110 76
119 119 82
112 112 76
110 112 80
113 115 78
129 129 89
110 111 79
124 124 87
126 125 86
121 122 87
121 122 86
114 116 82
121 121 85
129 129 90
133 133 92
140 139 94
137 137 93
124 125 88
136 135 91
141 140 96
147 146 99
139 140 97
142 141 98
139 139 94
150 148 100
152 150 100
150 148 99
152 150 101
150 148 100
148 147 98
152 150 98
148 146 98
154 151 100
153 152 102
153 151 98
155 153 100
153 151 99
155 153 102
162 159 101
159 156 100
156 153 100
159 156 101
170 165 107
161 158 103
159 156 101
169 165 102
166 162 105
167 163 106
170 165 105
168 165 105
172 166 104
169 165 102
168 165 106
172 168 107
173 169 109
170 166 103
173 168 105
172 167 104
173 168 109
174 169 107
170 166 105
173 168 108
175 169 107
175 170 108
173 169 107
173 167 104
173 169 105
172 167 106
174 169 105
175 170 106
176 170 106
177 172 109
173 168 104
175 170 109
174 169 106
175 169 107
173 168 102
173 168 104
171 167 102
175 169 104
175 169 106
175 169 104
174 169 105
175 169 104
175 169 103
176 170 104
175 169 106
174 168 101
172 167 101
167 162 95
171 165 101
171 166 99
170 164 99
173 167 101
167 161 99
169 163 97
170 164 100
170 165 103
169 163 97
167 161 97
164 158 91
171 164 95
167 161 99
162 157 95
160 156 93
158 153 87
167 161 97
160 154 86
161 155 91
165 158 90
159 154 93
161 155 88
158 152 86
158 152 87
167 160 92
156 150 84
157 151 85
148 143 80
157 150 83
154 148 86
157 151 83
154 147 82
155 149 83
146 142 75
149 144 78
151 145 78
146 140 74
150 144 75
139 134 67
141 135 70
144 137 75
140 134 70
128 122 61
143 136 74
137 137 52
175 197 0
173 196 0
173 196 0
173 195 0
174 196 0
172 196 0
171 195 0
176 199 0
173 196 0
172 196 0
173 197 0
175 198 0
173 196 0
173 196 0
172 196 0
175 198 0
172 195 0
172 194 0
172 196 0
171 195 0
175 198 0
169 193 0
172 196 0
174 196 0
172 195 0
172 196 0
172 195 0
171 195 0
172 196 0
172 195 0
173 197 0
174 197 0
173 197 0
174 198 0
173 196 0
174 196 0
174 198 0
172 195 0
172 195 0
173 196 0
174 197 0
172 195 0
172 195 0
174 197 0
170 194 0
171 195 0
171 193 0
170 194 0
172 195 0
173 196 0
172 195 0
172 196 0
174 197 0
174 197 0
172 195 0
172 196 0
171 194 0
173 196 0
173 196 0
175 198 0
171 195 0
173 195 0
172 196 0
174 197 0
174 197 0
172 195 0
171 195 0
169 193 0
173 196 0
172 195 0
173 196 0
172 195 0
171 194 0
170 193 0
172 196 0
170 194 0
171 195 0
174 197 0
174 197 0
174 197 0
170 194 0
175 197 0
172 195 0
173 196 0
174 197 0
171 195 0
173 196 0
173 196 0
171 195 0
173 197 0
171 195 0
171 194 0
171 195 0
168 192 0
173 197 0
173 195 0
172 194 0
173 195 0
173 196 0
170 193 0
171 195 0
170 193 0
170 193 0
171 194 0
170 193 0
172 196 0
173 197 0
170 193 0
173 197 0
160 184 65
70 104 168
62 99 170
62 99 173
62 99 174
62 99 173
62 98 172
62 99 173
62 99 171
62 98 172
62 99 178
62 99 177
63 100 178
62 99 176
62 99 177
62 99 177
62 99 177
62 99 177
62 99 178
62 99 179
63 99 177
62 99 179
62 99 178
62 99 177
62 99 179
62 99 178
62 99 180
62 99 178
62 99 179
62 99 178
62 99 181
62 99 177
62 99 179
62 99 179
62 99 179
62 99 178
62 99 181
62 99 181
61 98 180
62 99 180
62 99 181
61 99 180
62 99 178
63 100 180
62 99 181
62 99 180
62 99 180
62 99 181
62 99 180
62 99 179
62 99 180
61 99 181
61 98 180
62 99 181
62 99 181
62 99 181
62 99 180
62 99 180
61 99 180
62 99 179
62 99 179
62 99 180
62 99 181
62 99 181
62 99 181
62 99 179
62 99 180
62 99 181
61 98 179
62 99 179
62 99 180
61 99 179
62 99 178
62 99 181
62 99 180
62 99 181
62 99 179
62 99 178
61 99 180
61 99 179
62 99 181
62 99 180
61 98 177
61 99 179
62 99 179
61 98 179
62 99 180
63 100 180
62 99 181
62 99 180
62 99 179
62 99 180
62 99 181
62 99 179
61 99 180
63 100 180
62 99 180
62 99 181
62 99 180
62 99 179
62 99 178
62 99 179
62 99 176
62 99 178
62 99 180
61 99 179
62 99 177
62 99 180
62 99 179
62 99 180
62 99 177
62 99 177
62 99 177
62 99 179
62 99 175
63 99 178
62 99 178
62 99 177
63 100 178
62 98 175
62 98 175
60 97 174
62 98 172
61 98 175
62 99 177
61 97 173
62 99 177
62 98 176
61 97 171
62 99 176
62 98 174
61 97 170
61 98 174
62 98 171
62 97 171
61 97 171
62 98 171
61 97 172
60 95 165
60 94 159
58 92 158
88 106 145
122 120 78
110 109 68
121 119 74
116 116 78
115 115 76
100 101 66
109 110 76
98 99 67
117 117 80
101 103 71
110 110 71
103 105 74
115 115 78
116 116 77
112 112 78
109 111 77
124 123 82
111 114 81
111 112 78
116 117 81
122 123 86
115 116 82
109 110 77
120 120 84
121 122 86
123 124 87
125 125 87
133 133 92
130 131 91
129 131 90
136 136 94
140 139 96
130 130 89
142 141 97
134 135 93
138 137 93
145 143 98
143 142 96
138 137 91
139 139 96
151 149 99
143 142 94
146 145 96
149 146 95
151 149 98
149 147 94
159 155 100
151 149 95
165 160 103
162 159 103
162 158 101
159 156 101
161 158 103
162 159 102
161 158 103
157 154 99
160 157 102
164 161 104
164 160 104
167 164 101
170 166 105
165 161 103
167 163 104
167 163 104
164 161 100
169 165 107
168 164 105
175 169 108
175 169 106
168 165 104
169 165 104
169 165 104
173 168 106
175 170 108
176 170 104
173 168 106
170 166 107
174 169 104
174 169 108
178 171 104
177 171 107
175 170 108
175 170 106
174 168 104
174 169 105
173 168 100
174 168 104
172 168 104
176 170 106
176 170 108
170 166 99
173 168 103
173 168 104
176 169 104
172 167 99
172 166 104
177 170 104
173 168 102
169 164 99
173 167 103
170 166 101
174 167 101
175 169 104
173 167 102
165 160 99
173 167 104
170 164 99
171 166 98
168 162 97
169 164 101
168 162 97
162 157 94
166 161 96
170 163 98
168 163 93
170 163 97
162 156 92
162 156 90
171 164 97
168 161 90
163 157 89
162 156 87
169 162 95
163 157 93
165 159 95
153 149 85
159 154 89
162 156 91
167 160 90
158 153 87
156 151 89
163 156 91
163 157 91
155 149 86
157 151 82
149 143 77
153 147 86
151 145 78
156 149 82
147 141 78
152 145 80
151 145 79
149 143 80
145 140 71
136 130 71
137 132 61
132 126 68
138 131 69
131 127 64
173 196 0
172 196 0
172 194 0
173 196 0
172 195 0
173 194 0
171 195 0
173 196 0
173 197 0
173 197 0
171 194 0
169 194 0
174 197 0
174 197 0
171 195 0
173 197 0
174 198 0
174 197 0
171 195 0
173 197 0
172 196 0
173 197 0
172 196 0
173 196 0
174 197 0
173 196 0
173 197 0
174 197 0
176 199 0
174 197 0
171 194 0
175 197 0
174 197 0
171 194 0
170 193 0
171 194 0
172 196 0
174 198 0
172 195 0
172 195 0
174 197 0
172 195 0
172 196 0
170 194 0
173 196 0
173 196 0
171 195 0
173 195 0
171 194 0
174 197 0
175 198 0
171 195 0
172 195 0
173 197 0
173 197 0
172 196 0
172 196 0
171 195 0
172 195 0
169 193 0
172 195 0
173 197 0
173 196 0
173 196 0
172 195 0
170 194 0
172 196 0
167 190 0
168 192 0
172 194 0
175 197 0
172 196 0
174 196 0
168 192 0
173 196 0
171 195 0
172 196 0
170 194 0
175 198 0
169 193 0
172 195 0
173 197 0
169 192 0
168 192 0
171 194 0
171 194 0
168 191 0
172 196 0
171 194 0
171 194 0
174 197 0
170 194 0
175 198 0
171 195 0
173 196 0
173 196 0
172 196 0
167 191 0
172 195 0
171 194 0
172 196 0
172 195 0
171 194 0
174 196 0
175 197 0
170 193 0
172 195 0
171 195 0
166 189 44
88 119 160
62 99 168
63 99 173
62 99 172
62 98 170
62 99 174
62 99 175
62 99 175
62 99 175
62 99 175
62 99 173
62 99 175
61 98 174
62 99 179
62 99 179
62 99 176
62 99 176
63 100 177
62 99 178
62 99 179
62 99 177
62 99 177
62 99 178
61 98 179
62 99 180
62 99 178
61 99 177
62 99 179
62 99 176
62 99 180
62 99 181
62 99 179
62 99 178
62 99 180
62 99 180
62 99 181
62 99 178
61 98 176
62 99 178
61 98 178
62 99 181
63 99 178
61 98 177
62 99 181
62 99 180
61 98 180
62 99 180
62 99 181
61 99 180
62 99 180
62 99 179
62 99 181
61 99 181
61 98 179
62 99 181
61 99 180
62 99 180
62 99 181
62 99 181
61 99 180
62 99 181
61 99 181
61 99 180
62 99 181
62 99 179
62 99 180
62 99 180
61 99 179
61 99 180
62 99 181
62 99 181
62 99 179
61 98 181
61 99 179
62 99 180
62 99 180
62 99 180
62 99 178
62 99 180
62 99 178
62 99 180
62 99 178
62 99 180
61 99 181
62 99 179
62 99 179
62 99 179
62 99 180
61 99 181
61 98 178
62 99 180
62 99 178
62 99 176
62 99 178
61 98 177
62 99 181
62 99 181
62 99 179
62 99 179
62 99 179
62 99 175
62 99 177
62 99 181
62 99 178
61 98 174
61 98 176
62 99 179
61 98 175
62 99 179
61 98 179
62 99 178
62 99 180
62 99 177
62 98 179
62 99 180
62 98 176
61 98 178
62 99 180
61 98 175
62 99 177
62 99 175
62 99 176
61 98 172
62 98 174
61 97 170
62 98 175
61 97 172
61 97 173
62 98 172
62 99 177
61 97 170
62 98 174
61 97 171
62 98 173
61 96 169
61 97 169
62 98 174
62 98 171
62 97 168
61 96 167
61 96 169
60 95 161
99 107 108
113 110 70
121 119 77
123 120 77
110 108 66
103 103 69
108 108 74
107 107 72
106 106 70
112 112 75
103 104 71
107 108 73
97 99 69
114 114 74
112 111 77
113 114 78
107 108 75
117 118 83
103 105 77
115 116 81
108 109 78
113 115 83
118 118 81
117 117 81
123 123 84
128 129 90
126 126 85
120 121 85
130 130 89
123 122 84
123 125 89
140 139 95
135 134 90
134 135 94
136 136 93
132 132 90
145 143 95
137 136 90
147 145 93
142 140 95
154 152 99
152 150 99
148 146 96
146 144 96
145 144 95
152 150 99
147 146 95
161 158 100
158 155 98
160 157 104
152 150 99
155 152 98
158 155 101
156 153 100
162 158 101
164 161 103
162 159 103
164 161 101
169 165 104
171 166 106
166 163 104
166 162 101
167 163 102
169 166 104
169 165 107
172 167 107
169 164 104
166 163 101
166 162 101
171 166 106
174 168 103
172 167 105
175 169 105
175 170 107
169 164 101
172 167 103
172 167 101
174 168 103
170 166 105
173 167 105
173 167 102
176 170 103
171 167 105
175 170 105
176 170 106
172 167 103
174 169 108
175 169 104
177 171 108
168 162 94
174 168 101
171 165 96
176 170 105
174 168 101
176 170 104
177 171 104
173 166 99
174 168 103
173 168 99
173 167 99
168 163 97
170 165 97
169 164 97
171 165 101
173 167 101
174 168 104
169 163 97
168 163 95
167 160 95
168 163 97
170 163 102
171 164 99
165 159 93
169 164 97
167 161 90
164 159 92
171 164 100
169 163 97
167 162 93
169 162 95
162 156 92
166 160 93
160 154 90
159 154 87
157 152 87
168 161 95
156 150 84
158 153 89
155 150 82
157 151 84
161 154 89
164 157 90
157 151 84
157 151 81
153 147 85
149 143 73
149 142 77
151 145 77
152 146 79
156 149 80
152 146 75
139 133 69
148 143 76
149 143 73
134 129 64
127 123 58
137 131 69
139 135 61
123 118 54
173 196 0
170 194 0
172 195 0
176 198 0
173 196 0
174 197 0
170 195 0
172 195 0
174 197 0
170 193 0
173 197 0
173 197 0
172 196 0
173 195 0
170 194 0
172 196 0
170 193 0
174 198 0
172 196 0
171 195 0
174 197 0
173 196 0
174 197 0
174 197 0
174 197 0
171 194 0
172 196 0
172 196 0
173 196 0
172 194 0
172 196 0
174 197 0
171 194 0
172 195 0
172 194 0
174 197 0
173 197 0
173 196 0
172 196 0
172 196 0
172 196 0
174 197 0
171 195 0
173 196 0
173 197 0
173 196 0
172 196 0
173 196 0
174 197 0
174 197 0
172 196 0
171 196 0
173 196 0
172 195 0
173 196 0
173 196 0
174 197 0
171 195 0
171 195 0
172 195 0
171 194 0
170 193 0
172 196 0
172 196 0
174 197 0
169 194 0
172 195 0
171 194 0
172 195 0
172 196 0
172 194 0
175 197 0
171 194 0
170 194 0
173 196 0
170 193 0
172 196 0
173 196 0
171 193 0
172 195 0
171 195 0
173 196 0
173 197 0
171 194 0
172 194 0
173 196 0
167 190 0
173 196 0
169 193 0
174 198 0
172 195 0
171 195 0
173 196 0
170 193 0
174 196 0
171 195 0
172 196 0
170 193 0
168 191 0
172 196 0
171 194 0
171 194 0
171 193 0
172 195 0
170 193 0
173 196 0
171 194 0
173 196 0
115 142 131
62 98 166
62 99 172
63 99 175
62 99 169
62 98 171
62 99 174
63 99 176
63 100 178
63 99 176
62 98 172
62 99 175
62 99 176
62 99 171
62 99 179
62 99 175
62 99 177
62 99 174
61 98 177
62 99 180
62 99 176
61 98 178
62 99 178
62 99 179
62 99 178
62 99 177
62 99 180
62 99 177
62 99 179
63 100 179
62 99 179
62 99 180
62 99 176
61 99 177
62 99 177
62 99 179
61 99 179
62 99 178
62 99 180
61 99 181
62 99 178
62 99 180
62 99 178
63 100 181
62 99 181
62 99 177
62 99 180
62 99 181
62 99 176
62 99 179
62 99 178
62 99 180
62 99 181
62 99 181
62 99 179
62 99 181
62 99 180
62 99 181
62 99 180
62 99 177
62 99 181
62 99 181
61 99 181
62 99 180
62 99 181
63 100 180
62 99 181
61 99 181
62 99 181
62 99 181
62 99 181
63 100 181
62 99 177
62 99 180
62 99 181
62 99 180
62 99 178
62 99 181
62 99 181
62 99 179
61 99 177
62 99 180
62 99 180
62 99 180
62 99 180
62 99 178
62 99 179
61 98 178
63 100 180
62 99 179
62 99 180
62 99 179
62 99 177
62 99 178
62 99 178
62 99 180
62 99 178
62 99 181
62 99 179
61 99 179
62 99 177
62 99 179
62 99 174
62 99 179
62 99 178
62 99 178
62 99 180
62 99 177
62 99 177
61 98 177
63 100 181
62 99 176
62 99 177
62 99 177
62 99 179
62 99 178
62 98 176
61 98 176
61 98 174
62 99 176
61 98 174
62 99 177
62 99 176
61 98 176
62 98 175
63 99 176
62 98 176
62 98 175
61 97 171
62 98 171
62 98 175
62 98 174
62 97 168
61 97 173
60 96 167
61 97 173
61 97 171
60 96 168
62 97 169
61 97 170
62 98 171
61 98 175
61 95 164
61 93 159
103 107 89
100 100 63
103 104 66
94 96 65
106 106 70
100 100 68
106 106 71
102 103 68
103 103 70
113 113 76
97 99 68
88 91 64
110 111 76
104 105 75
113 113 76
107 110 77
113 115 81
107 110 77
112 115 83
111 113 80
117 118 84
99 101 71
119 120 84
119 120 84
124 124 87
116 119 87
128 128 88
122 122 85
121 122 86
122 123 86
125 125 83
139 138 95
128 128 90
130 130 92
140 139 95
135 134 94
139 140 94
130 130 87
144 142 95
148 146 95
153 151 98
145 144 99
152 150 97
155 152 100
157 153 101
156 154 101
149 147 97
150 148 96
161 158 103
162 159 103
152 150 100
154 152 100
156 153 100
156 154 101
158 155 99
165 161 105
163 159 103
166 162 103
161 158 104
165 161 102
169 165 103
169 164 104
167 163 101
165 160 102
168 163 102
166 163 103
167 163 101
171 166 105
172 167 101
165 162 101
173 168 105
172 167 102
174 170 108
176 170 106
173 168 101
171 166 104
175 168 103
172 168 105
175 170 106
176 170 103
175 170 105
176 170 103
174 168 102
174 169 103
174 169 102
176 170 106
173 168 103
174 169 106
176 170 106
174 169 100
172 166 99
169 163 99
176 170 106
174 168 103
173 167 99
175 168 104
173 168 104
177 170 104
166 161 99
170 165 99
169 164 100
173 167 102
170 164 101
172 165 95
166 162 97
172 167 103
167 161 96
171 166 98
167 161 100
169 163 95
172 167 104
169 162 95
171 166 99
163 158 95
168 162 95
165 159 96
170 163 97
169 162 94
163 157 90
162 156 88
168 161 97
160 154 88
161 155 89
167 160 94
162 155 90
159 153 81
157 151 87
156 150 85
168 162 91
152 147 81
159 152 84
159 153 88
154 150 83
151 145 80
152 147 81
155 149 84
149 143 74
149 143 76
155 148 77
152 146 75
144 138 75
142 137 77
134 128 60
141 136 65
138 132 67
142 136 69
138 132 66
127 121 58
172 194 19
173 196 0
173 195 0
172 196 0
173 195 0
171 194 0
172 195 0
174 196 0
174 197 0
174 197 0
170 194 0
175 198 0
173 197 0
173 196 0
171 194 0
174 197 0
171 194 0
172 196 0
173 196 0
173 196 0
173 196 0
175 197 0
173 196 0
172 196 0
171 195 0
174 197 0
173 196 0
171 195 0
174 198 0
175 198 0
174 197 0
172 196 0
171 194 0
173 196 0
172 196 0
176 199 0
172 195 0
173 196 0
169 193 0
171 195 0
173 195 0
173 197 0
173 197 0
172 195 0
175 198 0
173 197 0
171 194 0
171 195 0
171 196 0
172 196 0
173 196 0
173 197 0
172 195 0
173 195 0
173 196 0
174 196 0
169 193 0
174 197 0
173 196 0
172 195 0
172 195 0
173 196 0
174 197 0
175 198 0
174 197 0
171 195 0
174 196 0
173 196 0
174 197 0
170 193 0
172 195 0
171 193 0
173 196 0
173 195 0
171 195 0
173 196 0
171 194 0
172 195 0
173 196 0
170 194 0
172 195 0
170 192 0
169 192 0
172 195 0
169 193 0
173 196 0
172 196 0
169 192 0
171 195 0
173 196 0
169 192 0
174 197 0
168 191 0
169 193 0
172 195 0
172 195 0
169 193 0
171 195 0
170 193 0
169 193 0
170 194 0
173 195 0
171 194 0
172 196 0
172 195 0
173 196 0
173 196 0
139 163 105
62 99 172
62 98 168
62 99 176
62 99 174
62 99 171
62 98 168
63 100 177
62 98 171
62 99 177
62 99 175
62 99 173
62 98 170
62 99 171
62 99 176
62 99 177
62 99 174
62 99 179
62 99 175
61 98 175
61 98 175
62 99 177
61 98 176
62 99 176
62 99 180
62 99 177
63 100 181
62 99 179
63 100 178
62 99 179
62 99 180
62 99 179
62 99 180
61 98 178
62 99 178
62 99 180
63 100 181
62 99 180
62 99 180
61 99 178
62 99 179
63 99 178
61 99 181
62 99 180
62 99 181
62 99 178
61 99 181
62 99 181
62 99 181
62 99 180
61 98 179
62 99 179
62 99 179
62 99 179
62 99 179
62 99 180
62 99 178
62 99 180
62 99 180
62 99 180
62 99 180
61 99 181
62 99 181
62 99 179
62 99 180
62 99 181
62 99 181
62 99 181
62 99 180
62 99 180
62 99 181
62 99 179
62 99 181
61 99 180
62 99 177
62 99 181
62 99 181
62 99 178
62 99 179
62 99 177
62 99 178
62 99 180
61 99 180
62 99 180
62 99 179
61 99 180
62 99 180
62 99 180
62 99 180
62 99 179
61 99 180
61 98 177
62 99 181
62 99 180
61 98 178
61 98 177
62 99 176
61 98 178
62 99 177
62 99 180
62 99 179
62 99 180
62 99 180
62 99 178
62 99 178
62 99 181
62 99 178
62 99 177
63 99 178
62 99 176
62 99 178
62 99 178
62 99 175
62 99 178
62 99 179
62 99 176
62 99 175
62 99 180
61 98 176
62 99 177
62 99 175
61 98 176
61 98 177
62 99 176
62 99 177
61 98 175
63 99 176
62 98 176
62 98 171
62 99 175
62 99 178
61 98 169
62 97 171
61 98 170
61 98 176
62 98 172
61 97 167
61 96 168
60 96 164
62 98 169
61 96 166
61 96 166
61 96 169
61 97 170
60 95 164
72 99 159
105 106 73
113 111 68
104 103 68
117 116 76
95 98 71
102 102 71
100 102 70
103 104 70
103 104 73
99 101 68
104 106 76
106 107 76
110 111 78
104 106 74
111 113 80
112 113 80
117 117 81
120 120 84
107 109 77
116 117 82
104 107 75
108 110 77
116 118 85
122 122 85
127 126 88
109 113 84
117 120 85
131 131 88
134 133 89
133 133 90
129 130 90
137 136 95
130 130 90
139 138 92
137 136 91
142 141 95
144 143 97
143 142 95
144 143 95
142 141 96
141 140 94
142 141 91
152 149 99
149 148 97
150 147 95
149 148 97
149 147 95
155 152 101
156 153 101
160 156 102
151 150 96
165 160 100
156 154 97
161 157 98
163 159 102
163 159 102
166 162 105
166 162 99
166 161 101
169 164 105
164 160 102
170 164 106
164 161 103
171 167 103
170 166 104
168 164 102
169 166 105
174 168 100
168 164 99
174 168 105
173 168 101
170 165 100
170 165 101
172 168 107
176 170 107
176 171 104
171 167 103
175 170 105
173 169 105
174 169 101
175 169 102
178 172 106
175 169 104
173 169 103
175 169 103
175 169 107
176 169 101
175 169 103
174 168 104
173 168 103
177 170 105
173 167 101
172 167 100
172 166 100
174 168 99
174 169 103
172 167 100
173 167 103
176 169 105
173 167 98
170 164 99
169 164 97
174 167 99
175 169 104
169 162 95
171 165 99
170 165 97
169 163 95
165 160 95
166 161 97
166 160 95
166 159 95
172 165 101
167 161 96
169 163 95
162 157 89
163 157 90
167 162 90
164 157 93
161 155 88
162 156 86
161 156 88
164 158 93
165 158 93
163 157 90
151 145 84
157 151 89
150 144 77
156 149 82
159 153 84
162 155 86
149 143 76
163 156 85
156 150 79
155 148 80
149 144 79
151 144 81
148 142 76
157 150 79
148 142 75
154 147 77
136 131 64
139 133 68
135 129 70
135 129 62
138 132 63
138 134 62
170 190 19
173 195 0
172 194 0
170 192 0
173 196 0
172 196 0
174 197 0
173 197 0
173 197 0
174 197 0
174 197 0
172 196 0
174 197 0
172 196 0
174 197 0
172 196 0
171 195 0
173 196 0
171 195 0
174 197 0
172 195 0
175 197 0
174 197 0
172 196 0
174 198 0
171 194 0
171 194 0
173 197 0
172 196 0
173 197 0
171 195 0
172 196 0
171 195 0
172 195 0
172 195 0
174 197 0
173 196 0
173 196 0
172 195 0
171 195 0
175 198 0
171 194 0
172 196 0
174 197 0
172 195 0
175 198 0
173 196 0
174 197 0
172 195 0
174 197 0
171 194 0
170 195 0
174 197 0
169 194 0
174 197 0
172 196 0
170 194 0
174 197 0
172 195 0
173 196 0
173 196 0
170 194 0
174 197 0
172 196 0
172 195 0
173 196 0
172 196 0
173 196 0
171 196 0
174 197 0
172 195 0
175 197 0
171 195 0
171 194 0
171 195 0
172 195 0
170 194 0
171 194 0
171 194 0
172 195 0
173 196 0
169 192 0
171 195 0
175 198 0
172 195 0
170 193 0
172 195 0
170 194 0
173 197 0
170 193 0
174 197 0
171 194 0
172 195 0
171 194 0
171 196 0
165 188 0
170 194 0
170 193 0
173 197 0
172 195 0
174 197 0
170 193 0
172 196 0
170 193 0
169 193 0
171 194 0
163 188 47
67 102 170
62 98 170
63 99 172
62 99 175
63 99 167
63 100 176
62 99 172
62 99 171
62 98 170
62 99 174
62 99 176
62 99 178
62 99 175
63 99 177
62 99 177
62 99 175
61 98 170
62 98 173
63 99 175
62 99 176
62 99 177
62 99 176
62 98 174
62 99 178
63 99 176
62 99 179
62 99 179
62 99 177
63 99 180
62 99 177
62 99 179
62 99 180
62 99 177
62 99 179
62 99 179
61 99 179
62 99 179
62 99 179
63 100 180
62 99 180
63 100 180
61 99 181
61 99 179
62 99 178
62 99 178
63 99 179
62 99 179
61 99 181
62 99 180
62 99 180
62 99 179
63 100 181
61 99 180
62 99 181
62 99 180
62 99 180
62 99 179
62 99 181
62 99 181
62 99 180
62 99 180
62 99 180
62 99 180
62 99 181
62 99 178
62 99 180
62 99 180
61 99 180
62 99 179
62 99 178
62 99 181
62 99 179
62 99 181
62 99 180
61 99 179
62 99 180
62 99 177
62 99 179
62 99 180
62 99 179
61 98 179
63 100 180
62 99 180
62 99 177
62 99 180
61 99 179
61 99 179
62 99 179
62 99 180
62 99 176
62 99 178
62 99 178
62 99 178
61 98 178
62 99 180
62 99 180
62 99 180
62 99 179
62 99 178
62 99 175
62 99 180
62 99 176
62 99 178
62 99 175
62 99 180
62 99 179
62 99 175
62 99 180
62 99 179
62 99 178
61 98 176
62 99 179
61 98 176
61 98 176
62 99 175
62 99 179
62 99 173
61 98 178
62 99 177
62 99 176
62 98 174
62 99 173
62 99 175
62 99 174
62 99 176
63 99 179
62 99 177
61 97 172
62 98 171
62 98 174
61 98 175
61 98 172
61 97 173
61 98 173
61 98 172
61 98 173
61 97 171
60 96 165
61 97 172
61 96 166
62 98 173
61 97 169
61 96 165
60 94 159
61 95 163
62 97 169
79 97 130
106 106 64
93 94 64
109 108 68
109 109 69
104 104 69
97 99 68
98 99 68
103 104 70
91 93 66
101 102 71
97 100 71
101 104 77
107 109 74
114 114 79
105 107 75
94 98 70
108 110 78
97 100 72
98 102 75
123 124 87
109 111 80
104 107 77
126 125 85
124 125 86
121 121 84
123 125 88
132 132 91
126 126 87
126 126 88
134 133 91
137 137 94
126 127 88
139 138 92
144 143 96
147 145 94
139 139 92
139 138 94
141 140 92
139 137 92
147 145 96
148 146 96
152 149 95
148 147 97
155 153 99
157 154 98
157 154 100
162 159 103
154 153 101
152 150 97
159 156 99
161 157 101
156 154 103
156 153 95
163 159 103
161 158 100
162 158 101
165 160 99
162 158 99
164 160 99
168 163 103
165 162 103
169 164 103
171 166 103
168 164 103
167 163 102
167 163 101
173 168 108
174 169 103
173 168 103
167 163 102
167 162 95
174 169 103
175 170 107
174 169 106
173 168 103
173 169 106
174 169 105
170 165 102
174 170 104
178 172 106
172 167 102
174 169 102
172 166 101
176 170 103
174 169 99
172 168 100
173 167 99
178 171 108
175 169 101
177 171 105
177 171 103
174 168 101
171 166 99
170 163 98
171 166 98
171 166 101
175 169 104
172 167 99
169 164 99
172 165 101
169 163 97
169 163 93
171 166 103
171 165 99
167 161 93
169 163 99
168 163 94
166 160 97
166 161 90
172 165 95
167 162 93
164 159 92
165 159 95
171 163 98
169 163 95
163 157 89
165 159 93
168 162 95
164 158 93
164 157 90
167 161 89
161 155 90
158 152 83
163 156 87
158 152 84
150 144 79
158 151 87
167 159 92
155 148 84
153 147 80
162 156 83
159 152 87
154 147 82
158 151 81
153 147 76
156 149 79
152 146 76
141 136 71
147 141 71
139 133 69
147 140 71
144 137 69
141 135 66
139 133 66
133 127 61
111 107 45
169 190 0
173 196 0
170 193 0
173 196 0
174 196 0
174 196 0
172 195 0
173 196 0
174 197 0
172 196 0
167 191 0
174 198 0
173 197 0
172 195 0
172 196 0
174 197 0
173 196 0
174 198 0
171 194 0
174 198 0
173 197 0
174 197 0
172 196 0
174 198 0
174 198 0
174 198 0
170 194 0
174 197 0
172 195 0
174 198 0
172 196 0
170 194 0
172 195 0
173 196 0
172 196 0
170 193 0
175 198 0
171 195 0
171 195 0
174 197 0
172 195 0
174 198 0
174 197 0
173 196 0
172 195 0
175 198 0
173 197 0
171 195 0
172 194 0
173 196 0
173 195 0
170 194 0
172 196 0
174 197 0
171 195 0
172 196 0
171 195 0
173 197 0
172 197 0
172 196 0
173 196 0
173 196 0
171 195 0
171 195 0
173 196 0
172 195 0
172 195 0
171 195 0
173 195 0
169 193 0
173 196 0
171 195 0
170 194 0
170 194 0
172 195 0
173 196 0
172 196 0
171 194 0
172 194 0
171 195 0
170 195 0
175 198 0
172 195 0
174 197 0
169 191 0
172 195 0
173 195 0
174 197 0
171 194 0
173 196 0
173 195 0
170 194 0
173 196 0
171 194 0
172 195 0
171 194 0
174 197 0
173 196 0
171 195 0
174 196 0
172 196 0
173 195 0
172 195 0
173 196 0
173 195 0
168 192 18
100 129 145
62 98 169
62 99 168
61 98 168
62 98 173
62 99 174
63 99 170
61 98 174
62 99 180
63 99 175
62 99 172
62 99 175
62 99 174
62 99 173
62 99 177
62 99 178
62 99 176
63 99 176
63 99 178
62 99 175
61 98 179
62 99 174
62 99 177
62 99 177
62 99 180
61 99 179
62 99 178
62 99 176
62 99 176
62 99 180
62 99 178
62 99 178
63 99 179
63 99 179
62 99 177
63 100 179
62 99 178
62 99 179
61 98 180
62 99 179
62 99 181
63 100 180
62 99 181
61 99 179
62 99 180
62 99 178
62 99 180
62 99 180
62 99 180
62 99 180
63 100 180
62 99 179
63 100 179
62 99 177
62 99 180
62 99 179
62 99 179
61 99 180
61 99 178
62 99 181
62 99 180
61 99 180
62 99 180
62 99 179
61 98 176
61 99 181
62 99 177
62 99 179
62 99 179
62 99 180
62 99 180
62 99 181
62 99 180
61 99 178
63 99 176
62 99 179
62 99 180
62 99 176
62 99 181
61 99 179
62 99 178
62 99 179
63 100 180
62 99 176
62 99 181
62 99 181
62 99 180
62 99 181
62 99 180
62 99 179
62 99 178
62 99 181
62 99 181
62 99 180
62 99 178
62 99 180
62 99 178
61 98 175
62 99 179
62 99 179
62 99 178
62 99 178
61 98 176
62 99 180
62 99 179
61 98 175
62 99 176
61 98 176
62 99 176
62 99 178
62 99 178
62 99 177
62 99 174
62 98 177
62 99 177
62 99 180
62 99 179
62 99 174
62 99 177
61 98 172
62 99 175
61 98 171
61 98 176
62 99 178
62 99 175
61 98 176
62 99 171
61 98 173
62 99 177
61 97 170
62 98 174
62 98 171
61 98 176
63 99 176
62 99 172
62 99 175
62 98 173
61 98 170
62 98 171
61 97 173
62 98 172
62 97 166
61 97 168
61 97 168
61 97 169
61 96 168
60 94 163
59 93 159
98 105 108
106 106 67
103 102 68
95 96 64
94 95 64
97 98 66
103 104 70
96 98 70
101 103 72
94 96 68
103 104 73
101 103 74
93 96 69
99 102 73
102 105 77
106 108 78
113 115 80
104 107 77
106 108 78
115 118 83
111 113 79
111 113 78
115 117 80
120 120 81
113 116 81
128 128 88
129 129 89
114 115 80
131 131 90
126 127 88
126 127 85
126 127 87
142 140 91
124 125 86
139 138 95
141 140 95
143 142 94
155 151 99
148 146 96
138 137 94
151 149 101
146 145 94
147 146 93
151 149 97
154 152 97
156 153 98
155 152 99
153 150 97
161 158 100
151 149 97
163 159 103
158 155 99
165 161 105
163 159 102
169 164 105
165 162 101
167 162 102
164 160 103
168 163 98
169 164 103
167 163 97
168 164 101
168 163 100
174 168 104
173 168 101
171 166 105
175 169 105
172 167 101
168 164 98
175 169 103
170 166 107
174 169 106
172 167 104
173 167 101
172 167 102
170 165 103
171 166 99
174 169 105
172 167 97
175 170 103
176 170 102
174 168 104
176 170 104
174 168 101
169 164 100
174 169 106
173 168 103
169 164 98
174 169 103
173 167 101
176 170 103
176 170 103
174 169 100
173 168 101
172 167 103
176 169 103
173 167 103
167 161 93
170 164 96
171 165 103
166 161 94
171 165 99
171 165 97
173 167 98
172 165 95
174 167 97
167 160 97
175 168 101
170 164 98
169 162 97
172 166 97
169 163 93
175 168 102
169 163 98
165 159 89
161 155 89
167 161 89
167 160 91
162 156 90
162 157 85
164 157 90
161 155 86
155 150 82
160 155 84
156 150 79
162 155 87
157 152 80
153 147 78
154 148 80
160 153 84
157 151 83
158 152 88
150 144 74
155 149 77
142 136 66
152 146 75
150 143 76
155 149 77
148 142 71
149 143 72
144 138 69
143 137 69
145 139 73
139 133 63
136 130 62
122 117 56
172 194 16
174 197 0
172 195 0
172 194 0
172 193 0
173 196 0
172 194 0
173 197 0
175 198 0
173 197 0
174 197 0
171 195 0
176 199 0
172 195 0
173 196 0
172 195 0
171 195 0
175 198 0
175 198 0
172 196 0
171 194 0
172 196 0
173 197 0
173 197 0
173 196 0
172 195 0
171 194 0
172 195 0
172 196 0
173 197 0
175 198 0
174 198 0
171 194 0
171 196 0
173 196 0
172 196 0
172 195 0
174 197 0
171 195 0
173 196 0
172 196 0
174 197 0
171 195 0
173 196 0
172 195 0
172 195 0
174 196 0
172 196 0
171 195 0
171 195 0
172 195 0
173 197 0
173 197 0
173 197 0
172 196 0
172 194 0
169 192 0
175 197 0
170 195 0
173 196 0
171 195 0
174 197 0
168 191 0
173 197 0
173 197 0
171 194 0
171 194 0
167 192 0
173 197 0
169 193 0
170 193 0
168 191 0
173 197 0
172 195 0
168 193 0
171 194 0
169 193 0
170 193 0
171 194 0
170 193 0
171 195 0
170 194 0
171 195 0
174 197 0
173 196 0
173 196 0
173 195 0
171 194 0
170 193 0
170 194 0
174 197 0
172 195 0
173 196 0
172 195 0
172 195 0
169 192 0
169 192 0
174 197 0
176 198 0
173 196 0
173 196 0
169 192 0
166 190 0
170 194 0
170 194 0
127 153 124
62 99 172
62 99 173
62 99 174
62 99 172
62 99 172
62 99 172
63 99 172
62 99 176
62 99 175
62 99 173
62 99 173
63 100 178
62 99 173
62 99 178
62 99 177
62 99 177
61 98 173
62 99 176
62 99 178
63 99 176
62 99 176
63 99 177
62 99 177
62 99 179
62 99 177
62 99 178
62 99 176
63 99 178
62 99 178
62 99 178
63 100 178
62 99 178
62 99 178
62 99 178
62 99 181
63 99 176
62 99 180
62 98 175
61 99 178
62 99 181
61 98 178
63 99 179
62 99 179
62 99 180
62 99 178
62 99 181
62 99 181
61 98 180
62 99 181
61 99 178
62 99 179
62 99 178
62 99 180
62 99 178
62 99 179
61 99 180
62 99 181
62 99 180
62 99 180
61 98 175
62 99 180
62 99 180
62 99 180
62 99 180
62 99 181
62 99 181
61 99 178
62 99 179
62 99 180
63 100 179
61 99 179
62 99 180
62 99 180
62 99 179
62 99 178
62 99 180
62 99 176
61 98 178
62 99 179
62 99 178
62 99 181
62 99 181
62 99 181
62 99 179
62 99 178
62 99 178
62 99 181
62 99 179
63 99 178
62 99 179
62 99 181
62 99 179
62 99 179
62 99 176
62 99 178
62 99 178
62 98 174
61 98 178
61 98 174
62 99 179
62 99 179
62 98 171
62 99 179
62 99 178
62 99 179
62 99 179
62 99 178
62 99 177
63 100 180
62 99 177
63 100 179
62 99 177
62 99 177
62 99 178
62 99 174
63 100 180
62 99 176
62 98 176
63 99 176
61 98 175
61 98 171
61 98 174
62 99 175
62 99 177
63 99 177
62 98 173
61 98 176
61 97 170
62 99 177
62 98 173
62 98 173
62 99 177
62 99 176
62 98 173
62 98 170
63 99 172
62 98 170
61 96 171
61 97 166
62 97 164
61 96 166
61 97 166
61 97 166
62 97 169
61 96 164
60 94 156
61 95 163
61 95 166
65 94 146
94 97 81
116 115 73
84 86 60
91 93 62
91 91 61
93 94 64
86 88 63
103 103 72
87 90 66
107 109 77
106 107 77
98 102 74
96 98 72
89 92 67
103 106 77
95 99 74
104 106 75
105 108 77
121 121 82
106 109 78
118 118 82
95 99 74
100 102 74
105 108 79
120 122 85
124 125 84
123 124 85
121 123 84
128 129 87
127 128 88
140 139 96
127 127 87
135 134 91
138 137 91
143 141 95
144 143 97
142 140 93
145 143 95
150 149 96
141 141 90
150 147 95
151 149 96
153 150 97
151 148 92
151 149 93
158 154 101
150 148 96
162 158 101
157 154 96
158 154 99
162 158 100
159 156 100
165 161 101
159 156 100
163 160 101
166 161 101
166 161 100
167 162 103
165 161 100
164 160 101
174 168 106
166 162 100
165 161 99
168 163 101
168 163 104
167 164 101
169 165 103
172 168 100
173 168 103
166 162 100
172 167 99
172 167 104
171 166 102
171 167 103
175 169 103
173 167 104
173 167 99
175 169 104
176 170 103
173 168 104
171 166 101
175 169 101
176 170 106
175 169 102
177 171 103
175 170 102
174 168 100
171 166 103
173 167 100
169 164 98
174 167 100
172 166 95
176 169 103
177 170 104
171 164 95
171 166 101
174 167 94
170 164 96
170 165 95
169 163 99
171 165 99
169 164 94
174 167 98
167 161 93
168 162 97
166 160 93
168 161 95
169 162 92
170 164 93
168 162 95
160 155 91
164 159 91
171 164 99
162 156 92
162 157 91
159 154 87
167 160 93
162 156 89
164 158 87
160 154 81
165 159 89
164 157 88
159 154 85
162 156 83
164 157 90
165 158 89
160 154 86
160 153 79
150 143 73
151 144 80
150 145 75
156 150 80
150 144 77
159 153 80
146 141 75
147 141 70
151 144 75
146 140 72
150 144 68
131 126 59
136 131 58
140 134 66
141 135 66
140 135 66
121 116 51
169 191 0
172 195 0
173 195 0
171 193 0
171 193 0
171 193 0
174 197 0
174 197 0
172 196 0
172 196 0
171 195 0
175 198 0
170 194 0
171 195 0
175 198 0
175 197 0
172 196 0
173 197 0
174 197 0
173 197 0
173 197 0
173 197 0
171 195 0
172 195 0
173 196 0
172 196 0
174 197 0
172 197 0
174 197 0
170 194 0
173 197 0
169 192 0
174 197 0
174 197 0
175 198 0
171 194 0
170 193 0
172 196 0
173 196 0
175 198 0
174 197 0
172 196 0
173 197 0
172 195 0
173 196 0
173 197 0
172 196 0
172 196 0
173 196 0
171 194 0
172 195 0
173 197 0
170 193 0
171 194 0
171 195 0
172 195 0
175 198 0
171 195 0
172 196 0
173 196 0
175 197 0
171 195 0
173 196 0
171 195 0
173 197 0
172 196 0
172 195 0
172 195 0
172 195 0
172 195 0
171 195 0
171 195 0
170 193 0
174 197 0
173 196 0
172 194 0
170 194 0
174 196 0
171 194 0
172 195 0
171 195 0
171 194 0
170 193 0
169 192 0
173 196 0
170 193 0
171 194 0
170 194 0
173 196 0
172 196 0
171 195 0
173 196 0
170 193 0
171 195 0
172 195 0
171 194 0
171 194 0
169 193 0
172 195 0
172 196 0
173 196 0
170 194 0
171 194 0
172 195 0
144 168 92
66 101 173
63 100 175
62 99 172
62 99 169
62 99 169
64 100 177
63 99 175
62 99 172
62 99 172
63 100 178
63 100 179
63 99 177
63 99 177
62 99 173
62 98 173
62 99 175
62 99 178
62 98 174
62 99 173
62 98 172
62 99 176
62 98 175
62 99 178
63 100 180
62 99 177
62 98 171
62 99 177
62 99 178
62 99 178
61 98 178
62 99 178
63 100 181
62 99 177
63 100 180
62 99 180
63 100 178
62 99 178
62 99 180
62 99 179
62 99 177
62 99 176
62 99 177
62 99 179
61 99 178
62 99 181
62 99 180
62 99 181
62 99 178
63 100 181
62 99 180
62 99 181
62 99 180
62 99 179
63 100 180
62 99 179
62 99 181
61 99 178
62 99 181
62 99 180
62 99 180
62 99 180
62 99 181
62 99 179
62 99 181
62 99 178
62 99 179
62 99 180
62 99 179
62 99 179
62 99 180
61 99 180
62 99 176
62 99 180
62 99 179
62 99 179
63 100 180
62 99 180
62 99 179
61 99 180
62 99 179
61 98 178
62 99 181
62 99 180
62 99 180
62 99 180
61 98 179
62 99 179
62 99 180
62 99 180
62 99 178
62 99 176
62 99 179
62 99 181
62 99 176
62 99 178
62 99 177
61 99 179
61 98 175
61 99 177
63 100 180
62 99 177
63 99 178
62 99 176
62 99 177
62 99 179
62 99 176
62 99 179
61 98 177
62 99 180
62 99 175
62 99 180
62 99 175
62 99 179
62 99 178
62 99 177
61 98 174
62 99 178
62 99 174
62 99 177
61 98 176
62 98 176
63 100 180
62 99 175
62 99 177
62 98 177
62 99 178
62 99 178
62 99 174
62 98 171
62 98 173
62 99 175
63 99 177
62 98 175
61 98 169
62 99 175
61 97 167
63 99 176
62 98 165
61 97 168
61 97 170
62 97 168
61 97 170
62 97 170
61 96 162
61 96 168
60 96 165
60 94 162
61 96 167
59 94 159
60 93 157
74 94 130
103 103 67
98 97 59
94 94 62
79 82 58
100 101 69
101 101 64
97 99 70
97 99 70
98 100 68
94 97 69
103 104 72
100 101 69
95 99 73
104 107 75
100 103 74
94 97 71
102 106 77
106 109 79
99 101 73
106 108 77
115 115 81
120 122 87
113 115 81
118 119 83
132 132 91
123 124 87
125 126 86
129 129 89
130 130 87
131 131 85
133 133 87
137 136 90
135 134 88
135 135 91
144 142 93
137 136 88
145 144 95
131 131 90
145 143 92
148 147 96
159 155 101
145 144 94
156 152 98
150 147 94
160 157 102
157 155 100
149 147 95
145 144 91
161 158 103
158 155 96
160 157 99
159 155 96
157 154 96
160 157 101
167 162 101
165 161 103
171 165 100
166 162 99
164 160 101
167 162 98
172 166 104
168 164 100
169 164 101
170 165 101
168 164 100
170 166 101
170 164 97
172 166 101
174 169 103
171 166 99
171 166 99
172 166 98
174 169 104
176 170 103
177 171 106
174 168 99
176 170 105
177 170 104
173 167 102
177 171 104
171 166 99
173 168 101
170 165 99
175 169 103
175 168 101
173 167 97
174 168 101
175 169 104
172 166 101
173 168 100
174 168 103
171 165 102
169 163 93
169 163 97
171 165 99
175 169 101
170 165 98
170 165 93
171 165 97
174 168 100
171 165 98
172 166 97
168 162 93
166 160 94
165 160 95
168 162 93
171 165 92
169 163 93
164 159 90
167 161 94
168 163 93
167 161 97
167 161 97
162 156 90
161 156 88
161 155 88
167 160 91
161 155 85
162 156 84
163 157 91
152 145 84
161 155 82
162 156 87
161 156 86
159 154 86
160 153 82
158 151 80
155 150 82
153 147 80
148 142 79
143 138 75
152 146 80
153 146 80
146 140 74
146 140 73
147 141 75
148 141 75
146 139 76
128 123 54
141 136 68
133 128 68
123 117 58
126 121 53
127 121 61
172 195 16
172 195 0
172 195 0
174 196 0
173 197 0
172 195 0
172 196 0
172 196 0
172 197 0
173 195 0
173 197 0
173 197 0
173 197 0
173 196 0
174 197 0
169 192 0
173 197 0
171 194 0
173 197 0
175 198 0
172 196 0
171 194 0
175 198 0
172 195 0
171 195 0
175 197 0
174 197 0
172 196 0
173 196 0
173 196 0
172 196 0
171 195 0
174 197 0
172 196 0
175 198 0
173 195 0
174 197 0
173 196 0
176 198 0
172 196 0
173 196 0
173 197 0
171 195 0
170 194 0
175 198 0
172 195 0
171 194 0
172 196 0
171 195 0
172 196 0
170 194 0
171 193 0
171 195 0
171 195 0
174 197 0
172 196 0
170 194 0
171 195 0
171 196 0
171 195 0
170 194 0
171 196 0
174 197 0
171 196 0
172 195 0
171 195 0
171 195 0
174 197 0
172 196 0
172 195 0
171 194 0
172 196 0
172 195 0
169 192 0
170 193 0
172 195 0
174 198 0
171 195 0
170 194 0
171 194 0
171 194 0
170 193 0
172 195 0
173 196 0
173 196 0
172 195 0
172 195 0
171 194 0
173 196 0
170 194 0
172 196 0
171 195 0
171 194 0
172 194 0
170 193 0
173 195 0
170 192 0
171 194 0
172 196 0
172 195 0
168 192 0
169 193 0
174 196 0
169 192 0
98 127 144
62 99 167
62 99 171
62 99 171
62 99 175
62 98 170
62 98 171
62 99 173
63 99 173
62 98 171
63 99 173
62 98 169
62 99 172
61 98 169
62 99 172
62 99 174
62 99 178
62 99 176
62 98 173
62 99 175
63 100 176
62 99 177
62 99 174
62 99 175
62 99 180
61 98 178
62 99 178
62 99 178
62 99 178
62 99 181
62 99 180
62 99 178
63 100 179
62 99 180
62 99 179
62 99 179
62 99 178
62 99 180
62 99 181
62 99 179
62 99 179
62 99 179
62 99 180
62 99 178
62 99 178
62 99 179
62 99 181
62 99 179
62 99 179
62 99 180
62 99 180
62 99 179
62 99 176
62 99 180
63 100 181
63 100 181
62 99 180
61 98 178
62 99 180
61 99 180
62 99 179
62 99 178
62 99 179
61 99 178
62 99 176
61 99 180
62 99 181
62 99 181
61 99 180
62 99 180
62 99 180
62 99 178
61 99 178
62 99 180
62 99 179
62 99 179
61 99 180
62 99 178
62 99 178
62 99 179
62 99 181
61 98 177
62 98 175
62 99 181
62 99 179
61 99 181
62 99 178
62 99 180
62 99 177
63 99 178
62 99 177
62 99 180
61 98 178
62 98 174
61 99 178
62 99 178
62 99 174
62 99 176
62 99 178
62 99 178
62 99 179
62 99 180
62 99 178
63 100 178
62 99 177
62 99 178
62 99 177
62 99 176
61 98 176
62 98 173
62 99 181
62 99 180
62 99 177
62 99 174
62 99 178
62 99 176
62 99 175
62 99 177
62 99 175
61 98 172
62 99 177
62 98 175
62 99 172
62 99 176
61 97 169
62 99 175
62 99 175
62 98 175
62 99 173
62 98 171
62 98 169
62 98 172
62 99 173
62 98 173
62 98 172
61 97 171
62 98 173
62 98 176
62 98 172
61 97 168
61 97 172
62 98 174
61 97 170
62 97 167
61 97 169
61 96 162
62 98 171
61 96 160
61 96 167
60 95 163
60 95 160
59 92 158
78 90 100
88 89 58
88 89 59
84 86 58
80 82 57
90 92 63
97 97 66
98 99 67
94 98 72
83 87 66
96 99 70
95 99 73
97 100 72
100 102 74
95 98 72
109 111 80
100 104 77
109 111 80
101 105 76
103 104 71
111 112 79
109 111 77
117 119 82
125 125 86
113 116 81
123 124 86
130 129 89
123 124 85
131 131 89
134 132 86
125 127 88
136 135 92
139 137 89
130 130 86
138 138 92
148 146 94
132 131 85
152 150 96
151 149 97
138 137 91
149 146 93
152 149 96
152 149 95
134 133 90
150 146 92
152 148 91
157 154 96
152 150 96
154 152 97
157 153 97
154 151 100
161 157 98
154 151 97
165 161 100
161 158 98
167 162 102
162 158 95
165 161 102
159 156 98
164 160 103
168 165 105
162 158 98
170 166 100
166 162 99
167 162 97
170 164 99
171 166 102
172 166 98
169 165 105
170 165 98
170 166 99
173 168 102
171 166 101
172 168 102
170 165 98
173 168 99
172 167 102
173 167 101
174 168 96
174 169 105
177 170 102
173 168 105
175 169 99
175 169 104
171 165 98
171 165 93
174 167 95
172 166 100
175 168 101
168 163 99
175 168 101
172 166 97
175 168 101
172 166 98
169 164 97
173 166 95
175 169 102
176 169 104
169 163 96
171 164 97
168 163 95
176 169 101
170 163 95
167 161 92
167 162 98
169 163 97
168 162 91
164 158 92
163 157 86
166 160 90
162 156 88
161 156 87
165 158 89
164 158 87
167 160 88
166 160 92
161 153 89
160 154 81
166 159 88
157 150 87
165 158 88
158 152 82
163 157 83
159 154 86
160 154 87
164 158 90
154 148 75
156 150 78
153 147 76
154 147 76
154 146 80
153 147 75
144 138 71
155 148 78
153 146 75
152 146 79
128 123 61
146 140 70
138 131 69
142 137 65
130 126 57
135 129 56
132 125 64
120 116 54
172 196 0
171 195 0
172 194 0
170 192 0
170 193 0
173 196 0
172 196 0
175 198 0
173 196 0
172 196 0
176 199 0
171 195 0
172 196 0
172 196 0
174 197 0
172 195 0
172 196 0
172 195 0
175 198 0
171 195 0
173 196 0
172 196 0
171 194 0
172 196 0
172 196 0
173 196 0
170 193 0
172 197 0
173 196 0
174 197 0
173 197 0
173 196 0
174 197 0
172 195 0
171 194 0
174 197 0
172 195 0
173 196 0
173 195 0
172 196 0
171 195 0
169 193 0
174 197 0
172 195 0
173 196 0
172 196 0
171 194 0
173 196 0
172 196 0
172 195 0
172 196 0
174 197 0
170 194 0
169 193 0
173 196 0
170 194 0
173 197 0
175 198 0
174 197 0
173 196 0
170 193 0
170 194 0
170 194 0
171 194 0
173 196 0
171 194 0
171 194 0
173 196 0
171 195 0
171 194 0
172 195 0
172 194 0
168 192 0
173 197 0
169 193 0
172 195 0
173 196 0
172 195 0
170 193 0
172 195 0
169 193 0
167 191 0
172 195 0
172 195 0
169 192 0
171 194 0
172 195 0
172 196 0
173 196 0
174 197 0
168 193 0
171 195 0
173 196 0
170 193 0
170 193 0
172 196 0
167 190 0
170 193 0
171 193 0
170 193 0
171 195 0
171 195 0
171 194 0
136 161 99
62 98 166
62 98 167
62 98 167
61 97 158
62 99 169
63 99 174
63 99 175
62 99 172
61 98 169
62 98 170
62 99 174
62 99 175
62 98 171
62 99 175
63 99 177
62 99 176
62 99 174
62 99 178
62 99 176
62 99 176
62 99 175
62 99 177
62 99 174
63 99 177
62 99 179
62 99 178
62 99 177
61 98 175
62 99 173
62 99 175
62 99 179
63 99 179
62 99 179
62 99 179
61 98 175
62 99 179
62 99 177
62 99 180
62 99 176
62 99 177
63 100 178
62 99 179
62 99 178
62 99 180
62 99 179
62 99 179
62 99 180
62 99 179
62 99 178
62 99 181
62 99 180
62 99 180
61 99 179
62 99 178
62 99 180
61 98 181
61 98 178
62 99 180
62 99 180
62 99 181
62 99 179
62 99 179
63 99 178
61 98 176
62 99 179
62 99 181
62 99 179
62 99 180
62 99 179
62 99 178
62 99 179
62 99 180
62 99 176
62 99 178
62 99 179
62 99 180
62 99 181
62 99 176
61 99 177
62 99 179
62 99 179
62 99 178
62 99 180
62 99 177
62 99 178
62 99 179
61 98 178
62 99 181
62 99 180
62 99 179
62 99 178
62 99 175
62 99 177
62 99 179
62 99 179
62 99 181
62 99 179
62 99 178
62 99 178
62 99 179
62 99 179
61 98 180
62 99 175
62 99 175
62 99 177
62 99 178
62 99 177
62 99 180
63 99 178
63 99 179
61 98 178
61 98 173
62 99 174
63 100 181
61 98 173
61 98 173
62 99 175
62 99 176
62 99 174
62 99 176
62 99 175
62 99 178
62 99 173
62 98 172
62 98 173
62 99 175
61 98 175
62 99 177
62 99 174
62 99 176
61 98 174
62 98 171
62 99 176
62 98 174
62 99 173
62 98 173
62 99 173
62 98 173
62 98 170
62 98 171
62 98 172
62 98 169
61 97 168
61 97 169
61 97 168
61 97 166
62 98 173
61 96 164
62 98 170
61 97 166
61 96 165
59 92 155
64 95 157
89 92 70
77 80 57
86 88 62
97 97 66
77 81 57
83 85 57
93 94 65
87 90 64
89 92 66
91 93 66
90 94 68
86 89 62
96 99 71
99 102 73
104 105 73
102 105 75
95 99 73
99 102 74
109 110 78
106 110 81
104 106 77
104 108 76
114 115 79
108 111 79
121 123 85
113 116 81
117 119 82
122 122 80
131 131 89
114 117 80
134 132 85
145 143 92
126 126 85
148 146 98
127 128 86
137 136 93
135 136 91
134 134 87
142 141 89
133 133 85
144 143 93
156 154 99
155 152 94
152 149 98
149 146 92
159 155 97
152 149 94
154 150 91
156 153 94
154 151 99
158 155 98
156 153 94
167 162 102
161 157 101
157 154 99
168 163 101
164 159 95
162 158 95
167 163 101
168 163 98
170 165 103
168 163 100
166 162 95
168 164 103
169 164 100
172 167 101
171 166 100
173 168 102
172 166 100
172 167 102
173 167 100
175 169 104
170 165 100
172 167 102
169 164 98
175 168 100
172 166 98
170 165 95
174 168 104
175 168 101
171 164 96
172 166 97
172 167 100
175 169 99
174 168 102
174 169 102
175 168 99
175 169 104
166 162 90
170 164 93
172 166 93
170 164 92
170 165 97
173 166 97
170 164 91
177 169 99
173 167 97
173 166 99
170 164 95
174 168 99
164 159 92
167 161 95
171 164 101
169 162 90
170 163 93
168 163 97
167 160 93
168 162 93
164 159 87
167 160 92
165 159 90
163 157 83
164 158 86
168 162 93
163 157 86
166 159 91
169 162 88
168 161 91
165 159 93
164 159 87
158 152 84
159 153 86
150 145 77
155 149 78
163 157 88
155 149 82
157 150 80
149 142 75
152 145 77
151 146 75
146 141 74
155 149 83
160 155 79
144 138 70
153 146 80
141 135 67
147 141 69
140 134 67
141 136 63
142 136 71
139 133 62
128 123 53
126 127 48
172 194 0
172 195 0
170 193 0
173 196 0
174 197 0
174 197 0
174 197 0
171 195 0
173 197 0
173 196 0
173 197 0
172 196 0
175 197 0
175 197 0
174 197 0
173 196 0
174 198 0
172 196 0
174 197 0
174 198 0
171 195 0
170 194 0
173 196 0
172 195 0
172 196 0
175 198 0
175 198 0
173 196 0
173 196 0
174 197 0
172 196 0
171 194 0
172 196 0
173 196 0
174 198 0
171 193 0
173 196 0
174 197 0
170 195 0
171 195 0
172 196 0
174 198 0
170 194 0
171 195 0
172 196 0
171 194 0
173 196 0
171 194 0
169 193 0
172 196 0
170 194 0
174 196 0
170 193 0
173 197 0
171 194 0
174 197 0
174 197 0
171 195 0
170 193 0
173 196 0
173 196 0
172 195 0
168 192 0
172 195 0
173 195 0
167 191 0
172 196 0
172 195 0
173 196 0
167 190 0
169 193 0
173 196 0
173 196 0
171 195 0
171 195 0
170 193 0
171 194 0
171 194 0
174 197 0
170 195 0
169 192 0
169 191 0
171 194 0
171 195 0
171 195 0
171 194 0
169 193 0
169 192 0
170 194 0
170 193 0
170 193 0
171 195 0
174 197 0
171 194 0
167 191 0
170 193 0
169 193 0
172 195 0
171 194 0
169 194 0
167 190 0
173 196 0
159 183 65
66 101 161
62 99 168
62 98 161
63 99 172
62 99 174
62 98 168
63 99 174
62 98 168
62 99 172
63 99 173
62 99 176
62 98 170
62 99 175
62 99 174
62 99 175
62 98 172
62 99 173
62 99 174
62 99 176
62 99 174
62 99 173
61 98 177
62 99 175
62 99 175
63 100 179
62 99 179
62 99 181
62 99 178
62 99 180
62 99 179
62 99 179
62 99 176
62 99 179
63 100 179
62 99 175
61 99 178
62 99 181
62 99 179
63 100 180
62 99 181
62 99 177
62 99 179
62 99 179
62 99 179
62 99 179
62 99 176
62 99 179
63 99 180
62 99 180
62 99 179
62 99 180
62 99 180
62 99 180
62 99 180
62 99 179
62 99 181
62 99 180
62 99 179
62 99 181
62 99 178
62 99 179
62 99 175
62 99 180
62 99 180
62 99 181
62 99 179
62 99 179
62 99 179
61 98 178
62 99 179
62 99 180
62 99 177
62 99 181
61 98 176
61 98 179
62 99 176
62 99 178
62 99 177
62 99 180
62 99 181
61 99 177
62 99 181
61 98 177
62 99 178
62 99 178
62 99 176
63 99 177
62 99 179
62 99 179
62 99 178
62 99 178
63 100 179
62 99 180
62 99 176
62 99 178
62 99 174
62 99 178
62 99 180
62 99 178
62 99 176
62 99 177
62 99 175
62 99 175
63 99 176
63 99 177
62 99 179
62 99 177
62 99 177
63 100 181
62 99 179
62 99 176
62 98 173
62 99 175
63 100 181
62 99 175
62 99 178
62 99 177
62 99 176
63 100 179
62 99 178
62 98 175
62 98 176
61 98 175
62 99 174
62 99 173
62 99 174
62 98 170
62 99 174
63 99 175
62 99 175
62 99 172
62 98 171
62 98 169
61 98 168
61 98 168
61 97 172
61 98 170
61 98 172
61 97 165
62 98 172
62 98 172
62 98 171
60 96 165
61 98 171
62 99 175
61 97 171
62 98 167
61 97 171
61 97 165
60 95 164
61 96 161
60 94 164
60 94 157
61 95 162
79 94 124
91 94 67
89 89 56
84 87 63
83 87 61
101 101 70
89 92 65
79 83 59
91 92 64
90 93 66
90 92 66
101 104 73
99 101 71
93 96 70
99 101 73
103 106 78
103 106 77
98 101 73
104 107 77
95 99 71
111 114 79
115 118 84
107 109 74
108 111 76
116 116 80
116 117 80
129 130 85
121 123 85
126 127 87
120 122 81
125 125 80
137 136 89
122 123 77
141 140 93
142 140 92
139 138 91
146 143 92
139 138 87
139 138 88
139 139 90
148 146 94
151 149 92
145 143 92
147 146 97
152 149 94
159 155 100
154 152 96
161 157 99
150 148 93
161 158 100
160 156 95
154 152 95
161 157 99
159 156 99
160 156 95
161 157 99
172 166 103
160 157 93
168 163 100
168 163 99
170 164 101
168 163 96
171 165 101
169 164 100
170 165 102
169 164 102
169 164 95
172 166 101
175 169 102
169 164 91
169 165 100
170 165 99
174 168 102
170 165 99
172 166 98
177 170 103
173 166 97
171 166 99
173 167 103
172 166 96
174 167 96
175 169 102
173 168 98
173 167 99
172 166 97
172 166 95
172 166 100
176 170 102
175 169 101
174 168 99
171 165 95
170 164 99
173 166 100
173 167 97
175 168 96
173 167 99
171 165 97
169 163 91
173 167 95
173 166 97
171 164 97
175 168 100
171 164 97
166 159 90
166 160 93
165 160 92
167 161 91
173 166 99
163 157 88
163 157 90
166 160 94
165 159 93
165 159 89
165 159 89
161 154 84
162 155 84
164 158 87
162 155 84
165 158 88
155 149 85
164 158 93
160 154 83
164 156 87
164 158 84
158 152 82
153 147 76
159 153 84
157 151 84
159 153 83
153 147 74
152 146 81
147 141 74
146 141 72
144 138 68
147 141 68
146 140 69
144 138 73
146 140 68
147 141 71
141 134 62
132 127 61
132 127 58
138 136 56
172 193 0
171 193 0
172 194 0
172 196 0
171 195 0
173 195 0
172 195 0
173 196 0
173 196 0
173 196 0
175 198 0
171 195 0
171 194 0
173 196 0
173 197 0
174 197 0
171 195 0
173 196 0
174 197 0
171 194 0
172 195 0
171 194 0
172 195 0
175 197 0
174 197 0
171 196 0
174 197 0
174 198 0
171 195 0
172 196 0
173 196 0
173 197 0
172 196 0
173 197 0
172 197 0
174 197 0
174 197 0
173 196 0
173 196 0
171 195 0
170 193 0
175 197 0
170 194 0
171 195 0
172 195 0
170 194 0
174 197 0
173 196 0
173 197 0
174 197 0
172 195 0
170 194 0
172 196 0
170 194 0
174 196 0
171 195 0
171 194 0
172 195 0
170 193 0
174 198 0
169 193 0
172 196 0
174 197 0
172 194 0
170 193 0
172 194 0
172 196 0
173 195 0
171 195 0
168 192 0
173 196 0
170 195 0
171 194 0
173 196 0
174 197 0
173 197 0
171 194 0
171 194 0
171 194 0
169 193 0
173 196 0
171 194 0
173 196 0
170 193 0
174 197 0
169 193 0
172 195 0
169 193 0
169 193 0
170 193 0
172 196 0
171 194 0
167 192 0
171 194 0
172 195 0
172 195 0
170 194 0
172 196 0
174 197 0
173 196 0
174 196 0
172 196 0
120 145 125
62 98 159
62 98 167
61 98 164
62 98 167
62 98 168
62 99 173
62 98 169
61 98 171
63 99 172
62 99 171
63 99 175
62 98 172
62 98 168
62 99 167
62 99 177
61 98 174
62 99 178
62 99 175
62 99 177
61 98 173
62 99 172
62 99 173
62 99 173
62 99 175
62 99 177
62 99 176
62 99 174
62 99 173
62 99 176
62 99 176
62 98 171
62 99 178
62 99 176
62 99 176
62 99 176
62 99 174
63 100 179
62 99 178
62 99 179
61 98 177
62 99 175
62 99 177
61 99 177
62 99 179
62 99 180
62 99 179
62 99 179
62 99 177
62 99 180
62 99 178
62 99 178
62 99 179
62 99 180
63 99 178
62 99 179
62 99 178
62 99 181
62 99 179
62 99 176
62 99 178
63 100 179
62 99 180
62 99 179
62 99 174
62 99 180
62 99 179
62 99 178
62 99 178
62 99 178
62 99 178
63 99 180
63 100 180
62 99 179
62 99 179
62 99 178
62 99 177
62 99 178
62 99 178
61 99 181
62 99 179
62 99 178
61 98 178
62 99 177
62 99 178
62 99 176
62 99 177
62 99 178
61 98 172
62 99 176
62 99 181
62 99 178
61 99 178
62 99 175
62 99 176
62 99 178
61 98 174
62 99 179
62 99 180
62 99 177
62 99 179
62 99 177
62 99 177
61 99 179
62 99 181
63 99 173
62 99 177
62 99 177
63 99 177
62 99 178
62 99 178
62 99 174
62 99 175
61 98 174
62 99 176
62 99 179
62 99 173
62 99 175
62 99 176
62 99 175
62 99 176
62 99 177
63 99 178
62 98 177
62 99 176
62 99 175
62 98 170
63 100 179
62 99 175
62 98 172
62 99 172
61 98 172
61 98 174
62 99 175
62 98 170
62 99 173
61 98 174
61 97 168
62 99 174
62 99 174
61 97 166
62 98 169
61 97 171
62 98 172
61 97 163
62 98 170
61 96 162
61 96 166
61 96 168
60 95 166
62 97 167
60 96 163
62 97 167
60 95 158
60 94 159
61 94 154
87 94 86
82 84 60
79 81 58
83 85 61
73 77 56
75 80 60
89 91 64
81 84 63
97 100 71
83 86 60
72 78 59
76 81 61
93 97 68
96 100 72
105 106 74
102 105 77
103 105 73
106 108 74
114 116 83
111 113 80
113 115 79
116 117 80
121 123 83
106 110 77
108 110 78
124 125 86
123 124 84
128 127 83
127 127 83
128 129 86
126 126 81
140 138 92
135 134 87
147 145 95
144 142 91
145 143 93
134 133 87
143 141 89
148 146 98
148 145 93
149 146 93
160 156 98
147 144 88
162 158 97
149 146 93
154 150 94
153 151 96
160 155 94
156 153 94
161 157 95
156 153 96
165 161 94
158 155 97
168 163 98
160 156 98
162 157 92
167 162 96
164 160 97
164 159 93
168 162 97
169 164 101
171 166 103
171 165 100
167 162 97
170 164 105
169 165 101
169 165 97
171 165 97
173 167 103
172 167 100
174 168 105
172 166 101
173 168 97
171 166 96
175 168 99
167 162 93
174 168 97
175 169 104
169 164 93
176 169 100
173 167 98
174 168 98
167 162 95
173 167 98
174 168 97
173 167 94
174 167 99
168 163 93
173 168 100
174 167 101
174 167 100
167 162 91
171 165 94
173 166 95
171 165 96
169 162 93
170 164 97
169 162 93
170 163 90
168 162 94
170 163 97
171 164 95
167 160 87
164 158 92
166 160 86
163 157 85
163 158 90
162 157 87
167 161 95
166 159 90
168 162 90
165 158 89
170 163 95
160 155 83
164 158 90
161 155 85
165 157 90
158 152 83
162 156 85
161 155 86
152 146 79
158 152 80
160 153 85
153 147 82
155 150 80
155 149 77
163 155 84
148 142 73
162 155 81
156 149 79
151 145 79
145 138 68
144 138 74
146 140 67
145 138 68
144 139 71
136 130 61
142 135 62
131 126 54
130 124 53
133 127 58
130 130 48
172 195 0
172 194 0
174 197 0
171 194 0
172 196 0
171 195 0
175 198 0
174 198 0
174 198 0
171 193 0
172 196 0
174 197 0
171 194 0
169 192 0
172 196 0
174 197 0
171 195 0
170 194 0
172 195 0
171 194 0
173 197 0
174 197 0
173 196 0
173 197 0
171 195 0
172 196 0
171 195 0
172 195 0
172 196 0
174 197 0
173 195 0
174 196 0
172 196 0
171 195 0
171 195 0
173 196 0
171 195 0
174 197 0
175 197 0
172 196 0
169 193 0
171 194 0
172 196 0
173 196 0
172 195 0
172 196 0
172 196 0
174 196 0
170 194 0
173 196 0
173 197 0
172 195 0
173 196 0
171 195 0
173 197 0
171 195 0
173 197 0
171 194 0
174 197 0
173 196 0
172 196 0
173 196 0
172 195 0
171 194 0
173 196 0
170 194 0
174 197 0
172 195 0
173 196 0
172 194 0
172 195 0
172 195 0
173 197 0
174 197 0
172 196 0
170 194 0
172 195 0
170 193 0
173 196 0
171 195 0
170 193 0
167 189 0
173 197 0
172 196 0
169 192 0
169 193 0
170 194 0
170 194 0
173 195 0
171 194 0
174 197 0
171 193 0
167 190 0
169 194 0
169 192 0
172 195 0
172 195 0
170 193 0
171 195 0
172 195 0
172 195 0
151 175 78
61 97 157
62 99 170
62 99 170
62 98 165
62 99 171
62 99 171
62 98 168
61 98 169
62 99 172
62 99 171
61 98 170
62 99 170
62 99 173
61 98 168
62 98 174
62 98 170
63 99 176
62 99 177
63 99 176
62 99 174
62 99 178
62 99 175
62 99 176
63 99 178
63 100 181
62 99 176
63 99 177
62 98 172
62 99 177
62 99 176
62 99 176
62 99 180
63 99 180
62 99 176
62 99 179
62 99 178
62 99 177
63 99 174
62 99 180
62 99 179
62 99 178
61 98 175
62 99 181
61 98 174
62 99 177
62 99 179
62 99 177
62 99 179
62 99 175
62 99 175
62 99 181
62 99 177
62 99 179
61 98 179
62 99 180
62 99 179
62 99 180
62 99 177
62 99 179
62 99 179
62 99 177
62 99 179
62 98 174
62 99 179
62 99 180
62 99 175
62 99 178
62 99 181
62 99 180
62 99 176
62 99 180
62 99 180
62 99 179
62 99 179
62 99 180
61 99 178
62 99 180
62 99 181
61 99 179
62 99 179
62 99 175
62 99 173
62 99 177
62 99 178
62 99 178
63 99 179
62 99 180
62 99 179
61 99 178
62 99 177
63 100 180
61 98 176
62 99 180
62 99 175
62 99 180
61 98 174
61 98 177
63 100 180
62 99 176
62 99 180
62 99 178
62 99 178
62 99 178
62 99 177
63 99 179
61 98 177
61 98 177
62 99 177
62 99 174
62 99 177
62 99 178
62 99 177
62 99 175
61 98 169
62 99 176
62 99 176
63 100 176
63 99 174
62 98 172
62 99 174
63 99 178
62 98 172
62 98 172
61 98 171
62 98 176
62 98 174
61 98 170
62 99 177
61 98 175
62 99 177
61 98 167
62 99 175
61 98 171
62 99 173
62 98 173
63 99 173
62 98 171
61 97 169
62 98 165
62 99 175
61 98 172
61 98 170
61 97 162
61 97 168
62 98 169
62 99 176
61 96 166
62 98 172
61 97 166
61 96 167
60 96 168
60 96 167
61 97 166
61 96 162
59 93 156
61 95 159
66 89 130
80 83 57
75 77 55
82 84 60
81 84 60
75 79 59
81 84 57
85 88 63
93 96 70
90 92 65
84 88 64
80 84 61
82 85 62
89 91 63
86 91 65
90 94 68
99 102 72
111 112 73
111 113 80
109 110 76
99 101 70
119 120 81
110 112 75
112 114 74
106 108 73
125 125 85
111 114 80
135 134 86
129 128 82
128 127 83
129 129 88
127 127 85
136 134 86
135 134 91
136 137 92
135 135 84
141 140 90
146 144 94
146 144 93
149 146 93
137 136 87
138 138 90
154 151 95
152 149 93
148 145 93
143 142 89
159 155 96
150 149 93
160 156 94
157 153 96
162 157 99
153 150 88
153 150 91
160 156 94
165 160 97
164 160 95
164 160 95
165 160 97
161 156 94
165 161 95
163 159 96
165 159 89
173 167 99
177 171 104
165 161 97
169 164 98
174 168 101
175 168 103
169 164 96
169 164 97
175 169 102
172 165 99
177 169 102
167 161 93
175 169 101
171 166 99
173 167 100
174 168 101
172 166 95
173 167 97
174 168 98
170 165 95
174 167 98
174 168 100
175 168 99
173 167 97
170 163 97
174 167 97
173 167 97
170 164 99
172 166 97
172 166 99
172 166 95
172 165 97
174 168 99
172 165 94
168 163 93
171 165 96
167 161 84
168 162 91
172 165 95
171 165 93
168 162 93
175 168 97
168 162 94
164 158 91
165 160 89
162 156 84
165 158 90
163 156 91
160 153 84
168 161 93
166 160 89
160 154 82
167 160 89
163 157 87
158 152 79
157 151 82
148 142 79
155 150 84
156 149 84
155 148 75
160 153 81
158 152 78
165 158 87
155 149 78
154 148 81
148 142 75
155 148 80
152 146 80
148 142 72
144 138 68
146 140 68
151 145 72
143 137 65
143 137 67
139 134 59
145 138 68
139 134 59
129 123 57
139 132 61
145 151 47
171 194 0
172 194 0
173 195 0
171 193 0
171 194 0
173 196 0
172 195 0
173 197 0
174 197 0
172 194 0
173 196 0
172 195 0
172 195 0
172 196 0
170 194 0
175 198 0
174 197 0
172 196 0
173 196 0
172 195 0
173 196 0
169 192 0
170 194 0
174 198 0
172 196 0
172 195 0
168 191 0
173 197 0
173 196 0
171 194 0
175 198 0
173 197 0
172 195 0
172 195 0
172 196 0
171 194 0
172 196 0
173 196 0
171 195 0
171 194 0
170 194 0
172 195 0
170 195 0
173 196 0
170 193 0
172 196 0
172 195 0
170 194 0
172 195 0
171 195 0
169 192 0
170 193 0
172 194 0
170 194 0
171 194 0
171 195 0
172 196 0
170 194 0
171 195 0
170 193 0
173 196 0
171 194 0
172 195 0
171 194 0
172 195 0
170 193 0
172 196 0
172 195 0
171 194 0
172 195 0
173 196 0
173 196 0
172 196 0
171 194 0
170 193 0
172 195 0
171 195 0
172 195 0
171 195 0
170 193 0
174 197 0
172 195 0
173 196 0
167 190 0
173 196 0
170 193 0
170 193 0
172 196 0
172 195 0
170 194 0
170 192 0
171 193 0
172 196 0
172 194 0
171 195 0
170 194 0
171 194 0
171 195 0
173 196 0
172 195 0
170 194 0
94 123 140
63 99 168
62 99 170
62 98 166
61 98 166
62 99 169
62 98 169
62 99 167
62 99 169
61 98 171
62 98 166
62 99 172
62 99 174
62 98 173
62 99 175
63 99 176
62 99 167
62 99 175
62 99 174
62 98 171
62 99 176
62 99 173
62 99 177
62 99 176
62 99 177
62 99 176
62 99 176
62 99 178
62 98 173
62 99 176
62 99 176
63 100 176
63 100 180
62 99 179
62 99 176
62 99 173
62 99 176
62 99 178
62 99 178
62 99 178
61 99 177
62 99 177
61 98 173
62 99 178
62 99 176
62 99 177
62 99 176
62 99 179
62 99 179
62 99 178
63 100 179
62 99 178
62 99 180
62 99 179
62 99 181
62 99 178
62 99 178
62 99 177
62 99 176
63 99 178
62 99 176
62 99 178
62 99 175
62 99 178
62 99 177
62 99 177
62 99 175
62 99 178
62 99 177
62 99 179
62 99 177
62 99 179
62 99 177
62 99 177
62 99 180
62 99 175
62 99 180
62 99 178
62 99 179
62 99 180
63 99 179
62 99 178
62 99 179
62 99 177
62 99 181
62 99 178
62 99 178
62 99 178
62 99 178
62 99 177
62 99 177
62 99 181
62 99 176
63 100 179
62 99 178
61 98 175
62 99 173
62 99 178
62 99 180
62 99 181
62 99 179
62 99 177
62 99 175
61 99 178
63 100 177
62 99 176
62 99 179
62 99 179
62 99 178
61 98 175
62 99 177
62 99 177
62 99 174
62 99 175
62 99 179
62 99 174
61 98 176
62 99 179
62 99 173
62 99 176
62 99 177
61 98 172
61 98 171
62 99 175
62 99 176
62 99 173
62 99 175
62 99 175
62 99 176
62 99 175
62 99 174
62 98 172
61 98 174
61 97 168
62 99 174
62 99 174
62 98 169
61 98 174
63 99 176
62 98 171
62 98 175
63 99 171
61 97 170
62 98 170
61 97 172
62 99 174
62 97 167
61 97 169
61 96 160
61 96 167
62 97 166
60 96 162
61 96 167
60 95 166
60 95 164
61 96 164
60 94 162
58 92 154
77 87 92
79 81 59
84 86 59
69 75 57
71 74 53
86 88 63
86 90 65
79 84 63
89 91 64
88 90 62
79 84 59
86 90 60
88 91 64
101 103 72
95 99 72
96 99 68
101 104 74
111 113 80
104 107 75
98 102 72
98 102 73
105 107 74
112 115 79
124 124 81
117 118 81
108 111 75
130 130 84
123 124 82
136 135 85
134 133 83
131 131 88
132 131 84
144 141 91
139 137 87
135 134 88
149 147 93
136 135 88
148 145 92
146 143 94
147 145 91
151 149 94
147 144 87
155 151 94
152 148 90
155 153 97
147 145 92
156 152 95
157 153 89
153 149 91
159 156 96
160 156 91
164 159 95
164 159 93
162 158 96
160 156 94
168 163 96
162 159 98
168 163 98
161 157 95
167 163 99
168 163 98
169 164 98
167 162 97
164 159 93
170 164 99
167 162 92
169 164 98
171 165 97
168 163 96
170 165 96
174 168 100
174 168 99
172 166 101
173 167 101
174 168 100
174 168 99
178 171 104
172 167 97
170 164 95
173 167 97
171 165 97
172 166 94
168 163 94
175 168 99
169 163 90
176 169 98
169 163 93
172 166 93
172 165 93
170 165 95
169 163 93
173 166 97
167 162 90
170 164 99
171 165 95
174 167 97
171 164 96
173 166 95
169 163 91
167 161 90
167 162 97
171 165 94
167 161 89
167 161 88
167 161 87
166 160 87
168 161 87
167 160 87
165 158 90
164 157 89
163 157 86
163 157 87
161 156 87
163 157 86
160 154 84
164 157 86
161 154 87
162 155 85
159 152 81
157 151 82
159 153 82
162 156 83
161 154 84
155 149 76
156 149 79
162 155 83
157 150 80
153 146 78
154 148 76
144 138 70
153 147 80
147 141 65
144 137 65
140 134 61
135 131 60
145 138 71
133 128 61
135 129 64
125 120 54
130 125 60
148 156 42
172 194 0
173 194 0
172 195 0
171 193 0
173 196 0
172 195 0
174 197 0
172 195 0
174 197 0
173 196 0
172 196 0
171 194 0
173 196 0
174 197 0
173 196 0
168 192 0
173 196 0
173 196 0
172 196 0
172 196 0
173 196 0
173 196 0
172 195 0
174 197 0
172 196 0
172 195 0
174 197 0
173 196 0
174 197 0
173 197 0
174 197 0
170 193 0
174 198 0
173 196 0
174 197 0
172 195 0
171 195 0
173 197 0
173 196 0
169 193 0
170 193 0
171 195 0
174 196 0
171 194 0
172 195 0
173 197 0
170 193 0
174 197 0
175 198 0
173 196 0
171 195 0
171 194 0
168 192 0
172 195 0
173 197 0
169 192 0
171 195 0
173 196 0
169 193 0
172 195 0
169 192 0
172 196 0
172 195 0
169 192 0
169 193 0
171 193 0
171 194 0
173 197 0
172 196 0
168 192 0
169 193 0
171 194 0
170 193 0
168 191 0
171 195 0
167 190 0
171 194 0
172 195 0
169 192 0
172 195 0
171 194 0
171 194 0
171 194 0
168 192 0
170 193 0
171 195 0
169 193 0
172 196 0
170 194 0
174 197 0
170 194 0
170 194 0
172 195 0
171 193 0
169 193 0
165 189 0
170 193 0
169 194 0
169 194 0
173 195 0
154 178 78
62 99 170
62 99 164
63 99 173
62 98 164
62 98 168
62 99 171
62 99 173
62 98 167
62 98 164
62 99 173
62 99 167
62 99 175
62 99 179
62 99 174
62 99 170
62 99 172
62 99 172
62 99 175
62 99 175
62 99 175
62 99 176
63 99 177
62 99 177
62 99 177
62 99 176
62 99 177
62 99 176
62 99 176
62 99 176
62 99 177
62 99 180
63 99 178
62 99 175
62 99 178
63 100 178
63 100 178
63 100 179
62 99 177
62 99 178
62 99 179
63 99 175
62 99 179
62 99 179
62 99 180
62 99 178
62 99 178
61 98 174
62 99 179
62 99 179
62 99 179
62 99 176
61 98 177
62 99 179
63 100 180
61 98 175
62 99 179
62 100 181
63 100 180
62 99 175
62 99 181
61 98 174
63 100 179
62 99 178
62 99 178
62 99 181
62 99 180
62 99 178
62 99 177
62 99 176
62 99 179
62 99 179
62 99 180
62 99 175
63 99 178
62 99 177
62 98 173
61 99 178
62 99 178
62 99 176
62 99 178
62 99 177
61 99 180
62 99 177
63 100 180
62 99 179
62 99 175
62 99 180
62 99 181
62 99 178
62 99 176
61 98 173
63 99 179
62 99 178
62 99 181
62 99 176
63 100 179
61 98 175
61 98 177
62 99 178
63 100 178
62 99 175
61 98 175
62 99 176
62 99 179
62 99 177
62 99 173
62 99 174
62 99 178
62 99 178
61 98 172
62 99 178
62 98 171
62 99 176
62 99 181
62 99 177
62 99 176
62 98 173
62 99 174
62 99 175
63 99 174
61 98 171
62 99 173
62 99 175
62 99 175
61 98 176
61 98 174
62 99 177
62 99 177
62 99 178
62 99 174
62 99 174
62 99 175
61 98 171
62 99 174
63 99 173
62 98 169
62 99 174
62 98 171
62 98 171
61 97 164
63 99 174
61 97 173
61 97 166
63 99 173
61 97 168
62 98 171
63 99 172
62 98 170
61 96 162
62 98 174
61 97 168
61 96 164
60 95 159
61 96 161
61 97 163
60 93 156
61 96 160
58 91 151
63 91 145
81 83 61
77 79 52
82 84 60
62 67 52
64 71 55
79 82 57
80 84 61
70 74 54
85 89 63
82 85 60
94 97 70
91 93 68
81 86 65
95 99 71
87 90 64
89 92 65
102 105 72
105 107 77
105 107 77
105 108 74
111 113 77
102 105 72
110 112 79
114 117 80
124 124 81
120 121 81
120 119 79
127 127 83
136 135 85
131 130 83
130 130 85
139 136 86
144 142 91
143 140 89
130 130 83
128 130 82
145 143 91
153 149 96
142 141 89
151 147 93
147 145 91
152 149 94
152 149 91
148 146 86
159 155 94
156 152 92
152 149 92
160 157 97
155 151 87
164 159 97
159 155 94
164 159 93
159 155 93
162 158 94
166 161 96
166 161 97
169 164 97
165 161 97
164 160 95
167 162 100
169 164 100
172 167 96
166 161 98
168 162 95
169 163 94
173 167 101
168 162 93
170 165 97
170 164 97
171 165 99
170 165 97
174 168 100
169 165 95
172 166 97
172 166 97
171 166 97
170 165 93
172 166 97
174 168 99
175 169 101
173 167 95
175 167 97
175 169 102
173 166 96
175 168 99
167 161 95
174 167 96
172 165 99
172 165 95
172 166 98
172 165 90
169 162 91
166 160 90
173 166 96
170 164 90
169 163 92
162 157 86
166 159 91
171 164 94
166 160 85
171 164 92
171 164 92
170 164 90
164 159 85
166 159 91
163 158 89
162 156 84
168 161 90
166 160 90
161 155 80
168 161 90
160 155 84
162 155 88
157 151 81
153 147 80
156 150 84
159 153 78
156 150 83
159 153 81
158 151 77
156 149 79
152 147 76
157 151 80
149 143 76
156 150 78
157 150 74
151 145 71
146 140 72
151 145 76
148 142 73
145 139 68
141 136 64
144 139 67
142 135 68
136 130 61
137 131 64
140 133 64
133 128 58
130 124 53
155 169 36
175 197 0
172 196 0
170 193 0
173 195 0
171 194 0
173 195 0
175 198 0
170 194 0
174 197 0
175 198 0
172 196 0
173 196 0
174 197 0
170 195 0
172 196 0
173 196 0
174 196 0
171 195 0
174 197 0
174 197 0
171 193 0
171 195 0
172 196 0
172 195 0
172 196 0
173 196 0
173 196 0
172 196 0
171 194 0
171 194 0
170 193 0
172 196 0
173 196 0
172 195 0
168 192 0
170 194 0
173 196 0
171 194 0
171 195 0
172 196 0
169 193 0
170 193 0
174 197 0
169 192 0
172 196 0
173 196 0
177 198 0
175 197 0
172 195 0
174 197 0
172 196 0
173 196 0
172 195 0
170 194 0
174 197 0
170 194 0
173 196 0
171 195 0
171 194 0
170 194 0
172 194 0
171 195 0
170 193 0
168 190 0
169 193 0
170 193 0
172 196 0
167 190 0
168 191 0
170 193 0
173 197 0
170 193 0
171 194 0
170 194 0
173 195 0
170 194 0
173 196 0
168 191 0
172 195 0
170 194 0
170 194 0
172 196 0
170 193 0
172 195 0
170 193 0
173 197 0
171 195 0
169 193 0
172 196 0
172 195 0
170 193 0
173 196 0
173 196 0
168 191 0
172 195 0
171 194 0
171 195 0
170 194 0
172 196 0
173 196 0
93 122 150
62 98 164
62 99 167
63 99 172
62 99 171
61 98 164
62 99 170
62 99 170
62 98 171
63 99 170
62 99 173
62 99 176
62 98 171
62 99 176
62 99 171
62 99 174
62 99 171
62 99 174
63 100 177
63 99 178
62 99 177
62 99 173
61 98 175
62 99 177
62 99 173
63 99 179
62 99 176
63 99 176
62 99 180
62 99 179
62 99 178
63 100 177
62 99 176
63 99 174
62 99 177
62 99 178
62 99 177
62 99 176
63 99 178
62 99 176
62 99 174
61 99 177
62 99 180
62 99 177
62 99 179
63 100 180
62 99 179
63 99 177
62 99 178
62 99 176
62 99 175
62 99 181
62 99 179
62 99 177
62 99 176
62 99 179
62 99 176
62 99 179
61 98 177
62 99 177
62 99 179
62 99 178
62 99 176
62 99 176
62 99 178
62 99 178
62 99 177
62 99 177
62 99 179
63 100 179
62 99 180
62 99 180
62 99 178
62 99 178
62 99 177
62 99 179
62 99 178
62 99 181
62 99 180
62 99 179
63 100 180
62 99 177
62 99 180
62 99 178
62 99 178
62 99 176
61 98 174
62 99 178
62 99 179
63 99 176
64 100 177
62 99 177
62 99 177
62 99 176
62 99 177
62 99 179
63 99 179
62 99 178
61 98 172
62 99 177
62 99 175
62 99 179
62 99 179
62 99 177
62 99 172
62 98 175
62 99 179
63 99 177
62 99 178
62 99 175
61 98 174
62 99 178
62 99 175
62 99 177
61 98 169
62 98 174
62 99 181
63 99 177
62 99 177
62 99 174
61 98 174
63 99 178
62 99 176
62 98 170
62 99 173
62 99 176
62 99 176
61 98 172
62 99 173
62 98 174
62 99 178
61 98 173
62 99 175
61 98 174
63 99 174
62 99 176
63 99 174
61 98 171
62 99 172
62 99 172
62 99 174
62 98 164
62 99 171
62 98 167
63 99 177
62 98 173
62 98 167
61 98 169
62 98 169
61 97 161
61 97 163
61 97 169
60 95 161
62 98 172
61 96 166
60 95 166
61 97 167
61 95 158
60 93 153
59 91 152
64 83 114
74 75 53
75 79 57
79 80 55
75 79 57
76 80 56
61 67 50
67 73 56
81 85 65
83 88 65
87 90 63
84 89 64
88 92 66
78 84 62
93 96 70
88 92 68
104 107 77
99 104 76
105 107 75
105 107 73
102 104 71
105 108 74
113 115 74
116 117 81
121 122 80
110 112 77
120 121 79
129 129 83
119 119 76
128 128 84
136 134 87
133 133 83
130 130 84
137 136 87
135 134 87
138 137 83
142 140 86
153 149 91
138 136 89
139 138 86
141 139 84
151 147 91
148 146 89
148 146 96
150 147 92
153 150 93
154 151 93
157 153 88
153 150 91
158 154 94
157 154 93
160 155 90
164 159 95
162 158 95
167 162 98
165 161 97
164 159 88
159 156 94
163 158 90
168 163 95
163 158 93
169 164 93
163 159 95
168 162 95
167 162 94
168 164 94
167 162 90
174 167 100
171 164 97
171 165 96
169 163 92
172 166 93
171 165 93
174 167 95
173 166 102
174 167 97
171 165 96
171 165 96
168 162 94
169 163 90
174 167 95
173 167 94
169 163 93
166 160 90
171 166 95
170 164 93
172 165 96
171 164 90
170 163 97
173 166 97
171 166 99
173 166 94
169 163 93
171 165 95
172 167 92
171 165 94
172 165 96
171 164 90
165 159 82
169 164 93
169 162 90
167 161 90
162 157 87
168 161 91
167 160 89
169 163 91
164 158 87
162 155 87
160 154 83
164 158 90
162 156 85
158 152 82
170 162 89
157 151 80
158 152 78
159 153 82
155 148 85
163 156 86
160 153 82
157 150 77
156 149 77
156 150 77
159 153 80
158 152 80
156 150 75
148 142 75
153 147 77
150 145 67
144 139 68
151 144 73
143 137 68
149 143 69
144 138 65
145 139 66
137 132 57
134 128 62
143 136 64
135 129 56
135 130 53
163 179 22
173 195 0
171 194 0
172 195 0
170 193 0
171 194 0
171 194 0
172 196 0
172 195 0
174 197 0
171 195 0
175 197 0
173 196 0
173 197 0
171 194 0
171 194 0
174 197 0
171 195 0
170 194 0
173 196 0
174 197 0
172 195 0
171 195 0
175 198 0
172 196 0
171 195 0
170 194 0
175 198 0
173 197 0
175 198 0
170 193 0
172 195 0
173 196 0
171 195 0
171 194 0
174 197 0
172 195 0
173 196 0
172 195 0
171 195 0
174 197 0
168 193 0
172 195 0
172 196 0
170 194 0
171 194 0
174 197 0
172 196 0
172 195 0
172 195 0
172 196 0
169 193 0
173 196 0
171 194 0
172 195 0
171 194 0
175 197 0
171 195 0
171 195 0
173 196 0
172 195 0
169 192 0
171 194 0
172 195 0
172 196 0
172 196 0
169 192 0
173 196 0
174 197 0
168 192 0
171 194 0
171 195 0
171 195 0
171 195 0
169 192 0
171 195 0
170 194 0
171 194 0
174 197 0
174 197 0
172 194 0
169 192 0
173 196 0
171 194 0
169 193 0
171 195 0
170 192 0
173 197 0
171 194 0
169 192 0
169 192 0
172 195 0
170 194 0
174 197 0
173 196 0
167 190 0
170 193 0
171 195 0
166 190 0
172 194 0
144 169 94
63 99 168
62 99 172
62 98 166
62 99 170
62 98 166
62 99 172
61 98 164
62 99 170
62 99 173
62 99 171
62 98 170
62 99 172
63 99 174
62 99 174
62 99 172
62 98 173
63 99 173
62 99 176
63 99 175
63 100 175
62 99 173
62 99 174
62 99 177
63 100 177
62 99 176
62 99 178
61 98 175
63 100 177
61 98 172
62 99 177
62 99 179
62 99 174
62 99 179
62 99 173
62 99 179
63 100 177
62 99 176
63 99 174
61 98 175
62 99 176
62 99 176
62 99 177
62 99 180
62 99 179
63 99 179
61 98 177
62 99 175
62 99 180
62 99 179
62 99 179
62 99 176
63 99 180
61 98 175
62 99 177
61 99 179
62 99 179
62 99 181
62 99 177
62 99 178
62 99 177
63 100 180
63 100 179
62 99 179
62 99 178
62 99 178
62 99 179
62 99 174
62 99 180
62 99 178
62 99 179
62 99 178
63 99 177
63 100 181
62 99 178
62 99 179
62 99 178
62 99 179
62 99 178
62 99 180
62 99 178
62 99 179
63 99 178
62 99 179
62 99 177
62 99 178
62 99 179
62 99 179
62 99 178
62 99 178
62 99 180
62 99 175
63 100 180
62 99 179
63 99 177
62 99 177
62 99 174
63 99 178
63 100 178
62 99 178
62 99 178
62 99 176
62 99 173
62 99 177
62 98 173
62 99 176
61 98 174
62 99 175
62 99 180
62 99 175
62 99 174
62 99 179
62 99 177
62 99 177
62 99 179
62 99 174
62 99 173
62 99 177
62 99 178
63 99 175
62 99 173
62 99 174
61 98 175
62 99 175
61 98 173
62 99 174
63 100 177
62 99 177
62 99 175
63 99 171
61 98 174
62 98 172
62 98 175
61 98 173
62 98 172
61 98 172
62 98 174
61 97 169
63 99 173
63 99 172
62 99 170
61 97 169
62 98 167
61 97 169
62 98 174
62 99 170
61 97 166
61 97 166
62 98 166
61 96 164
61 97 169
61 98 165
61 95 164
61 97 167
61 95 163
61 97 165
61 96 164
61 96 162
61 97 171
59 93 151
58 90 150
59 89 149
75 76 48
63 69 54
66 71 52
68 73 54
56 61 46
80 82 57
78 82 61
93 95 62
79 84 63
70 76 55
74 79 59
86 89 65
91 94 67
95 97 66
99 102 72
95 100 72
99 102 72
111 113 75
99 102 71
117 118 78
107 109 75
108 110 74
114 116 75
123 123 82
118 119 77
127 127 83
115 116 75
131 130 86
129 128 84
134 132 85
137 135 85
138 137 86
136 136 88
141 140 89
127 129 79
133 132 81
138 138 85
144 142 91
143 140 85
152 149 91
152 148 90
144 143 91
156 152 95
151 148 94
156 152 94
152 149 89
149 146 83
151 148 91
157 154 94
160 155 90
159 155 93
162 158 90
161 157 93
163 159 94
164 159 96
165 161 99
164 158 92
167 162 97
167 162 99
167 160 98
158 154 84
167 161 92
168 164 97
171 166 93
173 166 96
166 162 91
169 165 96
172 166 98
171 166 98
173 167 97
171 164 95
173 166 94
173 167 97
174 167 98
171 165 98
173 167 96
172 166 91
169 162 89
172 166 96
169 164 95
169 163 90
169 162 93
174 168 97
168 162 92
168 162 87
176 169 97
172 166 95
174 167 96
173 166 95
173 166 91
173 166 95
170 164 94
168 162 91
166 161 88
169 164 93
164 158 87
164 158 85
172 165 93
160 155 85
167 161 91
169 162 95
162 156 88
165 159 87
161 155 89
162 156 88
164 157 89
163 158 83
160 153 87
164 158 88
164 158 81
164 158 83
163 156 82
154 150 80
167 160 88
162 154 88
160 154 83
166 159 89
155 149 76
158 152 75
162 155 81
150 143 75
147 142 71
158 151 83
157 150 76
141 136 72
146 140 66
147 141 74
145 139 70
145 139 69
150 143 79
145 139 68
142 136 64
142 136 64
138 132 69
141 135 63
135 130 61
137 132 60
130 124 58
162 181 11
169 194 0
172 193 0
170 192 0
171 193 0
171 194 0
170 193 0
174 197 0
173 197 0
170 193 0
172 196 0
171 195 0
175 198 0
170 194 0
171 196 0
173 196 0
172 196 0
172 195 0
172 195 0
172 196 0
173 197 0
169 192 0
174 197 0
173 195 0
172 196 0
171 195 0
171 194 0
173 196 0
172 195 0
174 197 0
172 196 0
171 195 0
174 198 0
172 196 0
169 193 0
171 194 0
172 195 0
171 194 0
174 198 0
172 195 0
171 194 0
172 195 0
172 195 0
172 195 0
173 196 0
170 193 0
171 194 0
171 195 0
173 196 0
171 195 0
173 197 0
172 196 0
173 197 0
172 195 0
172 195 0
173 196 0
170 194 0
173 196 0
170 194 0
173 196 0
169 193 0
171 194 0
172 195 0
172 196 0
170 193 0
170 193 0
172 196 0
173 196 0
172 195 0
170 193 0
172 194 0
169 193 0
172 195 0
171 194 0
173 197 0
172 195 0
171 195 0
170 194 0
171 195 0
171 193 0
169 192 0
172 196 0
171 194 0
169 192 0
170 194 0
172 194 0
170 193 0
174 197 0
166 190 0
170 193 0
172 195 0
168 191 0
168 192 0
169 192 0
173 196 0
169 192 0
169 193 0
168 192 0
172 195 0
172 195 0
102 130 136
63 99 170
63 99 166
62 98 167
62 98 166
61 97 159
62 98 169
62 98 172
62 98 166
62 98 170
62 99 169
62 99 170
63 99 172
61 98 163
62 99 175
62 99 174
63 100 175
61 98 169
62 99 175
61 98 168
62 99 176
63 99 176
62 99 174
62 99 176
63 100 178
63 100 178
62 99 180
61 98 172
62 99 179
62 99 175
62 99 177
62 99 177
62 99 178
61 98 175
63 99 177
62 99 176
62 99 174
62 99 178
62 99 175
62 99 172
63 99 178
63 99 179
62 99 179
62 99 178
62 99 180
62 99 176
62 99 177
62 99 178
62 99 178
63 99 177
62 99 176
62 99 177
62 99 181
62 99 179
62 99 180
61 99 179
62 99 177
62 99 179
62 99 180
62 99 176
62 98 173
62 99 177
61 99 177
61 99 178
62 99 179
62 99 177
63 99 179
62 99 178
62 99 177
62 99 176
62 99 178
62 99 177
62 99 179
62 98 173
62 99 178
62 99 179
62 99 179
62 99 178
62 99 176
62 99 176
61 98 178
62 99 179
62 99 179
62 99 179
62 99 178
62 99 179
62 99 178
62 99 179
62 99 177
62 99 177
62 99 177
62 99 177
62 99 178
62 99 177
62 99 175
62 99 177
62 99 178
62 99 175
62 98 172
62 99 178
62 99 174
61 98 174
62 99 174
62 99 178
62 99 176
62 99 179
63 99 176
62 99 174
63 99 176
62 99 177
62 99 174
62 99 178
62 99 180
62 98 173
61 98 174
62 99 176
62 99 174
62 99 173
63 99 176
62 99 178
62 99 175
62 99 176
62 99 175
62 99 176
62 99 179
62 98 173
63 99 175
63 99 175
62 98 170
62 99 174
61 98 170
63 99 176
62 99 173
62 99 173
61 98 167
62 99 177
62 99 173
61 98 175
61 98 173
62 99 176
62 98 166
62 98 168
61 98 170
62 98 168
62 99 172
62 98 174
62 98 166
62 98 170
62 98 170
61 96 166
61 96 164
62 99 174
61 97 163
61 97 164
61 96 163
61 97 163
61 97 168
61 95 160
60 95 162
59 94 157
60 95 164
59 92 150
58 73 91
64 69 50
59 64 51
66 70 52
75 79 59
70 73 52
67 72 53
83 86 61
73 78 58
78 81 57
76 82 60
95 97 69
96 99 68
96 100 66
91 95 67
89 92 63
97 100 72
99 102 70
117 119 79
109 110 73
119 121 82
112 112 71
117 117 79
118 120 78
109 111 76
116 116 77
115 116 78
120 120 76
121 122 78
133 133 85
125 125 80
137 135 85
129 128 84
139 137 87
129 129 83
146 144 87
140 138 87
146 143 86
142 139 86
146 144 88
144 142 87
148 146 88
149 147 90
148 145 87
153 150 92
157 154 94
155 151 92
161 157 96
152 149 88
159 154 95
153 149 83
164 159 95
159 156 89
157 154 95
160 155 89
160 155 88
159 154 90
168 162 94
166 160 92
167 161 95
167 162 94
163 157 93
171 165 96
169 163 95
164 160 90
171 165 97
168 163 91
170 165 93
172 166 93
175 167 95
170 164 88
167 162 92
169 163 91
173 166 97
173 166 99
174 168 99
169 163 92
166 161 90
173 166 95
170 164 89
171 165 94
171 165 95
172 165 95
172 164 93
174 167 98
170 164 91
174 167 94
170 164 93
165 159 84
169 164 93
170 164 93
174 167 95
167 163 87
166 161 89
165 159 85
169 163 88
170 164 90
166 160 92
168 161 93
166 160 90
168 161 92
162 157 81
161 155 83
168 161 87
163 157 87
159 155 80
159 154 81
163 157 80
161 155 81
159 153 76
167 160 90
160 153 82
159 153 84
158 153 80
165 158 87
161 154 80
157 152 82
164 157 82
162 156 79
160 153 76
151 145 76
150 144 73
154 147 74
160 153 79
154 147 80
151 145 75
144 138 69
148 142 73
151 145 72
144 139 62
149 143 69
137 131 58
140 134 61
131 126 58
134 129 56
145 139 70
128 124 51
115 111 47
171 192 16
175 197 0
173 195 0
173 195 0
171 194 0
171 193 0
172 194 0
172 195 0
172 195 0
171 195 0
173 196 0
172 195 0
170 194 0
172 195 0
171 195 0
173 196 0
172 195 0
173 197 0
173 196 0
172 196 0
172 196 0
172 195 0
174 196 0
173 196 0
174 197 0
176 198 0
170 194 0
172 195 0
172 195 0
173 196 0
172 195 0
173 196 0
173 196 0
171 195 0
170 192 0
175 197 0
170 194 0
171 196 0
173 196 0
174 197 0
169 192 0
172 195 0
171 194 0
170 194 0
169 191 0
169 193 0
174 198 0
174 197 0
170 193 0
174 198 0
172 195 0
170 193 0
174 198 0
174 197 0
169 194 0
169 193 0
172 196 0
174 197 0
168 192 0
173 195 0
172 194 0
172 196 0
171 194 0
171 195 0
170 193 0
172 195 0
169 192 0
174 197 0
171 194 0
170 193 0
170 193 0
172 196 0
174 197 0
171 195 0
170 192 0
172 195 0
172 195 0
172 195 0
170 195 0
172 194 0
172 196 0
169 192 0
171 195 0
170 193 0
173 196 0
171 195 0
172 195 0
172 194 0
170 194 0
172 197 0
169 193 0
174 197 0
172 195 0
171 193 0
165 188 0
171 194 0
170 194 0
175 197 0
171 195 0
151 175 84
62 98 166
62 98 164
61 97 160
61 98 164
62 99 167
62 98 169
62 99 169
62 99 169
62 99 173
62 99 172
62 98 167
62 99 172
61 98 172
62 99 175
62 99 170
62 99 176
62 98 171
62 99 168
62 98 175
61 98 175
62 99 174
62 99 173
61 98 170
62 99 176
62 99 174
63 100 177
61 98 173
62 99 176
63 100 177
63 100 175
62 99 176
62 98 175
62 99 173
62 99 178
63 99 177
62 99 177
61 98 176
63 100 180
62 99 176
62 99 178
62 99 175
63 99 180
62 99 177
62 99 176
63 100 178
62 99 177
62 99 178
62 99 177
62 99 180
62 99 177
62 99 178
62 99 175
62 99 179
62 99 176
62 99 176
62 99 180
62 99 179
62 99 180
61 98 176
62 99 179
63 99 179
62 99 178
61 98 176
62 99 178
62 99 181
62 99 174
62 99 176
62 99 179
62 99 177
62 99 173
62 99 177
62 99 180
62 99 177
62 99 176
62 99 175
62 99 178
62 99 178
62 99 177
62 99 177
63 99 179
62 99 177
62 99 181
62 99 177
62 99 178
62 99 179
62 99 177
62 99 177
62 99 175
61 98 175
62 99 177
62 99 178
62 99 179
62 99 173
61 98 174
61 98 175
62 99 177
62 99 175
62 99 173
62 99 177
62 99 176
62 99 174
62 99 177
61 98 175
62 99 177
62 99 174
62 99 173
62 99 177
62 99 173
62 99 178
61 98 170
61 99 177
62 99 179
62 99 176
62 99 178
62 99 179
62 99 177
62 98 172
62 99 177
63 100 180
62 99 173
62 99 176
62 99 176
62 99 175
62 99 175
62 99 176
62 99 175
62 99 172
62 99 177
63 99 180
62 99 175
62 99 175
62 99 171
62 98 172
62 98 173
62 98 173
63 99 172
62 98 172
61 98 172
62 98 165
62 98 174
62 98 169
62 98 169
62 98 173
62 97 163
62 98 168
62 98 167
63 99 171
62 98 170
62 98 167
61 98 175
61 97 165
61 97 165
61 96 167
61 97 162
62 97 161
61 96 158
63 98 170
60 95 162
60 95 158
60 94 156
61 95 154
60 94 159
52 81 133
62 67 50
68 73 52
65 72 56
58 63 48
64 69 52
60 67 51
80 83 59
66 73 56
76 81 57
79 84 60
72 78 57
89 94 71
99 102 71
89 93 64
88 92 62
99 101 69
95 98 68
104 107 71
111 114 78
101 104 71
108 110 73
113 115 74
107 108 69
126 127 81
118 120 77
124 124 76
123 123 80
112 114 78
128 127 80
141 139 88
133 131 80
127 127 76
127 127 75
140 139 89
139 137 87
143 141 92
139 137 85
141 138 87
151 148 86
150 148 89
146 144 86
150 148 89
152 149 91
160 155 90
153 149 88
151 147 87
155 152 90
157 153 86
158 154 93
157 152 88
163 159 93
160 156 93
165 159 96
159 155 89
166 160 95
160 155 93
163 159 93
162 158 90
168 163 95
159 155 89
165 159 86
171 165 98
165 160 90
172 165 96
170 164 96
172 166 97
170 165 99
169 163 92
170 165 100
165 159 89
166 161 89
173 167 98
173 167 97
174 168 100
170 164 91
170 165 94
168 163 87
174 168 97
167 162 91
173 167 94
169 163 90
175 168 96
169 164 92
168 162 92
166 161 88
172 165 95
174 167 95
172 165 95
169 162 89
171 164 94
172 165 93
172 164 95
168 162 93
163 157 84
168 161 86
169 163 88
172 166 93
161 156 78
167 161 89
167 161 90
171 164 90
164 157 85
155 149 76
162 157 84
163 157 87
169 162 89
161 155 86
163 156 85
165 159 86
167 160 90
161 155 84
159 153 80
154 148 75
161 154 84
157 151 76
152 146 77
163 157 82
157 151 75
156 150 78
156 150 76
154 148 75
153 147 76
145 139 70
154 148 69
146 141 67
149 143 68
142 135 66
149 143 69
143 137 66
140 133 63
134 128 58
139 133 60
145 140 64
136 130 57
136 130 54
127 122 48
125 121 49
174 194 0
171 194 0
172 195 0
173 195 0
173 195 0
173 195 0
174 196 0
171 195 0
172 195 0
171 195 0
171 195 0
172 196 0
170 193 0
171 194 0
173 197 0
171 194 0
173 196 0
175 198 0
173 197 0
171 195 0
175 198 0
171 195 0
173 197 0
172 196 0
174 196 0
168 192 0
173 196 0
169 193 0
169 192 0
173 196 0
171 195 0
168 191 0
172 195 0
172 196 0
173 197 0
171 194 0
170 194 0
174 198 0
172 196 0
170 194 0
172 196 0
170 193 0
171 194 0
172 194 0
168 191 0
173 196 0
170 193 0
170 193 0
170 193 0
172 195 0
170 195 0
171 194 0
171 195 0
172 196 0
172 195 0
172 195 0
173 196 0
171 193 0
173 196 0
172 195 0
168 193 0
173 196 0
171 194 0
171 194 0
168 192 0
168 191 0
172 195 0
172 196 0
172 195 0
170 194 0
171 195 0
173 196 0
167 191 0
170 193 0
170 193 0
171 195 0
169 193 0
173 197 0
171 194 0
170 194 0
167 191 0
170 193 0
172 196 0
173 196 0
172 195 0
172 195 0
169 192 0
170 193 0
168 192 0
171 195 0
170 193 0
172 195 0
170 193 0
172 195 0
170 193 0
171 194 0
171 195 0
169 192 0
172 195 0
101 129 134
62 98 161
62 98 169
62 98 163
62 98 163
63 99 169
62 98 163
62 98 166
62 99 171
63 99 167
62 98 169
61 98 169
62 98 165
62 99 169
63 99 171
62 99 173
62 99 169
62 99 172
62 99 175
62 98 173
62 99 177
62 99 174
61 98 173
62 99 175
62 99 176
62 99 176
62 99 178
62 99 170
62 99 172
62 99 175
62 99 172
62 99 175
62 98 174
63 99 177
62 99 175
62 99 180
62 99 177
62 99 176
62 99 176
62 99 175
62 98 176
62 99 179
62 99 174
62 99 178
63 100 180
62 99 176
63 99 176
62 99 178
62 99 180
62 99 179
62 99 178
62 99 177
62 99 176
62 99 180
61 98 176
62 99 180
63 99 179
62 99 178
62 99 178
62 99 176
63 100 178
63 99 178
63 100 180
62 99 178
62 99 176
62 99 179
62 99 179
62 99 178
62 99 176
62 99 176
62 99 180
62 99 179
62 99 174
62 99 180
63 100 181
61 99 178
61 98 174
62 99 178
62 98 174
62 99 178
62 99 179
62 99 179
61 98 175
62 99 177
62 99 175
62 99 174
62 99 177
62 99 178
63 100 179
62 99 179
62 99 177
63 99 177
62 99 173
62 99 179
61 99 177
62 99 176
62 98 171
62 99 175
61 98 170
62 99 178
62 99 179
62 99 179
63 99 176
62 99 177
62 99 177
62 99 176
62 99 175
62 98 173
63 99 173
62 99 178
62 99 178
62 99 176
62 99 177
62 99 169
61 98 172
61 98 170
62 99 173
62 99 174
62 99 174
63 100 176
62 99 177
62 99 175
62 99 177
62 99 175
62 99 175
62 99 174
62 99 175
62 99 177
63 100 175
63 99 173
62 99 175
61 98 169
62 99 172
62 99 171
62 99 176
61 98 169
62 99 177
62 99 172
62 99 176
62 99 173
62 99 174
62 99 174
62 98 174
62 98 169
62 98 172
62 98 168
62 98 169
62 99 173
62 98 166
62 99 174
61 97 167
61 97 167
61 97 163
61 96 156
62 98 169
61 97 158
61 97 168
61 97 164
60 94 160
61 96 165
60 95 154
61 96 162
60 93 157
59 93 147
61 74 89
69 72 52
64 68 49
60 65 48
49 57 44
65 70 52
78 83 60
77 82 54
81 85 60
79 84 58
85 90 63
81 86 59
88 89 56
85 89 60
100 102 73
95 99 67
96 100 69
103 106 70
106 108 72
116 116 74
111 112 72
107 108 74
110 112 74
110 113 72
125 125 78
122 122 76
130 128 81
130 128 81
123 123 80
127 127 81
132 131 82
134 134 82
127 128 82
141 138 86
142 141 84
143 141 89
150 147 88
139 136 82
155 151 86
145 143 87
145 143 84
147 144 89
149 147 88
153 150 87
150 147 87
156 153 89
157 154 92
150 147 86
154 150 87
162 157 94
164 159 93
161 156 92
162 157 93
163 159 92
161 156 88
160 156 94
170 165 94
158 155 90
164 160 95
164 160 90
174 168 97
163 158 87
168 163 89
169 163 94
167 161 94
169 164 89
163 158 92
168 162 93
173 166 97
171 165 95
172 165 90
168 162 89
173 167 96
174 167 97
172 166 88
170 164 91
173 167 95
174 167 97
174 167 93
173 167 97
171 164 89
174 167 93
175 168 94
168 162 91
173 165 93
171 164 93
174 168 97
171 164 93
169 163 92
165 158 87
172 165 93
169 163 88
173 165 92
171 165 90
168 161 87
169 164 88
166 160 84
166 159 89
166 161 89
167 161 81
166 160 87
168 162 86
168 162 88
162 156 83
163 157 84
164 159 84
156 150 84
165 157 87
161 154 77
161 155 81
156 150 78
161 154 80
158 152 82
161 155 86
155 148 72
163 156 83
159 152 77
152 146 74
158 153 79
154 147 71
146 140 70
146 140 64
159 151 81
150 144 71
149 143 69
155 149 70
146 142 65
150 144 72
152 145 72
142 136 68
132 128 56
136 132 60
144 138 65
134 127 58
137 131 62
122 117 49
139 148 37
170 192 0
170 192 0
172 195 0
172 193 0
169 192 0
173 197 0
173 194 0
171 195 0
172 196 0
171 194 0
173 196 0
173 196 0
169 193 0
171 194 0
173 196 0
171 195 0
172 195 0
176 199 0
171 195 0
168 192 0
169 193 0
173 196 0
172 195 0
173 197 0
172 195 0
173 196 0
174 197 0
173 197 0
171 195 0
172 196 0
172 196 0
170 193 0
172 196 0
174 197 0
170 194 0
170 193 0
171 195 0
172 196 0
172 195 0
169 193 0
170 194 0
170 194 0
172 195 0
172 196 0
173 196 0
168 192 0
171 194 0
173 196 0
170 193 0
172 195 0
170 194 0
171 195 0
171 195 0
171 194 0
172 195 0
171 195 0
171 194 0
171 194 0
170 193 0
172 195 0
172 196 0
172 195 0
169 193 0
170 192 0
168 192 0
170 194 0
172 194 0
171 195 0
174 197 0
172 195 0
171 194 0
173 196 0
171 195 0
170 194 0
170 194 0
167 191 0
170 193 0
170 194 0
173 194 0
171 194 0
172 195 0
168 191 0
172 196 0
169 192 0
172 195 0
165 189 0
172 196 0
172 195 0
172 195 0
172 195 0
170 193 0
167 190 0
172 195 0
172 195 0
172 196 0
169 192 0
169 193 0
169 192 0
158 182 67
61 97 158
62 99 165
62 99 166
62 98 168
61 97 164
62 98 165
62 98 167
62 98 167
63 99 171
62 98 169
62 98 170
62 99 170
62 98 165
62 98 170
62 98 169
62 99 171
62 99 178
62 98 171
62 99 171
62 98 173
62 99 175
62 99 174
62 99 174
62 99 172
62 99 175
62 98 174
62 99 177
62 99 176
62 99 173
63 99 177
63 99 175
62 98 169
62 99 176
62 99 177
62 99 176
62 99 173
62 99 176
62 99 178
62 99 177
62 99 177
62 99 175
62 99 180
62 99 178
62 99 177
63 99 178
62 99 174
62 99 176
62 98 172
62 99 178
61 98 176
62 99 176
62 99 175
63 100 179
62 99 180
61 98 175
62 99 172
62 99 176
62 99 175
62 99 173
62 99 180
63 100 181
63 100 177
62 99 179
62 99 179
62 99 178
61 99 179
61 98 176
63 100 179
62 99 176
62 99 178
62 99 178
62 99 180
62 99 179
62 98 175
62 99 179
62 99 178
62 99 177
62 99 179
61 98 175
62 99 176
62 99 178
61 98 177
61 98 174
62 99 176
62 99 176
63 99 176
62 99 176
62 99 178
62 99 177
62 99 176
62 99 174
62 98 171
62 99 178
63 100 178
62 98 170
61 99 178
61 98 173
62 99 177
62 99 177
62 98 175
62 99 177
61 98 175
62 99 176
61 98 175
63 100 177
61 98 178
63 99 175
62 99 175
62 99 176
62 99 178
62 99 175
62 98 174
61 98 172
62 99 174
62 99 176
62 99 177
63 100 179
62 99 174
62 99 177
62 99 179
63 99 174
61 98 172
62 99 172
63 99 174
62 99 172
62 99 173
62 99 177
62 99 175
62 98 172
62 99 176
62 98 169
62 99 171
62 98 169
62 99 172
62 98 172
62 99 176
63 99 175
62 99 173
63 99 170
62 98 170
62 99 172
62 98 175
62 99 173
61 98 170
61 97 166
61 98 168
62 99 172
61 97 170
61 98 164
62 98 169
61 96 162
61 97 165
61 98 167
60 96 162
61 97 165
61 97 167
62 98 166
61 97 168
61 96 165
60 95 162
61 96 164
59 93 152
59 94 161
58 91 151
55 85 140
60 64 48
54 59 42
58 64 47
58 63 48
64 69 50
66 71 51
64 71 52
62 68 48
82 86 64
68 75 58
75 80 56
82 86 58
78 83 59
81 86 61
87 92 64
93 96 65
103 106 69
111 112 71
111 112 72
107 110 69
108 112 77
113 114 70
107 109 72
110 113 70
119 119 72
101 105 64
130 130 83
131 129 79
126 125 79
134 133 83
139 137 84
132 131 88
130 129 82
132 132 82
144 142 89
136 134 83
147 145 88
139 137 84
138 136 84
142 140 83
153 149 84
151 149 88
147 144 82
150 147 86
154 150 91
162 158 89
155 151 91
158 153 89
159 154 91
159 154 91
160 156 87
155 151 86
153 149 82
166 160 97
157 152 85
166 160 92
160 155 91
164 159 86
169 163 95
164 158 92
164 159 90
170 164 99
172 165 99
173 166 95
166 161 91
166 161 90
165 159 85
169 163 95
167 162 89
169 163 94
170 164 94
164 159 86
169 163 96
171 164 93
171 165 93
168 162 84
170 164 90
169 163 94
166 160 81
170 164 90
169 162 88
172 166 95
174 167 95
172 165 94
169 163 87
166 159 84
164 158 89
170 163 90
167 159 85
167 161 91
167 162 87
164 158 91
162 157 86
169 162 94
166 160 87
165 159 86
162 156 87
164 157 83
171 165 93
161 155 86
165 160 87
162 156 89
164 158 90
166 160 86
169 162 85
166 159 87
158 152 80
166 159 86
164 157 90
162 156 81
157 151 76
161 154 84
156 150 76
152 146 78
156 149 83
159 153 84
156 150 72
156 150 77
145 140 69
153 146 72
154 148 75
148 142 68
150 145 67
154 146 70
141 135 61
148 143 66
140 133 63
136 131 56
147 141 63
136 131 60
134 128 58
133 128 57
131 125 57
127 122 56
131 125 56
150 163 25
171 193 0
172 193 0
174 196 0
172 194 0
173 196 0
171 193 0
169 190 0
172 195 0
175 198 0
173 196 0
172 196 0
174 197 0
170 194 0
175 198 0
173 197 0
172 196 0
171 194 0
173 196 0
173 196 0
174 197 0
173 196 0
173 197 0
171 195 0
172 196 0
168 192 0
172 195 0
172 195 0
172 195 0
170 194 0
168 193 0
171 194 0
170 194 0
172 196 0
173 196 0
173 196 0
171 195 0
170 193 0
172 196 0
171 195 0
170 194 0
173 196 0
173 197 0
170 194 0
172 196 0
170 195 0
171 194 0
173 196 0
169 192 0
171 194 0
172 196 0
173 197 0
170 194 0
170 194 0
172 195 0
172 196 0
171 194 0
171 193 0
172 194 0
170 194 0
168 191 0
172 195 0
168 192 0
165 189 0
168 193 0
172 195 0
170 193 0
170 194 0
170 193 0
172 196 0
171 194 0
169 193 0
173 197 0
170 192 0
171 195 0
170 194 0
168 192 0
172 195 0
171 194 0
168 191 0
169 194 0
172 195 0
170 192 0
171 194 0
166 188 0
174 197 0
171 195 0
173 196 0
168 191 0
169 191 0
171 194 0
169 192 0
169 193 0
170 193 0
172 194 0
169 192 0
169 192 0
171 194 0
167 189 0
119 145 115
62 98 160
63 99 167
62 98 165
62 99 168
62 98 166
61 98 166
62 99 170
62 98 167
62 99 172
62 99 170
62 99 173
62 98 170
62 98 173
62 99 169
62 99 170
62 99 169
62 99 173
62 99 173
62 98 172
62 99 177
61 98 166
62 99 173
62 99 174
62 99 177
63 99 176
62 99 174
62 98 170
62 99 177
63 100 178
63 100 178
62 99 173
62 99 175
63 99 175
61 98 176
62 99 176
63 99 179
63 100 179
62 98 169
63 99 175
62 99 176
63 100 177
63 100 178
62 99 175
63 100 179
62 99 176
62 99 177
62 99 175
62 99 178
62 99 175
62 99 179
62 99 180
62 98 174
62 99 177
62 99 177
62 99 175
62 99 175
62 99 176
62 98 172
62 99 174
62 99 174
62 99 177
61 98 176
63 100 180
63 99 179
62 99 178
62 99 173
62 99 177
63 99 175
62 99 179
62 99 180
62 99 175
63 100 179
62 99 173
62 99 177
62 99 173
62 99 176
62 99 177
62 99 175
61 98 175
62 99 179
62 99 176
62 99 177
62 99 177
61 98 176
62 99 177
62 99 174
62 99 175
62 99 178
62 99 176
62 99 175
61 98 171
62 99 177
62 98 173
62 99 178
62 99 177
62 99 177
62 98 175
62 99 176
62 99 174
63 99 176
62 99 177
62 99 176
62 99 176
62 99 176
62 99 174
62 99 179
62 99 180
62 99 177
62 98 173
62 99 176
62 99 177
62 98 170
62 99 174
62 99 172
62 99 177
62 99 175
62 99 176
61 98 172
62 99 174
63 99 173
63 99 172
62 99 176
62 99 178
62 99 172
63 100 176
63 99 173
62 99 174
62 99 173
62 99 172
62 99 177
62 98 173
62 98 169
62 99 173
63 100 176
62 98 174
62 98 169
62 99 172
63 100 179
62 98 170
61 98 172
61 98 171
62 98 165
62 98 171
62 99 171
61 97 168
62 98 169
62 99 171
61 98 176
61 97 166
63 99 168
61 98 167
62 97 165
62 98 166
62 98 169
61 97 162
61 97 163
61 96 158
62 98 172
61 96 166
59 94 156
59 93 156
59 93 152
59 92 150
59 93 154
58 91 149
53 63 65
52 57 39
57 61 45
61 66 46
66 72 54
65 73 57
69 75 55
66 70 45
62 68 50
73 80 56
62 67 46
81 84 58
81 86 59
83 86 58
84 87 62
94 97 63
98 101 68
102 104 70
101 104 66
110 110 71
109 110 68
98 101 66
119 120 76
127 125 79
116 117 75
136 134 82
126 126 75
134 132 81
119 120 73
123 123 79
130 129 80
126 126 75
133 132 84
141 138 84
137 134 81
139 137 85
140 138 86
148 145 83
146 144 81
144 142 83
152 149 91
151 148 88
153 148 86
153 149 89
156 153 89
149 145 85
155 151 86
161 156 93
157 153 90
157 153 93
158 154 91
169 163 95
163 159 93
156 152 84
160 155 85
163 159 94
156 152 82
165 160 93
166 161 93
167 162 95
162 157 90
164 160 92
157 153 86
171 165 97
174 167 100
167 161 89
173 166 100
167 162 86
171 165 93
176 168 93
170 164 88
171 164 92
170 163 90
168 162 96
175 167 94
171 165 96
172 165 91
172 165 93
168 162 81
171 164 90
168 162 89
173 166 87
171 164 94
167 161 85
171 165 90
173 166 93
166 161 85
169 162 87
168 161 88
172 165 93
172 166 90
167 160 87
165 158 80
165 160 89
167 161 85
163 157 84
165 159 86
164 157 89
160 154 83
164 158 82
170 162 91
164 157 82
157 152 82
164 158 84
164 157 83
167 161 87
161 155 76
159 153 80
159 152 78
168 160 84
158 151 73
158 151 80
159 152 75
161 154 83
158 152 81
158 152 75
160 153 80
154 148 73
154 148 75
149 143 68
147 141 67
154 148 75
147 142 68
149 142 66
143 138 68
140 136 56
139 133 59
145 138 72
141 136 62
136 131 60
135 130 56
122 119 52
135 129 59
130 124 52
112 107 44
153 170 22
173 195 0
170 190 0
171 192 0
170 192 0
173 196 0
171 194 0
171 192 0
174 197 0
173 196 0
174 197 0
171 194 0
172 196 0
173 196 0
171 194 0
174 197 0
173 197 0
173 197 0
171 196 0
170 193 0
172 196 0
171 195 0
175 197 0
172 195 0
171 193 0
174 196 0
174 197 0
171 195 0
173 196 0
171 194 0
173 196 0
173 196 0
173 195 0
174 197 0
173 196 0
173 195 0
175 197 0
172 196 0
171 194 0
167 191 0
170 194 0
173 196 0
174 197 0
172 195 0
172 197 0
174 197 0
171 195 0
173 195 0
174 197 0
172 197 0
172 195 0
171 194 0
169 192 0
173 196 0
171 194 0
172 196 0
172 195 0
170 193 0
171 194 0
174 196 0
173 196 0
168 191 0
173 196 0
172 196 0
173 196 0
170 194 0
171 194 0
169 193 0
168 191 0
169 192 0
172 196 0
171 194 0
170 193 0
169 192 0
167 191 0
169 193 0
174 197 0
169 192 0
171 194 0
169 192 0
170 193 0
169 194 0
171 194 0
169 193 0
170 194 0
172 195 0
171 194 0
172 195 0
170 193 0
172 195 0
168 191 0
169 192 0
171 194 0
170 194 0
174 197 0
168 190 0
170 193 0
172 195 0
163 186 47
70 104 158
62 98 166
62 98 158
61 97 157
62 98 165
62 99 168
62 98 165
62 99 173
62 98 166
62 98 171
62 99 170
61 98 168
62 98 166
63 99 171
62 98 168
62 99 175
62 99 175
62 99 172
62 98 171
63 99 174
63 99 175
63 99 174
62 99 172
63 99 177
62 99 174
62 99 173
61 98 174
63 100 179
63 99 176
62 99 176
63 100 179
62 99 174
62 99 177
62 99 174
62 98 173
62 99 176
62 99 178
62 99 177
62 99 175
62 99 178
62 99 177
62 99 177
62 99 177
62 99 175
62 98 171
62 99 181
61 98 174
63 100 181
62 99 177
62 99 173
61 98 176
63 100 175
62 99 177
63 100 179
62 99 179
62 99 177
62 99 176
62 99 177
63 100 178
63 100 179
61 98 171
62 99 173
63 100 179
61 98 173
62 99 176
63 100 180
62 99 180
62 99 179
62 99 177
62 99 172
62 99 177
62 99 178
62 99 178
62 98 176
62 99 177
62 99 174
62 99 176
61 98 171
62 99 176
62 99 178
61 98 176
62 99 177
62 99 179
62 99 177
62 99 176
62 99 176
62 99 175
61 99 178
61 98 175
62 99 176
63 99 178
63 100 177
61 98 171
62 98 174
62 99 176
62 99 180
62 99 179
62 99 174
61 98 177
62 99 178
62 99 174
62 99 175
62 99 176
62 99 178
62 99 178
61 98 171
63 100 178
62 99 177
62 99 176
63 99 175
62 99 173
63 99 173
62 98 172
62 99 177
62 99 176
62 98 173
62 99 176
63 99 175
62 99 174
62 99 177
61 98 171
62 99 170
61 98 173
61 98 171
62 99 168
62 98 172
62 99 171
62 99 175
62 99 172
62 99 176
62 99 177
63 100 174
61 98 172
62 98 169
62 98 172
62 99 176
62 99 170
61 98 168
61 98 171
63 99 173
60 97 164
61 97 165
61 97 165
61 97 170
62 99 172
62 98 169
62 98 170
62 99 172
62 98 166
62 98 171
62 98 165
62 98 163
62 98 165
62 98 166
62 97 166
62 98 169
62 98 167
60 95 159
61 96 162
61 96 160
61 95 162
60 96 166
61 95 158
61 97 168
57 90 145
58 91 145
51 75 112
46 52 37
38 47 39
55 61 46
58 63 43
60 67 49
59 65 46
78 83 57
69 74 53
81 84 56
56 61 41
83 86 55
89 92 60
81 85 57
91 95 64
88 91 63
104 107 67
109 110 69
104 107 68
105 107 69
116 115 72
111 112 73
111 112 73
122 122 78
121 122 77
123 123 77
114 115 75
127 126 77
113 115 71
135 133 84
125 125 77
127 126 76
134 133 80
137 136 83
137 135 79
144 141 81
139 136 82
141 139 84
143 140 83
138 136 82
142 140 86
151 148 87
152 148 88
148 144 81
150 146 82
158 154 90
148 145 85
149 147 83
158 154 86
161 156 90
159 153 85
152 149 85
159 154 92
162 156 89
165 160 92
159 154 85
159 154 92
162 157 93
166 161 90
170 164 90
164 159 89
166 160 82
169 163 95
172 166 92
161 157 88
171 165 96
166 161 93
167 161 91
166 160 83
170 164 89
163 158 90
170 164 91
163 158 83
172 165 90
168 161 84
169 163 84
173 166 95
167 160 86
173 165 93
169 163 92
173 167 87
169 164 85
168 162 88
173 167 97
169 163 94
161 155 82
166 159 88
166 160 84
164 158 84
170 164 90
174 166 90
167 160 83
162 156 82
169 161 87
165 158 84
167 160 87
170 163 90
168 162 92
166 159 86
169 162 90
163 157 81
163 158 79
163 156 82
165 157 80
165 159 80
160 154 80
166 159 84
159 153 75
154 148 75
157 150 75
151 146 74
159 152 77
160 154 77
161 154 79
156 150 73
155 150 76
157 151 74
158 152 75
146 141 64
155 149 73
153 147 70
149 144 73
152 146 67
145 139 66
149 143 69
142 135 60
134 129 60
133 128 59
141 135 65
144 138 58
135 130 59
135 130 61
125 119 52
128 123 49
129 124 58
169 191 0
173 195 0
171 193 0
172 195 0
170 193 0
170 192 0
173 195 0
173 195 0
172 195 0
174 198 0
173 196 0
174 197 0
174 197 0
171 195 0
172 195 0
173 195 0
171 195 0
170 193 0
173 197 0
170 194 0
170 193 0
173 195 0
171 195 0
171 194 0
172 195 0
170 194 0
173 197 0
173 196 0
170 194 0
171 194 0
174 197 0
172 195 0
173 196 0
173 196 0
172 195 0
174 197 0
168 191 0
171 195 0
172 195 0
173 196 0
171 194 0
172 195 0
174 197 0
171 195 0
172 195 0
172 196 0
173 196 0
173 196 0
172 196 0
171 195 0
173 196 0
172 195 0
171 195 0
173 195 0
172 196 0
172 195 0
173 197 0
173 196 0
172 195 0
172 196 0
173 197 0
174 197 0
174 197 0
168 192 0
173 195 0
174 196 0
171 195 0
170 193 0
170 193 0
171 195 0
172 195 0
170 194 0
172 195 0
169 193 0
171 194 0
172 196 0
171 193 0
173 196 0
174 197 0
171 194 0
167 190 0
169 193 0
169 192 0
170 194 0
170 193 0
170 193 0
169 192 0
171 194 0
170 194 0
170 193 0
170 193 0
170 193 0
169 192 0
171 194 0
170 194 0
165 188 0
172 193 0
170 193 0
133 157 102
62 97 157
61 97 155
62 99 170
62 99 165
61 98 164
62 99 170
62 99 171
61 97 167
62 99 172
62 98 165
62 98 170
62 98 169
62 99 173
63 100 178
62 98 168
62 98 167
63 99 173
63 99 177
62 99 174
62 99 167
63 99 170
62 98 169
63 99 176
62 99 176
62 99 169
62 99 173
62 99 171
62 99 175
62 99 173
62 99 173
62 99 173
62 99 175
63 100 178
62 98 173
61 98 172
61 98 173
62 99 177
62 99 174
62 99 174
62 99 173
61 98 172
62 99 178
62 99 180
61 98 177
62 99 176
62 99 179
62 99 175
63 99 178
62 99 173
62 99 179
62 99 176
62 99 180
62 99 175
62 99 175
62 99 175
62 99 179
63 99 176
62 99 177
62 99 175
62 99 179
62 99 176
62 98 172
62 99 175
62 99 180
62 99 178
62 99 173
63 100 177
62 99 179
62 99 177
62 99 179
62 99 176
62 99 174
63 99 177
62 99 174
62 99 178
62 99 178
62 99 175
63 100 178
62 98 174
62 99 176
61 98 175
62 99 174
62 99 175
62 99 180
62 99 175
62 99 176
61 98 175
62 99 178
62 99 179
62 99 174
62 99 170
62 99 178
62 99 177
63 99 176
62 99 177
62 99 175
63 100 178
62 99 175
62 99 177
62 99 176
62 99 176
62 99 175
62 99 174
63 100 179
63 99 174
62 99 175
62 99 178
62 99 174
63 100 178
62 99 175
63 99 176
62 99 175
61 98 167
63 99 177
61 98 171
61 98 170
62 99 175
62 99 172
61 98 172
62 98 171
63 100 179
62 98 170
63 99 177
62 98 171
61 98 174
62 98 170
63 100 174
62 99 175
62 99 174
62 99 172
62 99 175
62 99 169
63 100 177
62 99 172
62 99 174
63 100 173
62 99 172
62 99 170
61 97 165
60 96 163
62 99 174
61 97 166
62 98 165
61 97 167
61 97 162
62 98 171
63 99 174
61 97 164
62 98 165
62 98 169
60 96 163
61 97 168
61 97 166
62 99 170
61 97 165
62 98 170
61 97 161
61 96 160
61 97 168
61 96 164
60 95 165
61 95 161
60 94 151
59 93 144
60 94 155
60 94 153
60 91 147
52 59 49
52 56 38
51 60 48
66 71 51
48 57 46
65 71 49
66 73 52
86 91 63
80 84 58
75 79 55
68 74 51
79 83 58
99 102 65
94 98 68
93 97 63
90 94 62
99 99 62
96 98 65
102 105 64
95 98 63
102 105 66
109 110 71
115 117 69
122 121 75
122 122 76
117 118 74
121 122 74
131 129 78
115 115 71
128 127 76
136 134 80
137 135 83
135 133 84
131 131 78
142 139 81
145 142 86
140 138 78
141 139 83
140 138 83
151 148 85
145 142 86
145 143 83
159 154 88
160 155 88
151 148 88
160 155 89
150 147 77
148 145 86
159 155 91
158 154 87
153 149 85
159 155 87
162 157 90
163 158 90
166 161 93
169 163 96
164 159 89
169 162 91
163 158 84
165 160 88
163 158 88
168 163 94
166 161 93
171 165 89
167 161 86
169 163 90
169 163 91
167 160 89
167 162 89
170 163 92
173 167 95
166 161 91
170 165 90
170 165 89
172 166 90
165 161 80
174 167 92
173 167 93
171 164 91
169 163 89
167 161 89
169 163 89
170 163 89
172 165 92
166 160 88
166 160 84
169 162 87
167 160 84
171 165 89
168 161 87
167 161 86
170 163 88
166 159 91
167 161 93
163 157 88
163 157 78
170 163 84
166 160 82
166 159 84
159 154 84
170 162 88
161 155 84
165 157 83
165 157 82
163 156 83
158 153 77
164 157 84
155 149 79
157 150 78
161 155 78
154 148 77
158 150 77
155 148 81
157 151 73
155 149 73
143 138 68
153 147 68
146 141 68
157 151 75
154 148 73
149 144 64
154 147 70
152 146 63
146 140 63
147 140 66
144 138 66
143 137 59
139 133 64
129 123 54
137 133 59
126 121 45
138 133 52
125 120 52
134 135 39
171 191 0
170 193 0
170 191 0
173 195 0
174 196 0
172 194 0
170 192 0
171 192 0
172 195 0
172 195 0
175 198 0
174 197 0
171 195 0
173 196 0
173 197 0
172 195 0
172 196 0
172 195 0
175 198 0
171 194 0
173 196 0
173 196 0
172 196 0
172 195 0
171 195 0
169 192 0
171 194 0
173 196 0
173 197 0
172 195 0
170 194 0
172 195 0
174 197 0
174 198 0
173 195 0
172 196 0
171 195 0
173 196 0
172 196 0
171 194 0
172 196 0
171 194 0
172 195 0
170 194 0
172 195 0
169 193 0
168 192 0
171 195 0
170 194 0
173 197 0
173 196 0
172 195 0
172 195 0
172 195 0
171 194 0
170 193 0
173 196 0
172 196 0
170 194 0
169 193 0
172 196 0
168 192 0
169 193 0
173 197 0
170 193 0
172 196 0
173 196 0
169 193 0
169 192 0
174 197 0
172 195 0
170 193 0
170 193 0
169 191 0
166 189 0
172 196 0
175 197 0
169 192 0
169 192 0
171 193 0
172 196 0
171 194 0
169 193 0
169 193 0
171 195 0
170 194 0
167 190 0
164 187 0
169 192 0
169 193 0
171 195 0
171 194 0
170 193 0
171 194 0
171 194 0
172 195 0
169 192 0
171 193 0
92 121 136
62 99 164
62 98 160
62 98 161
62 99 166
62 99 174
62 99 166
60 97 159
61 97 159
62 99 171
62 98 168
62 98 170
62 98 166
63 99 171
63 100 175
62 98 165
63 100 175
62 99 174
62 99 172
62 99 173
63 99 173
62 99 173
62 99 172
62 98 173
62 99 174
62 99 174
62 99 174
63 99 177
62 99 176
62 98 170
62 99 175
61 98 174
62 99 177
62 99 176
61 98 171
63 100 178
63 99 178
62 99 177
62 99 178
62 99 175
62 99 171
63 99 177
61 98 174
61 98 173
62 99 176
63 100 180
62 99 177
62 99 177
62 99 173
63 99 177
62 99 177
62 99 176
62 99 177
62 99 176
62 99 176
62 99 176
61 98 175
62 99 177
62 99 177
62 99 179
62 99 178
62 99 176
62 99 175
63 99 176
62 99 175
62 99 177
62 99 177
62 99 177
62 99 177
61 98 174
62 99 180
62 99 178
62 99 176
63 99 175
62 99 176
63 100 179
63 100 178
61 98 174
63 99 178
63 99 175
62 99 175
62 99 177
63 99 174
62 99 179
63 99 176
62 98 170
62 99 177
63 99 180
62 99 176
61 98 175
62 99 175
62 99 176
62 99 175
62 99 175
63 99 177
63 100 178
62 99 175
62 99 175
62 99 176
62 99 174
62 99 172
62 98 173
63 100 178
61 98 174
62 98 172
62 99 176
62 99 177
62 99 177
62 99 175
61 98 173
62 99 175
61 98 170
62 99 173
63 100 179
63 100 175
62 98 172
62 99 174
62 99 170
62 99 173
61 98 169
62 99 174
62 98 175
61 98 170
62 99 176
62 99 175
62 99 171
62 98 172
62 99 172
62 99 173
62 99 179
62 99 175
62 99 172
62 99 175
63 100 176
62 99 174
63 99 169
62 99 175
62 98 170
62 99 171
61 98 165
63 99 175
62 98 170
62 98 170
61 98 168
61 98 171
62 99 174
62 98 169
61 97 162
61 98 166
62 99 174
62 98 165
62 98 170
63 99 170
61 98 168
62 98 167
63 99 171
61 97 162
62 98 166
62 97 164
62 98 166
60 95 150
61 96 161
62 98 166
60 94 153
60 95 155
60 95 157
60 94 153
59 92 150
43 63 90
53 59 41
57 61 40
57 61 39
50 57 44
67 72 50
65 69 44
63 70 49
63 69 50
74 80 54
86 91 62
80 85 58
72 78 55
82 87 57
78 83 59
99 101 64
95 98 69
103 104 63
100 102 67
106 109 74
105 106 61
119 119 68
118 118 70
113 114 75
121 122 68
124 123 75
117 118 69
120 120 75
131 130 76
121 119 75
127 127 78
130 129 78
139 137 80
137 136 76
136 135 83
133 132 78
137 135 81
134 133 83
137 135 79
143 140 84
147 143 88
147 144 86
140 138 83
155 152 88
146 143 83
149 146 81
160 155 86
156 152 86
160 154 87
151 147 81
158 153 84
164 158 92
159 154 85
155 150 85
158 154 83
165 159 88
163 157 94
166 160 88
168 162 91
165 159 86
165 160 87
168 162 88
166 161 94
167 162 91
162 157 87
167 162 90
160 155 80
173 166 95
169 163 87
168 162 92
168 162 90
166 160 82
170 163 88
172 166 92
165 159 84
168 162 83
169 163 88
169 163 90
164 158 80
171 165 93
176 167 95
170 163 85
168 162 89
166 160 84
170 163 90
169 162 88
168 162 86
170 163 87
173 165 90
168 161 86
166 160 88
168 162 90
164 157 82
162 156 79
163 156 80
163 157 83
168 161 86
163 156 79
167 160 84
166 159 84
157 150 80
162 155 81
166 159 83
164 157 77
157 150 77
164 157 84
155 148 75
159 153 70
157 151 75
160 153 76
157 150 80
157 151 83
163 156 80
152 147 72
151 145 73
148 143 68
156 149 78
152 145 75
143 138 67
154 148 69
149 144 68
151 143 68
152 146 66
147 141 69
148 141 71
135 130 61
139 133 61
132 127 52
143 138 60
131 126 51
124 119 54
119 115 52
133 127 59
150 159 42
172 194 0
169 190 0
173 194 0
170 192 0
169 191 0
174 195 0
171 194 0
172 194 0
173 197 0
173 197 0
174 197 0
171 194 0
171 195 0
172 196 0
172 194 0
173 196 0
173 196 0
173 197 0
171 195 0
171 195 0
170 194 0
174 197 0
171 195 0
170 193 0
170 194 0
171 194 0
173 195 0
173 197 0
173 196 0
171 193 0
172 195 0
167 190 0
173 197 0
173 196 0
170 193 0
171 195 0
171 194 0
170 193 0
172 195 0
174 196 0
171 195 0
173 195 0
171 195 0
171 195 0
171 194 0
171 194 0
172 196 0
171 194 0
170 193 0
172 195 0
172 195 0
167 191 0
171 195 0
168 192 0
171 195 0
169 193 0
170 192 0
168 192 0
173 197 0
169 192 0
173 196 0
172 195 0
173 196 0
173 196 0
170 193 0
171 195 0
175 198 0
171 194 0
171 194 0
171 195 0
171 194 0
170 193 0
173 196 0
170 193 0
175 198 0
171 194 0
169 192 0
171 195 0
171 194 0
172 195 0
169 191 0
172 195 0
170 192 0
169 193 0
168 191 0
171 194 0
171 195 0
167 190 0
168 192 0
168 191 0
172 195 0
168 191 0
169 193 0
170 192 0
169 193 0
171 194 0
168 191 0
148 172 78
62 98 157
61 98 163
62 98 164
62 98 167
62 98 162
62 98 168
62 99 172
62 99 165
61 98 165
62 99 173
62 98 168
62 99 168
62 98 168
61 98 166
63 99 171
61 98 167
62 99 168
62 99 171
63 99 170
62 99 169
63 99 171
62 98 170
62 99 173
62 99 171
62 99 173
62 99 173
62 99 171
62 98 168
62 99 171
62 99 172
62 99 169
62 99 173
63 99 177
62 99 179
62 99 178
62 99 174
62 99 175
62 98 170
62 99 176
62 99 178
62 99 174
62 99 177
62 99 174
62 99 176
62 99 173
63 100 179
62 99 174
62 99 174
62 99 176
62 99 178
61 98 177
62 99 176
62 99 176
62 99 176
62 99 175
62 99 176
62 99 177
63 99 173
63 100 180
63 99 177
62 99 174
63 99 175
62 99 178
62 98 174
63 99 175
61 99 176
62 99 176
61 98 173
62 99 179
62 99 177
61 98 175
63 100 177
62 98 175
62 99 175
62 99 178
62 99 174
62 99 178
62 99 179
62 99 177
62 99 177
62 99 171
62 99 177
62 99 175
62 99 177
62 99 174
62 99 172
62 99 178
62 99 178
61 98 175
62 99 177
62 99 176
62 99 177
62 99 175
62 99 174
61 98 177
62 99 174
62 98 174
63 99 179
62 99 178
62 99 176
62 99 174
62 99 179
61 98 171
62 99 177
62 99 174
62 98 172
62 99 177
62 99 171
63 100 176
62 99 176
63 100 178
62 99 176
62 99 174
62 99 173
62 99 175
62 98 175
62 98 172
61 98 170
63 100 176
62 99 172
62 99 173
63 99 174
62 99 174
62 98 168
62 99 176
62 98 172
62 99 173
63 100 175
62 99 177
61 98 171
62 98 173
62 99 171
62 99 176
62 99 172
61 98 168
62 99 170
62 99 174
62 99 173
63 99 174
61 98 167
62 98 167
63 99 176
62 98 165
61 98 169
62 99 173
61 97 167
62 99 170
62 99 173
62 99 173
62 99 172
62 98 168
61 98 168
61 97 165
62 98 169
62 98 167
62 98 166
60 95 159
61 96 154
60 95 155
61 96 161
62 97 169
61 96 164
61 96 158
60 94 153
61 96 156
61 96 160
60 94 154
59 91 146
57 84 132
55 60 42
47 54 37
54 57 38
52 58 41
55 61 43
60 66 45
69 74 51
74 79 54
73 79 57
80 84 53
79 83 54
67 73 47
73 79 52
94 96 61
92 96 63
89 91 56
102 104 64
99 102 65
103 104 64
106 108 66
109 110 72
97 99 62
123 121 69
122 120 70
123 122 71
116 117 68
129 128 73
130 129 77
134 132 78
126 125 75
132 130 75
139 137 84
137 135 79
132 131 78
146 142 87
143 141 80
148 144 80
145 142 82
149 145 86
134 133 77
156 151 92
152 147 82
152 148 85
153 149 85
156 151 92
158 153 89
158 153 88
153 149 83
158 154 88
159 154 88
154 150 84
164 159 90
163 156 84
167 161 91
163 158 87
168 161 93
164 159 83
163 158 92
164 158 85
164 158 88
165 160 90
161 156 84
166 160 81
170 164 92
170 163 91
168 162 84
164 158 88
168 162 95
168 161 87
172 165 88
165 159 86
170 164 87
171 164 91
169 163 85
166 160 83
171 164 86
173 167 89
167 161 88
171 164 86
168 163 85
170 163 87
166 160 80
171 165 90
168 161 86
172 165 88
165 159 83
165 159 84
172 165 87
164 158 83
170 163 86
168 161 84
164 157 80
159 153 75
164 158 76
169 161 86
165 159 85
160 154 76
163 157 84
166 160 80
156 150 72
162 156 80
158 152 76
158 152 76
160 153 78
163 156 82
156 149 80
156 150 70
158 152 79
156 150 75
156 150 73
166 159 83
150 145 71
154 147 70
159 152 75
154 147 74
144 138 69
150 143 68
157 151 69
155 147 76
146 140 73
149 143 66
144 137 73
140 135 58
145 139 65
136 130 66
136 131 54
141 135 54
130 125 56
131 125 57
140 135 51
129 124 51
130 124 53
156 172 16
169 191 0
172 193 0
172 194 0
174 196 0
170 192 0
170 191 0
174 194 0
171 192 0
174 197 0
172 196 0
172 196 0
168 191 0
170 194 0
172 195 0
170 194 0
173 196 0
174 197 0
172 195 0
169 192 0
172 196 0
170 193 0
172 195 0
173 197 0
172 196 0
169 192 0
170 193 0
172 196 0
174 198 0
172 196 0
170 193 0
173 196 0
170 194 0
172 196 0
172 196 0
169 193 0
170 194 0
173 196 0
172 196 0
175 198 0
175 198 0
168 192 0
171 194 0
168 191 0
173 197 0
174 197 0
167 190 0
171 194 0
170 192 0
170 193 0
171 194 0
171 195 0
170 194 0
173 196 0
172 196 0
171 195 0
169 193 0
170 195 0
173 197 0
172 195 0
170 193 0
172 195 0
171 194 0
169 192 0
169 192 0
170 193 0
174 197 0
172 195 0
167 191 0
173 196 0
169 192 0
170 194 0
170 194 0
172 196 0
173 196 0
173 196 0
170 193 0
171 193 0
170 193 0
173 197 0
172 196 0
170 193 0
170 193 0
168 191 0
172 194 0
170 193 0
171 194 0
173 197 0
169 193 0
170 194 0
167 190 0
167 190 0
169 193 0
171 194 0
165 190 0
172 196 0
170 193 0
168 191 0
114 140 129
62 98 162
62 99 167
62 98 165
62 98 165
62 99 165
62 99 169
61 97 158
63 99 172
62 99 170
63 99 168
63 99 173
62 99 174
62 98 168
62 99 168
62 98 171
62 99 170
62 98 166
62 99 171
62 98 171
63 99 174
62 99 170
62 99 174
62 98 169
62 99 177
61 98 169
62 98 167
63 100 174
62 99 172
62 99 174
62 99 175
61 98 173
62 99 174
62 99 174
62 99 175
61 99 179
63 99 173
63 99 177
62 99 172
62 99 175
62 98 172
62 99 176
62 99 178
62 99 179
62 98 176
62 98 173
62 99 171
62 99 178
62 99 175
61 98 170
62 99 171
62 99 176
61 98 173
62 99 178
62 99 177
62 99 174
62 99 176
62 98 171
62 99 176
62 99 177
61 98 174
62 99 172
62 99 177
62 99 174
62 99 172
63 100 179
62 99 174
62 99 173
61 98 175
62 99 180
63 99 173
62 99 179
62 99 176
62 99 176
62 99 178
62 99 174
62 99 178
63 99 176
63 99 174
62 99 175
62 99 179
62 99 175
62 99 179
61 98 174
62 99 177
62 99 176
62 99 177
62 99 175
62 98 171
62 99 174
62 99 175
62 99 176
62 99 171
63 99 177
62 99 176
62 99 176
62 99 172
62 99 176
61 98 170
62 99 175
62 99 174
63 100 176
62 99 175
62 99 174
62 98 172
62 99 176
62 99 175
62 99 173
62 99 174
63 100 178
62 99 179
62 99 174
62 99 175
63 99 172
62 99 172
62 99 172
62 99 177
62 99 172
62 99 173
62 99 174
62 99 176
63 99 172
61 98 169
63 99 172
63 99 167
62 99 172
61 98 174
62 99 177
62 99 170
62 99 175
62 99 172
62 99 173
62 99 172
62 98 173
62 98 172
62 99 168
62 98 166
62 98 167
62 98 168
62 98 166
62 99 169
62 99 172
63 99 169
63 99 175
61 98 167
62 99 169
62 99 169
61 97 164
62 98 170
62 98 165
61 97 164
61 98 164
62 98 170
62 98 167
62 99 170
61 97 161
62 98 163
60 96 159
61 97 167
61 97 170
61 96 156
61 96 159
61 97 164
61 96 160
61 95 158
60 95 152
60 95 156
61 96 159
59 94 155
58 90 140
43 55 62
42 49 35
55 62 45
71 76 54
63 67 45
51 56 36
69 74 51
61 67 45
70 76 53
91 92 54
71 75 49
76 80 50
91 94 61
96 98 59
90 94 59
98 101 62
99 101 66
102 103 64
93 95 59
106 108 68
114 113 63
116 117 68
112 112 66
117 117 69
119 119 72
118 119 73
123 122 73
117 117 67
123 121 67
131 129 78
123 122 73
127 126 73
136 135 76
136 134 78
127 127 75
140 138 80
140 137 84
153 148 87
144 141 78
145 141 81
146 143 81
142 139 84
148 144 82
144 140 75
156 152 84
152 149 81
151 147 81
161 156 88
155 151 83
164 158 83
163 157 88
163 157 87
165 160 88
154 150 83
166 160 88
160 156 85
162 158 83
164 158 84
163 157 82
169 162 87
166 161 88
164 159 79
165 159 86
161 155 82
169 162 89
167 160 84
173 166 94
167 161 87
170 164 85
166 160 88
167 161 84
171 164 89
169 163 89
168 162 90
168 162 85
164 157 79
164 159 84
165 159 85
165 158 87
169 161 84
170 163 87
165 159 84
169 162 84
164 159 84
165 159 86
170 164 86
170 163 87
163 157 82
166 159 84
163 157 84
161 154 81
161 155 80
164 157 83
165 158 79
163 156 80
165 158 83
164 156 79
158 151 76
165 158 80
160 153 85
167 160 84
159 153 75
159 153 73
159 153 77
161 155 80
162 156 80
154 147 68
165 158 81
159 153 78
153 146 76
157 151 80
159 152 78
145 140 64
159 154 75
146 141 64
148 142 68
145 139 64
157 151 76
146 140 64
145 138 75
144 138 69
145 140 63
148 142 65
146 140 64
141 135 59
132 127 58
136 132 59
133 127 52
131 126 51
134 128 53
125 120 52
127 122 42
168 191 0
168 187 0
172 193 0
170 193 0
171 194 0
169 192 0
169 190 0
170 189 0
171 192 0
172 196 0
172 196 0
172 196 0
173 196 0
172 196 0
171 194 0
172 195 0
171 195 0
171 195 0
173 197 0
173 196 0
175 198 0
170 194 0
173 196 0
175 197 0
172 195 0
171 194 0
170 193 0
171 194 0
172 196 0
174 196 0
172 196 0
171 195 0
172 194 0
170 194 0
172 195 0
173 197 0
172 195 0
172 195 0
172 194 0
175 198 0
171 195 0
171 195 0
171 194 0
171 194 0
169 194 0
172 196 0
170 193 0
174 197 0
171 194 0
171 194 0
171 195 0
170 193 0
167 191 0
173 196 0
169 193 0
171 194 0
168 192 0
171 195 0
173 196 0
172 196 0
171 194 0
166 191 0
170 193 0
170 193 0
171 195 0
171 195 0
172 195 0
167 191 0
170 193 0
170 193 0
168 192 0
172 195 0
171 194 0
170 192 0
170 194 0
171 193 0
170 193 0
165 189 0
171 194 0
172 196 0
169 192 0
169 193 0
167 188 0
169 194 0
174 196 0
170 192 0
170 193 0
172 195 0
171 194 0
169 192 0
171 195 0
169 193 0
166 191 0
171 195 0
170 193 0
173 196 0
169 192 0
169 191 18
87 118 151
63 100 169
62 98 161
62 98 164
63 99 169
61 98 164
62 98 158
61 97 161
62 98 169
62 98 163
61 98 171
63 100 176
62 99 169
62 98 168
62 98 168
62 98 169
62 98 164
62 98 170
62 98 170
62 99 172
62 98 168
62 99 171
62 98 173
62 99 178
62 99 173
62 99 172
61 98 171
62 99 175
62 99 175
62 99 174
62 99 176
63 100 176
62 98 170
62 99 175
62 99 176
61 99 177
62 99 176
62 99 174
62 99 175
62 99 170
62 99 173
62 99 175
62 98 174
62 99 177
62 99 175
62 99 176
62 99 175
62 99 175
62 99 172
61 98 176
62 99 175
63 99 177
62 99 176
62 99 176
62 99 175
62 99 172
63 99 177
61 98 174
62 99 175
62 99 175
62 99 177
61 98 174
62 99 173
62 99 175
62 99 176
62 99 178
63 100 179
63 99 175
62 99 174
61 98 175
62 99 173
62 99 178
62 99 175
61 98 178
63 99 177
62 99 177
63 99 175
62 99 172
63 99 176
62 98 171
63 99 178
62 99 177
62 99 175
61 99 176
61 98 173
62 99 178
61 98 170
63 99 175
61 98 166
61 98 175
62 99 177
61 98 172
62 99 175
61 98 172
62 99 175
62 99 179
62 99 175
61 98 169
62 99 175
62 99 176
63 100 175
62 99 173
62 98 172
62 99 171
62 99 176
62 99 172
62 98 170
62 99 175
63 99 176
62 99 171
63 100 178
62 99 174
62 99 174
62 99 172
62 99 177
62 98 171
62 98 170
62 98 174
62 99 168
63 99 175
62 99 175
63 100 178
62 99 175
62 98 172
62 99 173
63 99 174
62 99 171
61 98 171
62 99 176
63 100 176
62 99 175
62 99 174
62 99 175
62 98 166
62 98 170
63 99 172
62 98 168
62 98 170
62 99 173
62 99 170
63 99 170
61 98 174
62 99 167
62 99 170
62 98 168
62 98 167
61 97 163
62 99 173
62 99 172
63 99 171
62 98 170
61 98 168
61 97 161
61 97 164
61 97 166
61 97 164
61 96 162
61 97 158
62 98 164
60 95 159
60 95 160
60 96 160
61 97 165
61 96 161
61 96 158
60 95 155
59 94 154
61 97 157
59 94 152
58 92 148
46 68 101
58 62 42
51 56 36
53 58 32
58 63 42
55 62 38
76 79 49
63 69 49
76 82 56
70 74 50
74 79 51
79 84 59
83 87 55
84 87 53
81 85 57
78 83 54
94 97 63
102 103 65
108 109 70
94 97 62
98 100 61
106 108 67
117 117 63
121 120 69
112 113 62
122 121 68
117 118 70
121 121 69
130 128 70
128 128 70
125 124 73
130 129 78
131 129 72
134 132 79
147 144 79
140 138 78
140 139 81
141 139 78
144 141 86
146 143 75
140 138 81
139 137 74
144 142 71
145 144 72
150 147 82
155 149 82
161 156 89
160 154 86
153 148 81
154 149 84
158 153 86
157 152 86
154 150 85
161 156 90
162 156 86
162 157 84
164 158 86
165 159 84
168 162 90
168 162 91
164 158 85
167 161 85
162 156 86
163 159 87
167 161 88
167 161 84
172 165 87
167 161 86
168 161 90
171 164 87
163 158 84
164 159 83
173 166 90
168 161 86
168 160 87
172 165 88
168 163 86
166 159 78
169 162 92
170 162 89
167 160 85
167 160 84
167 160 86
165 159 78
168 161 85
163 156 81
166 161 84
168 161 84
168 161 87
167 160 84
168 161 87
168 161 82
164 159 84
166 158 86
161 154 78
161 154 81
161 155 80
164 158 80
168 162 87
163 157 78
160 154 72
157 151 74
158 151 75
154 149 76
159 152 76
152 146 76
163 156 78
159 153 75
159 153 80
161 154 76
159 153 74
158 151 79
160 153 78
149 143 65
150 144 68
152 147 61
148 141 69
147 141 70
141 135 65
137 132 57
155 148 77
148 142 59
141 136 54
137 131 53
140 135 60
135 129 57
144 139 59
138 133 59
139 133 52
123 117 51
124 119 48
141 146 42
169 190 0
172 194 0
169 190 0
170 190 0
170 191 0
170 191 0
172 194 0
168 190 0
171 193 0
173 197 0
169 194 0
171 195 0
173 196 0
171 195 0
172 196 0
171 194 0
173 196 0
174 197 0
172 195 0
172 195 0
174 197 0
171 194 0
172 196 0
174 197 0
172 195 0
172 196 0
169 193 0
169 193 0
170 193 0
172 195 0
172 196 0
172 196 0
169 192 0
172 195 0
172 196 0
173 196 0
171 195 0
172 196 0
172 194 0
170 194 0
171 194 0
171 195 0
170 194 0
171 195 0
171 195 0
172 195 0
168 191 0
170 192 0
172 195 0
171 194 0
171 194 0
168 191 0
170 193 0
170 193 0
169 192 0
171 194 0
170 194 0
173 196 0
169 193 0
174 197 0
172 195 0
174 197 0
171 194 0
172 195 0
168 191 0
173 196 0
171 194 0
172 195 0
168 192 0
169 192 0
171 195 0
168 191 0
171 195 0
168 191 0
169 193 0
171 194 0
168 192 0
173 196 0
170 194 0
169 191 0
168 192 0
172 195 0
171 194 0
168 192 0
171 194 0
170 194 0
170 193 0
169 193 0
169 193 0
170 194 0
168 190 0
170 194 0
167 190 0
168 192 0
172 195 0
170 194 0
167 191 0
155 178 72
62 97 159
62 97 154
61 97 156
61 97 157
63 100 172
62 98 167
62 99 167
62 99 168
61 98 165
62 98 169
63 99 170
62 98 169
62 99 172
62 98 164
62 99 170
62 98 167
63 99 170
63 99 173
62 99 169
63 99 172
62 99 174
61 98 170
61 98 168
62 98 171
62 99 178
62 99 172
63 99 176
62 99 173
62 98 171
62 99 175
62 99 175
62 98 171
62 99 178
62 98 169
62 99 176
62 99 177
62 99 176
62 99 178
62 99 177
62 99 174
62 99 176
62 99 170
62 99 175
62 99 170
62 99 176
62 99 177
62 98 173
62 98 172
63 99 175
62 99 176
62 99 178
62 98 172
62 99 179
62 99 177
62 99 177
61 98 173
62 99 179
62 99 177
62 99 177
62 99 174
62 99 173
63 99 177
61 98 176
62 99 177
62 99 180
63 100 176
62 99 176
62 99 173
63 99 175
62 99 173
62 99 172
62 99 173
62 99 177
62 99 177
62 99 175
62 99 175
63 99 174
62 99 172
63 99 175
62 99 179
62 99 177
62 99 175
62 99 174
62 99 178
62 99 174
61 98 175
62 99 178
61 98 176
62 99 176
62 98 172
62 99 172
62 99 173
62 99 172
62 99 171
62 99 175
62 99 175
62 99 174
62 99 174
62 98 172
62 98 171
61 98 171
61 98 174
62 99 177
62 99 171
61 98 174
62 99 176
62 99 174
62 99 174
62 99 173
62 99 176
62 98 171
62 99 170
61 98 172
61 98 169
62 99 171
62 99 171
62 99 174
62 98 167
62 99 171
62 99 171
61 98 170
61 98 169
62 99 177
62 99 172
63 99 177
62 98 171
62 99 173
62 99 169
63 99 173
62 98 169
63 99 174
62 98 170
62 99 167
62 99 169
62 99 172
63 99 169
62 98 169
62 99 170
62 99 171
63 99 171
62 99 169
62 99 176
62 99 170
62 99 171
62 98 169
62 99 172
63 99 172
62 98 162
62 98 170
62 98 166
62 98 171
61 98 169
63 99 164
61 97 168
61 97 167
61 98 164
61 97 164
61 96 165
62 98 166
62 98 169
62 97 160
61 96 161
61 96 164
61 97 166
60 95 150
60 96 161
60 94 153
60 95 159
58 91 149
58 90 145
55 87 139
35 45 34
45 52 35
46 55 37
53 61 40
52 57 35
55 61 42
65 71 46
73 79 53
65 72 44
78 83 54
83 86 51
84 89 60
87 91 57
80 85 56
93 95 59
87 92 61
95 98 61
97 100 57
102 103 64
96 99 60
107 108 68
106 108 64
113 113 69
117 117 68
122 122 71
124 123 72
120 119 63
122 122 68
131 129 74
127 126 72
131 129 73
140 137 79
135 132 78
139 136 82
138 135 77
143 140 78
149 144 82
141 138 77
143 140 83
153 149 81
140 138 79
146 143 85
152 148 73
158 153 80
155 150 87
157 152 81
143 140 77
152 149 82
162 155 87
160 154 90
152 149 77
161 155 80
163 157 81
158 154 78
157 153 77
160 154 83
165 157 88
165 159 82
167 160 87
165 160 89
168 161 86
167 160 88
165 160 88
169 163 91
161 156 82
169 162 88
165 159 91
166 160 87
164 158 82
165 159 84
167 161 82
171 164 86
169 162 90
167 161 83
171 164 86
165 158 87
170 163 89
164 157 80
164 158 80
164 158 82
165 159 80
162 156 80
164 158 82
167 161 82
168 161 81
167 160 80
164 159 73
163 157 76
157 150 77
167 160 89
168 161 86
162 156 82
163 156 80
164 158 80
163 157 80
158 151 75
159 154 77
162 156 78
167 160 83
169 161 84
159 153 75
153 147 74
160 154 74
162 156 74
157 151 75
164 158 77
157 151 78
156 150 75
155 148 70
151 144 71
160 154 72
151 145 69
153 146 69
156 150 68
156 149 75
143 138 61
146 141 64
139 133 64
146 140 62
147 140 63
149 143 67
150 143 64
141 136 56
141 135 63
142 136 61
129 124 47
125 120 52
133 127 56
128 124 44
115 112 42
149 161 34
173 195 0
171 192 0
171 193 0
168 190 0
171 193 0
170 192 0
171 194 0
170 193 0
170 193 0
174 196 0
172 196 0
171 195 0
173 196 0
172 196 0
170 194 0
171 194 0
168 192 0
174 197 0
172 195 0
171 194 0
170 193 0
173 196 0
172 195 0
171 194 0
175 198 0
172 195 0
172 196 0
174 196 0
173 196 0
171 194 0
168 192 0
171 196 0
174 197 0
171 193 0
171 195 0
173 196 0
169 193 0
174 196 0
172 195 0
171 195 0
170 193 0
174 197 0
169 193 0
171 195 0
171 195 0
173 196 0
170 194 0
173 196 0
174 197 0
168 191 0
172 196 0
172 193 0
168 192 0
171 195 0
173 195 0
173 196 0
168 192 0
170 194 0
170 193 0
171 195 0
172 195 0
169 192 0
168 192 0
167 191 0
170 194 0
166 189 0
172 195 0
171 193 0
173 196 0
169 191 0
170 194 0
168 191 0
169 193 0
172 195 0
168 191 0
169 191 0
171 195 0
173 196 0
172 195 0
169 193 0
169 192 0
172 194 0
174 196 0
172 196 0
168 192 0
173 196 0
169 193 0
169 192 0
170 192 0
166 190 0
171 194 0
169 192 0
169 192 0
172 196 0
171 194 0
170 193 0
169 193 0
115 141 118
62 98 159
63 99 170
62 98 161
62 99 169
62 98 162
61 97 159
62 98 165
62 98 163
63 99 169
63 99 169
62 99 175
61 98 171
61 98 163
62 99 172
62 99 169
61 98 168
62 98 172
62 99 169
63 99 174
62 99 171
62 99 173
62 98 171
61 98 173
62 98 165
62 99 172
61 98 169
62 99 173
62 98 167
63 100 179
63 100 175
63 99 175
62 98 168
61 98 173
63 99 168
62 99 177
62 99 172
62 99 173
63 100 180
63 99 173
63 99 175
61 98 170
62 99 172
62 99 177
62 99 173
62 99 174
63 99 175
62 99 177
62 98 172
62 99 173
61 98 174
62 99 176
62 99 178
62 99 176
62 99 174
63 99 173
62 99 173
62 99 174
62 99 171
62 99 177
61 98 172
62 99 175
63 99 176
63 99 177
62 99 174
62 99 173
62 99 175
62 99 177
62 99 178
62 99 177
62 99 172
63 99 176
62 99 174
62 99 174
62 99 174
62 99 175
62 99 176
62 99 174
63 99 176
62 99 176
62 99 173
63 99 177
63 100 177
61 98 177
62 99 175
61 98 170
62 99 175
62 99 173
61 98 174
62 99 178
61 98 176
62 99 175
62 99 175
62 98 167
62 99 174
61 98 171
62 98 170
61 98 173
62 99 176
62 99 174
62 99 172
62 98 172
61 98 170
62 99 173
63 100 179
62 99 176
61 98 171
63 100 178
62 99 175
62 99 177
62 99 175
62 99 171
62 98 171
62 99 175
62 98 172
62 99 173
62 99 173
62 99 172
62 99 175
62 99 169
62 99 176
62 99 173
62 99 174
62 99 172
62 99 170
63 100 177
62 98 169
62 99 174
63 99 173
62 99 174
61 98 168
62 99 169
63 100 175
63 99 174
62 99 168
62 99 173
62 99 173
62 99 172
62 98 169
61 98 170
62 98 173
63 99 171
62 98 167
61 98 170
61 98 168
62 98 170
62 98 166
62 98 165
63 98 168
62 99 167
61 97 166
62 98 170
62 98 168
62 99 172
62 99 171
63 99 170
62 98 162
61 97 167
62 97 159
61 96 160
62 98 169
62 98 168
62 97 164
61 96 160
61 96 159
61 96 162
60 94 152
60 95 158
60 95 157
60 94 148
60 93 154
57 89 142
58 66 66
38 44 25
48 53 33
52 59 37
61 65 42
72 76 48
72 76 47
67 73 46
60 67 45
74 78 48
74 78 52
74 78 47
87 91 53
93 97 64
91 92 59
95 96 59
96 99 62
100 102 61
106 108 69
103 104 61
101 102 63
101 103 53
116 117 67
118 118 65
122 123 74
123 123 72
128 125 69
129 127 75
131 130 76
129 128 71
122 122 69
133 132 72
127 126 76
127 126 74
136 134 74
140 136 75
145 142 78
140 138 74
141 138 71
149 144 84
153 149 86
143 139 81
150 147 78
140 138 79
153 149 81
161 156 89
148 146 84
155 150 81
154 150 81
158 153 83
154 150 81
157 153 81
165 159 83
162 157 87
159 155 81
161 156 88
159 154 79
164 158 83
160 155 84
163 156 82
167 161 87
164 159 89
164 158 86
170 164 89
162 156 80
173 166 87
166 160 79
163 156 83
160 155 77
166 159 87
168 162 85
168 161 88
169 163 86
163 156 83
170 163 86
162 157 83
164 158 82
165 160 80
161 155 76
170 163 81
168 162 86
167 161 80
174 166 91
168 161 80
166 160 86
164 157 84
165 158 81
160 154 77
164 158 76
166 160 83
167 160 80
167 160 84
164 157 81
160 154 83
166 159 78
163 156 80
158 152 70
163 157 74
158 152 80
162 155 75
159 153 73
157 152 70
156 150 75
155 149 72
162 155 79
156 151 72
153 147 74
157 151 75
155 149 72
161 153 80
154 148 73
158 151 76
151 146 59
149 144 72
152 146 65
144 137 65
155 148 74
149 143 64
143 137 66
148 142 60
146 140 60
133 127 56
138 132 54
141 135 62
142 136 57
136 130 51
133 128 48
137 131 53
127 122 48
112 107 44
168 188 0
170 190 0
171 192 0
171 192 0
169 191 0
170 192 0
171 191 0
172 194 0
168 190 0
171 194 0
170 194 0
172 196 0
170 194 0
173 196 0
174 197 0
173 196 0
171 194 0
170 193 0
171 195 0
172 196 0
174 198 0
168 190 0
173 197 0
171 195 0
172 196 0
172 196 0
171 195 0
172 196 0
172 195 0
170 194 0
174 198 0
171 194 0
174 196 0
170 194 0
173 197 0
172 196 0
173 196 0
172 195 0
173 196 0
171 195 0
170 193 0
171 194 0
170 194 0
171 195 0
170 194 0
173 196 0
171 194 0
171 195 0
172 195 0
172 196 0
171 194 0
168 191 0
175 198 0
169 193 0
172 196 0
172 196 0
172 195 0
168 191 0
170 193 0
171 194 0
170 194 0
171 194 0
171 194 0
167 191 0
169 192 0
171 195 0
171 195 0
170 193 0
171 194 0
175 198 0
171 195 0
169 192 0
168 192 0
170 194 0
169 192 0
172 195 0
169 192 0
173 197 0
170 194 0
170 193 0
168 191 0
169 193 0
169 193 0
170 194 0
171 194 0
169 192 0
172 195 0
168 191 0
170 193 0
167 191 0
169 191 0
163 187 0
168 192 0
172 195 0
170 194 0
168 191 0
165 189 0
171 194 18
73 106 153
62 98 162
61 97 158
61 98 163
62 98 164
62 98 163
62 99 168
62 98 160
62 98 163
61 97 156
62 98 169
61 98 165
62 98 166
62 98 167
62 99 170
61 98 169
63 99 171
62 98 167
61 97 167
62 98 169
61 98 167
62 99 170
61 98 169
62 99 171
62 99 173
63 99 174
62 99 171
62 99 171
62 99 174
62 98 169
62 99 175
62 98 173
62 98 169
62 99 174
62 99 173
61 98 172
62 99 173
62 99 173
62 99 176
62 99 175
62 99 172
63 99 177
63 99 176
62 99 176
61 98 172
62 99 177
62 99 175
62 98 173
62 99 176
62 98 168
62 99 175
63 100 179
62 99 169
62 99 178
62 99 175
62 99 175
62 99 173
62 99 174
62 99 177
62 99 176
61 98 174
63 100 175
62 99 178
62 99 174
62 99 178
62 99 174
62 99 176
61 98 172
62 99 174
62 99 176
62 99 172
63 99 176
62 99 173
61 98 175
61 98 175
62 99 175
63 99 174
61 98 173
62 99 174
62 99 176
63 100 177
63 99 171
62 98 172
62 99 176
61 98 172
62 99 173
62 99 178
62 99 175
63 100 180
61 98 170
62 99 174
62 99 175
63 99 174
62 99 177
63 99 175
62 99 174
63 100 175
62 99 169
62 99 177
63 99 175
62 99 173
63 99 176
62 99 175
62 99 175
62 99 169
61 98 172
63 99 176
62 99 174
62 99 174
63 99 174
62 99 174
63 100 174
62 99 174
62 99 177
62 99 175
63 99 173
62 99 175
62 98 166
61 98 172
62 99 175
62 99 171
61 97 165
62 99 174
62 99 172
62 98 171
62 98 170
61 98 170
62 98 165
62 99 171
62 99 174
62 99 170
61 98 167
63 99 171
62 99 164
62 98 169
62 99 169
62 98 166
61 97 170
62 98 160
63 100 174
61 98 171
62 99 170
62 98 168
62 99 172
62 98 169
62 98 160
62 99 170
62 98 168
60 97 159
61 97 163
62 98 165
61 97 169
62 99 173
62 97 160
62 98 165
62 99 168
61 97 164
62 98 168
61 97 161
61 97 162
62 98 170
62 98 167
61 96 160
61 96 160
61 96 157
61 97 163
62 98 165
62 98 166
60 94 156
61 94 148
59 92 147
58 91 141
46 64 86
45 50 29
54 59 33
54 60 36
46 52 35
59 65 43
62 67 44
74 78 43
74 77 42
68 73 44
82 85 46
78 83 56
78 83 57
80 85 52
87 90 52
97 98 58
104 106 65
111 111 66
109 110 65
97 99 64
103 105 64
109 109 68
112 114 65
92 95 57
107 108 56
115 115 66
129 127 70
125 124 77
129 128 70
121 121 68
127 126 72
139 136 77
129 127 69
140 138 73
133 132 76
148 143 79
137 135 70
145 142 80
135 132 66
153 149 84
147 144 76
144 141 73
153 148 79
155 151 81
158 152 83
156 152 79
156 152 84
155 151 80
150 147 77
158 153 89
157 152 75
161 156 78
155 150 83
160 155 85
160 154 84
157 152 75
158 153 82
160 154 81
161 155 81
156 151 79
164 157 86
165 158 84
168 161 83
168 162 88
167 161 84
163 158 82
162 157 80
168 161 87
162 156 78
163 157 81
164 157 85
162 157 80
165 160 82
169 163 87
161 156 79
161 156 79
161 155 77
166 160 82
168 161 79
166 160 81
167 161 82
167 160 88
167 160 80
166 159 80
167 160 80
164 157 80
164 158 75
164 157 78
160 155 76
165 159 79
159 153 80
164 158 79
168 161 85
162 154 79
164 157 80
159 153 79
160 154 78
163 157 76
160 154 79
158 152 76
150 145 70
162 156 75
157 150 73
161 154 77
160 153 76
155 149 73
153 147 76
140 136 60
147 142 63
153 148 72
144 139 63
146 140 68
155 148 75
153 146 67
154 148 70
145 139 63
151 145 64
135 129 53
144 139 57
144 138 62
144 137 66
138 133 57
145 138 60
146 140 61
136 130 65
138 132 56
139 133 53
130 126 49
121 116 39
127 128 36
170 192 0
171 193 0
171 192 0
172 194 0
173 194 0
170 191 0
171 192 0
170 190 0
171 194 0
172 192 0
172 195 0
172 195 0
173 196 0
169 192 0
170 194 0
172 196 0
173 196 0
172 195 0
172 195 0
171 194 0
172 195 0
169 193 0
173 197 0
172 195 0
173 196 0
170 194 0
172 195 0
172 196 0
173 196 0
174 197 0
173 196 0
171 195 0
171 195 0
170 193 0
170 193 0
171 194 0
174 198 0
172 197 0
172 195 0
167 191 0
168 192 0
171 195 0
172 196 0
169 192 0
171 194 0
172 196 0
173 196 0
171 195 0
170 193 0
173 196 0
169 193 0
175 198 0
171 194 0
172 195 0
167 190 0
169 193 0
170 192 0
172 196 0
171 195 0
166 190 0
169 193 0
171 195 0
170 193 0
171 195 0
169 192 0
169 192 0
174 197 0
169 192 0
170 193 0
170 194 0
173 197 0
169 193 0
171 194 0
170 192 0
169 193 0
170 194 0
168 191 0
168 192 0
169 193 0
167 190 0
167 191 0
170 194 0
171 193 0
169 193 0
169 192 0
170 193 0
166 190 0
170 192 0
169 192 0
170 194 0
170 193 0
167 191 0
167 191 0
169 193 0
171 193 0
171 194 0
165 189 0
155 180 76
62 97 156
62 98 157
61 97 157
62 98 164
62 99 164
62 98 169
62 98 167
61 98 165
62 99 170
61 97 159
62 98 165
62 99 166
62 98 165
62 98 165
62 98 167
62 98 165
61 97 164
62 98 164
63 99 172
62 98 171
62 98 168
62 99 175
63 99 174
62 99 168
62 99 174
61 98 170
62 98 170
62 99 169
62 99 176
62 99 174
63 99 174
62 98 172
62 99 176
62 99 175
63 100 179
62 98 171
62 99 176
62 99 173
62 99 172
62 99 177
62 99 170
62 99 174
63 100 176
62 99 176
62 99 175
62 99 177
62 99 174
62 99 175
62 99 177
62 99 173
62 99 174
62 99 177
63 100 175
62 99 175
62 99 173
62 99 177
62 99 172
62 99 175
62 99 174
63 99 176
62 99 179
62 98 170
62 99 176
63 99 177
62 99 171
61 98 174
62 99 174
62 99 177
63 99 176
63 99 176
62 99 177
62 99 172
62 99 174
62 99 176
63 99 174
62 99 176
62 99 172
61 98 170
62 99 177
62 99 180
61 98 170
62 99 176
62 99 172
62 99 176
63 99 176
62 99 178
62 99 178
61 98 170
62 99 176
63 99 179
62 99 175
62 99 172
63 99 179
62 99 177
62 99 174
62 98 171
62 99 174
62 99 171
61 98 162
62 99 173
62 99 177
62 99 175
62 99 172
63 99 174
63 99 175
62 99 174
62 98 175
63 99 175
62 98 172
62 98 175
62 99 175
62 99 173
62 99 174
62 99 172
62 99 176
62 99 173
62 99 170
63 99 175
62 99 175
62 99 175
61 98 172
62 99 175
63 100 176
62 98 172
62 99 175
62 99 172
62 99 171
62 98 168
62 99 175
62 99 172
63 99 174
62 98 168
62 99 173
62 99 170
62 99 176
63 99 174
63 99 173
62 98 166
62 99 171
62 98 164
63 99 174
62 98 168
63 99 170
62 99 169
62 98 170
62 98 165
63 99 170
63 99 170
62 99 171
61 97 162
61 96 162
63 99 172
62 98 166
62 98 163
63 99 173
63 99 163
62 98 172
62 98 170
61 97 164
61 97 168
62 98 165
60 96 154
62 98 166
61 96 163
60 95 158
61 97 160
61 95 159
60 94 153
60 95 158
60 94 151
60 94 155
58 89 137
58 87 136
40 48 31
53 58 39
56 60 30
46 53 37
65 69 39
55 61 38
50 57 35
58 65 44
77 79 50
65 71 46
68 73 45
77 82 51
82 86 48
87 90 55
97 99 59
90 94 61
91 92 54
106 107 61
106 107 66
96 99 59
103 105 61
119 118 68
119 118 70
122 121 70
130 128 68
118 117 65
119 119 63
120 119 67
136 133 76
134 132 72
136 134 73
128 127 71
135 133 71
136 134 71
141 137 68
140 137 76
139 136 72
141 138 77
146 142 71
158 152 83
149 145 81
145 142 73
146 142 74
144 140 73
148 144 74
153 148 77
152 148 76
157 154 83
163 156 79
152 149 74
162 156 89
158 154 80
160 156 77
161 156 89
162 157 83
163 157 87
157 152 79
167 161 86
156 151 81
166 160 84
162 156 82
167 161 86
168 162 87
166 159 81
167 160 83
163 157 81
166 160 78
167 161 80
166 160 85
164 158 78
163 157 78
164 157 75
168 162 84
162 156 78
159 153 75
168 162 84
162 156 76
162 156 80
168 161 89
165 158 79
162 155 80
162 156 78
165 158 83
170 163 88
164 158 82
164 157 80
165 159 88
164 158 81
156 151 70
170 162 83
161 156 79
160 155 77
157 151 71
164 157 78
166 159 76
159 152 80
162 155 77
154 148 65
164 158 80
162 155 80
158 152 69
165 158 83
156 151 72
151 144 70
159 153 71
155 149 71
155 149 73
152 146 67
160 153 80
149 143 58
145 140 65
152 146 66
148 142 62
150 144 65
155 148 71
145 139 66
148 142 63
146 141 62
145 141 57
147 142 62
134 129 58
142 136 60
144 137 63
136 129 57
135 130 48
129 124 48
136 129 56
119 113 45
150 163 32
169 189 0
168 190 0
173 195 0
174 194 0
172 194 0
172 194 0
171 192 0
171 191 0
171 193 0
172 192 0
174 198 0
167 190 0
173 196 0
174 197 0
172 196 0
170 193 0
173 196 0
172 196 0
173 196 0
169 193 0
172 196 0
172 195 0
173 197 0
174 197 0
167 190 0
172 195 0
171 195 0
173 196 0
172 197 0
170 193 0
172 195 0
171 195 0
173 195 0
171 195 0
172 196 0
172 196 0
171 195 0
169 193 0
172 196 0
170 194 0
170 194 0
172 196 0
172 195 0
171 195 0
172 196 0
173 196 0
172 196 0
172 195 0
171 194 0
168 191 0
171 195 0
168 192 0
170 194 0
171 194 0
171 194 0
174 197 0
170 193 0
173 197 0
171 195 0
170 193 0
172 195 0
170 193 0
172 196 0
172 196 0
171 194 0
169 192 0
169 194 0
168 192 0
171 195 0
168 192 0
169 193 0
170 193 0
174 197 0
167 191 0
168 191 0
169 192 0
170 194 0
166 189 0
172 195 0
172 195 0
168 192 0
171 194 0
170 193 0
174 197 0
167 190 0
170 194 0
168 191 0
172 195 0
167 189 0
168 191 0
171 194 0
172 196 0
169 191 0
170 193 0
171 194 0
172 195 0
170 192 0
131 156 107
61 97 159
62 98 159
62 98 163
61 97 158
61 97 164
61 98 168
61 97 157
63 99 166
61 98 166
61 98 166
62 98 171
62 98 173
62 98 169
62 99 172
62 98 169
61 98 164
62 98 166
62 99 173
62 98 167
63 99 172
63 99 171
61 98 170
62 98 170
62 99 172
62 99 170
62 99 174
63 99 171
63 99 170
61 98 169
62 98 172
62 99 171
62 99 170
62 98 168
63 99 176
62 99 177
61 98 172
62 98 175
63 99 176
62 99 176
62 99 171
62 99 175
62 99 173
63 99 174
62 99 172
61 98 176
62 99 177
62 99 175
62 99 178
62 98 172
62 98 170
62 99 174
62 99 176
62 99 176
62 99 174
61 98 170
63 99 175
62 99 174
62 99 172
62 98 173
62 99 174
62 99 174
61 98 170
62 99 177
62 99 175
62 99 175
61 98 171
63 99 171
62 99 175
62 99 174
62 99 175
61 98 174
62 99 176
62 99 173
61 98 170
61 98 168
62 99 175
62 99 175
62 99 177
62 99 175
62 99 172
63 99 177
63 100 177
63 99 176
62 99 175
63 99 176
62 99 172
62 99 170
62 99 174
62 99 173
62 99 173
62 99 176
63 99 173
62 99 173
63 99 173
63 99 172
62 99 176
62 99 171
62 98 172
62 98 173
62 99 172
62 98 172
62 99 169
62 99 174
61 98 172
62 99 174
63 100 173
62 99 175
62 99 176
62 99 170
61 98 167
62 99 168
62 98 172
62 99 172
62 99 169
62 99 175
62 99 170
63 100 180
62 98 170
62 99 173
62 99 171
62 98 174
62 98 168
62 99 172
62 99 173
62 99 170
62 99 171
62 99 174
62 98 171
63 99 177
63 99 173
61 98 165
62 98 167
63 99 171
62 99 170
62 99 172
62 99 166
62 99 174
62 98 172
62 99 168
61 98 168
62 99 169
61 98 165
61 98 165
62 98 167
62 99 172
62 98 171
63 99 172
62 98 168
62 98 168
62 98 169
63 99 168
61 97 161
62 98 166
62 98 165
61 97 159
61 97 162
62 98 165
63 99 163
61 97 160
62 98 163
61 97 158
61 96 156
61 96 159
61 96 160
62 97 164
61 96 162
61 97 157
62 97 162
60 94 153
61 95 153
60 94 153
59 93 154
56 88 137
53 61 47
56 61 31
60 66 36
53 59 35
59 64 39
57 62 42
76 79 42
56 64 38
69 74 42
81 84 48
72 78 48
82 86 49
75 80 46
90 93 49
109 109 61
110 110 64
102 102 56
89 93 57
99 102 57
106 107 64
110 111 61
123 122 69
128 125 64
112 112 63
115 117 65
123 122 65
125 122 67
119 119 63
130 128 69
128 127 69
131 129 72
139 136 77
136 134 73
134 131 73
133 131 76
133 131 72
140 138 69
132 129 73
132 131 73
147 143 80
141 138 75
152 148 76
155 150 72
149 144 79
148 145 77
152 148 83
154 149 75
158 152 78
157 151 82
154 149 76
158 152 85
158 152 79
164 159 89
151 146 76
160 155 80
161 156 77
156 151 77
163 157 84
162 156 84
169 161 90
160 154 78
161 155 78
169 162 92
162 156 80
168 161 85
163 156 75
169 162 84
168 161 82
168 161 83
163 157 75
160 154 74
163 158 75
166 159 81
169 162 86
166 160 82
167 160 80
169 162 86
164 158 80
165 158 79
163 157 76
163 157 76
166 160 83
169 162 85
161 156 76
165 158 80
159 153 76
167 160 79
160 154 80
166 159 79
158 151 78
159 153 70
164 158 71
158 152 74
158 152 71
160 153 79
160 154 69
157 152 65
160 153 75
159 153 72
159 153 75
159 153 75
149 144 68
152 146 66
157 152 75
157 151 70
151 145 65
148 142 65
152 146 70
156 149 70
151 145 73
148 142 62
151 144 70
144 139 61
155 149 71
154 148 69
145 138 63
152 146 64
147 141 61
148 143 63
138 133 53
145 138 57
141 137 47
145 139 61
146 140 59
133 127 56
137 130 58
127 122 49
132 128 48
164 184 0
171 192 0
167 187 0
170 191 0
172 193 0
169 190 0
169 190 0
170 192 0
171 192 0
171 193 0
171 194 0
172 196 0
172 195 0
171 195 0
172 195 0
172 196 0
172 196 0
171 194 0
173 196 0
169 193 0
169 192 0
172 195 0
170 193 0
173 197 0
173 197 0
174 197 0
172 195 0
174 197 0
173 197 0
173 196 0
171 195 0
170 194 0
172 195 0
173 196 0
174 197 0
172 195 0
168 192 0
171 195 0
170 193 0
173 197 0
173 196 0
171 195 0
173 196 0
170 193 0
172 194 0
169 192 0
170 195 0
171 195 0
168 192 0
172 195 0
168 191 0
171 195 0
173 196 0
169 192 0
171 194 0
174 197 0
169 193 0
170 194 0
171 194 0
169 192 0
168 190 0
171 194 0
173 197 0
171 194 0
170 193 0
170 194 0
172 195 0
170 195 0
171 193 0
167 190 0
169 192 0
169 193 0
171 194 0
173 196 0
166 190 0
172 195 0
173 196 0
170 193 0
170 193 0
169 191 0
169 192 0
169 192 0
170 193 0
171 194 0
171 194 0
170 193 0
170 193 0
167 190 0
168 191 0
171 194 0
169 193 0
164 188 0
170 193 0
168 190 0
170 194 0
168 191 0
170 194 0
170 194 0
101 128 140
62 98 160
63 98 160
62 98 162
62 98 160
62 98 166
61 97 162
61 97 159
62 98 168
61 97 160
62 99 167
62 98 167
63 99 171
62 99 167
62 99 170
62 98 166
62 98 168
62 98 167
62 98 172
62 99 171
62 98 164
62 99 172
62 98 167
61 98 170
61 98 165
62 99 174
62 99 172
62 99 174
62 98 168
61 98 174
63 100 175
62 98 174
62 99 176
62 98 172
62 99 172
62 99 174
62 99 175
62 99 172
62 99 170
62 99 174
62 99 172
62 99 174
62 99 172
62 99 178
61 98 169
62 99 170
62 99 174
62 99 176
62 99 172
62 99 172
62 99 173
63 100 177
62 99 174
63 99 174
62 99 173
63 99 175
62 98 174
63 99 176
63 99 172
63 100 174
61 98 174
63 99 177
61 98 170
62 99 178
62 99 174
62 98 172
62 99 178
62 99 173
62 99 174
62 99 175
62 99 179
63 99 176
62 99 177
62 99 176
62 98 173
63 100 179
62 99 177
62 98 172
62 99 169
62 99 177
61 98 170
62 99 175
63 99 176
62 99 175
62 99 175
62 99 175
62 99 173
62 99 178
62 98 169
61 98 169
61 98 172
63 99 172
63 99 177
62 99 174
62 99 174
62 99 172
61 98 169
63 99 168
62 99 177
62 98 168
63 100 177
62 99 173
62 99 171
62 99 170
62 98 171
62 99 172
62 98 171
63 99 173
62 99 172
62 99 172
62 99 173
63 99 173
62 99 173
62 99 173
62 99 175
61 98 169
62 98 168
62 99 167
63 100 174
63 99 174
62 98 167
62 98 167
63 100 174
63 99 177
63 99 169
62 99 174
62 99 175
62 99 172
62 99 170
62 98 167
61 98 171
62 98 167
62 99 169
62 98 171
62 98 163
63 99 174
62 98 170
62 99 172
62 98 167
62 98 164
62 98 170
62 98 164
62 99 167
62 98 171
62 99 169
62 99 167
61 97 161
62 99 171
61 98 168
61 97 161
63 99 169
62 98 166
62 98 168
62 99 169
63 98 166
61 98 161
62 97 163
62 98 165
61 97 165
61 97 165
61 97 159
62 98 165
61 97 161
61 96 159
62 97 160
61 96 160
62 98 166
61 96 162
61 95 149
60 96 158
59 93 147
60 94 151
59 92 147
59 92 141
47 62 83
55 59 31
58 62 25
48 55 35
62 66 42
64 67 35
70 74 43
65 70 37
62 68 41
72 77 46
68 74 46
79 82 44
90 92 50
92 93 50
106 106 52
104 104 55
98 99 54
87 92 53
99 101 52
100 103 58
104 105 59
119 117 60
118 118 67
103 106 64
110 110 57
110 112 61
121 120 63
117 117 69
120 120 72
133 132 74
125 123 61
129 128 69
134 131 74
127 125 69
135 133 73
139 137 75
134 133 69
139 136 68
150 145 71
152 147 81
137 136 74
151 146 76
139 136 71
141 138 68
156 152 78
144 141 67
149 145 71
157 152 78
153 148 81
154 149 80
153 149 78
160 154 82
159 155 83
156 151 78
163 158 83
158 152 79
162 157 83
164 159 84
158 152 78
163 157 78
165 159 84
166 160 90
158 153 76
168 161 80
166 160 80
158 152 76
166 160 84
165 159 78
165 159 79
161 155 75
163 157 79
166 159 80
163 156 78
167 160 82
162 156 79
160 154 75
168 161 82
164 157 76
172 165 87
170 163 80
167 160 83
168 161 80
166 159 84
158 151 71
163 157 80
163 157 71
168 161 84
162 155 75
158 152 67
165 158 78
160 154 74
166 159 82
158 152 80
159 152 75
158 152 75
160 154 73
159 152 71
155 149 69
162 156 73
158 152 71
157 151 71
152 146 71
153 147 73
159 153 70
153 147 70
159 153 71
148 142 65
155 149 69
150 144 68
150 144 67
148 142 63
153 145 72
144 138 54
146 140 65
143 137 64
137 131 59
140 134 63
140 135 59
139 133 58
141 137 54
147 141 57
144 139 56
126 121 47
132 126 45
142 137 56
129 125 41
120 115 48
134 139 37
170 192 0
169 190 0
168 189 0
171 193 0
169 190 0
171 192 0
171 193 0
172 193 0
167 189 0
170 192 0
172 194 0
173 196 0
169 192 0
172 196 0
174 197 0
170 193 0
173 196 0
174 197 0
170 193 0
173 196 0
171 195 0
172 195 0
172 196 0
175 198 0
171 194 0
171 195 0
171 194 0
172 195 0
171 195 0
170 194 0
173 196 0
172 195 0
170 193 0
171 195 0
171 194 0
173 197 0
169 192 0
171 195 0
170 194 0
174 197 0
171 194 0
172 195 0
171 195 0
170 193 0
169 193 0
172 194 0
170 194 0
168 191 0
168 192 0
174 196 0
171 194 0
172 195 0
170 193 0
171 195 0
172 196 0
167 191 0
170 193 0
173 196 0
170 194 0
174 197 0
169 192 0
173 196 0
170 192 0
172 196 0
174 196 0
171 195 0
172 195 0
171 194 0
172 194 0
165 188 0
169 194 0
169 192 0
172 195 0
167 191 0
171 194 0
171 194 0
171 194 0
170 193 0
167 190 0
170 192 0
170 193 0
172 195 0
170 193 0
174 197 0
167 191 0
171 195 0
169 193 0
169 193 0
169 193 0
168 191 0
168 192 0
168 193 0
168 191 0
170 193 0
168 192 0
170 193 0
167 191 0
170 193 31
64 99 154
62 98 160
63 99 160
62 98 157
62 98 161
62 98 164
63 99 163
62 98 160
62 98 164
62 99 167
62 99 168
62 99 167
63 99 171
61 97 167
61 97 160
61 97 166
62 99 170
62 98 164
62 98 168
62 99 175
62 98 171
63 99 172
61 98 167
63 100 172
62 98 167
63 99 169
62 99 172
63 100 170
62 98 168
62 98 167
62 99 175
62 99 170
62 98 170
62 99 174
62 98 169
62 99 176
61 98 170
62 99 174
62 99 175
62 99 175
62 99 171
63 100 176
62 98 169
62 99 176
63 99 176
62 99 172
62 99 175
62 99 172
62 99 174
63 100 178
62 99 175
62 98 172
62 99 172
62 99 171
62 98 173
62 99 175
61 98 176
62 99 178
63 100 175
62 99 176
62 99 175
62 99 171
62 98 173
62 99 175
62 99 174
62 99 174
61 98 169
62 99 176
62 99 178
63 99 177
63 99 173
62 99 172
61 98 173
62 99 174
62 99 174
62 99 174
62 99 173
62 98 167
62 99 178
62 99 172
62 99 177
63 99 173
62 99 170
62 99 173
62 99 177
63 99 175
63 100 178
61 98 175
62 98 170
62 98 173
62 98 170
62 99 174
62 99 171
62 98 172
62 99 175
62 99 174
61 98 174
62 98 174
62 99 173
62 99 173
63 99 174
62 98 168
62 99 175
62 99 173
62 99 178
62 99 172
61 98 170
61 98 170
61 98 173
62 99 172
61 98 173
62 98 169
63 99 172
62 99 171
61 98 164
62 99 176
62 98 171
62 99 173
62 99 173
62 98 171
62 98 172
63 99 172
62 98 167
63 99 178
62 99 175
63 99 169
62 99 170
63 99 177
62 98 167
62 99 169
63 99 171
62 99 171
62 99 171
62 98 168
62 98 171
62 99 170
62 99 167
62 99 171
61 98 163
62 98 169
63 99 169
62 98 168
61 98 166
63 99 169
62 99 172
62 99 170
62 98 171
63 99 171
61 97 164
60 96 158
62 98 164
62 98 167
62 97 167
62 98 168
61 97 163
62 97 163
62 98 164
61 98 163
62 97 158
61 97 160
61 97 162
62 98 164
61 97 167
61 96 156
61 96 157
62 97 160
61 97 163
62 97 160
61 96 159
61 96 156
61 97 159
61 96 156
58 91 145
59 92 153
58 76 93
55 60 32
55 59 27
60 63 31
56 59 26
67 71 30
54 60 35
63 70 46
75 78 44
77 83 48
76 79 37
81 84 47
88 91 56
89 93 52
90 93 48
95 97 53
89 93 58
78 83 47
106 106 56
97 99 54
112 111 59
106 108 60
115 114 66
102 104 58
109 109 60
106 108 59
117 117 63
123 121 67
128 126 64
129 126 66
120 119 63
141 138 74
140 137 68
141 138 71
132 130 72
138 134 64
132 130 72
137 134 70
145 141 72
138 135 70
142 138 76
147 143 76
149 145 81
147 143 72
148 144 76
149 145 78
148 145 71
147 145 70
157 152 81
154 149 83
152 148 74
162 155 81
160 154 82
153 149 72
154 149 81
163 157 84
157 152 80
162 155 85
165 159 84
162 155 79
161 155 79
170 162 89
163 157 78
168 161 87
161 154 75
163 157 80
162 155 81
161 156 83
165 159 80
164 158 75
163 158 79
160 155 78
167 159 78
157 151 74
168 160 87
168 161 84
163 155 80
162 156 80
163 156 78
164 158 84
164 157 83
162 156 80
161 155 74
161 155 71
163 156 81
166 160 81
159 153 79
164 157 75
164 157 79
165 158 75
162 156 73
163 157 73
163 156 69
155 149 72
157 151 66
160 154 75
155 149 70
163 156 72
153 148 67
159 153 75
158 151 70
156 150 74
156 151 67
156 150 63
155 149 70
150 145 64
161 154 71
143 138 56
147 141 67
148 142 66
150 143 63
142 137 59
154 148 73
150 145 63
149 142 64
146 141 57
143 137 56
145 139 61
131 127 56
140 134 57
139 133 54
143 138 58
133 128 57
132 126 52
121 115 41
122 118 48
120 115 42
163 179 28
170 191 0
169 190 0
172 191 0
169 189 0
166 186 0
172 190 0
170 190 0
169 190 0
169 191 0
166 186 0
172 194 0
173 197 0
172 196 0
173 196 0
171 194 0
172 195 0
171 194 0
170 194 0
176 198 0
171 195 0
170 193 0
172 195 0
171 195 0
169 194 0
173 195 0
169 193 0
171 195 0
172 195 0
173 196 0
171 194 0
171 194 0
169 193 0
175 198 0
170 193 0
170 194 0
169 193 0
170 193 0
168 193 0
168 192 0
174 197 0
168 192 0
173 196 0
170 193 0
168 192 0
170 195 0
169 192 0
170 193 0
171 195 0
172 195 0
174 197 0
173 196 0
173 197 0
172 196 0
171 194 0
169 193 0
170 193 0
170 194 0
170 194 0
170 194 0
171 194 0
171 194 0
171 194 0
167 190 0
168 191 0
168 192 0
170 193 0
172 196 0
170 193 0
170 192 0
166 191 0
166 189 0
171 194 0
169 193 0
167 189 0
172 195 0
169 192 0
170 193 0
169 192 0
170 194 0
168 191 0
173 196 0
167 191 0
172 195 0
171 195 0
170 192 0
170 194 0
170 193 0
169 193 0
166 190 0
166 189 0
167 190 0
164 187 0
171 193 0
169 191 0
171 195 0
166 189 0
170 193 0
149 173 76
61 97 153
61 97 153
62 98 162
61 97 159
61 97 160
61 97 160
61 97 157
61 98 167
61 97 163
61 98 164
61 98 168
62 99 164
62 98 168
62 98 161
62 99 167
62 99 168
63 99 172
63 99 168
61 98 167
62 99 172
62 99 169
62 98 167
61 98 168
62 98 168
62 98 165
62 98 168
63 99 173
62 98 166
62 98 168
61 97 163
62 99 174
62 99 176
62 99 168
63 99 175
62 98 172
62 99 174
62 99 173
63 99 173
63 99 175
62 98 173
62 98 172
62 99 176
61 98 175
62 99 174
61 98 176
62 99 174
61 98 168
62 99 177
62 99 172
63 99 170
63 99 170
62 99 173
62 98 170
62 99 173
62 98 170
62 99 176
63 99 173
62 99 176
62 99 173
62 98 172
62 99 175
62 99 177
62 99 174
62 98 172
63 100 179
62 99 172
62 99 175
62 98 170
62 99 178
62 99 176
61 98 171
62 99 173
62 99 173
62 99 175
62 99 176
63 99 177
62 99 174
62 99 179
63 99 175
61 98 167
62 99 173
62 99 175
62 99 175
62 99 173
61 98 168
62 99 174
63 99 175
62 99 177
61 98 173
62 99 173
61 98 169
63 100 177
62 99 172
61 98 171
62 98 167
62 99 173
63 99 175
63 100 177
62 99 171
62 99 174
62 99 175
62 99 173
62 98 172
62 99 171
62 99 176
62 99 172
63 99 175
62 99 175
62 99 175
62 99 174
62 99 174
63 100 175
62 99 175
62 99 175
62 99 171
62 98 170
62 98 170
61 98 167
62 99 174
62 99 172
62 99 171
62 99 174
62 98 169
62 99 171
62 99 173
62 98 171
61 98 162
61 98 170
62 99 169
63 100 175
61 98 168
63 99 171
62 98 168
62 99 169
62 99 172
61 98 164
62 99 173
62 99 170
62 99 173
62 98 165
62 98 168
62 98 168
63 99 170
62 98 160
62 99 174
62 99 171
62 98 165
62 98 161
61 97 166
62 98 166
63 99 174
62 98 168
62 99 166
63 98 164
62 99 171
62 99 170
62 97 158
62 98 168
62 98 165
62 98 162
61 97 159
62 97 164
63 98 161
62 98 168
60 96 156
62 98 166
61 96 154
62 98 164
60 94 150
61 96 160
61 95 158
59 93 151
57 90 146
59 93 153
55 81 114
33 41 26
59 61 27
42 50 27
69 73 42
58 63 33
63 69 40
75 78 35
68 71 37
80 81 43
84 86 42
91 94 44
94 96 53
88 89 47
84 87 50
83 86 49
93 96 52
87 89 49
94 95 55
105 106 57
108 108 61
97 98 52
117 116 66
116 116 66
112 112 61
118 116 62
127 126 55
121 119 64
128 125 65
127 125 71
136 134 76
125 122 62
132 129 64
134 132 69
133 131 70
147 144 71
133 131 65
133 131 74
140 137 68
149 144 77
151 147 76
142 139 73
143 140 77
141 138 68
158 152 84
153 148 73
152 146 83
147 144 72
149 145 75
156 151 80
158 152 81
155 150 78
154 150 72
159 153 81
159 154 78
156 151 78
160 154 82
156 151 74
161 154 79
156 151 79
162 156 81
161 156 82
163 157 79
166 159 86
168 160 84
165 158 82
165 158 76
161 154 76
159 153 70
167 161 81
167 159 80
161 156 71
171 163 80
162 156 74
164 158 75
162 156 80
159 153 72
165 158 79
167 160 87
162 156 75
167 160 75
165 158 70
169 162 80
163 157 71
163 157 72
161 154 75
161 156 76
157 152 68
164 158 74
158 152 74
164 156 75
161 156 71
158 152 80
162 156 76
158 152 68
157 151 74
159 153 73
162 156 77
159 153 72
151 146 70
159 153 65
154 149 66
155 148 75
152 147 71
153 146 69
146 140 60
156 149 72
152 146 59
142 138 56
154 147 65
151 144 61
153 146 65
156 150 65
144 137 59
148 142 62
148 141 61
142 137 60
143 137 59
138 132 60
142 135 54
145 138 60
130 124 54
133 128 56
138 132 57
128 123 45
130 125 47
131 130 48
171 192 0
172 192 0
170 191 0
170 191 0
168 189 0
174 196 0
170 190 0
168 189 0
170 191 0
170 189 0
172 193 0
167 189 0
174 197 0
173 196 0
171 194 0
173 196 0
172 195 0
173 197 0
171 194 0
172 195 0
172 196 0
172 196 0
170 194 0
171 195 0
170 194 0
171 194 0
172 195 0
172 195 0
172 195 0
169 193 0
173 196 0
173 196 0
172 195 0
172 195 0
171 195 0
172 195 0
171 195 0
166 189 0
171 193 0
172 195 0
172 196 0
171 195 0
172 195 0
172 195 0
171 194 0
169 192 0
170 194 0
171 195 0
170 193 0
163 186 0
171 195 0
169 192 0
171 196 0
167 192 0
168 193 0
169 194 0
170 193 0
172 195 0
173 196 0
170 193 0
168 191 0
170 193 0
173 197 0
170 194 0
168 192 0
171 194 0
172 195 0
171 194 0
168 191 0
170 194 0
169 192 0
169 192 0
169 192 0
173 196 0
169 192 0
168 192 0
170 194 0
170 193 0
172 195 0
167 190 0
168 192 0
169 192 0
170 193 0
170 192 0
167 191 0
170 192 0
168 192 0
169 193 0
171 194 0
163 186 0
168 191 0
171 194 0
170 193 0
165 187 0
166 190 0
169 192 0
166 189 0
170 194 0
129 155 111
62 98 161
62 97 155
62 98 161
61 98 161
62 98 162
61 97 158
62 98 163
61 97 162
61 98 161
62 99 170
62 99 172
62 98 163
62 98 167
62 98 168
63 99 172
62 99 170
62 98 168
61 97 168
61 98 169
63 99 172
62 99 168
62 98 167
62 98 169
63 99 175
61 98 167
63 99 170
62 99 170
62 99 169
63 99 171
62 99 175
62 98 173
62 99 171
62 99 172
61 97 170
61 98 174
61 98 169
62 99 176
62 98 173
61 98 172
62 99 173
61 97 167
62 99 172
62 98 170
63 99 174
62 99 175
61 98 171
62 99 177
62 99 178
62 99 173
62 99 172
62 99 173
62 99 172
62 99 176
63 99 176
62 99 174
63 99 178
61 98 169
62 98 170
62 99 174
63 99 172
62 99 172
63 99 175
62 99 171
63 99 177
62 98 173
62 99 176
63 99 173
63 99 170
62 99 172
62 99 179
62 99 175
63 100 174
62 99 174
62 99 169
61 98 171
62 99 172
62 98 170
62 99 171
62 98 175
62 99 176
63 99 173
62 99 171
62 98 170
62 99 172
62 99 172
63 99 174
62 99 176
62 99 169
61 98 170
62 99 171
62 98 171
62 99 174
62 99 177
62 98 170
62 98 170
61 98 173
62 99 176
63 99 176
62 99 170
61 97 162
62 99 173
62 99 176
62 99 169
62 98 170
62 99 174
62 99 169
62 98 172
62 98 169
62 99 172
63 99 175
63 99 176
62 99 172
62 98 172
63 99 173
62 99 176
62 99 174
62 99 168
62 98 167
62 99 176
62 98 172
62 98 170
61 98 169
62 98 166
62 98 173
61 98 167
62 99 168
62 99 168
63 99 176
62 98 168
63 99 172
62 98 168
62 98 169
61 98 166
62 99 169
62 99 172
62 99 170
62 99 170
62 99 168
62 98 163
61 98 164
62 99 169
62 99 173
62 98 165
62 98 168
62 99 169
61 97 161
62 98 167
61 98 167
61 97 162
62 98 162
62 98 165
62 98 167
62 98 164
62 98 164
61 97 161
62 97 163
62 98 165
62 98 162
61 96 160
61 96 158
61 97 155
62 97 162
61 96 156
62 98 164
61 96 154
61 96 154
61 96 154
61 95 147
60 96 154
61 96 159
61 96 163
61 96 158
59 93 151
60 94 151
59 92 146
49 53 29
54 57 28
51 58 33
64 68 34
58 64 34
63 68 38
76 79 40
75 78 40
81 84 40
84 86 44
74 78 39
87 90 41
84 87 50
103 104 50
87 90 47
102 103 55
101 102 55
88 91 54
100 101 53
93 96 49
125 124 64
99 100 57
112 112 60
127 124 67
121 120 62
119 118 58
118 118 57
126 124 69
120 120 68
136 133 68
126 126 63
128 127 62
127 126 57
134 132 71
131 130 68
139 136 68
143 139 64
135 133 65
147 142 77
136 134 66
138 135 63
142 139 74
150 146 76
151 147 75
143 140 72
157 151 81
153 148 82
151 146 75
151 146 74
155 150 79
154 149 79
160 154 76
152 147 77
157 152 78
152 148 71
153 149 75
155 150 71
160 154 81
164 158 81
164 159 80
159 153 75
162 156 78
154 149 71
161 154 74
164 158 79
162 156 78
164 157 84
158 153 70
163 156 75
160 153 77
166 160 83
162 155 72
160 153 79
158 152 75
159 153 74
162 156 76
156 150 67
164 159 72
163 156 76
167 161 81
163 156 77
165 158 82
159 154 70
157 151 69
161 155 73
163 156 75
163 157 76
163 156 70
157 151 67
165 158 76
162 155 73
155 150 72
159 153 73
156 149 75
150 146 59
156 149 72
151 146 62
157 151 71
155 148 67
158 151 73
154 148 66
152 146 68
153 147 62
149 143 72
151 145 67
155 148 69
149 144 67
149 143 68
147 141 57
145 139 54
153 147 64
146 141 57
145 138 63
147 142 59
146 141 61
152 146 74
135 130 56
135 129 57
136 131 56
118 114 37
139 134 54
131 126 47
131 125 45
131 126 48
115 110 36
152 163 32
170 191 0
166 188 0
171 194 0
172 193 0
168 187 0
169 191 0
170 192 0
171 191 0
171 191 0
170 191 0
172 193 0
173 194 0
172 195 0
171 195 0
170 194 0
171 195 0
171 195 0
171 194 0
172 196 0
172 196 0
172 195 0
172 196 0
172 196 0
173 197 0
173 196 0
170 193 0
171 194 0
173 195 0
172 195 0
174 197 0
169 193 0
172 195 0
171 195 0
171 195 0
171 194 0
173 197 0
172 195 0
169 192 0
174 197 0
170 193 0
170 193 0
173 197 0
172 196 0
172 196 0
171 194 0
174 197 0
168 191 0
168 192 0
172 195 0
170 192 0
172 196 0
166 190 0
171 195 0
169 193 0
172 196 0
173 196 0
169 191 0
170 192 0
172 196 0
171 194 0
172 195 0
167 190 0
170 193 0
170 193 0
171 194 0
170 194 0
171 194 0
171 194 0
171 194 0
169 193 0
169 192 0
169 192 0
167 191 0
171 196 0
171 194 0
171 195 0
170 193 0
171 194 0
168 191 0
170 193 0
167 191 0
171 195 0
170 193 0
167 190 0
172 194 0
165 189 0
166 191 0
169 193 0
168 192 0
167 191 0
169 193 0
170 194 0
168 191 0
169 191 0
172 195 0
169 192 0
166 189 0
169 190 0
112 138 129
62 98 156
61 97 155
61 97 156
62 98 158
61 97 150
62 98 160
62 98 157
62 98 164
62 98 164
62 98 163
61 97 164
62 99 164
62 98 166
62 98 163
62 98 166
62 99 170
61 98 169
61 98 165
62 98 170
61 98 170
62 98 163
61 98 164
61 98 171
62 99 171
61 98 168
62 98 173
62 99 169
62 98 170
62 98 168
62 98 168
62 98 173
63 100 177
62 99 172
62 99 168
62 99 172
62 98 169
63 100 177
62 98 171
62 99 173
62 99 177
63 99 174
63 100 178
61 98 167
62 99 175
62 98 167
62 99 172
62 99 175
62 98 171
62 98 169
62 99 171
62 99 177
63 99 175
62 99 175
61 98 175
62 99 173
62 99 173
62 99 176
62 99 170
62 98 168
63 99 176
62 99 174
62 99 174
62 99 170
62 98 169
63 99 173
61 98 172
63 99 177
62 98 172
62 99 173
62 99 172
62 99 175
63 99 172
62 99 172
61 98 173
62 98 170
62 99 172
62 99 172
62 98 170
62 99 173
62 99 171
62 99 175
62 99 173
63 99 173
61 98 175
62 98 171
62 99 173
62 98 169
63 99 170
62 99 172
62 99 175
63 100 178
63 99 174
62 99 171
63 99 173
62 98 169
63 99 175
61 98 172
62 99 172
62 98 168
62 99 174
63 99 175
62 99 173
62 99 171
63 100 176
64 100 177
62 98 171
63 100 177
62 98 166
62 99 176
62 99 176
61 98 169
61 98 164
62 99 169
62 99 169
62 99 171
63 100 175
63 99 171
62 98 168
62 98 170
62 98 168
63 99 171
62 98 164
62 98 163
63 100 174
63 99 173
62 98 171
62 99 168
63 99 171
62 98 168
62 98 163
62 98 167
62 99 168
61 98 174
62 98 170
62 99 171
62 99 169
63 100 175
62 99 170
63 99 169
61 98 165
62 98 162
62 98 164
63 99 165
62 98 161
62 98 167
62 98 166
63 99 170
62 97 164
62 98 162
62 98 171
62 98 164
62 98 164
62 98 165
62 98 165
61 97 157
61 97 163
62 98 168
61 96 160
62 98 162
61 96 163
61 97 158
62 98 166
61 97 159
61 97 161
61 96 152
62 97 158
62 97 165
61 96 158
61 96 158
61 96 160
60 95 152
61 94 151
58 91 141
57 89 134
58 91 146
48 66 92
50 56 29
58 62 29
69 70 36
65 69 37
68 72 38
65 69 38
74 78 43
76 79 42
83 85 33
90 92 45
89 91 45
89 92 44
98 99 49
94 95 50
96 99 47
87 91 50
99 100 47
102 102 55
117 117 56
99 100 50
119 118 61
107 107 57
117 116 57
118 118 65
118 116 59
127 124 60
118 118 64
126 124 63
128 126 63
123 122 62
122 121 60
132 130 63
129 127 66
139 136 65
139 136 71
141 138 71
138 135 69
130 129 61
149 145 80
147 142 73
148 144 80
147 143 72
143 138 69
148 144 71
151 147 74
160 154 80
149 145 78
145 141 71
152 148 75
153 148 76
155 150 72
155 151 79
159 153 82
164 158 77
159 153 80
160 154 76
159 154 76
160 155 75
164 158 79
157 152 71
159 153 73
161 155 76
160 155 79
160 154 71
158 152 75
163 157 75
163 157 77
164 158 78
157 151 73
165 158 75
161 155 81
159 153 66
163 157 72
167 160 80
162 155 74
168 160 77
164 158 75
156 150 69
162 155 76
160 154 81
164 157 71
163 156 79
164 157 75
162 155 72
158 152 75
159 152 69
162 155 74
157 152 69
158 152 68
159 153 68
162 156 76
159 153 71
162 156 70
156 149 71
151 146 61
159 153 66
155 148 72
158 151 71
157 150 60
159 152 69
149 143 66
146 141 61
149 142 61
145 139 62
154 147 67
154 147 66
152 146 66
147 141 60
145 139 58
146 140 57
147 140 66
142 136 52
149 142 65
136 130 53
137 131 51
145 138 61
139 134 47
128 123 49
137 132 51
138 133 52
129 125 37
129 123 42
115 111 39
133 129 45
165 186 0
169 188 0
170 190 0
170 190 0
171 192 0
170 191 0
170 190 0
169 190 0
163 184 0
169 191 0
169 190 0
170 192 0
169 191 0
172 196 0
173 196 0
168 191 0
171 195 0
173 196 0
171 194 0
171 194 0
169 193 0
174 196 0
172 195 0
170 194 0
170 194 0
172 195 0
170 194 0
172 195 0
168 192 0
172 195 0
174 197 0
175 197 0
169 193 0
170 193 0
170 193 0
166 189 0
172 196 0
170 193 0
172 195 0
166 190 0
171 194 0
169 192 0
172 196 0
171 195 0
172 195 0
172 195 0
170 194 0
169 193 0
170 193 0
171 194 0
170 194 0
171 194 0
169 193 0
172 196 0
166 190 0
167 190 0
170 193 0
171 195 0
175 198 0
169 192 0
170 193 0
171 195 0
169 192 0
171 195 0
171 193 0
172 195 0
166 190 0
168 192 0
167 191 0
171 194 0
169 193 0
167 191 0
168 191 0
171 193 0
173 194 0
170 193 0
171 195 0
169 192 0
167 190 0
167 189 0
166 188 0
170 194 0
171 194 0
172 195 0
170 193 0
171 194 0
168 191 0
168 192 0
172 195 0
169 192 0
168 192 0
167 191 0
168 191 0
168 191 0
171 194 0
170 193 0
170 194 0
167 190 0
166 189 0
72 105 154
61 97 152
62 98 155
62 98 160
62 97 156
62 98 165
62 99 165
61 97 157
62 97 161
61 97 158
62 97 161
62 98 163
61 98 166
62 98 165
62 98 166
61 97 161
62 98 168
61 98 170
62 98 162
62 98 165
62 98 167
62 98 167
62 98 167
62 98 167
62 98 168
62 98 172
62 99 173
62 99 168
62 98 168
61 98 172
62 99 171
62 98 170
62 99 172
62 98 166
62 98 167
63 100 176
62 99 167
63 99 173
62 98 169
62 98 173
62 98 169
62 99 172
62 98 169
61 98 173
62 99 170
62 99 171
62 99 174
63 99 172
62 98 169
62 99 176
62 99 171
62 99 176
63 99 173
63 99 179
63 99 175
62 99 177
62 99 174
62 99 175
62 99 172
62 99 173
62 99 171
62 99 175
62 99 173
61 98 171
62 99 172
61 98 173
62 99 172
63 99 175
61 98 173
63 99 177
62 99 175
62 99 174
61 98 167
62 98 171
62 99 175
61 98 169
62 99 176
62 99 173
63 99 171
62 99 175
62 98 172
63 99 175
62 99 170
62 99 168
62 99 171
62 99 176
63 99 173
62 98 171
62 98 172
61 98 174
62 99 174
63 99 177
62 99 176
61 98 173
62 99 174
62 98 172
62 99 173
62 98 173
62 99 170
62 98 167
62 99 173
63 99 175
62 99 172
62 98 168
62 99 175
62 99 175
62 98 169
61 98 169
62 99 172
62 98 168
62 99 168
62 98 169
62 99 174
62 98 166
62 98 167
62 99 171
63 99 173
62 99 173
61 98 168
62 99 168
62 99 174
62 99 174
62 99 174
61 98 167
62 99 172
62 98 171
62 98 168
61 98 167
61 98 166
62 98 165
62 99 165
62 99 168
62 98 167
63 99 172
62 98 167
62 98 168
62 98 170
63 99 171
63 100 173
61 98 170
61 97 163
61 98 163
63 99 168
63 99 170
62 99 168
62 99 170
61 98 165
62 98 167
62 98 164
63 99 170
63 100 173
62 98 166
61 96 161
62 98 164
62 98 165
62 98 162
62 98 165
62 97 162
61 97 163
62 98 166
62 99 170
62 98 164
61 98 163
61 97 159
60 95 153
61 97 155
60 95 156
61 97 159
60 95 156
59 94 154
61 96 157
61 95 156
61 97 163
60 94 148
59 93 142
58 91 137
55 73 91
48 54 31
66 69 24
68 70 27
65 68 34
65 68 30
58 62 29
65 70 36
66 71 35
63 68 35
88 90 49
82 85 45
82 85 45
86 88 43
95 97 49
103 103 49
90 93 47
96 97 50
104 105 52
100 102 51
108 107 56
111 110 54
111 111 57
109 110 56
116 116 63
113 114 57
132 129 68
124 124 67
121 120 63
129 127 66
129 126 70
133 130 65
124 123 67
126 124 58
134 131 65
134 131 69
132 130 66
138 134 61
135 132 69
140 137 68
145 141 69
142 138 69
146 142 72
147 143 65
149 144 73
148 143 71
147 142 72
160 154 76
149 145 71
154 149 80
164 157 77
153 147 68
151 146 77
150 145 67
152 147 71
163 156 80
162 156 79
154 149 62
156 151 77
159 152 83
161 154 73
157 151 75
169 162 81
158 151 75
160 154 74
159 153 77
162 156 75
158 152 69
163 157 78
166 160 79
162 156 74
162 156 74
165 159 74
159 153 73
159 154 67
169 162 79
161 155 66
165 159 76
164 158 74
164 158 73
165 159 77
164 157 73
167 160 82
163 155 67
158 152 70
152 146 66
157 150 68
161 154 79
156 151 70
163 157 76
159 153 71
156 150 64
153 148 65
153 148 61
160 154 70
158 152 73
155 150 68
147 141 62
157 151 66
157 151 69
150 144 65
152 146 62
153 148 66
148 143 61
148 142 65
141 136 53
148 143 60
143 137 58
140 134 57
140 135 51
143 138 47
146 139 58
137 132 47
141 135 56
137 131 49
131 127 41
149 143 59
140 134 51
133 127 52
135 128 51
124 119 44
127 123 48
129 124 49
116 112 36
139 148 30
170 191 0
171 192 0
167 190 0
173 193 0
168 190 0
170 190 0
169 190 0
174 195 0
163 184 0
170 192 0
168 189 0
167 188 0
168 187 0
171 194 0
173 196 0
172 196 0
171 195 0
172 195 0
170 194 0
172 196 0
172 196 0
169 192 0
174 197 0
171 196 0
172 196 0
171 194 0
171 194 0
169 192 0
170 194 0
167 191 0
170 194 0
172 195 0
171 194 0
171 195 0
171 195 0
170 193 0
172 195 0
172 195 0
168 192 0
170 194 0
172 197 0
173 197 0
173 196 0
170 194 0
165 188 0
171 194 0
173 196 0
170 194 0
168 191 0
169 193 0
172 195 0
169 192 0
173 196 0
167 190 0
170 193 0
171 193 0
170 193 0
170 194 0
169 193 0
169 192 0
172 196 0
170 193 0
171 195 0
173 197 0
170 194 0
170 194 0
169 192 0
173 196 0
169 192 0
171 195 0
168 191 0
169 192 0
172 195 0
171 195 0
162 185 0
171 194 0
167 191 0
169 193 0
166 189 0
168 192 0
169 192 0
169 192 0
168 190 0
168 192 0
173 195 0
165 188 0
168 192 0
168 191 0
167 190 0
171 194 0
165 188 0
165 188 0
167 190 0
171 194 0
171 194 0
168 191 0
167 190 0
168 192 0
157 179 62
60 95 142
63 99 163
62 97 154
62 98 161
62 98 163
61 97 160
61 97 158
62 98 160
62 98 161
62 98 162
62 98 168
61 97 164
61 97 162
62 98 164
62 98 168
62 98 163
62 99 167
62 98 170
63 99 170
62 99 173
62 98 170
62 98 170
62 98 169
62 99 167
62 99 171
61 98 167
62 99 171
62 98 172
62 98 169
62 99 170
62 98 168
63 99 175
63 99 174
63 99 170
62 98 170
61 98 168
62 99 173
62 99 174
62 98 169
61 97 167
62 99 173
62 99 170
63 99 176
62 99 170
62 99 174
62 99 171
61 98 171
62 98 170
62 99 171
62 99 171
62 99 170
62 99 176
62 99 175
62 99 174
61 97 162
63 99 175
62 99 178
63 100 176
62 99 174
62 99 174
62 99 173
61 98 163
62 99 173
63 99 176
62 99 173
62 99 172
62 99 168
62 99 172
63 100 175
61 98 172
61 98 171
62 99 174
62 99 173
62 99 173
62 99 176
62 99 175
62 99 174
62 99 173
62 99 173
62 99 173
62 99 170
62 99 174
62 99 173
63 100 176
62 98 167
61 98 168
62 99 169
61 98 169
62 98 171
62 99 174
62 98 171
63 99 171
62 99 174
63 99 175
61 97 160
62 99 173
62 99 173
62 99 171
62 99 171
62 99 174
63 99 170
61 98 169
62 99 166
62 98 169
63 99 169
62 98 170
63 99 171
62 99 173
62 99 171
62 98 167
62 99 171
62 99 172
62 99 172
62 99 170
62 99 171
61 98 169
63 99 172
62 98 172
62 98 167
62 99 171
63 99 175
63 99 172
63 99 171
62 98 171
61 98 168
61 98 164
61 98 162
62 98 168
62 99 168
62 99 170
62 99 167
63 99 173
62 98 162
62 99 171
63 99 169
62 98 166
63 99 167
62 98 163
62 98 168
62 98 172
62 99 171
61 97 163
61 98 165
62 98 168
61 97 159
62 98 169
63 99 171
61 97 161
62 98 168
62 98 169
63 99 171
62 97 158
61 97 161
62 98 161
62 98 159
62 98 159
62 98 167
62 98 165
61 97 161
61 97 159
62 98 167
62 98 163
61 97 159
63 99 168
62 97 159
63 99 166
61 97 160
62 98 164
60 95 152
61 96 160
61 97 156
61 96 158
61 95 159
59 92 145
60 94 155
60 93 145
55 81 114
50 53 25
50 56 24
66 69 31
74 76 32
64 70 28
65 70 30
76 78 33
58 64 33
79 84 39
85 86 37
88 89 35
87 91 47
94 95 43
97 100 46
98 99 48
96 97 52
115 115 49
104 105 55
99 100 50
107 107 53
114 113 54
113 113 60
115 114 58
122 120 59
124 121 66
109 109 52
128 125 63
112 113 59
120 119 65
138 134 69
120 118 62
122 121 57
137 134 72
121 120 63
140 136 71
127 126 63
136 133 58
132 130 65
141 138 73
147 143 69
149 144 71
148 144 72
142 139 65
139 136 66
150 145 68
149 144 71
149 144 72
148 144 67
148 144 65
149 144 70
149 144 71
150 145 68
158 152 75
155 150 66
155 151 72
158 153 72
151 147 65
166 159 76
156 151 70
164 158 80
153 149 69
158 153 71
167 160 83
158 152 78
164 158 75
160 154 77
164 157 75
158 153 69
164 158 72
164 157 75
163 157 77
159 153 72
159 154 66
161 154 71
154 148 66
164 157 80
163 157 75
159 152 69
154 148 64
166 159 75
160 154 68
165 158 78
159 153 68
159 153 69
154 148 70
160 154 71
162 155 77
162 155 73
163 156 71
153 146 70
149 143 59
157 151 70
160 153 72
160 153 67
152 147 66
160 153 69
159 152 68
159 152 71
154 147 70
150 144 67
158 151 75
154 148 65
155 148 65
156 150 71
146 141 61
156 150 69
146 141 59
146 139 58
142 136 59
147 140 62
142 137 49
144 138 56
133 127 57
147 140 66
143 137 52
138 132 63
141 136 53
134 128 56
140 134 53
125 120 49
133 128 48
119 114 47
121 117 45
165 183 16
166 186 0
167 187 0
169 192 0
170 190 0
167 187 0
168 188 0
171 190 0
165 185 0
169 188 0
171 192 0
170 190 0
164 184 0
171 191 0
174 197 0
172 194 0
173 197 0
171 195 0
172 196 0
172 196 0
171 195 0
169 192 0
171 195 0
171 194 0
172 195 0
171 194 0
172 195 0
167 190 0
171 194 0
172 195 0
172 195 0
165 190 0
167 190 0
172 195 0
173 197 0
171 195 0
171 194 0
173 197 0
169 194 0
170 194 0
172 196 0
171 194 0
171 194 0
173 196 0
171 195 0
172 196 0
171 195 0
170 194 0
172 195 0
170 194 0
170 193 0
169 193 0
168 193 0
168 192 0
167 191 0
171 194 0
169 192 0
169 192 0
171 195 0
171 194 0
170 193 0
169 192 0
169 192 0
168 192 0
173 196 0
170 194 0
171 194 0
172 194 0
169 192 0
169 192 0
167 189 0
171 193 0
173 195 0
172 195 0
169 191 0
171 194 0
170 193 0
168 190 0
168 192 0
169 193 0
170 194 0
171 194 0
165 188 0
173 196 0
167 189 0
171 194 0
167 191 0
171 195 0
165 188 0
169 193 0
168 191 0
170 194 0
169 192 0
168 192 0
168 191 0
167 190 0
165 188 0
167 190 0
168 192 0
148 172 80
61 97 155
61 97 156
63 99 162
61 97 156
61 97 154
63 98 157
63 99 164
61 97 159
62 98 164
62 99 166
62 98 162
62 99 168
61 97 162
61 97 157
62 98 165
62 98 163
62 98 164
62 98 164
62 98 168
62 99 171
62 99 170
62 98 166
62 98 169
62 99 175
62 98 164
61 98 172
61 97 160
62 99 171
62 98 172
62 99 173
62 98 172
62 98 166
63 99 176
62 98 171
61 98 164
61 98 171
62 99 172
63 99 176
62 98 166
62 99 172
62 99 173
62 99 173
62 98 166
62 98 170
62 98 172
63 99 176
62 99 174
62 98 169
62 99 172
62 99 174
62 99 173
62 99 174
62 99 172
63 99 174
62 99 174
62 98 167
62 99 175
62 99 171
62 98 172
61 98 170
61 98 171
62 98 168
62 99 171
62 99 173
62 98 169
62 98 168
62 99 172
63 100 173
62 98 176
62 99 172
62 99 175
61 98 171
62 99 174
63 99 172
61 98 173
62 98 168
62 99 170
62 98 169
61 98 169
62 99 175
62 99 173
62 99 176
63 100 176
62 98 169
62 99 172
62 99 173
62 99 170
62 99 174
62 98 164
62 98 169
62 98 172
62 99 175
63 99 174
62 99 171
62 98 166
62 99 173
62 99 172
62 99 174
62 99 174
62 99 173
62 98 169
61 98 170
62 99 174
63 99 168
63 99 172
62 99 171
61 98 167
62 98 169
62 99 173
63 99 169
62 98 171
62 99 171
62 99 170
63 99 168
62 98 168
62 99 172
63 99 173
62 99 170
62 98 163
62 98 166
62 99 171
62 99 173
62 99 167
63 99 168
62 99 170
61 98 170
62 99 169
62 98 166
62 98 168
63 99 173
62 99 171
62 98 166
62 98 166
63 99 167
63 99 170
63 99 170
62 98 165
63 100 172
62 98 164
62 98 167
63 99 170
62 98 167
61 98 164
62 98 164
62 98 166
62 98 165
62 99 169
62 98 168
62 98 159
62 99 169
62 97 156
62 98 163
61 97 164
63 99 167
63 99 164
61 97 158
62 98 162
61 97 157
62 98 165
62 98 167
61 97 163
61 96 156
60 95 149
62 98 163
61 97 155
61 96 155
61 96 158
60 95 151
61 96 154
61 96 160
61 96 157
62 96 151
61 96 160
61 95 155
60 95 152
59 92 149
56 86 124
56 61 26
68 71 28
72 73 29
72 73 31
69 73 31
78 79 24
66 69 27
66 71 37
75 79 36
81 83 44
76 81 38
83 86 47
93 95 51
91 92 42
93 94 48
100 101 47
92 95 49
101 101 47
94 97 44
110 110 55
109 108 53
103 105 47
107 107 51
112 112 55
121 120 53
124 123 59
125 123 62
120 119 58
120 120 60
125 124 59
128 125 62
130 128 63
134 131 65
133 130 68
128 125 65
133 129 62
136 133 69
149 144 72
145 141 76
135 132 64
151 146 70
145 141 67
143 139 68
146 143 69
156 150 75
150 146 73
156 151 79
155 151 73
156 150 73
157 151 81
149 144 66
154 149 71
147 143 67
149 145 68
152 147 63
156 150 64
155 150 71
155 149 65
157 152 74
159 154 72
161 154 74
158 153 71
155 150 71
160 155 72
160 154 72
164 158 69
163 156 79
160 154 71
160 154 78
160 153 75
157 151 71
161 155 73
162 156 70
164 157 82
159 153 65
160 154 73
161 154 73
157 151 71
164 157 75
164 156 75
160 154 73
165 158 76
160 153 73
157 152 65
156 149 70
160 153 68
157 150 64
158 151 68
153 146 68
161 154 70
161 154 74
149 143 59
146 140 64
156 149 68
157 150 69
142 137 53
154 148 64
147 141 53
158 152 70
147 143 59
152 145 60
152 146 59
150 145 59
156 150 69
151 144 61
148 142 57
137 132 52
146 141 58
134 129 44
146 139 60
143 137 59
134 129 52
144 138 53
141 136 53
137 132 56
133 128 45
126 121 48
129 124 45
131 125 51
141 135 52
124 118 42
134 128 48
142 150 37
168 187 0
166 184 0
167 188 0
169 191 0
168 190 0
170 190 0
172 192 0
168 187 0
167 185 0
167 187 0
170 191 0
171 192 0
172 193 0
169 191 0
172 195 0
171 195 0
170 194 0
173 196 0
171 193 0
168 192 0
172 195 0
173 197 0
171 194 0
175 198 0
170 194 0
172 196 0
171 194 0
172 195 0
171 195 0
172 196 0
173 196 0
169 193 0
170 193 0
172 195 0
170 195 0
174 197 0
171 195 0
173 196 0
168 192 0
172 196 0
170 193 0
173 197 0
170 194 0
174 196 0
170 193 0
171 195 0
170 193 0
169 193 0
171 194 0
170 193 0
168 192 0
169 193 0
171 194 0
170 192 0
171 195 0
170 193 0
170 194 0
170 194 0
172 196 0
166 190 0
171 195 0
170 193 0
170 193 0
168 191 0
170 194 0
170 192 0
170 194 0
172 195 0
171 194 0
167 191 0
170 193 0
170 193 0
171 195 0
166 190 0
171 194 0
167 190 0
168 192 0
170 194 0
173 196 0
170 193 0
170 193 0
166 190 0
168 192 0
171 194 0
172 196 0
169 193 0
168 191 0
167 191 0
166 189 0
165 188 0
167 190 0
168 192 0
169 193 0
170 192 0
169 192 0
166 188 0
165 188 0
168 192 0
169 192 0
130 155 94
62 98 158
62 98 161
62 98 157
63 99 166
62 98 157
61 97 157
62 98 162
62 98 164
63 99 170
61 97 159
61 98 163
62 98 168
62 98 162
62 99 166
62 98 164
62 98 168
62 98 167
61 98 163
63 99 173
61 98 169
63 99 169
62 98 167
62 98 169
61 98 167
62 99 172
62 99 172
61 98 165
61 98 168
62 99 170
61 98 164
61 98 165
62 99 169
62 98 169
62 99 171
62 99 174
62 98 169
62 98 166
62 99 170
62 99 169
62 99 169
61 98 170
62 99 170
62 98 171
63 99 171
62 98 166
61 98 174
63 99 175
62 98 173
62 98 173
62 98 169
61 98 172
62 99 177
62 99 172
62 99 173
62 99 174
63 100 176
62 98 167
62 98 171
61 98 169
62 99 175
61 98 173
62 99 172
62 99 173
62 99 175
62 98 168
62 99 175
62 98 169
63 99 172
61 98 169
62 99 170
61 98 171
62 99 172
63 100 176
62 99 173
62 99 175
62 99 171
62 99 173
62 99 172
62 99 174
63 99 173
62 99 174
62 99 173
62 98 170
62 99 172
62 99 172
63 99 175
62 99 171
62 99 174
62 98 170
62 98 170
62 98 168
62 99 172
62 98 168
63 99 174
63 99 176
62 99 171
62 99 173
61 98 166
62 98 173
62 99 170
62 98 169
62 99 173
61 98 170
63 99 175
62 98 168
62 99 169
62 99 171
62 98 166
63 100 172
62 99 174
62 99 171
62 99 173
62 99 174
62 99 174
63 99 172
62 98 165
62 98 168
61 98 168
62 98 171
63 99 166
62 99 165
62 98 165
62 99 175
62 99 170
62 99 172
62 99 169
63 99 171
62 99 169
62 99 168
63 99 172
62 99 169
62 98 165
63 99 170
61 98 165
62 99 169
62 98 166
62 98 163
62 98 167
62 98 167
62 98 169
62 98 168
62 99 168
62 99 169
61 98 162
62 99 170
62 98 168
62 98 162
61 97 159
63 99 166
62 98 162
62 98 161
62 98 162
62 98 164
62 99 167
62 98 169
62 98 164
61 98 166
62 98 165
63 99 168
61 97 160
62 98 161
61 97 160
63 99 166
61 97 164
61 97 161
62 97 157
62 97 156
61 96 155
62 97 160
62 96 156
60 94 148
60 94 152
60 94 149
61 95 150
60 94 147
58 91 145
59 91 140
62 66 26
53 55 18
62 66 28
67 68 30
70 72 24
87 88 37
64 67 27
73 76 28
76 80 36
80 83 40
83 86 43
83 86 44
86 89 46
79 83 39
100 101 47
86 89 37
89 91 48
104 105 56
99 99 46
113 113 57
104 105 56
110 109 54
96 96 51
127 124 58
104 106 47
127 125 52
125 124 54
121 119 58
128 125 50
125 123 60
122 120 58
140 136 68
116 116 56
137 134 64
137 134 63
133 131 59
144 140 70
134 131 61
139 137 65
144 140 74
144 141 65
141 137 63
145 141 61
148 144 73
138 135 62
147 142 72
151 146 70
157 152 79
142 138 69
151 146 73
147 143 64
151 147 71
153 149 70
157 151 71
151 145 70
163 156 79
154 148 71
164 157 73
156 150 70
159 153 66
159 153 76
153 147 63
154 148 72
158 153 72
149 145 65
160 154 69
154 149 67
153 147 71
159 153 66
153 148 70
158 151 65
156 150 70
160 154 69
160 155 73
157 151 72
157 151 70
162 155 68
168 160 79
163 157 76
166 158 75
156 150 68
160 154 74
150 144 59
158 153 60
149 144 62
152 146 66
155 148 71
160 153 75
152 146 65
152 146 61
154 147 71
152 145 61
154 148 61
152 147 67
156 150 64
149 143 67
154 148 65
154 148 63
152 146 64
148 143 64
142 138 54
151 145 68
152 146 69
148 141 58
146 140 63
140 135 51
153 146 60
146 141 54
146 140 61
152 145 64
136 131 52
141 135 52
142 137 59
143 137 56
140 134 48
126 121 49
128 123 41
136 131 51
135 129 52
129 125 44
124 119 42
113 109 42
162 181 0
167 188 0
170 190 0
169 190 0
172 193 0
168 187 0
166 185 0
170 191 0
166 187 0
169 189 0
167 186 0
165 185 0
171 192 0
172 192 0
167 188 0
171 195 0
168 193 0
169 193 0
174 198 0
170 194 0
172 196 0
171 194 0
170 194 0
172 196 0
172 196 0
171 194 0
171 195 0
171 193 0
173 196 0
172 194 0
171 194 0
168 192 0
173 196 0
172 195 0
168 193 0
172 195 0
169 192 0
168 192 0
169 192 0
169 192 0
167 191 0
171 194 0
171 194 0
170 193 0
173 196 0
171 196 0
169 193 0
174 196 0
172 194 0
171 194 0
173 196 0
170 194 0
170 193 0
171 194 0
168 191 0
170 194 0
171 195 0
173 195 0
169 192 0
171 195 0
169 193 0
173 196 0
171 194 0
171 194 0
172 195 0
170 194 0
165 188 0
175 197 0
172 195 0
169 193 0
170 194 0
170 193 0
169 193 0
170 192 0
171 194 0
167 190 0
168 191 0
172 195 0
170 194 0
171 195 0
169 193 0
172 195 0
170 194 0
165 188 0
166 190 0
170 193 0
165 189 0
172 196 0
169 192 0
168 191 0
171 194 0
165 189 0
168 191 0
168 192 0
167 190 0
166 189 0
169 192 0
167 190 0
170 194 0
169 191 0
119 145 115
62 98 154
61 97 155
62 98 162
61 97 158
61 97 157
61 97 152
61 97 160
62 98 163
62 98 163
60 96 155
61 97 160
62 98 161
62 98 163
62 98 160
62 98 162
62 99 167
62 98 165
61 98 166
62 98 171
61 98 167
62 98 166
62 98 168
62 98 167
62 98 165
62 98 171
62 99 170
62 98 168
63 99 172
63 100 174
62 98 170
62 99 168
62 99 172
62 99 175
61 98 168
63 99 176
62 98 170
62 99 175
62 99 174
61 97 166
62 99 174
62 98 169
62 99 171
62 98 170
62 99 176
61 98 167
63 99 176
62 98 169
62 99 171
63 99 171
62 99 168
62 99 178
62 98 172
62 99 174
62 99 176
62 99 172
61 97 167
62 99 174
62 99 172
62 99 173
62 99 173
61 98 169
62 98 170
62 99 173
62 98 168
62 99 173
63 99 174
62 99 174
61 98 171
62 99 175
61 98 169
62 99 175
62 99 176
61 98 169
62 99 172
62 99 171
62 99 173
62 99 170
62 99 173
63 99 174
62 98 172
62 99 172
61 98 167
62 99 173
61 98 168
62 99 177
62 98 170
62 99 170
62 99 171
62 99 170
63 99 173
62 99 176
62 99 168
61 98 172
61 98 166
63 100 175
62 99 174
62 99 173
62 99 168
62 99 171
62 98 164
63 99 172
63 99 171
62 98 166
63 99 172
63 99 174
62 98 169
62 99 173
62 99 175
62 98 167
62 98 168
62 98 169
62 98 167
62 99 170
63 99 171
61 98 167
62 99 172
63 99 172
62 99 168
62 99 171
62 98 165
62 98 160
62 99 165
62 98 163
62 98 168
62 99 166
62 98 170
62 99 171
62 99 166
62 99 171
63 99 171
63 99 166
62 99 168
62 98 164
62 98 164
62 98 167
62 99 166
61 98 164
61 97 164
61 98 170
62 98 165
63 99 169
62 99 171
62 99 168
63 99 165
62 98 167
62 98 165
62 98 167
63 99 165
61 97 162
62 98 161
63 99 167
62 99 170
62 98 169
62 97 165
63 99 164
62 99 169
62 98 164
62 97 163
62 98 160
61 97 164
62 97 161
62 98 164
63 98 161
61 97 158
61 97 158
62 97 160
60 95 151
60 96 153
61 97 156
61 96 157
60 94 154
60 95 154
60 94 149
61 97 154
59 93 151
60 93 148
56 88 130
60 72 76
60 62 22
64 68 23
71 74 30
59 62 30
66 70 28
56 61 26
78 79 33
82 83 32
76 79 31
89 92 46
87 88 38
92 93 35
85 87 38
87 90 43
101 101 42
90 92 43
93 94 49
105 103 45
105 105 46
110 109 55
103 104 47
107 107 51
98 100 47
111 110 56
112 111 51
122 120 55
120 119 57
122 120 64
116 115 50
142 137 66
132 129 60
136 132 65
138 135 64
141 138 65
134 130 57
135 131 58
126 125 54
143 138 69
141 137 66
149 144 74
141 137 69
137 133 57
147 142 68
146 142 70
146 142 68
147 142 73
145 140 64
147 144 68
148 144 68
145 141 60
157 151 75
152 147 67
159 153 68
155 149 71
157 152 64
155 149 70
156 151 71
160 154 76
159 153 71
158 151 72
159 153 75
157 151 72
157 151 67
153 148 63
156 151 71
156 149 73
161 154 69
158 151 73
153 147 66
158 152 71
158 150 75
159 152 72
160 153 68
160 154 73
157 151 68
161 153 66
156 151 62
155 149 65
160 153 76
161 154 74
156 150 64
153 148 66
155 149 60
156 151 66
154 148 70
158 151 67
156 150 66
156 149 68
155 148 66
160 153 69
159 152 68
154 148 65
159 151 69
159 153 69
156 149 67
154 148 62
143 137 59
148 141 56
154 148 63
152 147 59
156 150 62
147 142 60
147 142 59
154 147 61
138 134 47
150 144 64
144 137 59
144 137 57
144 137 59
134 130 49
146 140 59
143 137 52
136 130 51
131 126 48
134 129 37
137 131 56
135 128 52
130 124 48
129 124 44
114 110 39
145 156 30
169 188 0
168 188 0
170 190 0
168 190 0
168 188 0
165 185 0
169 188 0
168 189 0
166 187 0
166 185 0
171 191 0
169 190 0
169 190 0
168 188 0
170 191 0
170 193 0
170 193 0
170 193 0
172 195 0
169 192 0
168 191 0
172 196 0
172 196 0
172 195 0
172 195 0
170 194 0
169 192 0
170 194 0
172 195 0
172 194 0
170 193 0
169 192 0
173 196 0
168 191 0
173 195 0
174 196 0
172 196 0
175 198 0
169 193 0
169 192 0
167 191 0
170 194 0
171 195 0
171 194 0
169 193 0
170 194 0
172 195 0
171 195 0
170 192 0
170 193 0
172 196 0
171 195 0
171 195 0
172 195 0
170 194 0
170 194 0
172 195 0
170 194 0
171 194 0
168 191 0
169 192 0
168 192 0
167 190 0
170 194 0
170 193 0
166 190 0
171 193 0
171 193 0
171 193 0
168 191 0
170 193 0
172 195 0
171 195 0
169 193 0
169 193 0
167 189 0
171 194 0
170 195 0
167 190 0
169 193 0
171 194 0
168 192 0
168 192 0
169 192 0
170 193 0
169 192 0
170 193 0
168 192 0
168 192 0
170 193 0
172 195 0
169 191 0
167 190 0
167 189 0
164 189 0
167 191 0
170 193 0
170 193 0
167 191 0
162 185 0
98 126 134
60 96 151
62 98 160
61 97 155
61 97 154
61 96 150
61 97 161
62 99 166
61 96 156
62 98 159
61 97 158
62 98 162
62 99 168
62 98 165
61 97 161
61 98 165
62 98 162
62 98 167
61 98 162
62 98 165
62 99 173
62 98 165
62 98 169
62 98 168
62 99 169
62 98 170
62 98 167
62 98 167
62 99 169
61 97 163
62 98 171
61 98 167
62 98 170
62 99 172
62 99 171
63 99 174
62 98 174
62 99 174
63 99 173
62 99 173
62 98 168
62 99 169
63 99 172
61 98 163
62 98 170
62 99 173
61 98 173
62 98 168
62 99 174
63 99 175
62 99 176
61 98 169
62 99 175
62 99 176
62 99 171
62 98 170
62 99 171
62 99 170
62 98 164
62 99 170
63 100 177
63 100 173
62 98 175
62 99 176
62 99 172
62 98 170
62 99 170
62 98 169
62 98 172
62 99 171
61 98 168
62 99 173
61 98 168
63 99 172
62 98 168
62 99 175
62 99 173
62 99 173
61 98 167
62 98 174
62 98 169
62 98 169
63 99 171
62 99 175
63 99 173
62 98 166
62 98 173
63 99 167
62 98 171
63 99 176
62 99 170
62 98 172
62 99 172
62 99 174
62 99 172
62 99 172
62 99 175
62 99 171
62 99 171
63 99 175
62 98 170
62 98 167
62 99 175
62 99 171
62 98 169
62 98 170
63 99 171
62 98 169
62 99 172
63 99 169
62 99 166
62 99 165
62 98 167
62 99 171
62 99 168
62 99 170
62 98 166
62 98 165
62 99 170
62 98 162
62 98 160
61 98 166
62 99 167
62 99 173
63 99 167
61 97 160
63 99 171
62 99 172
62 98 159
62 99 170
62 98 167
62 98 161
61 98 167
63 99 171
62 98 172
62 98 164
62 98 167
63 99 173
62 99 168
62 99 164
61 97 163
61 98 167
62 98 165
62 98 159
62 98 166
62 99 166
61 97 161
62 98 163
62 98 164
61 97 163
62 98 164
62 98 162
62 98 155
62 98 164
62 98 167
63 99 168
62 98 167
62 98 160
62 98 168
62 97 166
62 98 163
60 96 150
61 97 163
61 96 155
62 97 158
61 97 156
61 96 156
61 96 153
62 97 159
60 95 152
60 95 152
60 95 150
62 97 161
60 95 152
61 95 150
60 94 148
59 91 151
58 90 140
56 71 86
53 57 21
62 65 25
64 67 23
74 77 34
74 76 35
75 77 36
72 74 28
69 72 28
80 81 37
83 84 40
75 77 37
82 83 32
87 89 42
94 94 41
99 99 46
94 97 46
95 96 47
99 101 47
103 104 47
105 104 52
113 111 55
115 114 52
114 113 53
126 124 60
113 112 54
121 120 55
125 123 57
117 116 55
116 115 58
119 119 57
128 127 56
133 130 66
141 137 67
132 129 66
129 126 59
145 141 59
138 134 64
147 143 64
142 139 66
135 131 57
149 144 71
150 144 78
145 140 66
146 141 59
140 136 67
141 137 69
143 139 60
147 143 67
153 148 73
143 140 59
150 146 67
151 147 63
152 146 74
153 147 69
153 147 71
162 155 78
151 146 66
153 147 68
154 147 73
156 151 62
154 149 64
149 144 64
159 153 71
161 154 72
158 153 74
155 150 66
157 151 66
154 148 66
153 147 63
156 150 74
154 148 62
160 153 68
156 151 65
158 152 64
156 150 64
155 149 64
158 152 72
162 156 72
158 152 67
157 151 71
151 145 61
155 149 65
155 150 61
153 147 59
154 148 62
158 152 63
152 146 64
153 148 64
156 151 64
148 142 60
154 148 63
152 146 64
155 149 60
149 143 68
149 144 59
146 140 58
151 144 62
149 144 57
148 143 56
148 141 62
140 135 47
148 142 59
149 144 64
139 134 49
138 134 47
143 138 52
134 129 54
144 138 54
141 135 49
131 127 44
140 134 56
145 139 57
142 136 56
135 130 48
116 112 42
124 119 41
114 110 34
131 126 34
125 120 37
122 118 42
168 187 0
167 188 0
171 191 0
173 192 0
168 187 0
173 195 0
172 192 0
171 191 0
169 188 0
172 192 0
168 188 0
170 192 0
170 190 0
167 188 0
171 193 0
170 191 0
170 194 0
171 195 0
170 194 0
171 194 0
173 196 0
174 198 0
171 194 0
168 193 0
171 194 0
173 197 0
172 196 0
169 193 0
172 195 0
171 194 0
171 195 0
168 191 0
170 194 0
170 194 0
169 192 0
174 197 0
170 194 0
173 196 0
171 195 0
171 194 0
167 190 0
168 191 0
171 194 0
169 193 0
171 195 0
166 191 0
170 194 0
170 193 0
170 192 0
173 196 0
171 194 0
166 189 0
170 194 0
171 195 0
172 195 0
172 195 0
164 186 0
171 194 0
170 194 0
169 193 0
170 194 0
171 194 0
168 192 0
170 194 0
168 192 0
171 194 0
169 192 0
165 189 0
172 195 0
169 193 0
172 196 0
170 192 0
162 185 0
168 190 0
164 188 0
168 192 0
167 190 0
169 193 0
166 190 0
167 191 0
173 196 0
166 189 0
169 192 0
172 195 0
168 190 0
169 193 0
168 191 0
170 194 0
171 194 0
169 193 0
166 189 0
165 188 0
166 189 0
164 187 0
169 194 0
166 190 0
168 192 0
165 188 0
169 191 0
162 185 0
166 190 0
76 108 142
62 98 158
61 96 151
62 98 160
61 97 155
62 98 167
62 98 153
62 98 160
62 98 157
61 97 152
62 98 162
61 97 156
62 98 164
61 97 156
62 98 161
62 98 163
62 99 174
61 98 164
61 97 165
62 98 169
62 98 169
62 97 159
62 98 168
62 98 167
61 97 167
62 98 165
62 99 170
62 98 170
62 99 173
61 98 164
62 98 164
61 97 160
62 98 162
62 98 168
62 98 173
61 98 164
62 99 168
61 98 166
62 99 168
62 98 174
62 99 173
61 98 167
62 99 170
63 99 175
62 98 171
62 99 173
62 99 173
63 99 172
61 98 173
62 98 172
62 99 173
62 99 172
61 98 168
62 99 175
62 98 172
62 99 172
61 98 168
62 99 176
62 99 171
62 99 175
62 99 174
62 99 169
62 99 173
61 98 167
62 98 168
62 98 169
62 98 169
61 98 168
62 99 175
61 98 174
63 99 174
62 99 169
62 99 174
62 99 177
62 98 170
62 98 168
61 97 166
62 98 167
62 99 172
62 99 170
61 98 171
62 99 168
62 99 170
62 99 171
62 98 172
63 99 169
62 98 168
62 98 167
63 99 173
62 99 173
61 98 170
62 99 172
63 99 173
62 98 165
63 99 175
62 99 169
62 98 169
62 99 174
61 98 172
62 98 164
62 98 163
63 99 175
63 99 173
62 98 172
62 98 173
63 99 171
62 99 170
61 97 157
62 98 166
62 99 166
62 99 169
61 98 167
60 96 153
63 99 171
63 99 174
62 99 169
62 99 169
62 98 170
63 99 169
61 98 164
62 99 167
62 99 175
62 98 166
62 99 170
61 98 163
62 98 167
62 98 168
61 97 161
61 98 162
62 99 172
62 98 166
62 99 168
62 98 169
61 97 159
62 98 163
63 99 170
62 99 170
61 97 166
62 98 169
62 98 167
62 99 169
63 99 168
62 98 160
62 98 161
62 98 161
61 97 155
62 98 164
62 99 167
62 98 163
61 97 160
63 98 166
62 98 166
62 98 169
62 98 164
62 98 163
63 99 166
62 98 166
61 97 156
62 98 161
62 97 161
63 99 169
61 97 159
62 98 166
62 98 167
62 98 161
63 98 160
61 96 155
61 96 152
61 96 156
62 97 155
63 98 162
61 96 153
59 94 141
60 95 141
59 93 144
61 96 152
59 93 149
60 93 143
54 72 94
64 67 25
72 74 17
69 71 18
66 67 21
65 71 32
75 78 30
71 74 29
87 88 26
80 82 31
78 80 36
83 84 35
84 85 28
89 91 37
85 88 39
89 92 46
104 105 42
104 104 44
95 96 45
107 107 46
101 102 51
120 119 54
112 111 51
109 109 54
123 121 57
114 113 56
126 123 57
111 111 53
129 127 52
123 122 63
135 132 65
125 125 49
125 123 61
132 130 57
136 133 66
134 131 55
138 134 63
142 138 64
137 134 56
139 135 53
140 137 66
134 132 61
138 135 60
140 137 66
144 140 72
146 140 61
152 146 71
151 146 59
149 145 67
148 143 66
150 145 75
150 145 67
148 144 62
155 150 70
153 147 69
152 146 70
156 151 72
147 143 56
145 141 60
157 151 70
149 145 63
160 154 71
151 147 60
152 148 67
151 146 61
153 147 71
155 149 63
153 147 67
158 152 70
158 153 67
158 152 64
153 147 66
156 151 64
154 148 67
153 148 58
159 152 71
160 154 71
154 149 57
149 144 60
163 157 73
158 152 61
157 150 66
159 152 72
149 144 64
157 151 67
152 147 61
156 149 67
154 147 58
159 152 61
148 142 60
154 148 64
150 144 58
149 143 60
152 146 59
149 143 62
153 147 64
159 152 69
148 142 63
149 143 59
156 150 59
149 143 63
146 140 56
145 139 53
140 135 48
149 142 63
148 142 63
144 139 49
145 140 57
140 134 58
134 130 42
135 130 48
138 133 52
140 135 53
138 134 49
136 130 51
130 124 48
132 126 56
130 124 49
127 121 47
118 113 49
155 168 19
169 189 0
172 193 0
169 189 0
167 187 0
169 189 0
168 187 0
172 192 0
168 187 0
171 190 0
169 189 0
170 190 0
168 188 0
168 189 0
164 183 0
168 189 0
169 190 0
169 193 0
168 192 0
172 195 0
172 194 0
174 197 0
172 196 0
172 195 0
167 189 0
173 196 0
171 195 0
172 195 0
168 192 0
171 195 0
169 192 0
167 190 0
170 193 0
170 193 0
169 194 0
171 194 0
171 194 0
170 192 0
171 194 0
170 194 0
173 196 0
171 194 0
172 195 0
170 193 0
173 196 0
171 194 0
172 196 0
172 195 0
170 193 0
170 193 0
171 194 0
172 195 0
167 191 0
171 195 0
169 193 0
168 191 0
169 193 0
171 194 0
171 194 0
172 195 0
170 192 0
171 195 0
170 194 0
168 191 0
167 190 0
171 194 0
171 194 0
169 192 0
170 193 0
171 194 0
169 192 0
168 192 0
168 191 0
169 193 0
168 192 0
168 191 0
168 192 0
166 189 0
172 196 0
172 195 0
169 192 0
166 190 0
171 194 0
170 193 0
171 194 0
167 191 0
168 191 0
168 190 0
169 192 0
171 194 0
165 189 0
165 188 0
167 190 0
164 187 0
168 191 0
167 189 0
167 190 0
170 194 0
171 194 0
170 193 0
166 190 0
164 189 25
62 98 160
62 98 162
61 97 152
62 98 154
61 97 155
61 97 151
62 98 159
62 98 157
62 98 157
62 98 162
62 98 158
60 96 153
62 98 160
61 97 162
62 98 169
62 98 164
61 97 165
62 98 168
63 99 164
61 98 167
61 98 165
62 99 172
61 97 164
62 98 160
62 98 168
62 99 166
62 98 171
61 97 168
61 98 166
62 98 164
61 97 162
62 98 166
61 98 170
62 99 172
62 98 169
62 98 170
62 98 165
62 99 168
61 97 163
62 98 168
62 99 172
61 98 168
62 98 170
62 98 170
62 98 173
62 99 171
62 99 174
62 99 171
62 98 171
63 99 172
62 99 172
62 99 170
62 99 172
61 98 164
62 99 172
61 98 165
62 98 171
62 98 171
61 98 165
62 99 169
62 99 172
62 98 170
62 99 170
62 98 170
62 99 171
62 98 171
62 98 170
62 99 172
61 98 170
62 99 175
62 98 171
62 99 173
62 98 166
62 99 173
62 98 172
62 99 170
63 99 174
62 98 167
62 98 169
62 98 166
62 98 170
62 98 169
62 99 172
62 98 168
62 99 168
62 98 167
62 99 171
62 99 173
63 100 175
62 99 173
62 98 167
63 99 175
62 98 171
62 99 170
62 98 167
62 99 174
62 98 172
63 99 174
62 98 170
61 98 166
63 99 169
62 99 170
61 98 167
62 99 170
63 99 172
61 98 165
62 98 161
62 99 173
62 98 167
63 99 174
63 99 173
63 100 176
63 99 173
62 99 174
62 98 170
63 99 173
62 98 164
62 99 168
63 99 170
62 99 170
62 98 171
61 98 166
63 99 172
63 100 175
62 98 164
62 98 165
62 98 164
62 98 161
62 98 165
62 99 166
61 98 166
62 98 163
62 98 162
62 98 164
62 99 167
63 99 174
62 99 174
62 98 164
62 99 169
62 99 169
62 99 172
63 99 169
61 97 163
62 98 163
63 99 169
62 98 166
61 97 162
62 98 162
62 98 164
62 99 168
62 98 165
62 98 165
61 97 163
62 98 163
62 98 165
62 98 166
61 97 157
60 96 148
63 99 165
62 98 166
62 97 161
62 97 159
61 97 160
62 97 159
61 97 163
61 96 155
61 97 160
60 95 146
62 97 160
62 97 157
62 97 157
61 97 163
61 95 145
61 96 156
58 91 140
60 94 150
61 96 152
58 91 141
58 79 102
66 68 21
73 75 23
56 59 19
72 75 28
72 74 22
63 67 19
75 76 20
83 86 32
82 84 31
79 82 28
83 85 35
92 94 45
99 100 43
96 96 36
88 90 44
86 89 40
97 98 44
103 104 43
105 105 39
101 101 49
114 113 44
111 111 52
114 112 46
97 98 44
108 108 54
109 108 46
118 117 50
118 117 55
111 111 52
127 125 55
128 126 55
119 118 54
137 133 64
133 129 59
135 132 65
132 128 65
135 132 57
135 132 58
136 133 59
130 126 59
139 135 57
140 136 55
144 139 70
147 142 72
145 140 65
150 145 67
138 135 56
150 145 63
154 149 62
156 150 70
146 142 66
144 140 64
148 143 67
154 149 67
158 152 72
148 143 61
163 156 77
150 145 65
143 139 56
153 148 68
151 146 66
162 155 72
153 147 67
158 153 63
154 149 65
156 150 64
156 151 63
149 144 61
158 153 60
160 154 72
155 150 63
157 149 75
157 152 68
159 153 64
159 152 70
162 155 72
149 143 63
153 148 62
156 149 69
160 155 63
151 145 60
147 143 57
154 148 67
159 153 71
147 142 67
152 146 69
146 140 59
159 153 68
147 140 63
151 145 62
153 147 57
151 145 60
147 142 57
152 144 67
152 144 62
150 145 62
145 140 57
143 137 60
143 136 58
149 144 53
155 149 64
154 147 59
141 136 51
142 136 58
142 136 60
140 135 53
143 138 49
147 140 57
143 137 45
136 131 49
147 141 58
140 134 56
126 122 28
134 130 42
132 125 48
130 124 58
130 124 45
120 115 49
134 136 36
166 184 0
169 189 0
169 188 0
170 190 0
166 186 0
166 185 0
169 189 0
169 187 0
169 190 0
170 190 0
170 190 0
168 188 0
170 190 0
169 190 0
165 186 0
169 190 0
168 187 0
170 194 0
174 197 0
167 190 0
173 196 0
173 196 0
171 195 0
171 195 0
172 196 0
171 194 0
168 192 0
171 194 0
171 195 0
170 194 0
172 195 0
170 195 0
170 194 0
171 193 0
169 192 0
170 192 0
171 195 0
171 194 0
169 192 0
167 190 0
171 195 0
167 191 0
171 194 0
173 197 0
173 196 0
170 194 0
171 194 0
173 196 0
170 194 0
171 194 0
168 191 0
169 192 0
169 193 0
171 194 0
171 195 0
169 193 0
167 191 0
169 192 0
172 195 0
164 188 0
174 197 0
171 194 0
168 191 0
170 194 0
169 193 0
170 193 0
167 190 0
171 195 0
166 190 0
167 190 0
168 190 0
168 191 0
173 195 0
168 193 0
170 193 0
163 187 0
169 191 0
171 194 0
168 191 0
174 197 0
170 193 0
171 194 0
166 189 0
168 192 0
163 186 0
166 189 0
170 193 0
166 189 0
168 192 0
166 190 0
167 191 0
162 185 0
160 182 0
170 193 0
168 191 0
171 195 0
168 190 0
167 191 0
166 189 0
167 191 0
168 191 0
155 178 60
61 96 154
62 97 153
61 97 159
62 97 154
62 97 155
62 98 169
61 97 160
62 98 164
61 97 157
63 99 165
62 97 163
61 98 161
61 97 156
61 97 165
62 99 167
62 98 166
62 98 166
61 97 158
62 99 168
61 98 165
62 98 164
61 97 159
61 97 166
61 98 165
61 98 164
62 98 170
61 98 167
62 98 166
62 99 172
62 98 168
62 98 163
62 98 166
62 98 165
62 99 165
61 97 159
62 98 169
62 98 168
61 98 164
61 97 165
62 98 170
61 98 173
62 99 171
62 98 170
62 98 171
62 98 168
62 99 172
62 99 174
62 99 167
62 98 167
61 98 172
62 98 169
61 98 169
62 99 173
63 99 173
63 99 169
61 98 168
62 98 169
62 98 164
62 98 169
62 98 169
61 98 166
62 98 168
62 99 173
61 98 174
62 98 170
62 98 173
62 99 171
62 99 176
61 98 172
62 99 167
61 98 171
62 98 168
62 98 173
63 100 177
62 98 171
63 99 172
62 98 168
63 99 170
62 99 172
61 97 162
63 99 174
63 99 173
62 98 172
62 98 161
62 99 169
62 98 164
62 99 174
62 99 174
62 98 169
61 98 164
62 98 170
62 99 171
61 97 165
63 99 173
62 98 168
62 99 169
62 98 171
63 99 171
63 99 173
62 99 172
61 97 160
62 98 165
62 98 171
61 98 166
62 98 167
62 98 167
62 99 170
62 98 165
62 99 169
62 98 166
61 97 162
61 98 164
61 97 168
62 98 169
62 98 167
62 98 168
62 98 160
62 99 169
62 98 167
62 98 167
62 98 170
62 99 170
62 98 168
62 99 173
62 99 169
62 98 172
62 99 171
62 98 161
62 98 165
63 99 172
63 99 168
61 98 161
62 98 166
62 98 164
61 97 161
62 98 167
62 98 170
62 99 171
62 98 162
62 98 164
62 99 167
61 97 160
63 99 170
63 99 168
62 98 162
62 98 166
62 98 165
62 98 164
62 98 159
62 98 169
62 98 161
62 98 162
61 97 161
61 97 163
62 99 167
61 97 158
62 98 165
62 98 159
61 97 161
61 97 161
61 97 160
61 97 158
61 97 158
61 97 161
60 95 152
62 97 159
59 94 140
62 98 159
62 97 160
61 96 151
60 94 143
62 98 161
61 96 154
60 94 143
59 93 151
59 92 141
56 88 129
59 92 141
58 84 117
60 62 19
70 71 20
70 72 29
62 65 18
70 72 24
78 79 29
81 83 28
69 71 25
74 78 32
94 95 28
93 93 34
80 82 29
76 79 25
95 94 44
86 88 43
87 89 40
101 101 45
95 97 40
103 103 51
101 100 51
116 115 46
107 106 47
112 112 44
114 111 51
118 116 48
107 107 48
114 112 46
116 114 50
122 120 50
121 120 56
124 122 51
127 124 62
125 124 47
132 128 62
134 131 55
134 131 54
131 128 53
132 130 58
137 133 55
140 135 67
142 137 58
143 139 59
143 138 63
149 144 67
151 145 65
140 136 60
153 148 66
146 142 63
150 146 64
142 137 64
151 146 62
152 147 69
159 153 70
152 148 57
147 142 61
152 147 61
154 148 70
155 149 63
157 151 65
155 149 65
151 146 63
151 146 62
152 146 65
149 144 62
149 144 64
147 142 58
155 148 70
159 153 70
154 149 62
151 145 62
160 153 71
160 154 64
156 149 63
161 155 68
155 148 63
160 154 73
159 152 67
151 145 60
160 153 63
147 142 54
147 143 52
150 144 58
150 144 61
156 151 63
154 149 67
147 142 54
154 149 64
155 149 60
147 141 56
144 140 58
144 138 57
150 144 57
156 149 63
147 142 60
148 142 53
147 141 59
146 141 59
146 140 58
151 145 57
147 141 52
145 138 56
144 139 52
148 142 61
148 142 49
141 135 48
145 138 59
142 136 54
133 128 49
142 137 53
125 120 47
129 123 47
132 127 47
133 128 45
124 119 34
127 122 44
127 122 44
122 118 32
125 120 42
150 162 16
166 185 0
165 184 0
169 190 0
166 187 0
167 187 0
171 192 0
170 189 0
162 181 0
171 190 0
168 189 0
168 189 0
168 187 0
168 188 0
169 188 0
167 186 0
171 192 0
171 192 0
168 192 0
171 194 0
171 193 0
170 193 0
174 197 0
173 196 0
172 195 0
170 194 0
171 194 0
172 195 0
172 195 0
171 196 0
171 195 0
169 193 0
172 195 0
169 193 0
171 194 0
174 197 0
172 194 0
171 194 0
170 194 0
169 193 0
169 192 0
171 195 0
173 195 0
168 191 0
174 197 0
170 194 0
170 193 0
171 195 0
169 193 0
169 192 0
172 195 0
173 196 0
169 192 0
166 189 0
172 196 0
172 194 0
167 190 0
171 195 0
168 192 0
168 190 0
172 195 0
166 191 0
174 197 0
171 195 0
169 192 0
167 191 0
166 190 0
168 192 0
168 191 0
164 187 0
171 193 0
169 192 0
169 193 0
166 190 0
169 193 0
167 191 0
169 191 0
168 191 0
164 189 0
170 194 0
169 193 0
168 192 0
172 195 0
166 191 0
164 187 0
170 193 0
168 192 0
170 194 0
168 191 0
168 191 0
168 191 0
165 188 0
166 190 0
166 188 0
170 193 0
167 190 0
165 189 0
167 191 0
169 193 0
165 188 0
160 183 0
166 189 0
146 170 80
62 98 155
62 97 153
61 96 143
61 96 159
61 97 153
62 98 165
61 97 157
61 97 152
62 98 157
61 97 155
61 98 162
62 98 159
63 99 162
62 98 167
61 98 160
61 97 157
62 98 162
62 98 168
62 98 162
62 98 166
61 97 158
62 98 162
61 97 164
62 99 168
61 98 164
62 98 168
61 97 169
62 98 166
63 99 174
63 100 173
61 97 165
62 99 166
62 99 170
61 98 166
62 98 169
61 97 164
62 99 169
61 98 170
61 97 165
62 99 172
62 99 171
62 98 168
61 98 171
62 98 171
62 99 172
63 99 171
62 98 166
62 99 169
63 99 173
61 97 164
62 98 170
61 98 168
63 99 172
61 98 162
63 99 173
63 100 177
62 99 174
61 98 168
62 99 173
62 99 172
62 99 173
63 99 175
63 99 172
63 99 172
62 98 165
62 99 173
62 99 169
62 99 173
62 99 173
63 99 172
62 99 176
62 98 171
61 98 165
62 99 173
62 98 167
62 99 170
62 98 170
62 99 171
62 98 171
61 98 166
62 99 168
62 99 170
62 99 176
62 98 169
62 99 175
63 99 174
62 98 169
61 97 166
61 98 165
62 99 170
62 99 169
62 98 166
62 98 169
63 99 172
63 99 169
62 98 171
63 99 173
62 99 169
62 98 168
62 99 167
63 99 174
62 98 164
62 99 169
62 99 169
62 98 168
62 98 165
62 98 169
63 99 175
62 99 170
63 99 170
61 97 164
63 99 176
62 98 163
61 98 160
63 100 175
61 98 163
62 98 160
62 98 168
62 98 171
62 98 167
62 98 166
62 98 163
62 99 165
63 99 171
61 98 166
63 99 170
62 98 167
62 99 167
62 99 174
62 98 166
61 98 165
62 98 166
62 98 164
61 97 158
62 98 164
63 99 167
62 99 174
62 99 171
62 98 159
62 98 169
61 97 158
62 99 169
62 98 163
63 99 166
62 98 164
62 98 163
62 98 159
62 98 165
63 99 167
62 98 164
63 99 164
62 98 167
62 99 167
61 96 150
62 98 166
62 98 157
62 98 160
61 96 153
62 97 159
62 98 160
61 96 151
61 97 161
61 97 161
61 97 166
62 97 155
62 97 162
61 96 154
60 95 145
61 95 152
60 95 149
61 96 155
61 96 149
60 95 151
61 96 148
60 95 145
60 94 144
59 92 142
60 94 148
57 87 126
76 76 21
67 70 19
59 63 23
72 75 20
70 72 25
75 78 29
73 74 26
75 77 24
81 83 30
84 85 30
83 86 34
93 94 36
90 91 36
90 91 24
90 91 41
88 90 33
86 89 43
101 101 39
102 101 37
99 100 46
110 109 51
109 110 48
112 110 46
107 106 47
109 109 45
117 114 45
110 110 49
123 121 49
122 121 48
120 118 46
114 114 53
122 120 54
133 130 56
133 130 53
129 126 54
139 135 57
135 132 56
136 132 57
143 139 67
136 132 63
133 129 55
145 141 58
142 139 60
140 137 52
145 142 63
148 143 70
144 139 57
142 137 55
146 142 68
142 137 62
151 145 67
150 146 66
143 138 54
154 150 63
150 145 64
150 145 56
159 152 71
154 149 63
153 148 60
154 148 72
150 145 58
154 148 65
148 144 56
154 148 67
153 147 64
158 151 71
159 153 66
160 153 69
155 149 65
162 155 71
150 144 61
151 145 61
160 154 67
161 155 69
158 152 63
153 146 66
154 148 65
156 149 70
149 144 58
152 146 62
157 151 65
158 153 61
163 156 67
157 150 63
147 141 61
154 148 61
155 149 65
155 149 63
156 149 62
150 143 58
157 151 63
149 144 60
150 144 64
143 137 60
151 144 57
144 139 56
148 142 59
152 147 58
144 139 54
141 136 49
138 133 48
141 135 48
144 137 57
145 139 59
144 138 61
139 134 54
135 130 47
143 138 51
142 137 45
133 128 53
139 134 45
143 137 48
136 131 44
132 127 47
131 126 44
127 122 36
115 109 41
138 142 34
170 190 0
168 189 0
168 187 0
171 191 0
165 185 0
165 183 0
171 191 0
166 185 0
169 189 0
166 185 0
169 189 0
170 192 0
166 185 0
172 193 0
169 189 0
168 189 0
172 193 0
171 192 0
169 193 0
172 195 0
171 194 0
172 195 0
169 193 0
170 194 0
171 193 0
174 197 0
172 196 0
172 195 0
166 189 0
171 194 0
170 192 0
173 196 0
170 193 0
170 193 0
174 197 0
174 197 0
170 193 0
172 195 0
170 194 0
172 196 0
168 192 0
170 193 0
172 196 0
170 193 0
171 194 0
167 191 0
169 193 0
170 193 0
168 191 0
170 194 0
169 192 0
172 196 0
169 193 0
171 194 0
172 195 0
169 192 0
170 193 0
171 195 0
166 189 0
170 193 0
168 192 0
170 194 0
168 193 0
169 192 0
170 194 0
172 196 0
167 190 0
171 195 0
171 195 0
170 194 0
169 193 0
166 189 0
167 190 0
170 193 0
169 192 0
168 192 0
170 192 0
164 188 0
170 194 0
165 188 0
171 195 0
166 190 0
165 189 0
168 192 0
171 194 0
169 193 0
167 191 0
167 190 0
168 191 0
165 189 0
165 188 0
168 190 0
167 191 0
170 193 0
169 193 0
169 193 0
169 191 0
170 193 0
166 190 0
166 189 0
168 193 0
164 187 0
143 167 82
60 96 157
62 98 159
61 96 149
61 97 161
61 97 149
61 97 155
62 98 158
61 97 157
60 96 144
61 97 153
61 97 158
61 97 157
62 98 156
62 98 165
62 99 173
61 97 159
61 98 165
62 98 165
61 97 159
61 97 162
62 98 160
62 98 165
61 98 165
63 99 169
62 98 167
61 97 163
62 99 167
61 98 168
62 98 171
61 98 167
62 98 164
62 98 168
62 98 168
62 99 169
61 98 164
61 98 171
61 97 169
62 99 169
63 99 173
62 98 169
62 98 166
62 98 168
62 98 171
62 98 169
62 98 165
62 98 170
62 99 172
62 98 167
62 98 172
61 97 164
61 98 167
62 98 173
62 99 175
62 98 170
62 99 175
62 99 174
62 98 168
62 98 170
62 98 171
62 98 169
62 98 167
62 99 170
62 99 174
62 99 172
62 99 171
62 98 170
63 99 173
62 98 168
63 99 171
62 99 170
63 99 171
61 97 166
62 99 170
62 98 165
62 98 169
63 99 167
61 98 169
62 98 168
63 99 172
61 98 171
62 98 167
62 99 173
63 100 171
62 98 167
62 98 166
61 98 166
61 97 166
61 98 163
62 99 171
63 99 174
62 98 169
63 100 176
63 99 170
62 98 164
62 98 167
62 98 170
62 98 170
62 99 170
63 99 172
63 99 171
62 99 170
63 99 171
61 98 164
61 98 169
63 99 173
61 97 162
62 98 170
61 97 164
62 98 162
62 99 172
61 98 163
63 99 166
63 99 171
62 98 164
62 99 177
63 99 171
62 99 170
62 99 168
61 98 166
62 98 165
60 97 164
61 98 166
62 98 166
62 98 168
62 99 165
62 98 164
62 99 169
62 98 165
61 97 161
62 98 164
61 97 163
62 98 165
62 99 169
61 97 164
62 98 163
62 98 165
62 99 162
62 98 164
62 98 163
62 98 163
62 99 168
61 98 162
61 97 163
62 98 159
63 99 161
62 98 166
61 97 164
61 98 159
62 98 166
61 97 160
62 98 163
62 99 165
61 98 160
62 98 166
63 99 168
62 98 167
62 98 164
62 98 160
61 97 157
61 97 160
62 98 163
62 97 161
62 97 156
61 97 159
62 98 161
62 97 157
62 98 164
62 97 159
62 97 156
61 97 155
61 96 150
61 97 156
59 94 145
61 95 153
61 97 155
61 94 144
59 92 142
60 93 138
58 90 129
77 77 20
67 68 21
58 63 24
73 75 26
74 76 18
71 74 30
87 87 29
76 79 32
76 77 23
88 89 27
81 81 35
90 91 37
93 93 36
91 92 37
91 92 32
101 101 37
98 96 42
101 102 40
102 102 31
109 109 40
113 112 45
118 116 46
114 112 38
103 103 45
123 121 52
112 112 41
129 126 47
122 121 56
125 122 54
137 133 55
125 122 53
114 113 43
135 130 61
136 133 55
132 129 54
136 132 60
134 131 50
134 132 59
139 135 56
142 139 57
149 144 59
146 142 62
138 135 51
142 138 59
136 133 59
148 143 64
140 136 54
143 138 63
149 144 64
150 144 69
149 144 65
135 131 51
142 138 52
156 150 66
152 147 64
152 147 63
152 145 68
153 147 62
153 147 67
147 141 61
146 142 57
152 147 59
156 150 64
164 158 72
160 152 71
154 148 57
148 143 66
154 148 58
154 149 65
153 147 65
151 145 61
148 143 51
157 152 62
150 145 54
149 145 57
152 145 61
156 150 59
153 147 65
152 147 61
150 145 57
151 146 63
148 142 56
150 143 62
151 145 61
156 150 62
149 143 51
147 142 54
154 148 59
153 147 61
149 143 62
157 150 61
148 142 56
148 141 58
136 132 37
141 137 48
143 138 56
148 141 56
145 139 45
138 133 51
150 144 57
147 141 56
142 137 48
143 138 51
146 140 52
136 131 49
149 141 57
135 131 34
132 128 45
143 137 54
134 128 44
130 124 45
130 125 45
137 130 61
129 124 41
130 124 44
115 111 42
126 121 32
166 182 16
165 186 0
164 185 0
166 184 0
166 183 0
166 185 0
170 190 0
167 187 0
165 183 0
168 186 0
168 189 0
169 188 0
172 192 0
173 193 0
166 184 0
171 190 0
168 189 0
172 192 0
169 190 0
172 195 0
169 193 0
172 195 0
172 196 0
169 192 0
168 192 0
171 194 0
168 192 0
172 194 0
173 197 0
169 192 0
168 192 0
170 193 0
172 195 0
173 196 0
171 194 0
172 195 0
171 195 0
168 192 0
171 194 0
172 195 0
171 194 0
170 193 0
168 192 0
173 196 0
172 196 0
172 195 0
173 196 0
170 193 0
171 195 0
170 194 0
169 193 0
172 195 0
170 193 0
173 196 0
170 193 0
167 191 0
172 195 0
169 193 0
169 192 0
168 191 0
171 194 0
171 194 0
165 188 0
171 194 0
168 191 0
168 192 0
167 191 0
169 193 0
168 192 0
169 192 0
171 194 0
169 193 0
169 193 0
167 190 0
173 197 0
170 194 0
169 193 0
171 194 0
171 194 0
169 191 0
162 187 0
169 192 0
166 189 0
162 185 0
166 188 0
168 190 0
166 190 0
166 189 0
167 190 0
168 192 0
168 191 0
168 192 0
168 191 0
166 190 0
168 189 0
165 187 0
167 191 0
170 194 0
168 190 0
167 190 0
165 188 0
168 191 0
165 188 0
125 151 107
61 97 153
60 95 147
61 97 154
61 97 155
62 98 157
61 96 153
61 97 163
62 97 157
61 97 162
62 98 162
62 98 166
61 97 159
62 99 165
61 98 167
62 98 160
62 98 167
61 97 160
60 97 159
61 98 166
61 97 156
62 98 164
61 98 165
61 97 159
60 96 157
61 98 166
62 99 176
62 98 168
62 98 164
62 99 170
62 99 168
61 97 164
61 98 166
62 98 169
62 98 165
62 98 168
61 98 167
61 97 163
61 98 172
61 97 163
61 98 170
61 98 169
61 97 164
63 99 174
62 99 168
62 98 167
62 99 171
62 98 168
63 99 172
62 98 169
62 99 171
61 98 173
62 98 166
62 98 166
62 99 172
62 99 176
61 98 169
62 98 168
62 98 170
62 98 171
62 99 171
62 98 165
62 99 175
61 98 166
62 99 171
62 99 173
62 98 169
62 98 166
62 99 172
62 98 170
61 98 168
62 98 167
62 99 170
62 98 163
62 98 170
62 99 169
62 98 163
62 99 174
63 100 176
62 98 168
62 99 168
62 99 172
62 99 173
62 99 171
62 99 173
62 99 170
62 99 171
62 99 172
62 98 165
63 99 170
63 99 169
63 99 171
61 98 164
62 98 168
63 99 168
62 98 166
62 99 174
61 98 166
62 99 172
62 98 164
62 98 165
63 99 170
63 99 171
62 99 167
63 99 169
61 97 164
62 98 163
61 98 165
61 97 160
62 98 162
62 99 170
62 98 166
61 98 164
62 99 172
61 97 161
62 98 163
62 98 169
63 99 168
62 98 163
62 98 170
63 99 173
62 99 171
62 98 162
63 99 165
62 99 166
62 98 163
61 98 164
63 99 170
61 98 164
62 99 173
62 98 163
62 98 165
62 98 166
63 99 171
62 98 162
61 98 163
62 98 165
62 99 167
63 99 167
61 97 160
62 99 170
62 99 168
62 98 160
62 98 167
63 99 168
62 98 166
62 98 162
63 99 168
62 99 165
63 99 162
61 97 164
62 98 164
62 98 159
63 99 164
61 97 156
63 98 161
61 97 155
62 98 161
61 97 155
62 97 155
62 97 160
61 97 156
61 96 154
61 97 152
61 96 157
62 98 155
62 97 159
62 97 153
61 97 158
60 95 149
62 97 161
61 95 148
61 96 152
60 94 147
60 95 156
61 96 154
60 93 143
59 93 139
58 92 139
58 90 137
58 63 37
67 71 25
75 76 12
70 71 19
72 74 21
83 84 26
79 81 36
74 76 26
86 86 27
73 76 29
94 93 32
89 91 33
80 82 32
92 93 34
107 106 35
94 95 40
85 88 28
95 95 29
104 104 42
109 108 48
104 105 46
117 116 43
112 111 47
121 118 55
116 114 51
106 107 41
131 127 50
121 120 51
118 116 46
130 127 52
124 123 48
133 130 45
123 120 54
126 123 50
127 124 48
122 120 48
140 136 62
135 133 48
128 124 52
132 129 56
139 136 56
145 140 64
145 140 61
141 137 55
144 139 58
146 142 60
154 147 65
144 140 59
146 142 63
144 139 61
142 138 57
153 146 69
149 144 66
145 140 54
142 137 57
151 147 64
145 140 56
149 144 58
154 149 59
149 144 60
151 146 63
155 150 57
151 146 57
157 151 64
159 152 70
155 151 61
151 146 52
153 147 59
153 148 62
157 151 62
147 142 54
155 150 62
152 146 65
154 148 63
150 144 62
158 152 64
156 150 62
150 144 54
156 149 64
145 140 54
154 148 56
151 145 59
145 140 56
150 144 51
153 147 64
151 145 64
147 142 52
149 142 64
145 139 49
146 141 57
149 142 57
150 144 62
147 141 63
149 142 65
148 143 56
146 141 57
140 135 48
143 138 57
143 137 54
138 132 44
145 140 53
132 127 44
145 139 54
139 133 53
139 134 42
144 139 49
131 126 45
131 126 52
132 127 47
131 126 41
130 126 47
127 121 44
128 123 39
128 123 41
122 117 45
117 113 32
152 165 19
169 189 0
166 186 0
168 187 0
167 186 0
164 183 0
169 189 0
169 189 0
173 193 0
165 185 0
167 187 0
169 189 0
164 184 0
166 184 0
171 191 0
164 183 0
167 189 0
168 188 0
169 190 0
169 189 0
172 195 0
174 197 0
175 197 0
170 193 0
170 194 0
173 196 0
169 192 0
168 192 0
169 193 0
169 193 0
170 193 0
170 193 0
171 194 0
173 196 0
168 192 0
173 196 0
169 192 0
169 192 0
170 193 0
167 191 0
168 192 0
168 192 0
169 192 0
168 193 0
173 197 0
171 193 0
167 189 0
170 193 0
170 193 0
171 195 0
170 195 0
169 191 0
166 189 0
168 191 0
170 194 0
171 195 0
170 194 0
170 193 0
169 192 0
167 190 0
173 196 0
170 192 0
171 194 0
166 189 0
166 190 0
171 194 0
166 189 0
172 196 0
170 192 0
170 194 0
167 190 0
165 188 0
167 191 0
171 194 0
170 194 0
168 191 0
167 189 0
168 190 0
171 194 0
167 191 0
169 191 0
167 190 0
172 195 0
171 194 0
164 187 0
167 191 0
166 188 0
171 194 0
168 191 0
171 193 0
164 188 0
170 193 0
168 191 0
167 190 0
164 187 0
171 194 0
162 186 0
170 193 0
165 188 0
166 189 0
167 189 0
164 188 0
166 189 0
167 190 0
124 149 111
62 98 153
61 96 142
61 97 155
62 98 159
61 97 158
61 97 156
62 98 158
61 96 155
62 98 164
61 97 154
62 98 166
61 97 158
62 97 155
61 97 161
62 98 167
61 98 166
62 98 169
61 97 159
62 98 168
61 97 162
62 99 168
62 99 171
61 97 158
63 99 171
61 98 165
61 97 165
62 98 166
61 98 166
62 99 170
62 98 164
62 98 161
61 98 164
62 98 170
62 98 168
62 98 161
62 98 170
62 99 172
62 98 164
62 99 174
62 98 174
61 97 162
62 98 163
62 99 170
61 97 166
62 98 171
61 98 168
61 97 161
62 99 173
62 98 170
61 98 168
63 99 170
61 98 171
62 98 167
61 97 156
62 98 168
61 98 168
62 98 167
63 99 171
63 99 168
62 98 169
63 99 174
62 99 170
62 98 158
61 98 166
62 98 169
62 99 176
63 99 175
62 98 167
61 97 171
61 98 166
62 98 171
62 99 172
62 98 165
62 98 165
62 98 171
62 98 169
63 99 171
62 98 169
61 98 170
62 99 171
62 98 168
61 98 168
61 97 163
62 99 170
61 98 164
62 99 175
62 98 163
62 98 166
62 99 171
62 98 169
62 99 171
63 99 174
62 98 171
63 99 170
63 100 174
62 99 168
62 99 171
61 97 163
62 98 165
62 98 168
62 98 170
62 98 170
62 99 172
62 98 167
62 98 163
62 98 167
62 98 167
63 99 171
62 98 164
62 99 166
63 99 172
63 99 174
62 99 175
61 98 164
62 98 165
62 98 165
62 99 171
63 99 167
62 98 167
63 99 171
61 97 161
63 99 171
61 98 163
61 98 165
62 99 171
62 98 166
62 99 172
62 99 168
62 98 169
61 97 159
62 98 159
61 98 166
62 98 165
61 97 160
62 98 164
62 98 159
62 98 165
61 97 157
62 99 169
62 98 162
63 99 167
63 99 163
62 98 160
62 98 165
61 97 165
63 99 168
63 99 171
63 99 164
63 99 170
61 97 162
61 97 153
62 97 154
63 99 170
61 97 161
63 100 170
61 97 152
61 98 160
62 98 158
61 97 154
62 98 161
62 97 157
62 97 159
62 97 158
61 96 156
61 97 158
63 98 165
62 97 159
61 97 154
62 97 164
60 95 157
62 98 163
60 95 156
60 95 144
60 94 141
59 94 150
61 96 152
60 94 145
60 95 153
59 93 142
69 75 55
73 73 9
62 64 15
68 71 29
78 80 19
75 76 20
85 85 24
77 79 22
75 77 25
83 85 24
84 85 19
83 85 28
93 92 31
90 89 43
99 99 30
107 106 39
98 97 34
103 102 42
99 100 33
106 106 43
111 111 41
106 104 42
110 108 48
121 118 47
105 106 44
100 101 37
121 118 44
119 117 48
122 119 52
131 129 57
123 121 51
129 126 56
129 125 50
122 121 52
128 125 48
134 131 55
133 130 58
131 129 50
127 126 52
132 129 56
131 128 49
139 134 59
135 133 54
135 131 61
143 139 63
140 136 58
133 130 49
142 137 57
142 137 53
142 138 51
145 140 60
144 139 53
146 141 57
144 138 56
147 143 58
154 148 66
147 142 61
144 140 55
148 142 57
156 151 62
149 144 62
148 142 61
149 144 61
152 146 64
152 146 62
149 143 61
157 151 59
151 145 60
151 145 64
152 146 58
152 146 62
159 153 65
146 140 58
155 149 62
154 148 58
143 137 54
157 151 65
151 145 56
155 149 57
149 143 53
146 141 53
152 145 60
150 144 65
144 139 52
154 148 60
149 145 56
147 142 54
143 137 52
153 147 56
148 142 54
144 138 52
146 140 56
135 129 39
144 138 58
140 135 45
144 138 52
145 138 58
144 137 51
138 133 51
140 135 49
138 132 47
143 138 49
140 135 54
140 135 47
131 125 51
130 125 51
134 128 51
137 132 47
131 124 44
132 126 48
129 124 45
127 122 44
122 117 30
128 122 42
117 112 25
140 147 28
167 185 0
168 187 0
164 181 0
168 186 0
167 185 0
168 185 0
169 188 0
164 182 0
168 188 0
166 187 0
170 189 0
169 188 0
166 184 0
170 189 0
168 186 0
167 188 0
169 190 0
168 186 0
169 190 0
170 191 0
169 193 0
171 194 0
173 196 0
171 194 0
167 190 0
173 196 0
171 194 0
171 195 0
170 194 0
172 195 0
172 196 0
169 193 0
171 195 0
169 193 0
170 193 0
167 192 0
172 195 0
170 193 0
172 196 0
167 191 0
173 197 0
169 193 0
169 192 0
171 194 0
173 196 0
166 190 0
169 192 0
171 195 0
169 192 0
166 190 0
168 192 0
168 192 0
165 188 0
169 192 0
170 193 0
169 193 0
168 191 0
168 191 0
170 194 0
169 192 0
169 193 0
172 195 0
174 196 0
171 195 0
171 194 0
171 194 0
172 195 0
171 194 0
171 195 0
169 193 0
167 190 0
170 193 0
171 195 0
163 186 0
166 189 0
168 192 0
170 192 0
168 192 0
167 191 0
170 193 0
167 190 0
166 188 0
167 191 0
170 194 0
168 192 0
169 193 0
170 193 0
167 190 0
165 189 0
167 190 0
165 189 0
170 193 0
169 193 0
169 192 0
170 195 0
168 190 0
172 195 0
171 193 0
168 191 0
163 186 0
170 194 0
165 188 0
167 189 0
167 191 0
117 143 118
60 96 148
61 96 149
62 98 157
61 97 149
62 98 160
60 96 156
61 97 153
62 97 156
61 96 149
61 97 158
61 96 151
62 98 163
61 98 160
62 98 163
61 96 155
61 96 158
61 98 165
62 97 165
62 98 165
61 97 161
62 99 169
62 98 164
61 97 163
63 99 172
62 98 163
62 98 161
62 98 169
62 98 164
62 98 168
60 97 158
60 96 162
62 98 164
62 98 166
62 99 173
61 98 165
62 98 169
61 97 164
62 98 170
62 98 166
62 98 168
61 98 165
62 99 174
62 98 169
62 98 166
62 98 171
62 98 165
62 98 172
62 98 169
62 98 165
62 99 170
62 99 171
62 98 162
63 99 169
62 99 172
62 99 175
61 97 164
62 99 174
62 98 164
62 99 172
62 99 170
61 98 162
61 97 161
62 99 166
61 98 167
62 99 174
62 99 171
62 99 174
63 99 177
61 98 169
62 98 164
62 99 168
61 98 169
62 98 161
61 98 172
61 98 166
62 98 167
62 99 169
62 98 169
62 98 172
62 99 169
62 98 170
63 99 171
61 98 170
61 98 169
62 98 170
62 98 163
62 99 172
62 98 170
62 99 168
61 98 173
63 99 175
63 99 171
62 99 172
62 99 173
63 99 172
61 98 167
62 98 167
63 99 169
62 98 169
62 99 170
61 98 164
62 99 166
61 98 167
62 98 164
61 98 168
62 98 168
62 98 171
62 99 175
62 98 165
63 99 171
62 98 165
63 99 167
62 98 165
61 98 166
61 97 166
62 98 167
62 98 166
61 97 161
62 99 167
62 98 167
62 98 165
62 98 169
62 98 168
61 97 158
62 98 167
62 98 166
63 99 166
62 99 169
62 98 167
62 98 162
63 99 163
63 99 167
62 99 167
62 99 163
61 97 159
62 98 162
62 98 161
62 98 159
62 98 160
62 98 165
61 98 162
61 97 156
63 99 166
62 98 169
62 98 161
62 98 159
62 97 158
62 98 164
62 98 164
62 98 164
61 97 152
61 97 155
61 97 152
62 97 158
62 98 162
62 98 160
62 98 162
61 97 152
61 97 156
60 96 148
61 97 153
61 96 152
61 97 158
61 96 155
61 96 154
61 97 152
61 97 151
61 97 164
61 95 152
62 97 151
61 96 147
61 97 152
60 94 145
61 96 153
59 93 140
60 95 150
60 94 136
59 93 142
58 90 134
68 71 53
69 71 19
83 82 22
68 68 13
73 74 19
68 72 22
73 76 22
88 88 30
86 86 17
90 90 28
99 99 29
81 80 18
87 90 33
93 91 32
102 103 28
92 93 34
99 100 39
86 87 25
107 103 42
98 98 40
111 109 34
102 102 42
112 110 40
117 115 42
117 114 40
118 116 50
115 114 45
110 108 46
128 125 53
117 115 44
126 124 52
126 123 47
125 123 50
117 116 46
130 127 47
130 127 53
140 135 56
132 129 55
135 132 54
127 124 51
133 130 51
128 126 45
133 131 53
140 136 59
137 135 50
134 132 46
149 144 63
144 140 52
136 132 56
145 140 62
145 141 59
147 142 65
154 149 56
151 145 61
151 145 67
143 138 62
153 147 66
157 151 65
148 142 60
151 145 60
149 143 62
152 147 60
153 146 62
146 141 55
154 148 65
152 146 64
154 148 65
150 145 56
161 155 65
152 146 62
150 144 59
155 149 63
146 141 58
153 147 60
148 143 58
154 147 62
156 149 64
148 144 45
146 141 64
149 143 58
151 145 54
148 143 49
146 141 53
152 147 56
150 144 60
146 141 57
142 136 52
152 147 54
145 140 49
149 142 60
152 146 58
145 139 52
146 141 51
137 131 47
135 130 49
145 139 54
150 145 58
137 131 45
149 143 54
133 128 39
148 141 53
136 131 42
146 141 51
140 133 59
126 121 44
133 128 41
137 131 47
128 124 39
137 132 57
129 125 39
134 128 49
121 118 32
117 112 34
120 116 37
122 120 32
165 181 11
166 183 0
167 185 0
163 181 0
165 183 0
166 184 0
170 189 0
166 185 0
165 185 0
169 187 0
169 189 0
167 184 0
166 183 0
168 186 0
169 188 0
166 186 0
170 189 0
167 186 0
169 188 0
167 185 0
164 184 0
173 196 0
172 195 0
169 193 0
174 198 0
168 191 0
167 191 0
170 193 0
170 194 0
170 193 0
174 197 0
170 194 0
168 193 0
172 196 0
170 194 0
169 193 0
168 192 0
169 194 0
172 195 0
171 195 0
169 193 0
172 195 0
168 192 0
171 194 0
169 192 0
172 195 0
170 194 0
169 192 0
166 189 0
168 191 0
174 196 0
170 194 0
170 194 0
168 192 0
171 195 0
168 193 0
171 194 0
170 193 0
166 189 0
170 194 0
168 190 0
168 192 0
171 195 0
168 192 0
173 196 0
170 193 0
172 195 0
170 193 0
169 192 0
167 190 0
173 196 0
170 193 0
171 194 0
171 195 0
170 193 0
166 190 0
168 192 0
171 194 0
171 195 0
169 193 0
165 189 0
168 192 0
168 190 0
167 190 0
166 190 0
169 193 0
169 191 0
170 193 0
166 189 0
169 192 0
166 189 0
165 188 0
169 192 0
162 186 0
164 188 0
168 190 0
163 187 0
167 190 0
169 191 0
166 189 0
168 191 0
164 187 0
164 188 0
166 190 0
161 185 0
108 135 118
61 96 143
61 97 153
62 98 159
62 98 161
61 97 157
62 99 164
61 97 154
62 97 156
61 97 159
62 98 156
62 98 164
62 98 158
62 98 163
61 97 159
61 97 154
61 97 161
62 98 164
62 98 168
62 98 161
61 97 163
62 98 163
61 97 160
61 98 166
61 97 164
61 98 167
61 98 165
61 98 167
61 97 164
61 97 160
61 98 165
62 99 167
61 98 167
61 98 163
62 98 169
62 98 167
62 98 164
61 98 164
61 97 162
61 97 164
61 97 164
62 98 166
61 98 169
61 98 164
63 99 169
61 98 165
62 98 168
61 98 165
62 98 170
62 99 176
62 99 169
62 99 170
61 98 168
62 98 172
62 98 173
62 99 173
61 97 163
62 98 166
62 98 167
62 99 168
62 98 164
62 98 165
62 98 169
63 100 177
62 99 170
62 99 170
62 99 170
62 98 163
62 98 164
62 99 171
62 99 167
62 99 175
63 99 171
62 98 163
64 100 176
62 99 172
62 98 165
61 98 164
62 98 170
62 99 171
61 98 161
61 98 167
61 98 166
63 99 169
62 98 171
62 98 166
62 98 164
62 98 171
63 99 170
62 99 172
61 98 167
62 98 168
62 99 175
62 98 169
62 99 166
62 99 170
63 99 166
63 99 174
62 98 168
63 99 170
62 98 169
62 98 166
62 99 172
62 98 166
61 97 161
62 99 170
63 99 171
62 98 164
62 99 165
63 99 166
61 97 159
62 98 170
62 99 167
61 98 164
62 98 167
62 98 167
62 98 165
61 97 158
62 98 170
62 98 165
62 99 172
62 98 164
62 98 163
62 99 167
61 97 154
62 98 164
62 98 169
62 98 165
62 98 160
63 99 167
61 97 160
62 98 162
62 99 166
62 99 166
63 100 173
62 98 161
62 99 163
62 98 163
62 98 160
62 98 162
61 97 160
62 98 161
62 98 166
62 98 164
62 98 163
61 98 162
62 98 163
61 97 159
62 98 161
63 99 168
62 98 158
62 98 165
61 96 154
62 98 162
60 96 155
61 97 160
61 97 153
62 98 161
62 98 164
61 97 155
61 97 155
60 96 155
61 97 158
63 98 164
61 96 149
62 97 156
62 98 159
60 95 149
60 95 146
62 97 161
59 93 141
61 96 149
60 95 151
60 95 139
59 93 142
60 94 146
60 94 151
59 92 137
57 89 135
60 93 142
73 81 71
67 69 17
68 70 17
74 75 19
91 89 13
77 75 15
91 90 23
87 87 31
92 91 23
80 81 31
86 87 27
88 89 27
82 82 26
94 94 31
102 102 27
98 98 35
97 98 35
97 95 29
102 101 41
98 98 32
108 107 39
98 99 35
111 109 42
113 111 43
115 114 30
120 117 45
117 115 41
111 109 34
124 122 47
116 116 45
118 115 56
115 114 48
130 127 47
126 124 51
120 118 46
129 126 47
131 128 56
130 127 48
129 126 49
129 125 58
137 134 52
140 136 55
140 136 54
149 144 60
139 135 53
142 137 61
140 136 47
146 141 61
149 144 62
147 142 58
140 136 56
144 140 54
151 146 61
148 141 59
151 146 59
148 143 54
147 142 55
146 141 48
147 141 53
151 146 60
148 142 54
156 150 54
150 143 64
142 137 54
157 150 66
144 139 55
146 141 53
147 141 53
157 151 63
152 146 56
147 143 56
153 146 67
154 148 58
146 140 56
144 140 53
154 148 58
149 143 58
151 146 53
154 148 59
151 144 63
147 141 57
147 141 57
143 137 54
149 142 57
152 146 61
148 142 48
142 136 52
145 140 48
153 146 53
139 133 51
140 135 47
139 134 48
144 140 58
136 130 49
141 136 48
137 131 47
137 132 54
141 136 53
138 132 42
139 133 45
136 131 45
132 127 47
142 137 48
127 122 37
143 136 60
132 126 48
137 132 42
134 127 49
127 122 32
122 118 32
128 124 39
126 122 41
122 117 34
121 116 42
152 164 19
165 182 0
162 179 0
170 187 0
162 180 0
167 186 0
168 187 0
166 185 0
168 188 0
167 186 0
165 181 0
170 188 0
164 181 0
166 185 0
168 188 0
168 187 0
170 188 0
169 189 0
169 188 0
168 186 0
164 183 0
167 186 0
167 190 0
172 196 0
172 194 0
171 195 0
168 192 0
171 194 0
171 194 0
171 194 0
174 197 0
170 193 0
168 192 0
169 193 0
171 195 0
172 195 0
171 195 0
171 194 0
171 194 0
171 194 0
171 194 0
170 193 0
169 192 0
170 194 0
168 191 0
172 195 0
169 192 0
169 193 0
169 192 0
170 193 0
169 192 0
171 194 0
168 191 0
169 192 0
169 193 0
172 195 0
170 193 0
165 188 0
174 197 0
169 192 25
174 196 57
168 190 62
171 193 25
172 195 57
172 194 36
172 194 62
171 195 36
171 194 36
166 190 36
168 191 25
171 195 0
170 192 0
169 193 0
167 191 0
165 188 0
165 189 0
170 194 0
170 194 0
167 191 0
170 193 0
173 195 0
169 193 0
166 190 0
166 189 0
165 189 0
169 193 0
166 190 0
164 187 0
171 194 0
168 191 0
167 191 0
167 190 0
166 189 0
165 188 0
167 190 0
163 186 0
171 193 0
170 193 0
163 187 0
168 191 0
166 189 0
166 189 0
166 189 0
165 188 0
167 190 0
161 184 0
104 132 130
61 96 150
60 95 149
61 97 148
61 97 157
62 98 157
62 98 158
62 98 162
61 97 156
62 97 157
61 97 155
61 97 157
61 97 159
61 97 153
61 97 159
62 98 161
62 98 161
61 97 160
61 96 151
61 98 164
61 97 157
61 97 159
62 98 166
62 99 166
61 97 164
62 99 173
62 98 162
61 98 160
62 98 165
61 98 170
62 98 169
62 99 171
62 98 162
61 97 164
62 99 168
61 98 169
61 97 165
62 98 165
62 98 171
61 97 166
62 98 165
61 98 169
62 99 172
62 98 167
61 98 162
61 98 170
62 98 163
62 99 168
61 97 161
62 98 164
62 99 167
62 98 164
62 98 165
62 99 169
61 98 168
62 98 168
62 98 170
63 99 174
61 97 161
63 99 171
62 98 166
62 98 169
62 98 168
62 99 170
62 98 165
61 98 166
62 99 174
62 99 174
62 99 171
62 98 167
61 98 168
62 99 173
62 99 168
62 99 170
61 98 166
62 99 170
62 99 173
62 98 170
62 98 165
62 99 170
61 98 165
62 98 169
62 99 175
62 98 165
61 98 167
61 98 168
62 99 171
61 97 161
62 98 163
62 99 169
62 99 167
62 98 166
61 98 164
61 98 165
62 98 165
62 99 172
62 98 170
62 99 170
62 99 169
63 99 169
61 97 162
62 98 169
62 98 165
62 98 165
62 99 171
62 98 167
62 99 168
61 97 162
62 98 160
63 99 171
62 98 169
61 98 162
61 97 160
62 99 171
62 98 168
62 98 160
62 98 164
62 98 162
61 97 164
62 98 165
62 99 170
62 98 164
62 98 163
62 99 167
62 99 170
63 99 172
62 98 164
61 97 162
62 98 163
61 97 164
62 98 162
62 99 166
63 99 171
62 99 167
61 97 160
62 99 168
61 97 158
60 97 161
62 98 163
62 99 166
62 99 168
62 98 165
61 98 163
62 97 157
62 97 160
62 98 164
61 97 152
63 98 164
61 97 158
62 98 160
62 98 157
61 97 158
62 98 160
61 97 158
62 98 159
62 98 158
62 98 156
62 98 156
62 98 161
61 97 154
61 97 154
63 99 166
61 98 159
61 97 159
62 98 159
60 95 151
61 96 151
61 96 153
60 95 147
61 96 154
62 97 154
62 97 155
61 95 154
61 96 151
60 94 145
59 93 144
59 93 150
60 93 147
59 94 145
60 94 145
66 73 48
84 84 22
70 70 13
83 84 22
84 83 18
83 84 14
82 84 25
86 86 20
75 75 21
75 76 15
86 88 27
91 90 30
72 74 19
87 89 32
98 97 28
100 100 31
89 90 34
106 105 26
95 95 33
99 99 33
104 104 39
121 118 33
110 108 38
118 116 50
117 115 37
110 109 37
127 125 49
120 119 43
128 125 40
112 109 39
120 119 44
124 122 46
126 124 52
128 124 45
126 124 52
125 123 48
131 126 51
133 129 53
137 133 54
122 121 41
132 127 41
124 121 53
141 137 55
138 135 48
140 136 51
125 124 39
145 141 57
140 136 55
146 140 56
146 140 55
150 144 56
135 131 50
142 137 49
150 144 58
136 132 45
147 142 60
145 140 52
142 138 52
150 145 59
148 141 59
144 138 59
149 143 61
148 142 54
152 146 57
148 143 56
141 137 39
151 145 61
155 148 54
152 146 56
148 141 61
152 147 59
155 150 52
146 141 45
144 139 52
155 148 65
160 153 64
152 147 56
149 143 56
147 142 48
143 137 48
143 137 59
150 144 56
150 144 51
145 140 57
142 137 48
149 143 58
149 142 54
151 145 51
148 141 54
138 134 47
140 134 52
140 135 51
138 133 47
136 132 48
134 129 44
135 131 42
144 137 44
135 130 42
144 138 44
141 136 45
139 134 45
134 129 37
140 134 49
134 129 48
133 128 36
120 117 28
134 129 48
132 127 47
123 118 45
129 124 44
120 115 36
129 123 41
118 113 34
135 142 11
165 183 0
166 183 0
164 181 0
167 185 0
165 184 0
167 184 0
169 189 0
166 186 0
167 186 0
168 186 0
169 189 0
165 183 0
167 186 0
169 190 0
166 183 0
168 186 0
169 189 0
171 191 0
166 185 0
167 186 0
166 187 0
168 189 0
172 194 0
173 197 0
171 195 0
171 195 0
168 192 0
172 195 0
173 197 0
171 194 0
167 191 0
169 194 0
171 195 0
171 194 0
170 194 0
170 193 0
170 193 0
171 194 0
169 193 0
171 194 0
169 192 0
171 195 0
171 195 0
171 194 0
174 197 0
169 193 0
169 192 0
172 195 0
173 196 57
173 196 57
181 202 102
178 199 92
179 200 92
180 201 117
187 207 133
181 202 117
188 207 140
186 206 135
189 207 142
190 209 147
185 205 135
191 210 140
183 203 133
185 205 130
187 206 137
180 200 108
188 206 149
185 205 135
191 210 151
188 207 135
187 206 137
182 202 114
185 205 127
181 201 122
179 199 120
178 200 105
175 196 99
175 198 67
171 194 62
171 194 25
168 191 0
171 193 0
165 188 0
169 192 0
167 190 0
170 193 0
172 195 0
166 190 0
165 188 0
164 188 0
168 192 0
164 188 0
171 194 0
166 190 0
166 189 0
169 193 0
164 188 0
167 189 0
166 189 0
163 186 0
171 195 0
168 190 0
169 193 0
166 188 0
167 190 0
170 193 0
104 131 120
61 96 145
61 97 150
61 97 154
62 98 157
62 98 160
61 96 150
62 98 158
62 98 156
62 98 157
60 96 153
60 96 154
62 98 165
61 97 158
60 96 158
62 98 167
62 98 161
61 97 160
62 98 160
61 97 156
62 98 164
61 97 161
61 97 164
61 98 166
61 98 165
61 97 156
62 98 169
62 98 167
62 98 166
62 98 169
61 97 163
62 98 167
61 98 166
62 98 159
61 97 160
62 98 165
62 99 173
61 96 159
61 98 169
61 98 164
62 98 167
62 98 164
62 98 169
62 98 164
62 99 165
61 98 166
60 97 158
61 97 167
62 99 172
62 98 159
62 98 164
61 98 168
61 98 167
61 98 167
62 98 168
61 98 162
61 97 164
62 98 164
62 99 170
62 98 170
62 98 163
62 98 165
62 98 167
62 98 161
62 98 164
62 98 171
62 99 170
61 98 166
62 99 171
62 98 167
63 99 173
62 99 168
62 99 170
62 98 167
62 99 169
62 98 166
63 99 174
63 99 173
61 98 168
62 99 167
62 98 166
61 98 168
62 98 164
62 99 166
62 98 163
62 99 169
62 99 170
61 97 164
61 98 167
62 99 168
62 99 170
61 98 165
63 99 170
63 99 171
62 99 170
62 98 165
61 97 167
62 99 167
61 97 161
61 98 164
63 99 167
60 97 156
63 99 174
62 99 169
62 98 167
62 98 164
62 98 165
62 98 171
62 98 167
61 98 164
63 99 169
62 98 159
61 98 163
62 98 162
62 98 164
61 97 158
62 98 163
62 98 165
62 98 160
62 99 168
62 98 165
62 98 165
62 98 163
62 98 163
62 98 167
62 99 172
62 99 168
63 99 172
62 98 158
62 98 162
62 98 163
61 97 161
63 99 167
62 98 164
62 99 167
62 99 173
61 98 159
63 99 163
63 99 167
62 98 160
61 97 157
62 98 160
62 98 164
62 98 158
62 98 162
62 99 164
63 99 163
62 98 161
62 98 162
62 98 164
63 99 162
62 98 164
62 98 164
62 98 162
61 96 150
62 98 158
62 98 160
61 97 157
61 97 154
63 99 159
62 98 155
60 96 149
62 97 155
62 97 161
62 98 159
62 97 155
61 97 148
60 95 156
63 99 162
60 95 149
60 95 151
60 95 145
60 94 141
59 93 148
59 93 146
59 94 139
59 93 143
59 92 145
59 93 147
58 91 135
69 77 66
84 81 19
78 79 12
81 80 14
65 67 17
69 71 18
80 80 18
84 84 20
74 75 17
71 72 23
96 96 23
88 89 20
90 91 28
96 96 23
94 94 31
92 91 31
90 90 34
104 102 38
101 99 30
102 100 35
105 103 41
115 113 40
113 111 42
117 115 41
115 111 36
101 101 41
109 108 39
131 128 51
121 119 39
117 115 39
124 121 43
121 117 37
122 119 43
124 121 47
129 125 45
140 135 53
134 131 45
125 124 44
134 130 44
125 122 37
140 136 58
129 124 49
127 125 46
142 137 56
139 134 51
144 139 50
140 136 49
138 133 52
145 139 61
147 141 58
148 143 57
139 135 52
139 135 46
143 138 51
144 139 54
143 138 51
143 139 49
143 139 49
153 147 60
151 146 60
142 137 53
149 143 61
145 140 51
156 149 59
146 141 51
145 141 49
150 146 51
150 144 57
154 149 54
142 138 49
147 142 52
142 136 48
144 140 45
152 147 57
149 142 58
147 141 52
145 141 42
146 140 56
147 140 53
148 142 52
151 145 56
147 141 56
145 139 51
140 135 42
149 143 53
148 143 49
138 133 41
149 143 51
144 139 52
140 134 48
140 134 53
142 136 47
139 134 45
142 135 58
150 144 52
144 138 53
137 133 49
143 137 47
139 132 48
137 131 48
137 131 42
128 124 37
129 123 42
143 138 49
137 131 48
130 125 41
133 129 37
123 118 32
129 125 34
119 115 34
119 114 36
111 107 30
132 136 28
164 180 0
168 184 0
164 180 0
164 180 0
163 178 0
169 186 0
167 184 0
160 178 0
164 181 0
163 181 0
165 185 0
168 187 0
163 182 0
167 186 0
165 184 0
164 183 0
168 187 0
166 185 0
169 189 0
170 189 0
166 187 0
169 189 0
171 189 0
172 196 0
173 196 0
167 192 0
172 195 0
170 194 0
167 190 0
173 195 0
168 192 0
173 196 0
170 193 0
167 191 0
171 195 0
170 193 0
170 193 0
170 194 0
172 196 0
171 195 0
169 192 0
167 191 0
169 193 0
173 196 44
173 196 62
178 200 92
182 203 111
182 203 117
187 206 142
185 204 135
185 205 122
187 206 137
184 205 127
183 204 130
186 207 133
185 204 125
180 201 111
184 205 125
185 205 125
185 205 120
186 206 135
180 202 117
182 203 114
187 208 133
186 207 127
187 208 130
184 205 125
183 204 117
182 203 125
182 203 114
185 206 127
183 204 122
184 204 125
189 208 140
179 200 108
182 203 122
185 204 120
186 205 142
188 207 140
183 204 120
188 207 147
186 205 135
180 201 120
178 198 105
177 199 80
168 191 67
168 192 0
170 194 0
168 191 0
163 187 0
167 191 0
169 191 0
167 191 0
165 188 0
168 192 0
169 192 0
167 190 0
164 187 0
164 187 0
163 188 0
166 189 0
166 191 0
168 191 0
166 189 0
166 189 0
167 190 0
164 187 0
90 119 129
61 96 141
58 93 134
61 97 153
61 97 150
61 97 149
62 97 160
61 98 161
61 97 160
62 98 157
61 97 161
62 97 152
62 98 157
61 97 157
61 97 157
62 98 164
61 97 161
60 96 156
62 98 167
61 98 164
60 96 158
60 96 154
62 98 165
62 98 161
62 98 162
61 97 161
61 97 160
60 96 158
62 98 165
62 98 168
61 97 160
62 98 166
61 98 164
61 97 167
61 97 165
61 97 162
62 98 165
62 98 169
61 98 171
62 99 173
61 98 167
62 98 167
62 98 167
61 98 171
61 97 164
62 98 171
61 98 162
61 97 169
62 98 165
61 97 166
62 98 166
61 98 170
61 98 168
62 98 169
61 97 165
62 98 164
62 98 167
62 98 167
61 98 166
62 98 167
62 98 166
62 98 167
62 99 171
62 98 169
62 98 163
61 97 162
62 98 166
63 99 175
62 99 167
62 99 172
61 98 164
62 98 167
62 99 172
62 98 164
62 99 167
62 99 168
61 97 168
62 98 166
62 98 167
62 98 167
62 98 167
62 98 170
62 99 171
62 98 167
62 98 167
62 98 165
62 99 171
62 98 164
62 98 169
61 97 159
63 99 168
62 98 166
62 98 164
63 99 171
62 98 166
61 97 163
62 98 168
62 98 166
61 98 163
62 98 168
62 98 163
62 98 166
62 99 169
63 99 169
61 97 160
61 98 165
61 97 161
63 99 171
62 99 169
61 97 165
62 98 169
62 99 171
62 98 161
63 99 165
61 98 164
63 99 167
62 98 164
62 98 167
62 99 166
62 98 162
62 98 168
61 97 159
61 97 161
62 99 168
63 99 169
62 98 163
62 99 171
61 97 164
62 98 166
62 98 170
62 98 164
62 98 163
61 97 162
62 98 169
62 98 159
62 98 158
61 97 154
62 98 162
62 98 163
62 98 164
62 99 165
63 99 167
62 98 159
61 97 156
62 98 161
62 98 163
62 98 168
61 97 163
62 97 159
61 97 154
62 98 164
62 97 155
62 98 161
63 99 163
62 98 163
61 97 151
61 97 156
62 98 160
62 97 157
61 97 156
61 97 150
61 97 164
62 98 161
61 97 158
61 97 155
61 97 149
60 95 149
60 95 144
62 98 158
60 95 148
60 95 145
60 95 145
60 94 139
60 95 147
60 95 146
60 94 146
61 96 155
61 95 149
59 92 135
58 91 132
63 77 78
94 91 12
84 83 12
83 82 12
72 73 8
67 69 14
92 91 19
80 80 22
90 90 24
75 75 29
94 91 14
82 83 24
80 82 20
89 88 17
99 100 31
83 86 27
94 93 30
98 97 30
110 109 37
103 101 36
118 114 45
105 104 38
102 100 32
108 107 38
110 109 36
111 110 38
114 112 42
128 124 43
120 117 42
121 119 42
118 116 43
124 121 41
124 121 32
125 122 37
137 133 49
127 123 55
126 124 39
127 124 51
137 133 54
131 128 53
130 126 47
129 126 49
133 129 47
136 132 47
136 133 48
141 136 55
135 131 43
136 132 51
139 135 51
140 135 48
147 143 54
145 139 53
139 134 54
145 140 56
147 141 58
146 141 55
145 140 57
146 141 53
138 135 40
144 139 49
148 143 57
146 140 55
147 142 59
148 143 56
153 147 56
142 137 39
148 143 51
143 137 44
147 141 56
140 135 47
147 141 56
144 138 49
151 145 58
148 141 54
139 135 44
145 138 52
147 141 57
147 141 58
149 142 51
144 138 54
146 140 54
142 136 52
146 140 47
145 139 49
150 146 53
144 138 51
148 142 53
139 134 47
140 134 53
143 138 47
144 138 54
130 125 37
136 130 36
142 137 45
141 136 47
140 135 48
136 132 39
141 136 42
135 130 47
133 128 36
129 124 36
137 130 48
138 132 48
125 119 36
121 115 36
127 122 37
120 115 37
132 128 37
121 115 34
124 119 44
129 123 44
128 128 36
162 176 0
166 184 0
169 188 0
169 187 0
165 183 0
166 184 0
169 188 0
167 184 0
163 180 0
161 179 0
164 182 0
165 182 0
163 182 0
165 182 0
165 183 0
169 189 0
164 183 0
168 187 0
168 186 0
166 186 0
169 188 0
168 187 0
166 186 0
166 186 0
173 196 0
171 194 0
171 194 0
173 197 0
170 192 0
173 196 0
171 194 0
168 191 0
167 191 0
171 194 0
168 192 0
170 194 0
172 196 0
168 192 0
168 192 0
173 195 0
171 195 25
176 198 84
181 202 111
187 206 140
186 206 135
186 205 140
187 208 140
191 210 142
190 210 144
192 211 151
181 202 102
181 202 117
184 205 117
187 208 137
179 201 95
185 206 130
182 205 111
189 209 137
182 203 120
179 201 111
186 207 135
182 203 108
180 202 99
181 203 105
181 202 99
177 200 95
182 203 114
187 208 135
179 200 95
182 204 114
181 202 108
182 204 105
178 200 99
181 202 117
178 199 92
182 203 117
180 201 99
180 202 105
184 205 125
183 203 125
188 208 135
179 201 99
188 208 142
185 205 135
186 207 122
183 202 130
187 208 137
181 202 120
183 204 114
173 195 72
173 195 62
169 192 25
170 194 0
168 192 0
170 193 0
169 193 0
168 191 0
168 193 0
164 187 0
163 187 0
167 189 0
166 189 0
167 190 0
166 190 0
164 187 0
166 189 0
166 190 0
166 190 0
103 131 122
61 97 150
62 97 152
61 97 153
60 96 151
60 95 144
61 96 154
60 96 156
62 98 157
62 98 159
62 97 152
60 96 152
61 97 159
62 98 163
63 99 165
60 96 156
62 97 156
62 97 158
62 98 155
61 98 164
62 98 163
61 97 158
60 95 149
60 96 161
62 98 167
62 98 161
61 97 163
61 97 163
61 97 153
62 98 165
61 97 160
62 98 163
61 97 164
61 98 165
61 98 162
63 99 172
62 98 166
61 97 164
60 96 165
62 99 170
60 95 156
62 98 169
62 98 166
61 97 161
62 99 172
61 98 163
62 99 169
62 98 168
62 99 172
62 98 164
60 96 163
61 97 164
61 97 162
62 98 165
61 97 166
63 99 175
61 98 166
61 97 160
62 99 169
61 97 161
60 96 160
63 99 168
62 98 171
62 99 170
62 98 167
62 99 171
61 97 162
61 97 164
62 98 171
62 99 170
61 98 165
61 98 165
61 98 164
62 98 166
63 99 174
61 98 166
62 99 169
62 99 168
61 97 165
61 97 164
62 98 161
63 99 171
62 99 168
62 99 167
62 98 167
62 99 170
63 99 170
63 99 168
62 98 167
62 99 168
62 99 169
62 98 166
62 99 172
62 98 162
61 98 165
62 99 171
61 98 167
62 98 168
62 98 171
61 97 161
62 99 169
62 98 169
62 99 169
62 98 165
62 99 165
63 99 167
62 98 167
62 98 162
62 98 159
63 99 168
62 98 165
62 99 172
63 99 167
63 100 170
61 98 168
62 98 166
63 98 160
63 99 174
62 99 167
62 98 164
62 98 167
63 99 168
62 98 162
61 98 162
61 97 161
62 99 171
60 96 160
62 98 157
63 99 168
62 99 169
62 98 160
62 98 159
62 99 165
62 98 163
63 98 161
62 98 160
62 99 167
62 99 166
61 98 160
63 99 167
62 98 163
60 96 155
62 97 153
60 96 152
62 98 157
62 98 166
62 98 165
62 98 162
62 97 161
62 98 159
61 97 159
62 99 163
63 98 160
63 99 162
61 97 162
62 98 159
62 98 159
62 98 159
63 98 161
63 99 162
63 99 165
61 97 151
62 98 158
61 97 154
61 96 150
62 97 153
61 96 151
61 96 152
60 95 147
61 97 152
59 93 140
61 95 152
61 97 149
59 94 143
61 96 153
60 95 149
61 95 150
60 94 148
59 93 140
58 91 140
63 71 62
83 82 12
79 78 17
75 76 15
87 85 9
80 80 24
91 89 20
87 87 20
74 76 16
82 82 27
87 88 26
82 82 31
85 87 28
91 89 28
96 95 30
94 94 30
104 103 25
99 97 36
106 105 32
99 98 22
98 96 25
101 99 28
98 98 28
104 105 32
112 110 33
103 103 33
122 120 48
126 123 39
110 108 35
114 111 36
118 117 42
129 126 40
132 129 53
125 122 45
132 128 47
126 123 40
126 124 43
122 120 40
131 127 47
131 128 38
127 124 49
136 132 48
138 135 54
132 128 42
132 128 47
134 131 48
138 133 45
139 135 51
141 137 45
132 129 37
135 131 49
146 141 51
148 143 57
141 138 49
142 137 48
141 135 51
147 141 55
143 138 45
148 142 54
143 138 49
145 139 55
142 138 44
133 129 44
146 141 52
150 145 47
146 141 48
144 139 47
140 134 48
153 148 56
153 148 56
141 136 48
145 139 52
147 141 47
148 143 47
153 148 49
136 130 39
146 140 54
151 145 54
149 143 57
147 140 61
134 129 45
146 140 53
145 140 48
135 131 42
137 133 48
137 132 41
148 142 47
146 141 44
134 129 41
144 137 47
147 141 53
141 135 48
138 133 45
141 135 42
134 129 39
137 132 48
137 132 37
136 131 44
131 126 32
133 127 45
137 131 39
125 120 34
129 124 41
123 117 37
131 126 42
131 126 39
125 120 32
115 110 41
115 109 37
128 122 45
115 112 34
162 178 11
165 182 0
160 176 0
168 185 0
163 181 0
165 180 0
167 185 0
165 181 0
166 185 0
162 178 0
167 185 0
162 181 0
168 186 0
169 188 0
165 184 0
170 187 0
166 185 0
167 184 0
165 184 0
168 188 0
167 187 0
167 187 0
166 184 0
170 189 0
165 185 0
168 191 0
168 192 0
171 195 0
169 193 0
170 194 0
172 195 0
169 193 0
169 192 0
169 193 0
174 197 0
166 190 0
170 194 0
171 194 51
179 200 95
183 203 114
186 206 127
190 210 147
185 205 135
189 209 140
183 203 108
188 208 137
183 204 111
179 201 111
180 201 76
180 201 114
185 206 125
183 204 114
181 203 105
182 204 102
183 205 111
183 204 114
182 203 108
182 203 105
182 203 108
178 200 88
181 204 102
182 204 111
182 204 111
181 203 99
179 201 95
180 202 92
183 204 108
181 203 95
185 207 125
179 201 99
185 206 122
181 203 108
183 205 117
183 205 120
184 205 111
183 204 102
182 203 102
180 202 105
179 200 92
180 202 102
184 205 122
181 202 117
184 204 117
179 200 108
182 203 117
181 202 102
182 203 130
182 203 114
179 199 105
182 204 108
186 206 140
186 205 135
188 207 137
180 200 122
179 201 95
177 198 92
171 193 25
164 187 0
167 190 0
169 193 0
166 189 0
168 191 0
160 183 0
164 187 18
139 164 82
140 165 76
163 186 44
167 190 0
166 190 0
91 120 134
60 95 140
60 96 153
62 97 156
62 97 150
60 95 147
61 97 156
60 96 148
61 97 154
62 98 155
60 95 147
62 97 154
62 98 163
60 96 157
61 97 154
60 96 159
61 97 158
62 98 158
62 98 159
61 97 161
61 97 157
61 97 152
62 98 163
62 99 167
62 98 163
61 97 163
62 97 158
61 97 164
61 96 157
61 97 164
61 97 160
61 97 164
62 98 169
61 97 159
61 97 160
62 98 165
62 98 163
61 98 170
61 97 169
62 98 169
62 98 163
62 98 165
61 97 168
62 98 165
62 98 171
62 98 165
63 99 170
61 98 164
62 98 161
61 98 162
62 99 175
62 98 169
62 99 173
61 98 166
61 97 163
62 99 167
62 98 167
61 97 161
61 98 167
62 99 170
61 97 162
62 99 171
62 99 166
61 98 163
62 98 167
62 99 173
61 98 166
62 99 171
61 98 165
62 98 168
63 99 169
62 98 166
62 98 165
62 99 167
61 98 167
62 98 171
62 99 166
62 98 169
62 98 166
62 98 162
62 98 169
61 97 162
62 99 170
62 99 169
62 98 165
62 99 168
62 99 168
61 98 167
61 97 163
63 99 172
63 99 169
61 98 167
63 99 173
61 97 168
62 98 160
62 99 166
62 98 164
62 98 166
61 98 163
62 99 169
62 98 161
62 98 165
62 98 163
62 99 171
62 98 166
63 99 171
62 98 159
61 97 165
62 98 163
62 98 165
62 99 170
63 99 165
64 100 171
62 98 165
62 98 165
62 98 160
62 98 164
61 97 156
63 99 169
61 97 160
62 98 162
63 99 164
62 98 158
60 96 155
62 98 164
62 98 166
62 99 170
61 97 158
61 97 160
62 98 161
61 97 161
62 98 157
62 98 160
63 99 165
62 98 166
62 98 164
62 98 165
61 97 152
62 99 166
62 98 165
63 99 164
61 97 154
61 98 159
62 98 160
61 97 162
61 97 154
63 99 171
62 98 155
62 98 157
61 96 149
63 98 160
61 97 154
61 97 157
61 97 156
62 98 160
61 97 159
62 98 160
62 98 158
61 97 158
62 97 153
61 96 149
62 98 158
61 97 156
60 96 149
61 96 161
62 97 157
61 96 151
61 97 151
61 96 148
61 96 151
60 95 149
61 96 147
60 96 152
61 95 148
60 95 147
60 94 147
61 95 150
58 91 130
59 92 145
57 89 134
57 69 70
82 81 11
90 88 18
88 86 9
76 77 13
81 80 16
84 84 13
79 79 19
80 81 12
76 77 11
88 86 14
87 85 18
97 97 27
83 83 20
83 85 28
101 99 27
104 101 26
100 99 28
104 102 28
97 97 30
99 99 28
119 116 38
96 97 28
115 111 37
108 107 35
107 105 31
114 111 41
117 115 30
114 113 28
107 106 38
123 119 42
128 127 43
124 121 29
121 117 39
117 114 38
132 128 42
123 121 40
124 122 44
125 121 39
124 121 43
133 129 42
132 129 44
140 136 49
133 129 47
131 127 47
134 129 45
122 120 28
140 136 47
143 137 52
144 139 53
132 128 40
140 135 47
142 135 49
133 130 47
139 135 44
137 133 47
144 139 55
145 140 54
149 144 51
147 142 42
144 140 44
148 142 55
148 142 53
149 143 57
148 141 53
144 138 51
144 140 51
145 140 44
150 145 54
152 147 52
147 142 48
132 129 44
148 142 42
148 143 49
143 138 51
140 134 45
147 142 49
144 139 53
137 133 44
145 140 51
138 133 36
152 145 52
134 130 44
144 139 45
146 140 47
140 135 45
143 137 44
140 135 44
136 130 42
136 131 45
144 137 51
142 138 39
131 126 45
137 132 37
136 130 48
144 137 48
135 129 37
143 137 53
130 124 41
131 127 34
137 131 44
132 126 41
132 126 44
125 119 39
126 122 36
127 122 34
126 120 32
130 124 39
125 119 30
115 110 39
153 165 19
164 181 0
165 181 0
163 180 0
167 184 0
166 182 0
167 184 0
167 185 0
163 180 0
164 182 0
167 185 0
170 187 0
170 191 0
165 184 0
168 185 0
169 188 0
165 183 0
167 186 0
167 184 0
172 192 0
167 186 0
163 182 0
168 186 0
166 186 0
168 186 0
168 186 0
172 195 0
172 195 0
167 191 0
169 192 0
171 194 0
171 194 0
168 192 0
168 191 0
170 193 25
176 199 72
178 200 95
188 207 140
190 209 142
185 205 130
187 208 137
186 206 120
184 205 125
180 202 105
181 202 108
183 203 120
177 200 88
178 200 84
180 202 114
181 203 102
182 204 108
180 202 92
181 202 99
179 201 99
183 204 117
177 200 76
180 203 95
180 202 99
182 204 117
178 200 102
179 202 99
179 202 92
183 205 114
181 203 108
180 202 92
179 201 95
180 203 92
177 200 95
182 205 111
177 200 80
179 201 111
181 203 99
179 201 88
180 203 92
181 202 102
182 204 117
180 202 102
177 199 80
179 201 92
183 204 114
180 202 105
181 203 111
181 203 102
175 197 88
181 202 102
178 200 92
182 203 108
180 202 95
183 204 111
181 202 114
181 202 114
178 200 99
176 198 102
181 202 105
176 197 95
186 206 120
185 205 127
182 203 122
184 203 130
167 189 76
171 193 44
164 188 0
169 192 0
165 189 0
160 183 40
127 152 105
125 150 107
113 139 118
122 148 102
146 169 78
100 128 133
62 97 154
60 96 152
62 97 152
61 97 150
61 97 158
62 98 158
61 96 150
60 96 152
61 97 155
61 97 158
61 96 156
62 98 162
60 96 153
61 97 160
61 97 152
61 97 157
61 97 161
61 97 158
61 97 159
61 97 156
62 98 163
61 97 162
61 98 164
59 96 158
60 96 159
62 98 162
61 97 161
61 97 165
61 97 156
62 98 165
61 97 167
61 98 163
61 97 160
61 97 160
62 98 162
61 98 167
62 98 165
61 97 164
62 99 171
61 98 165
62 98 166
62 99 171
61 97 157
62 98 164
61 98 168
61 97 165
60 96 163
61 98 165
62 98 166
62 99 169
62 98 163
62 98 161
62 98 169
63 99 170
61 97 165
61 97 161
62 99 171
62 98 165
62 99 164
62 98 166
62 98 165
62 98 166
63 99 169
62 98 170
62 98 168
62 98 163
62 99 166
62 99 169
61 98 161
62 98 166
62 99 170
61 98 168
61 97 161
61 97 160
61 98 165
62 98 163
61 98 165
62 98 164
61 97 157
62 98 164
62 99 169
62 99 169
62 98 162
61 97 163
61 96 153
62 99 171
62 99 170
61 98 166
62 98 163
62 98 166
63 99 165
62 99 170
62 99 171
62 99 170
62 98 163
62 98 170
62 98 167
62 98 164
62 99 165
61 98 161
63 99 167
61 97 163
62 98 161
62 97 161
62 98 166
61 97 156
62 98 166
62 98 166
62 98 161
62 98 166
62 98 165
63 99 170
63 99 168
62 98 165
63 99 169
62 98 161
62 98 160
62 98 165
62 98 165
62 98 161
62 98 163
62 99 165
62 98 165
62 98 165
62 98 164
62 98 160
62 98 158
62 98 164
61 98 163
62 98 160
62 98 162
61 98 160
62 98 163
62 98 166
63 99 168
62 99 163
62 98 163
62 98 160
63 99 169
63 98 160
62 99 169
61 96 155
61 97 152
62 99 165
62 98 157
63 99 165
62 98 161
61 97 156
62 98 159
61 97 161
62 98 161
61 97 156
62 98 166
61 97 149
62 98 162
61 97 156
61 97 157
63 99 163
62 98 159
61 96 152
61 96 153
62 98 161
62 98 162
61 96 147
62 98 153
62 97 153
61 97 153
61 96 151
61 96 147
60 95 147
60 95 140
61 96 149
59 93 140
61 96 155
60 94 140
61 96 148
60 95 148
60 94 150
59 91 127
74 82 76
85 85 12
89 88 12
87 84 12
84 82 15
81 82 16
80 79 14
76 75 9
93 94 19
77 79 20
85 86 19
89 89 23
92 91 23
77 79 20
92 92 20
82 83 27
96 96 33
97 95 19
100 99 32
91 92 27
99 99 26
122 118 34
97 98 28
104 102 25
107 107 35
116 113 40
108 107 33
111 110 38
112 109 27
114 111 35
112 110 44
117 113 39
117 115 33
124 120 33
116 114 31
133 129 41
125 123 35
133 129 45
132 127 44
128 124 41
139 134 54
127 124 41
128 124 44
141 136 49
137 132 48
142 137 49
124 121 33
131 126 42
141 136 50
136 131 51
139 134 46
139 135 41
138 133 47
139 134 51
140 136 41
146 141 49
144 139 46
142 137 47
150 145 51
149 143 49
144 140 49
144 139 56
148 144 48
149 143 51
136 132 40
139 135 41
150 145 51
141 136 47
138 132 45
146 140 49
144 139 52
151 145 58
148 142 49
141 137 44
143 136 51
144 138 51
131 127 36
140 135 45
142 136 48
137 132 42
127 124 39
139 135 41
145 139 52
147 140 54
139 133 47
140 135 41
143 137 49
148 141 54
140 135 37
132 127 39
148 142 47
138 132 37
143 137 53
138 132 45
141 136 45
129 125 41
140 134 41
135 129 45
139 134 45
137 132 41
133 127 41
126 121 30
139 134 45
130 123 37
120 116 32
123 119 25
133 127 44
117 113 28
114 111 30
154 164 19
161 178 0
165 183 0
166 183 0
162 180 0
165 182 0
170 190 0
167 185 0
168 185 0
167 185 0
161 176 0
166 182 0
164 182 0
166 185 0
166 183 0
166 183 0
167 183 0
164 182 0
166 183 0
167 185 0
167 184 0
165 184 0
169 189 0
169 187 0
165 185 0
167 185 0
164 182 0
173 197 0
172 196 0
173 197 0
173 195 0
171 195 0
173 196 25
178 200 76
179 201 99
187 207 137
187 205 135
187 207 130
188 208 127
183 204 125
188 208 137
187 207 135
180 202 111
184 205 120
187 208 130
185 206 120
185 206 127
183 205 120
184 205 114
178 200 88
182 204 117
180 202 108
180 202 92
178 201 88
181 203 95
178 200 84
180 202 92
180 202 102
178 201 80
185 206 122
178 201 76
180 202 88
179 202 95
179 202 95
181 203 92
180 203 95
180 203 99
179 201 95
176 200 62
177 200 72
179 202 99
179 202 95
178 201 80
175 198 62
182 204 102
182 204 105
179 201 95
176 199 67
179 202 95
182 204 105
181 203 108
178 200 88
180 202 95
182 204 95
182 204 105
182 203 95
179 201 88
182 203 102
181 202 99
182 203 108
181 202 108
184 205 122
181 203 95
187 207 133
178 200 102
183 204 114
184 204 133
177 199 105
183 203 127
184 204 130
186 205 133
187 206 142
185 204 120
173 194 84
172 195 51
167 190 0
157 181 67
130 156 105
130 155 105
128 153 110
108 135 136
111 138 124
90 120 134
70 103 136
61 96 147
61 97 157
61 98 161
60 96 145
60 95 150
61 97 158
61 97 151
62 97 159
61 97 164
61 97 157
60 96 153
60 96 158
62 98 163
61 96 156
62 99 164
61 98 164
61 97 161
61 97 163
61 96 158
61 97 157
62 98 163
62 98 169
62 97 164
61 97 160
61 97 163
63 99 171
61 98 161
61 97 161
62 98 170
62 98 161
60 97 160
61 97 159
62 98 164
60 97 164
61 97 164
62 98 163
62 98 162
61 97 163
62 98 160
61 97 160
61 97 157
61 98 164
62 98 168
62 98 162
63 99 170
62 98 167
62 98 167
62 98 166
62 98 164
62 98 165
62 98 169
61 97 163
62 98 167
62 97 167
62 98 165
61 97 163
61 97 164
62 98 164
62 99 168
62 98 172
62 98 164
61 97 156
62 98 169
62 99 168
62 98 167
62 98 165
61 98 166
61 97 157
61 98 169
61 97 165
61 98 168
62 98 167
62 98 163
62 98 165
61 97 160
63 100 174
62 99 170
62 98 162
61 98 166
63 99 169
62 99 172
62 98 164
62 98 165
62 98 164
62 98 164
61 98 161
62 98 164
62 98 164
62 98 163
62 98 168
62 98 161
62 98 163
62 98 167
63 99 167
62 98 166
62 98 168
62 98 163
62 98 164
62 98 164
62 98 163
63 99 170
62 98 171
61 98 168
62 98 161
62 98 167
62 98 164
61 97 159
63 99 167
62 98 163
64 100 173
63 99 166
62 98 162
62 99 167
61 97 153
61 97 157
62 98 164
62 98 162
62 99 163
62 98 166
61 97 160
61 97 160
61 97 161
62 99 167
62 99 165
62 97 159
62 99 166
61 96 153
61 97 158
62 98 162
62 99 165
61 97 157
62 98 161
62 98 161
62 98 160
62 98 163
61 97 155
62 98 158
62 98 168
62 98 159
62 98 162
62 98 161
61 97 154
61 97 158
62 98 161
62 99 166
62 98 162
61 96 152
63 98 162
62 99 169
62 98 161
62 98 162
62 97 157
62 97 158
62 98 155
62 97 153
62 98 161
62 98 160
61 96 142
62 97 155
61 97 152
61 97 150
61 97 154
61 96 156
62 96 153
61 96 150
62 97 155
60 95 146
61 96 153
61 96 149
60 95 149
61 96 145
60 95 148
59 94 142
59 93 142
59 93 139
60 93 139
58 90 128
71 80 76
91 89 18
87 85 11
84 82 13
77 75 8
77 78 10
86 85 11
78 77 6
101 98 21
88 87 23
91 91 23
96 96 21
96 95 16
83 83 20
86 85 18
92 91 18
96 95 22
97 97 25
87 87 19
102 100 32
100 98 23
107 105 33
107 106 36
103 102 38
112 110 39
109 107 37
114 112 38
108 106 29
112 111 29
114 111 33
118 115 38
122 119 39
117 114 35
117 115 40
113 111 34
129 126 40
122 119 41
124 122 37
124 121 37
114 112 37
128 124 42
121 117 33
137 133 42
135 132 47
133 129 47
131 127 44
137 133 48
139 136 42
131 127 43
129 126 43
141 137 52
143 136 51
140 135 43
147 142 51
144 138 52
145 140 48
147 142 56
138 134 42
143 136 47
147 141 47
140 136 45
145 140 49
137 133 44
142 137 44
139 134 43
148 143 53
143 138 46
142 136 51
153 147 63
134 128 42
136 130 41
137 132 39
142 137 39
135 131 44
139 135 37
146 141 52
144 139 51
138 133 44
140 136 37
137 131 42
146 141 52
142 135 51
142 136 49
140 135 39
133 128 48
135 130 37
146 139 48
142 135 52
136 130 42
134 130 37
140 133 41
144 139 51
130 126 36
140 135 47
134 129 41
134 128 36
129 126 39
139 132 42
123 119 37
127 122 41
133 127 42
130 125 47
135 129 47
120 115 41
127 121 42
120 115 39
119 114 32
122 118 36
141 148 11
161 177 0
160 174 0
166 182 0
168 185 0
164 182 0
162 179 0
166 184 0
163 180 0
163 180 0
163 177 0
163 181 0
167 185 0
160 175 0
165 184 0
157 174 0
167 185 0
168 184 0
165 182 0
167 185 0
163 180 0
169 188 0
173 194 0
167 187 0
169 186 0
166 185 0
167 186 0
169 189 0
170 194 0
172 194 0
170 193 0
176 199 57
181 203 105
190 210 144
188 208 137
185 206 133
184 204 117
187 207 133
186 207 117
179 201 95
184 205 120
184 205 122
180 202 102
182 204 111
184 205 111
181 202 111
182 203 102
181 203 92
178 201 76
183 205 108
179 202 108
179 201 80
180 203 95
179 202 95
179 202 84
179 202 84
178 201 80
180 203 95
178 200 80
178 200 84
179 201 76
177 200 80
178 201 67
179 201 84
180 202 84
181 203 105
180 203 95
179 202 95
179 201 80
180 202 92
180 202 95
179 202 84
179 201 76
178 201 72
180 202 76
176 199 62
176 199 57
181 204 111
180 202 92
180 202 84
179 201 76
181 203 99
180 202 84
182 204 108
184 206 122
178 200 72
182 204 105
181 204 105
177 200 62
179 202 92
180 203 92
181 203 95
181 202 120
183 204 114
179 201 92
184 205 102
180 202 111
179 201 108
182 203 125
186 207 130
181 202 102
181 202 114
184 205 122
186 206 125
184 204 137
182 202 122
179 200 99
170 193 76
156 180 60
144 168 88
145 169 90
128 153 105
127 152 114
117 143 121
121 147 121
109 136 134
82 113 143
67 101 144
61 97 153
60 96 150
62 98 152
61 96 153
60 95 147
61 96 150
61 97 159
61 97 160
60 96 151
61 98 166
60 96 155
60 96 150
61 97 156
61 97 158
62 98 165
60 96 157
60 96 156
61 97 162
61 97 165
63 99 170
61 97 160
62 98 164
62 98 161
63 99 170
61 97 164
62 98 161
61 97 162
60 96 156
62 98 167
62 98 169
61 97 162
61 98 164
61 98 165
62 98 166
62 98 160
61 97 161
61 97 163
61 97 162
61 97 161
61 97 160
62 99 165
62 99 168
62 98 163
62 98 166
62 98 165
62 98 163
62 97 160
62 99 171
62 98 166
62 98 166
61 97 159
62 98 168
62 98 167
62 99 170
61 97 164
61 97 160
61 96 159
61 97 167
63 99 168
62 98 164
62 98 162
62 99 170
62 98 168
61 98 164
62 98 162
62 98 168
62 98 164
62 98 168
62 98 167
62 98 160
62 99 172
62 98 166
62 98 162
63 99 168
63 99 170
62 98 165
63 99 172
62 98 167
62 98 164
61 98 166
62 98 162
61 98 160
62 98 163
62 98 164
61 97 160
62 98 166
62 99 167
61 97 158
62 99 168
62 98 163
62 98 164
62 99 164
63 99 166
62 99 170
62 99 173
62 98 167
63 99 171
62 98 164
62 98 163
61 98 165
62 99 166
62 98 159
62 98 160
61 97 163
62 98 162
62 98 162
62 99 170
62 98 165
63 99 169
62 98 164
62 98 161
62 98 163
61 97 159
62 98 165
61 98 165
62 98 164
62 98 164
62 98 164
62 97 160
61 97 157
61 97 158
61 97 154
61 98 164
61 97 153
62 98 159
61 97 152
62 98 163
62 98 156
62 98 166
61 97 162
62 98 164
61 97 162
62 98 162
61 97 159
61 98 161
62 98 156
62 98 161
61 97 155
62 98 163
60 96 156
60 96 148
62 98 157
62 97 158
62 98 160
62 98 159
61 97 161
62 98 161
61 98 162
63 98 160
62 98 160
62 98 156
62 97 157
61 97 156
62 97 157
62 97 157
61 96 145
61 96 146
61 97 151
60 95 154
61 96 147
61 97 152
61 97 156
61 97 156
60 95 146
60 94 144
61 95 144
61 95 149
59 93 144
60 94 145
60 94 146
59 93 139
59 93 129
58 91 134
58 91 127
81 88 77
90 88 8
78 78 18
66 68 19
83 81 8
82 80 5
83 81 10
86 85 18
94 93 17
82 82 17
94 93 23
88 89 16
99 97 21
83 83 19
88 88 20
101 99 23
88 87 24
100 98 24
100 97 24
101 100 20
114 111 29
106 104 23
104 102 30
108 106 18
112 110 32
114 113 33
112 110 29
105 104 30
100 98 31
112 111 29
115 114 34
123 119 46
108 108 30
122 120 21
107 105 30
119 117 33
131 126 49
108 106 25
130 126 39
122 121 33
128 124 43
127 124 38
137 132 47
132 128 38
134 130 35
132 127 52
131 126 42
121 118 42
129 125 47
137 132 45
133 130 31
136 130 49
139 134 37
141 135 45
137 132 46
139 134 45
142 136 48
137 131 39
141 137 45
133 128 42
136 131 42
135 131 48
138 134 42
137 132 39
137 132 41
142 137 45
140 135 45
140 137 36
149 144 42
141 136 48
139 133 44
137 132 39
142 136 48
150 144 49
139 134 45
147 142 49
140 135 36
141 136 48
137 132 42
141 136 52
144 139 48
142 136 47
142 135 44
134 130 32
141 136 47
138 133 44
136 131 44
138 133 39
130 124 32
146 140 48
137 131 42
127 123 30
127 120 41
130 126 39
138 132 41
130 126 32
127 122 39
132 128 41
124 117 41
119 114 34
122 116 32
122 116 37
113 110 25
134 127 49
125 120 37
120 116 30
119 113 28
143 148 16
162 177 0
164 180 0
161 177 0
166 182 0
160 174 0
165 179 0
163 181 0
164 180 0
162 177 0
164 181 0
163 181 0
166 185 0
164 180 0
165 183 0
167 184 0
165 183 0
163 179 0
166 184 0
164 184 0
166 185 0
163 181 0
165 185 0
168 187 0
170 189 0
164 182 0
170 190 0
172 192 0
167 186 0
167 190 36
186 207 120
185 205 122
192 211 149
184 205 117
192 211 151
185 206 125
186 207 133
183 204 111
184 205 117
181 202 102
179 201 84
184 205 117
181 203 105
182 204 114
185 206 122
180 202 99
181 203 102
176 199 84
179 202 84
180 202 99
181 204 102
181 203 105
179 202 84
182 205 117
178 201 62
179 202 84
179 201 67
177 201 88
178 201 80
176 200 72
180 202 92
181 204 102
194 213 153
193 213 153
198 217 173
190 210 144
201 219 188
204 221 193
204 221 193
200 218 181
201 219 186
204 221 193
207 223 201
206 222 199
196 215 161
196 214 163
197 216 167
197 216 171
190 210 135
190 210 140
180 202 80
180 203 102
178 201 62
181 203 95
179 202 80
180 203 95
178 201 92
180 202 88
179 202 84
179 202 84
176 199 62
177 200 76
180 203 102
181 203 95
181 204 99
179 202 88
176 198 76
180 202 105
179 201 88
178 200 88
179 201 102
177 199 88
180 202 108
183 205 117
181 202 108
182 202 130
184 204 133
182 202 122
181 200 140
183 202 137
172 193 105
145 169 94
131 156 100
133 157 97
129 154 103
126 151 96
120 145 113
120 146 117
98 126 129
82 113 142
64 99 157
61 97 160
62 98 158
62 97 153
60 95 153
61 97 154
60 96 152
62 98 168
61 97 152
61 97 160
61 96 155
59 95 151
61 97 156
60 95 153
62 98 162
60 96 159
61 96 156
60 96 161
61 98 163
61 98 162
60 96 157
62 98 162
61 97 162
61 98 170
61 97 169
61 98 162
61 97 163
61 96 159
61 97 165
60 96 158
61 97 158
62 98 161
61 98 160
60 97 164
61 98 163
62 98 172
62 98 164
62 98 168
61 97 160
61 97 163
61 98 166
61 97 164
63 99 172
61 98 168
62 98 162
61 98 162
62 98 169
61 98 166
62 98 164
61 97 161
61 97 165
62 99 172
61 97 162
61 97 162
62 98 166
62 98 168
62 98 163
61 98 161
62 99 165
61 97 160
62 98 166
62 98 169
62 99 167
62 99 170
62 98 167
62 98 164
62 98 166
62 98 170
61 98 161
60 96 160
62 98 167
62 99 168
62 98 165
62 98 160
62 99 165
62 98 165
62 98 167
62 98 162
61 98 162
62 99 167
62 98 166
62 99 167
62 98 159
61 97 160
62 98 167
63 99 169
62 98 161
62 98 160
60 97 157
62 98 165
62 98 168
61 98 166
62 98 168
62 99 167
61 97 153
62 98 162
62 99 167
62 98 157
63 99 167
62 98 162
62 98 165
62 98 165
61 98 160
62 98 165
62 98 164
62 99 163
62 98 163
62 99 164
61 98 160
61 97 159
62 98 161
61 97 159
62 98 168
61 97 157
62 98 160
61 98 159
62 98 162
62 98 158
62 98 164
62 98 165
62 98 161
61 97 161
62 98 166
62 98 162
62 98 165
63 99 168
62 98 161
62 98 158
61 97 154
61 98 162
62 98 161
62 98 153
62 98 162
62 99 165
61 97 159
61 96 151
62 98 161
62 98 159
61 97 163
62 98 160
62 98 160
62 97 150
61 96 151
62 97 155
61 97 157
62 98 158
63 98 160
62 98 159
62 98 157
61 97 159
62 98 160
61 97 153
61 96 151
60 95 142
61 96 151
61 97 160
61 97 152
60 94 146
63 98 161
61 95 145
62 97 151
61 97 153
61 96 149
61 96 150
60 94 144
61 97 154
60 93 142
60 95 147
58 92 141
60 95 146
59 93 141
58 92 132
57 90 139
83 88 68
87 83 17
76 76 18
83 82 19
76 76 11
89 88 18
80 80 16
93 91 3
89 86 8
85 84 11
99 97 8
88 85 14
102 100 14
94 93 18
99 99 15
99 98 22
98 95 22
104 102 23
97 97 23
106 105 31
93 91 18
94 94 31
107 105 29
115 111 29
109 107 28
110 108 41
107 106 26
117 115 41
113 111 30
122 120 32
109 107 29
116 114 21
130 125 39
123 120 29
119 116 26
116 113 30
117 115 29
133 128 47
126 122 41
129 126 36
130 126 47
127 123 31
132 128 42
134 129 35
133 130 40
130 126 49
130 126 35
134 131 42
137 133 38
122 118 30
133 128 37
141 136 43
133 128 36
138 134 40
130 127 33
132 128 42
139 135 36
145 139 47
143 138 42
142 136 45
141 136 48
138 133 42
140 135 49
141 135 37
142 137 41
141 135 41
142 138 40
137 131 37
137 133 36
141 135 42
139 134 41
139 134 44
143 137 42
143 138 37
138 134 39
147 142 49
140 135 36
135 129 44
138 133 37
143 137 37
133 128 41
140 135 47
125 120 39
144 139 44
132 126 39
139 134 34
134 129 36
137 130 44
137 132 42
130 126 36
120 115 36
133 129 34
141 134 48
127 122 36
129 124 36
128 123 37
131 126 32
130 125 36
132 126 41
125 120 34
131 126 41
119 113 36
119 114 34
103 100 22
114 109 30
103 101 19
141 147 25
161 176 0
164 180 0
163 180 0
166 182 0
165 182 0
161 177 0
164 180 0
163 180 0
164 181 0
167 183 0
168 182 0
163 181 0
167 184 0
167 184 0
163 178 0
164 180 0
167 184 0
165 183 0
166 184 0
168 184 0
164 181 0
166 184 0
169 188 0
163 181 0
168 185 0
169 189 0
167 186 0
170 189 0
167 188 0
189 209 133
188 208 135
183 204 117
187 207 125
184 205 108
177 199 92
187 208 133
177 199 72
183 205 120
182 204 108
181 204 102
183 205 108
183 204 108
179 201 84
181 203 92
178 201 88
180 203 95
181 203 88
180 202 95
178 201 84
179 201 76
178 201 72
178 201 80
180 202 80
178 201 95
191 211 144
195 214 165
204 221 196
209 225 212
216 230 228
217 232 237
221 234 249
221 235 253
222 236 252
222 235 250
222 236 252
222 236 252
218 233 244
222 236 250
221 235 249
220 234 248
222 235 252
221 235 250
221 235 249
221 235 252
220 234 249
221 235 252
221 235 252
220 234 250
222 235 250
221 235 250
222 235 250
220 234 244
217 232 234
209 225 209
210 225 212
198 217 177
194 213 163
184 205 102
180 203 95
181 203 102
178 201 76
179 202 88
182 204 99
176 199 67
177 200 76
182 204 102
179 200 95
178 200 67
183 205 105
180 202 92
184 205 108
180 202 99
182 203 108
183 205 120
179 201 105
180 202 117
174 196 120
146 168 143
116 140 156
115 138 165
124 145 175
105 130 156
73 105 139
98 126 129
98 126 133
104 130 127
129 153 102
129 154 97
126 151 114
122 147 111
110 137 125
86 116 135
71 103 144
59 94 146
61 97 151
61 97 155
60 95 150
61 97 158
61 97 155
61 97 161
62 98 159
62 97 158
61 97 160
61 97 162
62 98 162
60 96 159
61 96 157
61 97 164
61 96 158
60 96 162
61 97 162
62 98 161
60 96 157
61 97 163
62 98 162
61 97 160
62 98 165
61 97 160
61 98 162
62 98 161
61 96 154
62 99 167
60 96 156
61 97 159
60 96 157
62 98 162
61 97 165
61 97 162
61 97 161
61 97 161
61 97 168
61 97 166
61 97 156
62 98 161
61 97 161
62 98 165
62 98 161
61 97 156
60 97 166
60 96 162
62 98 170
62 98 166
61 97 157
61 97 164
62 98 165
61 98 165
62 98 163
62 98 167
62 98 166
61 97 154
62 98 158
62 98 166
61 97 164
63 99 172
61 98 165
62 99 171
62 98 168
62 98 164
62 99 168
61 98 162
62 98 166
62 98 166
61 98 167
62 98 163
61 97 161
62 98 169
61 98 162
62 99 167
62 98 157
62 98 166
62 98 164
62 98 168
61 97 159
62 98 165
62 99 170
61 97 155
61 98 164
62 98 163
62 98 159
61 97 159
63 99 170
61 98 163
63 99 164
62 99 170
62 98 162
62 98 162
62 99 166
62 98 163
62 98 163
62 98 159
61 97 159
61 97 159
61 97 164
62 98 167
62 98 160
61 97 160
62 98 166
61 98 161
62 98 162
62 98 161
61 98 165
63 99 167
62 98 162
62 98 166
62 98 160
62 98 162
62 98 160
62 98 163
63 99 162
61 97 155
61 97 159
62 98 160
62 98 160
62 98 166
62 98 163
62 98 163
62 98 160
62 98 159
61 97 157
62 98 159
63 99 164
61 97 152
62 98 166
62 98 161
62 98 163
61 97 155
61 97 151
62 98 160
60 96 151
62 98 159
62 99 164
62 97 157
62 98 165
62 97 153
61 97 157
62 98 163
62 97 163
61 97 150
61 96 151
61 97 150
62 98 154
62 97 157
62 98 155
61 96 149
61 97 155
62 97 149
60 96 154
60 96 155
61 96 152
62 97 156
60 96 144
62 98 159
60 95 149
60 95 145
61 96 145
59 94 133
60 95 146
59 93 142
59 93 137
59 93 139
61 95 147
62 96 151
59 92 136
76 79 57
83 81 12
81 79 14
89 87 11
91 88 8
79 76 12
77 77 13
86 86 14
85 83 8
82 82 18
88 87 14
82 80 3
88 86 16
91 89 18
94 92 23
98 97 14
106 103 31
101 101 21
89 87 14
99 99 16
103 102 8
93 92 24
105 102 27
101 100 18
103 101 29
109 106 29
110 107 19
117 113 33
102 101 22
111 111 35
107 105 28
124 121 37
116 114 29
130 126 42
126 122 44
125 121 39
129 124 37
115 113 32
129 125 42
121 118 37
123 121 24
127 123 34
141 136 49
134 130 38
130 126 41
131 128 45
133 129 42
131 127 43
128 123 36
135 130 39
132 127 43
143 138 44
133 129 38
133 128 41
131 128 36
135 130 39
126 123 29
136 131 42
139 134 45
136 132 43
138 133 39
140 135 36
136 132 43
142 136 51
137 133 40
143 138 42
144 137 45
149 144 49
140 134 45
144 139 42
147 142 45
142 137 34
137 132 36
137 132 36
140 136 41
136 131 32
147 141 48
140 135 42
137 132 42
137 133 39
148 142 47
137 132 39
137 132 36
138 133 42
131 126 36
133 129 37
134 129 32
138 132 45
131 125 30
132 127 39
136 130 41
130 124 41
134 128 41
137 131 39
129 124 39
129 125 22
130 125 34
129 124 39
128 122 34
126 121 34
133 129 32
133 126 32
117 111 32
122 116 44
118 114 34
139 148 19
165 181 0
165 179 0
156 168 0
162 179 0
166 182 0
168 187 0
162 177 0
166 183 0
163 181 0
161 178 0
162 180 0
169 186 0
165 182 0
169 187 0
164 180 0
163 180 0
166 184 0
168 186 0
164 181 0
163 182 0
166 184 0
166 184 0
168 187 0
171 190 0
170 189 0
170 192 0
167 186 0
167 186 0
164 183 0
169 190 0
186 207 120
184 205 127
184 205 117
183 204 122
185 206 117
181 203 99
183 205 114
181 203 117
181 203 99
180 202 105
181 203 102
180 202 84
181 203 95
179 202 92
180 202 80
177 200 92
176 199 62
179 202 80
177 200 72
181 203 102
190 210 142
201 219 188
212 227 223
214 229 227
220 233 245
221 235 252
220 235 250
223 236 253
221 235 250
220 234 248
221 235 250
220 234 249
219 234 249
220 234 250
219 234 250
220 234 249
221 235 252
221 235 253
219 233 248
221 235 254
216 231 245
220 234 250
220 234 252
219 234 252
220 234 250
220 234 250
220 234 250
220 235 252
219 234 250
220 234 249
220 234 248
221 235 252
220 234 250
221 235 252
222 236 253
219 233 244
221 235 248
220 234 250
222 236 252
215 230 236
209 225 212
194 214 165
188 209 140
182 204 105
179 202 88
175 199 72
180 203 95
182 203 88
177 200 62
177 200 80
179 202 99
177 200 62
180 203 95
179 202 92
182 203 102
179 201 102
175 195 114
125 149 159
101 126 167
107 132 183
113 137 181
121 144 182
111 134 176
100 126 167
67 101 152
65 100 153
61 97 154
66 100 151
73 106 152
89 119 140
110 136 127
124 149 113
130 154 103
117 142 121
78 110 143
69 102 147
60 96 152
60 96 147
60 96 151
61 97 159
61 97 162
60 96 154
60 95 155
61 96 152
59 95 155
61 97 159
61 97 155
60 96 151
61 97 157
62 98 165
61 97 162
60 96 155
61 97 156
61 98 162
61 97 162
62 98 161
62 98 165
60 96 162
61 98 163
61 97 157
61 97 162
61 97 165
61 97 160
60 96 161
62 99 169
62 99 166
62 98 164
60 96 165
61 96 164
61 97 166
61 97 164
62 98 164
62 98 163
61 97 159
62 98 169
62 98 167
62 98 170
62 99 169
61 97 164
61 96 158
60 96 161
62 98 163
62 98 165
61 98 167
62 98 164
62 98 165
62 98 166
62 98 162
62 99 166
62 98 164
61 97 158
61 97 159
61 98 165
62 98 163
62 99 168
61 97 157
62 98 164
62 98 165
63 99 167
62 98 158
62 98 162
61 98 168
62 98 170
62 98 166
61 98 165
61 97 164
63 99 167
61 97 159
63 99 173
61 97 159
62 98 164
62 98 164
62 98 165
63 99 173
62 99 164
60 96 156
61 98 165
61 98 165
61 97 155
62 98 168
62 98 168
62 98 170
61 97 159
62 99 165
61 97 155
63 99 163
62 98 162
62 98 161
61 98 160
62 99 164
61 97 161
63 99 167
62 99 167
61 97 157
62 98 164
61 97 160
62 98 166
62 98 167
62 98 166
62 98 157
61 97 161
62 99 166
62 98 164
62 97 153
62 98 162
62 98 164
62 98 158
63 99 169
63 99 166
61 97 166
63 99 166
62 98 161
63 98 164
62 98 158
62 98 161
62 98 161
62 98 158
62 98 163
61 97 155
62 98 161
63 99 162
62 98 160
62 98 161
62 98 162
62 98 159
61 97 155
61 97 157
62 97 160
61 97 156
62 98 160
61 97 155
61 97 154
62 98 160
62 97 156
63 98 160
61 97 155
62 98 156
62 98 156
60 96 151
61 97 156
61 97 159
62 97 155
62 97 150
62 97 156
62 96 156
61 96 156
62 98 155
62 98 156
60 95 140
61 96 149
61 96 146
61 97 153
60 94 141
60 95 148
61 96 146
61 96 150
61 96 149
60 95 149
59 93 145
60 94 143
59 93 142
59 92 142
59 93 140
57 90 131
76 79 37
87 84 12
81 81 8
87 86 14
88 85 19
76 75 8
98 95 0
95 93 18
93 88 11
85 82 6
98 96 16
85 83 8
81 79 11
88 87 18
84 83 16
93 91 20
91 91 12
94 92 16
102 100 16
91 90 16
97 96 21
101 99 14
118 116 30
106 105 28
105 104 30
105 104 25
112 110 28
119 117 25
118 114 30
122 119 28
124 122 35
115 112 29
119 115 32
117 115 36
127 124 36
118 115 34
115 111 29
130 126 32
118 114 29
122 118 37
122 119 31
133 128 32
135 131 43
124 121 25
123 120 33
130 126 40
135 130 40
130 126 45
132 128 29
131 127 29
128 125 31
130 125 42
135 131 41
126 122 28
132 127 40
142 136 37
144 138 51
129 125 38
140 135 44
136 130 44
133 128 32
136 133 41
146 140 54
135 131 41
136 130 39
133 128 32
138 133 42
138 132 44
143 138 45
133 128 36
135 128 34
137 131 39
138 133 39
129 125 34
131 126 30
135 130 34
141 136 41
133 127 39
131 125 41
128 123 37
127 124 36
138 134 44
134 129 36
133 128 37
142 137 45
135 130 39
132 127 32
130 125 32
124 118 34
133 127 42
130 125 25
130 123 37
132 127 28
130 126 28
132 127 36
127 122 30
130 126 36
133 128 42
123 116 36
135 129 28
126 120 32
122 116 32
125 118 41
110 104 16
143 152 11
159 173 0
164 180 0
164 178 0
165 179 0
161 177 0
158 173 0
160 176 0
164 181 0
162 181 0
160 176 0
163 179 0
163 178 0
162 181 0
166 182 0
169 185 0
168 184 0
164 182 0
165 183 0
166 183 0
165 184 0
162 178 0
168 184 0
163 182 0
166 184 0
172 189 0
165 183 0
165 183 0
166 183 0
167 185 0
168 187 0
171 190 0
182 203 108
182 204 111
182 204 102
178 201 102
182 204 105
184 205 111
181 203 102
179 201 92
181 204 102
180 202 95
179 202 92
183 205 111
179 201 72
177 201 84
178 201 76
182 204 95
192 211 144
204 221 196
215 230 231
220 234 248
221 235 250
221 235 250
221 235 252
221 235 252
222 236 253
221 235 253
219 234 248
219 233 250
221 236 255
220 234 250
218 234 252
219 234 249
220 234 252
219 234 249
219 234 250
219 234 252
219 234 254
218 233 249
216 231 246
217 233 249
219 234 253
218 234 253
215 231 244
218 233 250
219 234 252
218 233 249
219 234 252
218 233 246
219 234 250
219 234 252
220 234 253
218 233 248
218 234 250
218 233 248
219 234 249
220 234 250
221 235 253
220 235 252
221 235 250
221 235 250
223 236 254
222 236 253
223 237 254
222 235 250
213 228 223
200 218 182
192 212 151
178 201 92
177 200 72
177 201 76
181 202 99
181 203 92
182 204 99
180 202 92
181 203 108
182 204 99
154 176 115
88 116 165
111 135 178
96 123 171
107 132 176
115 139 172
101 127 174
126 148 189
116 139 181
79 109 158
69 102 150
65 100 155
66 101 163
61 96 156
63 98 157
67 101 149
87 117 140
106 133 133
115 140 115
109 136 127
83 114 149
66 101 154
61 97 156
62 98 159
60 96 145
60 96 151
60 96 156
62 97 158
60 96 153
61 97 164
61 97 160
61 97 159
62 98 160
61 97 159
61 97 164
61 97 164
61 98 167
60 96 155
62 98 167
62 98 161
62 99 167
61 97 164
61 96 158
61 98 166
62 98 164
62 99 165
61 97 162
61 97 160
62 98 163
60 96 159
62 98 168
60 96 159
61 97 161
61 97 164
61 97 163
61 98 164
61 97 162
61 97 160
62 98 166
61 98 165
62 98 164
62 98 161
62 99 169
61 97 162
61 98 165
62 98 163
61 98 169
63 99 168
62 98 168
63 99 167
61 97 156
61 97 162
62 98 165
61 97 163
62 99 169
62 98 166
62 99 168
62 99 170
62 98 166
61 98 162
62 98 165
62 98 170
62 98 169
62 98 160
62 98 162
62 99 167
60 96 159
61 97 159
61 98 163
62 97 159
62 98 166
62 98 160
62 98 160
62 98 165
62 98 169
61 98 165
62 98 165
61 97 163
61 97 159
62 98 163
62 98 167
62 98 164
62 98 165
61 98 163
63 99 164
61 97 156
61 98 166
62 98 160
62 98 164
62 98 166
62 98 164
61 97 161
63 99 165
62 98 164
62 98 158
62 98 166
63 99 166
61 97 159
62 98 160
61 97 158
61 98 163
63 99 163
62 99 166
62 98 161
62 98 166
62 98 159
61 97 156
62 98 168
62 98 159
61 97 161
62 97 155
61 97 153
62 98 159
62 98 165
62 98 159
62 98 158
62 98 159
62 98 164
61 98 164
61 97 158
62 98 158
62 98 161
61 96 150
62 98 163
61 97 153
62 97 157
63 99 165
61 96 151
61 97 155
62 98 166
62 98 160
61 97 155
62 97 154
61 97 152
62 98 157
62 97 155
63 98 162
61 97 154
62 98 156
62 98 156
61 96 149
61 97 154
61 97 155
61 96 151
61 96 152
61 96 150
60 95 143
61 96 145
61 97 155
62 97 152
62 98 156
62 97 156
61 96 155
60 94 137
60 95 139
61 96 149
61 97 153
61 97 150
59 93 142
60 94 138
60 95 145
60 95 145
60 94 136
61 95 151
60 94 139
59 93 135
59 93 137
58 90 132
86 85 20
90 86 19
81 79 3
81 81 11
89 86 9
95 93 0
94 90 8
81 78 8
82 82 12
95 93 16
83 82 8
83 81 9
85 84 12
86 83 22
98 95 15
96 94 18
93 91 21
96 94 15
98 97 18
104 102 11
106 104 27
111 109 19
95 94 28
98 97 19
106 104 16
105 103 22
122 119 29
99 98 27
116 113 28
108 106 21
119 116 34
111 108 25
108 106 21
121 118 29
108 108 16
112 109 12
122 119 33
137 131 37
126 121 32
121 119 29
121 118 24
131 126 45
131 128 31
127 124 33
126 122 28
130 127 30
131 128 32
139 135 42
128 122 40
131 126 40
131 129 21
130 124 36
124 120 33
135 131 35
137 132 32
134 129 41
134 128 37
132 128 35
139 134 41
139 133 45
132 128 34
141 135 41
140 135 48
139 135 36
135 130 36
135 130 36
130 125 37
141 137 44
140 135 42
145 140 44
135 129 41
144 139 47
133 127 36
137 133 42
140 134 41
132 128 30
130 125 39
138 133 39
139 133 41
140 135 42
132 128 22
137 131 39
136 129 37
125 120 30
131 128 34
141 135 41
132 126 34
122 118 25
134 129 36
125 120 28
132 126 44
131 125 39
122 117 25
129 123 37
129 124 30
128 123 39
124 119 34
119 114 30
116 111 22
116 110 28
109 103 30
106 101 22
109 103 25
149 156 11
162 178 0
163 176 0
162 176 0
160 176 0
159 173 0
166 181 0
158 171 0
159 173 0
161 176 0
165 183 0
160 175 0
163 181 0
163 181 0
162 177 0
161 180 0
168 185 0
165 183 0
167 185 0
167 186 0
166 183 0
167 186 0
166 182 0
166 182 0
167 182 0
165 182 0
161 179 0
169 186 0
166 184 0
167 186 0
168 187 0
164 184 0
166 185 0
179 202 88
184 205 120
182 204 105
179 202 84
183 204 105
181 204 105
180 201 88
181 203 99
178 201 88
181 203 99
179 202 84
179 202 80
188 209 137
201 219 188
210 226 215
221 234 245
223 236 253
222 235 252
222 236 253
219 234 248
220 235 252
218 233 248
221 235 254
220 234 252
220 235 255
219 233 253
218 233 249
218 233 250
219 234 254
219 234 254
217 233 250
219 234 254
217 232 250
219 234 254
216 232 248
218 233 253
218 233 253
215 231 244
217 233 252
217 233 249
217 233 252
216 232 248
216 232 246
216 232 249
216 232 248
216 231 248
216 232 249
216 232 250
219 234 253
218 233 250
218 234 253
217 232 249
216 232 245
218 233 249
218 233 252
219 234 253
218 233 246
218 233 249
219 234 250
217 233 249
218 232 248
219 234 249
219 234 248
221 235 252
220 234 249
222 236 254
221 235 252
222 236 250
211 227 220
197 216 167
185 206 114
178 201 76
178 201 76
176 199 51
177 200 76
178 201 72
159 181 137
82 113 161
89 118 166
106 131 172
108 133 176
119 142 182
101 127 170
99 125 172
108 132 179
98 124 173
76 108 164
67 102 153
67 101 148
71 104 154
61 97 158
69 103 157
65 99 152
67 102 154
74 107 147
102 128 127
97 125 137
105 133 127
82 113 141
68 102 155
61 96 151
60 95 156
61 96 148
62 98 166
61 96 150
60 96 158
61 97 165
61 97 158
61 97 155
62 98 166
61 97 157
60 95 154
60 96 162
61 98 164
60 96 161
60 96 156
61 97 161
61 97 163
61 97 163
61 98 162
62 98 164
61 97 166
60 96 162
61 97 156
62 98 166
62 99 171
61 97 158
62 98 165
61 98 169
61 97 160
62 98 161
60 96 158
62 98 162
61 97 163
62 98 162
61 97 153
61 97 159
62 98 166
63 99 172
62 98 164
61 97 159
62 98 166
62 98 164
62 99 171
61 97 162
62 98 167
62 98 166
61 97 156
61 97 155
62 98 167
62 98 165
62 99 171
62 98 167
62 98 160
61 97 160
61 97 164
61 97 165
62 98 162
62 98 164
62 98 166
61 97 161
61 97 159
61 97 155
61 97 160
63 99 167
62 98 167
62 99 165
62 99 165
62 98 164
61 97 161
62 98 162
60 96 155
62 98 162
62 98 165
62 99 165
62 98 165
62 98 165
62 98 164
62 98 161
61 97 154
62 98 159
62 98 165
62 98 160
62 98 163
61 97 160
61 98 163
62 98 160
62 98 158
62 98 159
62 98 164
62 98 160
62 98 162
63 99 170
62 98 164
62 98 165
62 98 163
62 99 168
62 98 162
62 98 161
62 98 162
61 97 157
62 98 159
61 98 161
62 98 161
64 100 167
63 99 166
62 98 162
62 98 159
61 97 156
62 98 157
61 97 161
62 98 159
63 99 163
61 97 160
62 98 160
61 98 162
60 96 151
62 98 162
63 99 168
62 98 162
61 97 155
62 98 157
61 97 157
63 99 170
61 97 147
61 97 153
61 97 155
60 96 149
60 96 150
61 97 157
61 96 148
62 98 160
62 98 158
61 97 154
62 98 160
61 96 146
61 96 147
61 96 152
62 97 154
61 96 149
62 97 158
63 99 162
62 97 154
61 97 155
62 98 158
63 99 161
62 97 155
61 96 149
60 95 144
62 97 159
62 98 160
62 97 153
61 96 143
62 97 147
61 95 145
60 95 142
61 96 147
61 95 154
59 94 135
60 94 145
59 92 141
60 94 148
59 92 135
62 88 112
85 81 19
86 83 0
70 68 3
93 90 0
86 82 11
88 86 18
88 86 11
84 82 0
91 89 0
96 93 8
84 83 14
80 80 11
93 90 14
82 82 14
97 95 19
92 90 16
92 90 14
96 95 8
97 94 23
98 94 25
99 97 19
103 100 14
103 101 28
110 108 20
109 104 0
104 102 22
92 89 21
110 108 22
103 101 14
122 117 34
122 118 28
120 116 29
115 113 26
116 113 25
118 114 29
115 111 33
128 124 37
119 114 22
118 113 32
118 114 22
116 112 29
121 116 32
129 125 37
122 118 33
131 127 38
132 129 30
127 123 42
129 125 34
126 121 31
122 120 30
132 126 34
131 127 42
134 128 47
127 122 36
130 126 34
132 127 36
132 127 41
132 126 42
129 125 41
137 133 37
126 122 31
115 111 29
133 128 36
140 135 36
130 125 37
135 131 37
129 124 34
140 135 36
135 129 36
134 128 32
136 130 44
131 127 39
129 124 25
127 123 25
134 129 30
138 133 41
129 123 41
135 129 32
131 127 30
144 138 45
128 123 36
139 133 45
126 121 34
136 129 37
127 121 32
143 137 42
130 124 34
131 124 41
131 125 42
130 126 30
131 126 30
122 116 34
118 113 28
127 123 41
117 113 25
119 113 28
128 123 41
124 120 30
117 112 32
114 109 28
115 110 25
123 118 32
145 153 11
159 171 0
153 167 0
160 175 0
161 176 0
161 175 0
157 172 0
170 187 0
158 173 0
164 179 0
159 173 0
166 182 0
162 178 0
159 173 0
161 179 0
162 176 0
163 180 0
166 183 0
162 178 0
164 181 0
164 178 0
166 182 0
165 183 0
168 184 0
162 178 0
171 189 0
167 184 0
165 184 0
167 184 0
167 185 0
168 187 0
163 182 0
167 186 0
171 191 0
181 203 102
180 202 99
181 203 105
181 203 105
181 203 95
178 201 80
178 201 84
181 203 99
179 202 99
188 208 127
202 220 194
216 231 231
222 235 249
223 236 252
221 235 250
220 234 246
221 235 254
220 235 253
218 233 249
218 233 250
218 234 252
220 234 253
218 233 250
218 233 250
219 234 254
217 233 250
217 233 253
215 231 245
216 232 246
217 233 252
216 232 250
215 231 248
215 231 248
216 232 252
216 232 250
217 233 254
216 232 252
216 232 252
215 231 248
216 232 252
214 231 248
215 232 250
215 231 249
216 232 253
216 232 252
215 232 254
216 232 250
216 232 252
216 232 252
217 233 254
214 231 246
217 233 253
217 233 252
216 232 249
216 232 250
218 233 253
216 232 248
219 234 254
218 234 253
219 234 254
219 234 254
219 234 253
220 235 255
220 234 252
218 233 248
221 235 254
220 234 250
221 235 253
223 236 255
223 236 253
219 233 246
216 231 231
199 217 177
183 204 108
181 204 102
180 203 92
161 185 121
105 132 174
97 125 176
96 124 176
104 130 180
103 128 170
92 120 167
105 131 176
102 128 170
93 121 167
108 133 175
75 107 167
67 101 150
67 102 160
65 100 165
67 101 155
73 106 150
65 99 150
71 105 159
67 101 151
65 99 147
82 112 139
109 136 120
108 134 126
82 112 134
62 97 156
61 97 158
61 97 153
61 97 161
60 96 153
62 97 161
62 98 165
60 96 159
60 96 151
61 97 157
61 97 162
62 98 170
61 97 164
61 96 157
61 96 155
61 97 157
60 95 156
61 97 161
60 96 164
61 97 153
62 98 164
61 96 157
61 98 163
61 97 160
63 98 165
61 97 155
61 98 165
61 98 168
61 98 166
62 98 168
62 98 165
61 97 161
60 96 158
62 98 162
61 97 160
61 97 156
62 98 169
61 97 153
61 98 164
61 98 162
61 97 160
61 97 157
61 97 161
61 97 164
62 98 162
63 99 170
62 99 169
62 98 163
61 97 161
61 97 162
61 97 163
61 97 161
61 97 156
61 97 160
61 97 164
61 97 161
61 97 163
62 98 163
61 97 161
62 98 166
62 98 160
61 97 158
62 99 171
61 98 162
61 97 160
61 97 161
61 97 159
61 98 164
61 97 160
62 98 165
62 98 156
61 98 168
62 98 164
62 98 160
61 97 157
61 98 165
62 98 167
61 97 153
61 97 158
62 98 158
61 97 163
62 98 162
62 99 163
62 98 165
62 98 166
62 98 162
62 98 161
61 97 159
62 98 164
63 99 163
61 97 156
62 98 164
62 98 163
61 97 164
62 98 166
62 98 163
61 98 161
62 98 162
62 98 163
62 98 158
62 98 159
61 97 162
63 99 164
60 96 151
61 97 155
62 98 158
62 98 162
62 97 158
62 98 163
63 99 166
62 98 158
62 98 159
62 98 162
62 97 153
61 97 156
62 98 165
62 98 161
61 97 156
61 97 157
63 98 158
61 97 154
60 96 142
62 98 162
62 97 159
61 97 149
62 98 164
62 97 159
62 98 160
62 97 155
62 98 153
61 97 157
62 97 153
61 96 147
62 98 158
62 97 156
62 99 162
61 97 153
62 97 157
61 97 157
61 96 149
62 98 159
63 98 160
61 96 148
62 98 159
61 96 145
62 97 147
61 96 152
61 96 149
61 96 143
62 97 149
61 96 148
61 96 150
61 96 150
62 97 150
60 95 139
61 96 146
61 95 145
58 92 131
60 94 141
59 93 134
60 93 145
58 91 126
63 88 123
94 89 22
91 85 11
96 95 11
81 78 11
90 84 11
90 86 0
82 82 0
87 83 8
92 89 18
96 94 8
83 83 11
87 85 8
82 79 0
92 91 9
101 98 11
96 94 12
100 98 11
103 100 5
89 87 9
100 98 12
99 98 21
111 107 25
107 104 9
93 92 16
104 101 16
110 108 14
109 105 24
109 105 14
104 102 16
104 101 24
112 107 21
114 110 25
117 115 25
105 102 18
112 108 25
115 113 24
124 119 36
112 110 31
116 112 30
124 121 32
127 122 30
125 123 40
120 116 25
120 115 27
126 122 37
119 116 26
131 127 25
127 122 19
126 122 32
134 129 36
129 125 29
129 126 29
128 125 36
127 122 30
119 115 28
133 128 36
134 131 31
129 125 34
126 122 29
127 123 28
130 125 34
133 129 28
128 123 25
131 126 32
130 127 28
135 129 36
134 129 34
138 133 39
132 127 32
123 119 28
132 128 39
135 131 36
139 134 41
131 127 28
144 139 44
131 126 28
133 127 39
137 133 34
133 128 34
133 127 36
133 126 41
137 133 37
129 125 32
135 130 30
132 127 36
125 119 30
131 125 22
123 120 19
137 131 37
130 126 28
122 117 32
123 116 28
118 113 25
121 117 32
121 116 34
124 118 34
115 108 32
128 123 39
114 108 32
120 114 30
108 106 28
148 156 11
156 167 0
159 172 0
156 170 0
163 178 0
162 175 0
155 167 0
161 173 0
162 176 0
163 180 0
163 179 0
162 177 0
164 179 0
160 177 0
164 182 0
168 184 0
158 174 0
164 178 0
164 182 0
163 178 0
162 180 0
164 182 0
159 174 0
163 182 0
172 189 0
166 183 0
169 187 0
167 184 0
166 183 0
164 181 0
169 189 0
167 186 0
166 184 0
168 187 0
167 186 0
178 201 76
181 203 102
180 202 92
179 201 76
180 202 99
178 201 84
183 204 111
199 217 177
215 230 231
222 236 252
222 236 252
222 236 253
220 235 253
220 235 252
220 234 249
219 234 252
219 234 250
219 234 250
217 232 248
218 233 252
218 233 252
219 234 254
217 233 253
216 232 249
216 232 252
216 232 250
216 232 249
216 232 253
215 232 252
215 232 250
213 230 246
215 231 252
215 232 252
215 232 254
214 231 249
215 232 253
215 232 253
214 231 253
214 231 252
214 231 252
213 231 249
214 231 250
214 231 252
214 231 252
215 232 253
215 232 254
213 230 248
215 232 252
214 231 250
216 232 253
214 231 250
216 232 253
213 230 246
215 232 252
215 232 250
217 233 254
217 233 253
216 233 252
217 233 254
216 232 249
217 233 253
218 234 253
218 233 249
218 233 253
217 233 250
218 233 248
219 234 252
219 234 252
218 233 246
221 235 252
221 235 252
221 235 252
220 234 245
223 236 252
209 225 212
192 212 153
179 201 84
110 136 163
90 119 175
92 121 173
95 123 168
106 132 168
91 120 178
92 119 171
97 125 177
103 129 178
89 117 167
114 138 181
79 110 162
66 101 165
63 99 165
64 98 156
68 102 156
63 99 165
63 99 157
65 100 149
67 101 155
65 100 155
63 98 152
74 106 145
92 120 139
88 117 137
73 105 147
60 95 155
62 98 162
60 95 154
61 97 160
60 97 160
60 96 155
60 95 151
61 97 159
60 97 161
61 96 153
60 96 154
61 97 163
61 96 160
60 96 157
60 96 153
62 98 161
61 97 162
59 95 159
61 97 161
61 97 153
61 97 157
62 98 161
61 97 157
60 96 164
61 96 151
61 98 160
62 98 165
61 97 165
61 97 165
62 98 168
61 97 164
61 98 162
61 97 166
61 97 165
61 97 162
62 98 168
62 98 163
61 97 162
61 97 160
60 97 165
61 97 160
60 96 160
61 97 159
62 99 171
62 98 167
61 97 158
62 98 163
62 98 163
61 97 159
62 98 164
61 98 164
61 97 159
62 98 166
61 96 159
62 98 167
62 99 173
60 96 160
62 98 164
61 97 164
62 99 170
62 98 167
61 97 162
62 98 163
61 97 159
62 98 160
61 98 160
62 98 163
62 98 163
62 99 166
62 99 170
62 99 168
61 98 163
62 98 163
61 98 161
62 98 164
62 98 162
62 98 162
62 98 166
61 97 156
62 98 159
62 99 165
61 98 165
62 98 160
62 98 161
62 98 160
61 98 162
62 98 157
62 98 161
61 97 160
61 98 163
62 97 158
61 97 156
61 97 160
61 97 158
62 98 162
62 98 165
62 98 158
61 98 163
61 97 154
62 98 158
63 98 158
61 96 155
62 98 164
63 99 164
61 97 159
62 97 155
61 97 162
62 99 166
62 98 163
62 98 156
62 98 161
61 97 154
61 97 156
62 98 157
63 99 167
61 97 154
63 99 165
63 99 165
61 97 154
61 97 155
62 98 158
62 98 165
61 96 148
62 98 158
62 98 162
62 97 156
61 96 148
62 98 158
62 98 159
61 97 153
61 97 153
62 98 161
62 97 157
62 97 152
62 98 162
62 97 148
62 98 157
62 98 156
61 97 157
62 98 155
62 97 151
62 98 159
62 97 154
61 96 145
62 98 154
61 96 152
61 96 144
61 97 152
61 96 145
60 95 148
61 95 152
62 97 149
60 96 146
60 95 135
61 96 149
60 94 147
60 94 138
58 92 141
59 92 124
60 93 137
67 87 106
88 83 11
85 82 0
90 86 16
91 89 11
86 82 0
84 81 14
87 84 8
96 95 5
92 89 12
92 89 8
86 81 0
92 91 11
88 88 16
89 87 8
97 94 4
87 85 5
95 96 8
86 84 8
106 103 16
97 93 20
106 102 11
99 95 14
96 94 21
103 102 19
107 104 19
99 97 22
113 109 28
102 100 26
107 105 16
106 103 18
108 107 25
120 116 21
125 122 21
111 108 31
115 112 18
105 104 14
119 115 22
128 123 18
118 113 33
115 113 25
128 123 30
117 114 22
124 120 30
125 120 29
133 128 32
117 114 18
129 125 34
129 125 31
116 112 22
127 124 25
128 123 28
132 126 30
129 123 37
126 122 28
131 126 31
130 127 28
124 120 37
133 127 34
130 127 28
129 125 30
131 127 32
127 124 25
125 120 25
132 126 34
129 124 25
129 124 32
134 129 36
141 137 37
132 128 34
129 125 30
135 130 36
133 128 34
126 121 28
134 130 32
135 130 30
131 126 28
127 122 30
132 128 37
129 124 28
137 133 25
119 115 28
126 122 34
135 130 32
130 124 28
126 121 36
130 126 30
123 119 34
133 129 30
123 117 28
121 116 28
124 119 28
122 118 25
129 124 36
115 110 30
132 126 25
118 112 32
109 104 22
112 108 28
108 102 16
112 112 22
157 168 16
163 178 0
158 169 0
159 167 0
151 163 0
159 170 0
154 167 0
160 176 0
159 174 0
164 180 0
158 172 0
161 178 0
164 180 0
162 179 0
169 186 0
165 181 0
159 176 0
163 177 0
167 185 0
163 178 0
168 183 0
165 182 0
164 180 0
167 184 0
165 184 0
163 178 0
164 181 0
163 181 0
169 185 0
172 192 0
164 183 0
168 186 0
163 181 0
162 180 0
168 187 0
167 188 0
182 204 105
179 202 92
177 200 67
179 201 76
190 210 137
213 229 228
221 234 245
222 236 253
220 234 249
222 235 254
220 235 253
219 233 249
220 235 253
219 234 252
218 233 249
218 234 255
217 233 252
218 234 253
218 234 254
217 233 252
217 233 252
216 232 252
214 231 246
214 231 249
216 233 254
214 231 248
213 231 249
214 231 249
214 231 250
214 232 254
213 230 248
214 231 253
214 231 253
213 230 250
211 229 244
213 231 253
213 230 252
213 230 252
213 231 252
213 230 249
212 230 248
212 230 250
213 230 250
214 231 253
214 231 253
213 231 252
213 231 253
214 231 253
214 231 253
212 230 246
213 230 252
213 231 249
214 231 250
214 231 253
213 231 250
214 231 250
216 232 253
216 232 254
214 231 250
214 231 249
215 231 248
215 231 246
217 233 253
217 233 252
219 234 254
217 233 252
218 233 252
218 233 250
218 233 252
220 234 252
221 235 254
221 235 254
220 235 249
222 236 253
222 236 254
221 235 250
218 232 238
178 195 206
90 119 163
88 118 176
85 115 174
113 138 180
102 129 182
96 124 181
102 128 179
96 124 169
98 125 172
100 127 172
111 135 179
81 112 167
65 100 162
68 102 165
70 103 154
68 102 161
63 99 160
64 99 159
60 95 147
62 96 155
68 102 157
65 100 156
61 97 156
74 106 152
98 126 139
84 115 150
63 98 155
61 96 155
61 97 163
61 97 157
61 96 159
60 96 156
61 97 158
60 96 157
60 96 151
61 97 159
60 96 156
62 98 160
61 97 156
62 98 160
61 97 160
61 97 157
60 96 160
61 97 163
61 97 157
61 98 162
60 96 160
60 96 153
62 98 160
61 97 160
60 96 156
61 97 166
62 98 159
62 98 163
61 97 158
62 99 172
62 98 167
61 97 160
61 97 163
62 98 163
62 98 157
60 96 162
61 96 155
61 97 165
62 98 158
62 98 165
61 97 161
61 98 159
62 98 161
62 98 160
61 97 161
62 98 164
62 98 164
61 97 163
60 96 161
62 98 160
60 96 156
61 98 162
62 98 165
60 96 160
61 97 161
61 97 160
62 98 161
61 97 163
62 99 167
62 99 168
62 98 158
62 98 165
61 98 166
62 98 167
62 99 169
62 99 167
61 96 153
62 98 162
62 98 166
62 99 166
61 97 159
61 98 159
62 98 161
61 98 160
62 98 161
62 97 159
61 97 164
62 98 167
62 99 170
62 98 158
62 99 170
62 98 162
62 98 160
61 97 155
61 97 155
62 98 158
61 97 158
62 98 165
62 98 166
61 97 161
61 97 159
62 98 159
62 98 166
62 98 161
62 98 160
62 98 161
61 97 160
61 97 159
61 97 162
61 97 154
62 98 162
61 97 159
62 98 166
61 97 151
61 97 157
62 98 158
63 99 164
61 97 158
61 97 156
61 97 154
62 97 155
63 99 165
62 98 155
60 96 153
62 98 158
62 98 157
62 98 156
61 96 145
62 97 155
62 99 166
62 97 156
62 98 162
61 96 151
61 98 158
62 98 159
62 98 157
61 97 157
62 98 156
62 98 164
61 97 154
62 98 158
62 97 154
61 96 148
62 98 152
62 97 160
62 98 163
60 96 147
61 97 152
62 98 158
61 97 157
61 96 148
61 96 147
62 98 153
61 96 145
61 96 151
60 95 148
60 95 140
60 95 139
61 96 149
60 94 141
60 94 139
61 96 150
61 95 144
58 91 125
59 94 148
60 94 142
60 94 140
56 88 122
60 93 133
72 85 92
85 83 14
81 76 11
96 90 11
80 75 14
83 80 16
96 91 0
85 80 12
91 87 8
95 93 16
77 76 11
90 86 11
100 97 18
94 91 11
96 93 3
96 94 8
97 94 11
100 97 8
105 101 14
94 94 14
90 87 2
100 97 14
101 98 11
93 91 18
109 106 21
108 105 22
95 93 0
108 107 20
103 99 11
113 110 21
101 99 16
113 109 16
115 111 16
115 112 27
110 107 12
123 120 22
123 120 19
119 117 19
116 115 11
121 118 29
115 112 19
116 112 24
118 113 28
119 115 25
121 116 26
126 122 31
113 109 11
116 114 18
124 119 18
127 123 26
121 118 22
133 128 35
125 121 26
124 121 28
126 121 30
125 120 32
120 117 11
117 114 31
134 128 34
130 126 36
136 129 30
131 125 28
126 123 30
132 129 22
126 123 22
137 134 22
133 128 30
135 131 36
130 124 36
127 125 16
132 126 30
130 126 28
126 123 25
130 124 36
131 125 30
130 126 22
122 118 19
129 124 36
133 127 32
128 123 34
121 117 19
131 126 37
129 124 28
127 121 28
136 131 41
123 119 28
121 118 25
132 129 25
123 118 25
127 123 32
127 120 34
118 112 25
128 123 16
125 119 30
122 117 34
115 109 25
119 114 22
114 108 36
113 108 19
126 130 19
164 176 0
162 175 0
159 173 0
158 171 0
166 179 0
156 170 0
165 180 0
156 166 0
160 173 0
160 176 0
160 172 0
161 175 0
163 177 0
162 176 0
162 177 0
162 176 0
161 176 0
163 181 0
161 175 0
166 181 0
163 180 0
156 172 0
162 176 0
165 182 0
170 188 0
166 184 0
167 185 0
167 186 0
166 186 0
167 187 0
168 184 0
170 189 0
165 183 0
168 186 0
164 183 0
168 187 0
164 181 0
177 200 76
186 207 127
198 216 171
217 231 236
222 235 250
221 235 253
221 235 252
220 234 250
219 234 249
220 234 252
219 234 252
218 234 253
218 233 250
217 233 250
217 233 250
216 232 250
217 233 253
217 233 254
216 232 252
215 232 252
216 232 254
213 230 248
214 231 249
214 231 249
214 231 250
213 230 249
213 230 249
213 231 253
213 231 250
213 231 253
213 231 253
213 230 250
213 230 253
212 230 250
212 230 250
212 230 253
212 230 252
211 229 250
212 230 250
212 230 253
211 229 249
212 230 253
213 231 254
211 230 250
210 229 248
211 229 250
212 230 253
211 229 246
211 229 246
212 230 253
210 228 244
213 231 253
213 230 250
214 232 255
213 231 254
213 231 252
214 232 254
214 231 252
214 231 252
214 230 252
213 230 248
216 232 253
216 232 252
215 232 250
217 233 254
214 231 248
217 233 250
216 232 248
216 232 248
217 232 246
218 233 250
219 234 253
217 233 246
219 234 249
221 235 253
219 234 246
221 235 250
221 235 251
123 146 193
76 108 175
81 112 171
95 123 181
94 122 176
96 124 180
98 125 180
96 124 178
100 127 181
101 127 176
113 138 181
92 120 174
77 108 157
63 99 166
68 102 161
69 103 159
66 100 157
68 102 159
67 101 160
64 99 149
66 101 159
72 104 143
64 99 151
62 97 149
62 98 161
82 113 148
91 121 150
70 103 149
60 95 155
61 97 152
61 97 159
62 98 161
61 97 158
61 97 159
60 96 154
60 95 156
61 96 156
61 97 159
61 97 160
61 97 159
62 98 154
60 96 156
60 96 160
61 97 159
60 95 150
61 97 159
61 97 160
61 97 155
62 98 167
60 96 157
61 98 167
61 97 163
61 97 155
60 96 157
61 97 161
62 99 168
61 98 161
61 97 163
61 97 163
61 97 168
61 98 163
60 97 155
62 98 160
62 98 163
61 97 160
61 97 160
60 96 160
61 97 160
61 96 156
62 98 166
62 98 163
62 98 164
62 98 165
62 97 159
62 98 164
62 98 161
62 98 167
62 98 163
62 99 166
62 98 162
61 98 160
62 98 156
61 97 157
61 98 168
61 97 160
61 97 158
62 98 164
61 97 159
62 98 159
62 98 167
61 97 161
62 98 163
63 99 166
62 98 159
61 96 156
62 99 166
62 98 164
62 98 161
62 98 167
62 98 159
61 97 156
62 98 161
61 97 155
62 97 155
61 97 156
61 97 158
61 97 161
62 97 157
60 96 145
62 99 165
61 97 157
62 98 160
61 96 155
62 98 157
62 98 159
62 98 161
62 97 153
62 98 155
61 97 161
62 98 162
61 97 156
60 96 152
62 98 162
62 98 158
62 98 157
62 98 158
62 98 163
63 99 167
61 96 155
61 97 161
61 97 157
62 98 164
62 98 159
60 96 155
63 99 165
62 98 156
62 98 158
62 97 159
62 98 159
62 97 155
61 97 159
61 97 150
62 98 157
61 97 151
62 98 156
62 98 159
61 97 155
62 98 160
61 97 156
62 98 157
62 98 158
62 98 159
62 98 158
61 97 153
61 97 155
62 98 162
62 98 159
61 97 154
61 97 150
62 98 160
61 96 150
61 96 153
60 96 149
62 97 154
61 97 149
61 96 140
61 96 145
61 96 149
62 97 154
61 96 149
60 95 153
61 96 145
60 95 145
60 95 145
61 95 145
60 95 145
61 96 150
59 93 134
60 94 137
61 96 144
59 93 139
61 95 140
58 92 128
60 93 135
57 89 124
80 90 93
95 91 19
76 73 0
71 67 11
84 80 14
81 79 14
104 99 11
91 87 8
89 85 12
79 77 12
79 74 8
95 91 11
91 87 12
88 85 0
94 92 0
101 97 0
94 90 12
88 85 8
86 85 0
93 90 11
93 92 0
98 96 8
105 103 8
100 95 16
101 99 11
103 99 14
108 107 11
105 103 18
98 95 18
108 105 24
115 112 16
111 107 19
108 105 21
105 104 14
102 100 14
108 105 11
116 114 19
116 111 25
114 111 22
114 111 25
113 110 16
118 114 28
118 114 16
126 124 18
124 120 21
121 118 19
117 113 26
123 121 25
118 115 22
120 116 25
127 123 18
122 119 26
123 118 21
117 115 16
133 129 32
118 114 19
122 118 25
128 123 30
124 120 22
130 126 28
134 128 32
126 120 37
123 119 22
130 126 22
124 120 36
135 130 28
134 129 28
138 132 34
128 123 30
128 123 28
132 127 30
130 127 25
129 122 32
132 127 30
124 120 28
123 119 22
130 126 28
127 123 32
126 121 28
131 125 36
132 128 22
135 129 34
125 119 19
130 124 30
131 126 32
128 122 36
125 118 30
117 112 16
128 122 32
128 120 36
125 120 28
118 112 30
112 106 19
123 118 28
122 117 30
115 109 36
122 115 30
117 113 22
139 143 16
158 168 0
159 171 0
154 165 0
164 178 0
154 163 0
158 171 0
160 175 0
154 166 0
163 176 0
159 171 0
159 173 0
164 178 0
160 174 0
161 176 0
156 169 0
160 173 0
159 172 0
164 179 0
165 183 0
158 171 0
166 181 0
159 175 0
163 180 0
166 181 0
165 182 0
167 183 0
166 185 0
161 180 0
167 185 0
167 184 0
164 180 0
164 183 0
162 178 0
164 184 0
167 185 0
167 184 0
168 185 0
164 182 0
205 222 198
223 236 252
223 236 252
221 235 253
220 235 250
220 235 250
220 235 254
219 234 249
218 233 249
219 234 252
218 233 253
218 233 253
216 232 252
217 233 254
216 232 249
214 231 245
215 232 252
212 230 246
214 231 249
215 232 254
212 230 248
214 231 253
213 231 253
213 231 252
212 230 253
211 229 248
212 230 249
211 230 250
212 230 254
211 229 252
211 230 250
212 230 254
211 230 252
212 230 255
212 230 254
212 230 255
213 231 255
212 230 255
212 230 255
212 230 255
212 230 255
212 230 255
212 230 255
211 229 253
212 230 254
213 231 255
213 231 255
212 230 254
212 231 255
212 231 255
212 231 254
212 230 253
212 230 253
213 231 255
212 230 252
212 230 253
213 231 254
213 231 254
212 230 250
213 230 249
213 231 250
213 231 250
214 231 252
212 230 248
214 231 250
214 231 249
215 231 249
216 232 252
216 232 248
214 231 248
218 233 253
219 234 255
218 234 253
217 233 250
218 233 252
218 233 251
213 227 248
217 231 252
197 212 235
98 125 182
87 117 180
82 113 181
87 117 180
77 109 171
89 118 178
85 115 177
96 124 177
105 131 183
100 127 187
91 120 173
103 129 181
89 118 168
62 98 158
64 99 159
69 103 161
74 106 158
69 102 158
62 97 153
64 99 161
65 100 153
65 100 162
64 99 166
66 100 145
65 99 155
67 101 147
78 109 141
87 116 145
61 96 160
60 96 157
61 96 153
61 97 159
61 97 159
61 96 151
60 96 154
61 97 158
59 95 148
60 96 156
62 98 162
61 98 162
61 97 160
59 94 157
60 96 154
62 98 164
61 97 159
60 96 158
62 98 163
61 97 162
61 97 160
62 98 167
61 98 167
61 97 161
61 97 159
61 97 159
61 96 156
61 97 156
61 97 160
61 97 159
61 97 155
61 97 159
61 96 153
61 97 162
60 96 154
62 98 160
62 98 159
62 98 164
62 98 163
62 98 163
60 97 161
62 98 165
62 98 162
61 97 158
61 97 160
61 96 157
61 98 161
61 97 157
61 97 159
62 98 165
61 97 158
62 98 165
62 98 166
61 98 166
62 99 166
61 97 160
61 97 162
61 97 159
61 97 163
62 98 162
63 99 169
61 97 161
61 97 158
61 97 153
61 97 160
63 99 165
61 98 165
61 97 159
60 96 158
63 99 161
63 99 165
60 96 152
62 98 162
61 97 161
60 96 156
62 97 152
62 98 160
63 99 166
62 99 165
62 98 161
62 97 152
62 98 166
61 97 152
62 98 161
62 98 156
62 98 163
61 97 155
62 98 160
62 98 157
62 97 158
62 98 164
62 98 157
63 99 168
62 98 159
62 98 161
62 98 159
62 97 152
62 97 161
62 98 159
62 98 163
62 99 162
61 97 154
61 97 160
62 98 164
62 97 154
60 96 154
62 98 162
61 96 155
61 97 158
62 98 159
63 98 160
61 97 153
61 97 155
61 97 157
62 98 162
62 98 157
60 96 152
61 97 153
62 97 150
63 99 159
61 96 150
62 97 153
62 97 153
61 97 155
62 97 158
62 98 159
62 97 156
62 98 153
60 96 148
62 98 157
61 96 147
61 97 151
61 97 157
62 97 149
61 96 151
62 97 151
60 96 150
60 95 146
61 96 151
61 96 150
62 98 153
60 96 150
61 96 148
60 95 139
61 96 147
59 93 130
61 95 145
61 96 151
61 96 149
61 95 152
59 93 139
60 93 142
59 93 132
60 94 138
60 94 133
57 90 125
100 111 66
107 110 16
89 84 19
88 86 20
93 89 16
89 84 11
92 87 11
83 80 11
96 93 11
95 91 22
89 86 0
93 90 0
92 89 8
91 87 8
78 76 0
83 80 11
98 94 2
94 93 8
99 95 12
102 98 0
97 93 11
91 89 14
98 95 12
95 92 0
100 97 12
98 95 11
96 92 19
105 102 8
108 104 0
110 106 21
121 116 19
100 98 21
106 104 12
101 100 11
121 118 11
117 113 28
116 112 24
110 107 21
109 105 16
115 110 20
115 112 16
116 111 26
118 114 24
120 117 19
118 113 16
120 116 16
123 120 16
116 112 16
116 112 11
127 125 24
121 117 22
123 120 25
128 124 25
127 122 28
119 115 25
126 122 25
124 118 21
134 129 30
127 123 21
123 117 22
123 117 25
125 122 19
123 119 28
129 124 26
128 124 25
128 124 19
128 124 22
128 124 25
127 122 32
132 126 19
134 128 32
108 105 16
126 121 19
122 117 25
125 119 22
126 122 28
143 136 39
126 121 32
124 118 25
129 124 22
119 113 22
131 127 22
132 125 39
117 112 19
132 127 30
128 123 39
130 123 32
121 116 28
126 121 28
122 116 16
115 108 11
118 111 28
119 113 25
115 108 22
117 111 25
106 101 19
114 117 19
152 161 0
160 169 0
158 169 0
156 168 0
156 168 0
156 165 0
157 167 0
164 179 0
159 173 0
158 168 0
159 174 0
158 169 0
153 166 0
157 169 0
163 178 0
158 171 0
161 174 0
162 177 0
165 183 0
159 175 0
162 175 0
163 179 0
164 179 0
163 176 0
161 177 0
163 180 0
164 179 0
164 180 0
162 180 0
166 183 0
167 187 0
165 181 0
170 187 0
170 187 0
166 183 0
164 181 0
164 182 0
168 187 0
166 184 0
164 182 0
221 235 250
222 236 254
221 235 252
218 233 246
219 234 253
218 233 249
217 232 249
218 234 254
217 233 252
217 233 252
216 232 250
215 232 249
214 231 248
214 231 249
213 230 249
214 231 250
214 231 250
214 232 255
212 230 248
213 231 253
211 229 248
211 229 248
211 229 248
211 229 252
212 230 253
212 230 254
212 230 254
212 230 255
212 230 255
212 231 255
212 230 255
210 229 253
212 230 254
212 230 255
211 230 255
210 229 255
210 229 255
210 229 255
210 229 255
210 229 255
210 229 255
210 229 255
211 230 255
210 230 255
211 230 254
211 230 255
211 230 255
211 230 255
211 230 255
211 230 255
212 230 255
211 230 255
212 230 255
211 230 254
212 230 255
212 230 255
212 230 254
213 231 254
213 231 253
213 231 255
213 231 255
209 227 242
213 231 252
213 231 250
213 231 250
214 231 253
214 231 253
215 232 254
216 232 252
214 231 250
214 230 245
215 232 249
217 233 252
217 233 250
219 234 254
218 233 254
217 232 253
216 231 252
217 231 250
166 184 217
81 112 177
79 111 176
87 117 182
88 117 177
82 113 177
89 118 178
89 118 176
97 124 183
85 115 176
92 120 173
86 116 174
99 125 175
78 109 178
64 100 166
67 101 160
66 101 162
63 98 164
60 96 160
67 101 158
67 102 157
64 99 157
67 100 155
69 103 152
68 102 157
66 101 163
64 99 158
75 107 144
79 110 140
64 97 150
62 98 159
60 96 146
60 95 153
61 97 159
60 96 157
61 97 156
61 97 159
59 95 148
61 97 155
62 98 162
62 98 164
60 96 153
61 97 164
60 96 157
61 97 162
60 96 159
60 96 158
61 96 159
61 97 161
61 97 158
60 96 158
61 97 161
62 98 163
61 97 163
61 97 159
61 97 157
61 96 154
62 98 164
61 97 157
61 97 159
61 97 165
62 98 162
61 97 156
61 97 156
61 97 157
61 97 164
62 98 161
61 97 162
61 97 161
62 98 165
61 97 158
63 98 164
61 97 159
62 99 167
62 98 163
62 98 160
62 98 162
61 97 159
62 97 159
62 98 160
61 96 155
61 98 161
61 97 159
62 97 157
62 98 169
62 98 160
62 98 161
62 98 161
61 97 154
62 99 168
62 98 163
62 98 165
62 98 160
62 98 166
61 97 156
63 99 169
63 99 168
61 98 159
62 98 165
61 97 153
62 98 158
61 97 157
62 98 163
62 98 162
62 98 156
62 98 156
62 97 159
62 98 163
62 98 160
62 98 164
62 98 157
63 99 166
62 98 160
62 98 156
62 98 158
62 98 159
61 97 156
62 98 162
62 98 162
61 97 162
62 98 161
61 97 153
62 98 161
62 98 156
62 98 156
62 98 162
62 98 159
61 98 165
62 98 161
61 96 154
61 97 155
61 97 156
62 98 162
61 97 153
62 98 152
63 99 163
62 98 168
62 97 156
61 97 157
60 96 149
63 98 159
60 96 148
61 98 162
62 98 158
61 97 157
62 97 160
61 97 154
62 98 162
62 98 162
62 98 162
61 97 153
61 97 152
62 98 158
60 96 150
62 98 159
61 97 157
61 97 154
61 96 150
61 97 148
61 97 150
61 96 149
62 98 154
61 97 153
61 96 149
61 97 156
60 94 137
61 96 154
61 96 150
60 95 142
61 96 148
61 96 145
59 94 137
61 96 147
61 96 146
59 94 139
60 95 143
62 97 152
61 96 147
59 93 135
60 95 145
60 94 141
59 93 137
58 91 138
57 89 121
110 115 19
127 130 0
109 112 0
92 88 16
86 83 19
78 73 16
97 91 18
88 83 11
92 86 0
77 73 0
83 79 8
87 82 11
91 87 16
79 76 8
88 86 0
98 94 3
91 87 8
81 78 0
80 77 0
83 80 8
102 98 3
98 97 0
87 83 2
91 88 0
95 94 0
91 90 8
102 99 0
113 108 14
105 102 8
97 95 0
101 99 8
111 109 16
109 105 12
105 102 24
109 106 14
116 114 11
106 104 0
119 115 16
105 100 16
117 113 20
114 109 14
114 113 16
118 115 19
116 111 30
111 108 22
123 119 18
130 126 11
112 108 22
120 115 16
129 124 37
122 118 19
118 114 22
119 115 19
127 123 19
122 117 22
119 116 16
121 118 25
136 131 16
124 119 25
125 121 25
130 125 34
125 120 22
125 122 25
130 124 22
119 116 19
131 125 25
131 127 28
126 122 19
128 123 16
131 126 32
134 128 36
120 114 22
127 123 19
128 123 19
134 129 30
132 126 39
113 108 19
118 113 22
130 125 19
121 118 16
124 121 25
119 112 30
131 125 25
123 118 28
113 109 25
126 121 22
125 119 30
122 116 25
115 110 16
124 118 32
119 113 32
114 109 19
108 102 19
103 97 25
95 91 16
130 134 19
154 163 0
155 164 0
154 161 0
154 163 0
158 169 0
157 168 0
161 172 0
165 178 0
158 170 0
156 168 0
158 174 0
157 172 0
158 172 0
156 168 0
164 178 0
160 173 0
163 178 0
158 172 0
161 177 0
164 182 0
164 181 0
165 181 0
156 171 0
160 174 0
165 181 0
163 178 0
162 177 0
160 176 0
166 182 0
164 180 0
166 187 0
160 176 0
167 186 0
165 182 0
168 185 0
162 180 0
165 183 0
165 184 0
167 186 0
163 181 0
164 183 0
220 235 252
220 234 249
219 234 253
219 234 249
218 233 253
218 233 252
216 232 248
215 232 249
215 231 246
215 232 250
215 232 252
214 231 250
213 231 250
212 229 245
214 231 255
214 231 254
212 230 252
211 229 250
211 229 248
212 231 254
212 230 254
212 230 254
211 230 255
212 230 255
211 230 255
210 230 255
211 230 255
210 230 255
210 229 255
210 229 255
211 230 255
210 229 255
210 229 254
210 229 255
209 229 254
209 229 255
210 229 255
209 229 255
209 229 255
209 229 255
209 229 255
209 229 255
209 229 255
209 229 255
209 229 255
209 229 255
210 229 255
210 229 255
210 229 255
210 229 255
210 230 255
210 229 254
210 229 255
210 229 254
210 230 255
211 230 255
211 230 255
212 230 255
212 230 255
211 230 253
213 231 255
211 230 253
212 230 252
212 230 250
213 230 252
210 229 245
213 231 252
214 231 254
214 231 252
213 230 246
215 231 250
215 232 252
215 232 250
216 233 253
211 227 250
218 233 255
215 230 253
215 231 253
212 227 249
216 230 252
126 149 199
84 115 182
84 115 181
82 113 174
93 122 181
77 109 177
80 111 176
91 120 179
82 113 175
99 126 180
87 117 178
101 127 185
101 127 180
88 116 174
62 98 168
64 99 165
70 104 164
62 98 160
68 101 161
65 101 169
66 101 165
60 96 156
65 100 158
65 99 149
69 102 154
62 97 147
62 96 146
64 99 159
77 109 145
76 106 144
62 98 162
59 95 154
61 97 154
59 95 152
61 97 162
60 96 153
62 98 158
61 97 157
60 96 155
62 98 163
61 97 157
61 98 165
62 97 160
61 96 157
61 97 160
61 96 153
61 97 165
61 97 155
61 97 161
61 96 153
62 98 160
60 96 158
63 99 172
61 97 160
62 98 160
61 97 154
61 98 162
60 96 161
61 96 158
60 97 154
61 96 153
62 98 168
61 97 160
60 96 151
62 98 164
61 97 156
62 98 161
61 96 150
60 96 157
61 98 161
60 95 154
62 98 163
62 98 165
61 97 166
62 98 162
62 98 164
61 97 154
61 97 157
61 96 155
61 97 162
61 97 152
62 98 164
61 97 157
62 99 165
62 97 157
62 98 160
62 98 166
61 97 158
62 98 161
62 97 157
62 98 160
61 97 161
62 98 164
62 98 164
62 98 159
61 97 160
62 98 160
61 97 154
61 97 156
63 99 168
62 98 167
62 98 164
62 98 165
62 98 163
62 98 161
62 98 165
62 98 159
61 96 155
62 98 157
62 98 159
62 98 160
62 97 153
62 98 160
63 99 161
61 97 163
60 96 153
61 98 160
63 99 166
62 98 159
61 96 149
61 97 150
62 98 159
61 97 158
62 98 157
62 98 160
63 99 162
61 97 158
62 98 161
62 98 155
63 99 165
61 97 157
62 98 156
62 98 156
62 97 158
63 99 163
62 97 150
61 97 154
62 98 155
63 98 159
61 98 159
61 97 154
62 97 155
61 97 151
61 97 149
61 96 151
62 97 152
61 96 154
61 97 152
62 98 156
62 97 150
63 99 163
61 97 155
62 97 154
60 95 145
62 97 153
61 96 148
60 96 152
61 97 152
61 97 151
61 96 144
62 98 155
62 97 152
61 97 152
61 96 150
61 95 150
62 97 152
60 95 141
61 96 149
61 96 147
60 95 145
61 96 149
61 97 150
61 96 145
62 97 152
59 93 130
59 93 135
58 91 130
59 92 132
60 94 142
58 92 134
59 93 141
57 89 125
64 93 118
116 118 0
123 129 0
112 116 0
119 123 0
91 89 0
77 73 11
90 86 0
81 76 0
84 79 0
76 72 11
98 92 14
86 82 0
85 82 3
87 83 8
90 85 8
83 79 8
94 91 8
101 98 0
90 87 3
93 89 12
86 85 14
103 99 3
98 94 0
99 96 0
98 95 8
92 89 11
102 99 16
96 92 0
109 104 8
110 108 16
104 100 0
109 105 11
110 106 12
107 103 11
101 98 0
108 107 14
114 111 21
114 110 11
97 92 19
107 103 16
121 117 16
107 104 11
111 108 14
121 116 19
119 116 30
111 107 16
118 115 11
126 122 25
124 120 11
121 117 19
112 109 21
118 114 28
118 114 18
124 120 25
112 108 16
123 119 22
126 121 22
119 116 28
114 112 19
131 126 25
117 114 16
124 119 19
123 120 18
121 118 19
132 126 34
134 130 16
125 122 16
127 120 22
129 125 25
129 123 25
119 115 19
139 133 32
119 114 16
125 118 11
120 115 16
115 112 16
129 124 16
124 117 16
118 112 22
119 115 19
124 117 22
115 111 28
128 123 19
113 108 22
128 122 25
124 120 22
123 117 32
121 115 16
111 106 11
115 110 22
117 111 28
110 104 22
106 99 25
119 117 19
147 155 0
158 171 0
154 164 0
153 164 0
156 166 0
158 169 0
152 163 0
155 167 0
154 168 0
162 174 0
158 170 0
161 173 0
151 161 0
162 175 0
159 171 0
163 179 0
161 175 0
156 170 0
157 170 0
164 180 0
156 169 0
166 181 0
159 175 0
162 177 0
163 178 0
173 191 0
163 179 0
166 182 0
165 181 0
163 181 0
166 182 0
164 182 0
160 175 0
166 183 0
164 182 0
163 181 0
162 180 0
169 187 0
165 182 0
166 185 0
166 183 0
168 186 0
165 182 0
220 234 252
218 234 252
216 232 248
217 233 253
216 232 250
217 233 253
216 233 253
215 231 249
214 231 252
213 231 249
213 231 250
214 231 253
213 231 252
211 229 249
212 230 253
209 228 244
212 230 254
212 230 255
212 231 255
212 230 255
212 230 255
210 229 255
211 230 255
209 229 254
211 230 255
210 229 254
209 228 254
210 229 255
209 229 255
209 229 255
209 229 255
209 229 255
209 229 254
206 226 246
207 226 249
208 227 242
203 222 236
203 223 234
205 224 238
203 223 227
204 223 228
204 223 227
204 223 223
201 220 230
200 220 220
203 222 218
204 224 230
202 222 231
207 225 236
203 222 228
208 226 241
204 223 234
207 226 242
208 228 249
209 229 253
210 229 255
209 229 255
211 230 255
210 230 255
210 229 254
211 230 255
211 230 255
212 231 255
212 230 255
212 230 254
213 231 255
213 231 254
213 231 254
214 231 253
213 230 250
215 232 255
213 231 252
213 231 250
214 231 254
212 229 252
215 231 254
216 232 255
217 233 255
214 230 252
214 229 252
204 220 244
110 136 197
84 115 181
79 111 181
86 116 181
79 111 177
68 103 174
94 122 181
81 112 175
85 115 178
91 119 173
94 122 179
90 119 178
90 119 179
82 113 173
62 98 164
62 98 169
61 97 164
66 101 158
66 101 166
60 96 160
67 101 161
63 98 157
63 99 159
64 98 150
67 101 155
65 100 161
59 94 149
64 98 151
66 99 151
84 113 141
64 100 165
60 95 145
61 96 153
61 97 160
60 96 157
60 96 154
61 96 159
61 97 160
61 96 154
61 97 156
60 96 151
60 96 156
60 96 158
61 97 155
61 97 162
61 97 162
61 97 160
60 95 157
61 97 165
61 97 161
60 96 158
60 96 155
61 97 155
60 96 154
60 96 156
61 97 161
61 97 161
62 99 169
61 97 159
61 96 148
61 97 157
62 98 166
61 97 159
62 98 161
61 97 163
61 97 158
62 98 161
61 97 161
61 97 158
61 97 152
61 98 161
61 97 158
60 96 158
61 97 155
61 97 154
61 97 154
61 97 158
61 97 161
62 98 162
62 98 158
62 97 157
61 97 157
62 98 159
61 97 156
61 97 160
62 98 158
61 97 161
62 97 155
62 98 160
61 97 153
62 97 156
62 98 162
61 97 155
61 98 160
62 98 159
61 97 156
62 98 157
62 98 157
62 97 163
62 98 156
62 98 162
61 97 149
61 97 157
62 97 156
62 98 155
61 97 156
61 97 160
61 97 159
62 98 163
62 98 165
62 98 162
62 98 163
62 98 156
61 97 153
61 96 149
60 96 149
62 98 163
62 98 161
61 97 153
63 98 159
62 98 158
61 97 159
63 98 158
61 97 147
61 97 150
62 98 159
61 97 158
61 98 159
62 98 157
61 97 158
61 97 155
62 97 154
61 97 150
62 98 154
63 99 162
62 98 157
61 97 150
61 96 148
62 98 160
62 97 158
62 98 157
62 97 159
62 98 155
61 97 157
62 98 158
62 98 154
62 98 159
61 97 152
61 96 153
60 96 152
62 98 156
62 98 164
62 98 154
62 98 160
62 97 153
62 98 160
61 97 150
61 97 148
62 97 156
61 96 148
61 97 152
62 98 157
61 96 146
62 97 152
61 96 147
61 95 144
62 97 145
61 97 156
60 95 139
61 96 144
61 95 147
59 93 139
60 94 144
60 93 143
60 95 144
59 93 140
59 92 134
59 93 139
59 93 133
58 91 126
57 90 118
74 97 102
132 139 0
124 129 0
115 119 0
116 121 0
123 126 0
109 112 0
81 75 11
61 57 11
69 64 19
92 87 11
86 82 0
92 86 0
93 89 0
90 86 0
96 92 11
98 92 0
84 81 0
85 81 0
86 82 0
93 89 0
97 91 0
94 91 11
95 90 0
94 89 8
101 97 8
94 92 11
99 94 0
100 97 11
108 104 0
113 107 14
105 102 14
106 103 3
92 89 8
106 103 8
117 114 14
107 104 11
108 104 0
110 108 16
112 107 11
104 100 11
102 97 2
112 107 11
117 112 16
115 112 21
116 113 11
130 126 19
118 112 16
122 117 19
127 121 16
109 104 0
110 108 14
114 110 8
123 118 16
117 112 11
110 106 0
117 114 11
120 115 22
115 111 11
123 119 22
120 118 11
123 118 25
127 124 25
128 124 25
128 122 28
123 118 16
130 124 30
110 105 16
117 110 28
118 115 11
125 120 28
128 121 22
117 112 16
123 119 25
120 114 19
121 117 22
120 115 28
122 117 25
125 120 28
110 106 19
124 120 25
124 119 22
109 104 19
115 111 11
118 113 25
126 120 22
119 116 16
117 112 22
111 106 22
110 103 11
117 111 25
118 112 25
128 122 22
133 134 22
155 164 0
153 161 0
145 153 0
151 157 0
166 179 0
157 169 0
156 167 0
156 166 0
161 171 0
159 171 0
157 170 0
155 168 0
160 171 0
163 178 0
153 166 0
161 175 0
162 175 0
155 170 0
162 177 0
163 179 0
160 174 0
162 177 0
161 178 0
160 176 0
167 183 0
165 179 0
168 184 0
162 178 0
163 179 0
161 176 0
158 172 0
165 182 0
169 185 0
169 184 0
164 179 0
166 184 0
164 182 0
158 173 0
166 184 0
167 187 0
165 184 0
161 179 0
169 189 0
168 186 0
218 234 253
217 233 252
216 232 252
216 233 253
215 232 249
215 231 252
214 231 250
213 230 249
214 231 253
213 230 249
212 230 252
211 230 252
212 231 255
213 231 255
212 230 254
212 230 255
212 230 255
211 230 255
211 230 255
211 230 255
210 229 254
210 229 255
209 229 255
209 229 255
209 229 255
208 228 255
206 226 252
204 224 238
204 224 234
203 222 230
201 220 220
204 222 223
202 220 212
200 218 193
199 218 198
199 219 199
195 214 184
194 213 184
205 223 215
195 214 188
197 217 188
198 217 199
200 219 203
198 216 194
197 216 194
191 211 171
199 217 196
194 213 182
198 216 201
197 216 188
203 220 198
197 216 203
197 216 193
199 218 193
196 215 182
198 216 196
200 219 207
201 221 212
205 224 233
202 221 231
210 229 252
211 230 255
211 230 255
211 230 255
211 230 255
212 231 255
212 230 255
213 231 255
212 231 254
213 231 254
213 230 253
212 230 249
212 229 246
211 228 252
210 227 251
215 232 255
210 227 250
216 232 255
213 229 252
214 230 253
219 234 254
192 209 238
80 111 181
74 107 183
79 111 181
74 107 179
79 110 173
92 121 187
87 117 183
84 114 178
101 128 182
82 113 166
82 112 171
72 105 176
104 130 182
80 111 177
65 101 169
62 98 165
64 99 160
62 98 165
67 101 160
61 97 161
62 97 155
70 104 162
67 102 166
66 101 159
62 97 152
69 103 155
61 97 160
67 101 154
68 102 157
69 102 144
68 101 144
60 96 151
61 97 155
60 95 150
60 96 155
61 96 151
60 96 156
61 97 156
61 96 150
60 96 154
60 96 153
62 98 163
61 97 155
62 98 165
61 97 159
60 96 159
61 97 155
61 97 157
61 96 156
62 98 160
60 95 154
61 96 161
61 98 164
60 96 151
62 98 163
61 97 164
60 96 154
61 96 154
60 95 149
61 97 157
62 98 164
61 97 158
60 95 154
61 97 160
60 96 151
61 98 161
61 97 157
61 97 156
61 97 167
61 97 157
61 97 162
62 98 161
62 98 169
62 98 164
61 97 158
62 98 163
61 97 161
61 97 160
62 98 163
61 97 154
62 98 161
62 98 164
62 98 159
63 99 161
61 96 149
61 97 160
62 98 159
62 98 161
62 98 159
61 97 156
61 97 155
62 98 167
62 97 160
63 99 164
61 97 153
61 97 158
60 96 157
62 98 161
62 98 163
62 98 161
61 97 159
62 98 158
61 97 156
62 98 162
61 97 163
62 97 157
61 96 154
62 98 156
61 97 154
61 97 151
63 99 166
61 96 151
62 98 152
61 96 154
62 98 158
62 99 165
63 99 166
62 98 156
61 97 158
62 98 157
62 98 157
61 97 161
62 98 163
61 97 156
62 98 159
61 97 153
62 98 157
61 97 150
62 98 160
62 98 160
61 97 157
61 96 144
62 98 158
61 97 154
61 97 156
61 97 156
61 97 155
61 97 152
61 97 149
60 95 142
61 97 153
62 98 161
61 97 150
61 97 149
62 97 154
61 96 150
61 97 149
61 96 145
61 96 153
62 97 156
62 97 148
62 97 151
62 97 156
62 97 155
62 97 153
61 97 152
61 96 144
61 96 148
61 96 148
61 96 150
61 97 153
61 96 151
61 96 146
62 97 154
60 96 145
60 95 145
59 93 130
63 98 164
62 98 154
61 96 147
60 94 139
60 95 145
61 95 144
61 96 145
61 96 146
59 93 134
59 92 135
60 94 137
56 88 124
57 90 124
92 108 107
116 120 0
99 101 0
117 120 0
120 122 0
113 117 0
105 105 0
108 111 0
87 85 0
73 69 0
89 83 22
73 71 14
87 82 11
92 86 11
91 85 0
78 73 0
93 90 0
96 92 0
91 87 2
97 91 0
85 80 0
91 86 0
89 85 8
85 83 0
92 87 11
99 93 8
102 98 0
95 91 0
96 93 0
111 108 0
105 100 8
101 98 0
112 108 11
106 102 0
107 103 0
104 101 8
112 108 16
106 102 11
113 109 11
112 107 0
106 103 0
107 103 0
113 110 8
115 110 0
115 111 16
120 115 11
105 101 11
119 115 0
117 112 0
113 109 19
107 103 11
111 107 22
114 109 16
107 103 0
125 121 22
123 118 25
116 111 0
123 117 26
120 115 19
114 109 22
120 116 25
114 110 16
124 120 25
124 119 16
117 112 22
131 126 28
123 117 25
123 118 0
120 116 16
118 115 16
117 111 11
119 113 22
110 106 11
130 125 19
114 109 22
125 120 16
117 113 11
125 119 16
129 126 16
119 114 22
114 109 16
103 99 11
116 111 19
115 108 16
114 109 22
101 96 16
119 112 22
111 107 19
107 101 22
117 112 25
106 102 19
118 117 25
140 145 11
155 162 0
149 158 0
153 163 0
156 167 0
154 162 0
155 167 0
159 170 0
156 167 0
153 164 0
152 165 0
155 164 0
156 167 0
162 173 0
162 174 0
161 172 0
160 174 0
164 178 0
159 172 0
154 167 0
158 170 0
158 173 0
159 174 0
155 170 0
160 177 0
160 176 0
162 177 0
163 180 0
161 176 0
161 180 0
160 174 0
165 180 0
163 178 0
158 174 0
163 179 0
162 177 0
168 185 0
165 183 0
165 182 0
169 186 0
164 182 0
166 185 0
163 182 0
165 183 0
170 188 0
163 179 0
215 231 248
213 230 245
216 232 252
214 231 248
215 232 254
214 232 254
213 231 250
212 230 249
212 230 249
213 231 254
213 231 255
212 231 255
211 230 255
210 230 255
211 230 255
211 229 254
209 229 255
209 229 255
210 229 255
209 229 255
209 229 255
208 228 255
207 227 245
206 225 236
201 220 218
199 218 203
198 217 198
203 221 207
197 215 191
203 221 206
203 221 212
199 217 203
194 213 181
198 216 198
202 221 211
203 221 209
200 218 194
203 220 211
204 221 206
203 219 209
206 222 209
204 221 207
206 223 211
204 221 211
202 219 206
202 220 206
202 220 201
207 224 214
200 218 198
204 221 207
206 223 215
203 221 209
204 221 214
203 221 204
194 213 173
203 221 206
201 219 207
196 215 189
198 216 199
194 213 184
201 219 199
198 218 198
201 220 214
203 223 230
207 225 238
209 228 249
211 230 255
211 230 254
212 230 255
212 231 255
213 231 255
213 231 255
213 231 253
212 230 252
211 229 253
212 229 254
212 229 252
211 227 252
214 230 254
214 230 254
214 230 252
214 229 252
172 190 226
88 119 188
76 109 177
77 109 180
85 116 179
93 122 187
84 114 180
84 115 179
69 103 170
94 123 188
91 120 183
92 120 182
92 121 181
90 119 177
77 109 171
65 100 167
62 97 161
61 98 161
62 98 164
64 99 164
61 98 166
69 103 159
62 98 156
67 100 154
64 99 166
66 101 157
63 98 161
60 96 155
65 99 149
60 95 154
68 101 147
73 106 154
62 97 158
62 98 161
61 96 159
60 95 152
61 97 156
60 96 152
61 97 159
60 96 160
60 96 157
60 96 156
61 97 158
62 98 165
60 96 158
60 96 151
62 98 165
61 97 161
61 97 157
62 98 161
59 95 153
61 97 155
61 97 160
61 97 159
61 97 159
61 97 162
61 97 159
61 97 160
61 97 157
61 97 160
61 97 160
61 98 161
61 96 153
62 98 159
62 98 165
61 97 154
61 97 160
61 97 164
62 98 165
61 97 161
62 98 163
61 97 161
61 97 162
62 97 158
60 96 152
61 98 160
61 97 156
61 96 152
60 95 156
61 97 159
62 98 160
60 96 155
62 98 163
61 96 158
61 97 157
62 98 158
61 97 152
62 98 160
61 97 154
62 98 160
62 98 160
61 98 159
62 99 170
62 98 164
61 97 158
61 97 154
62 97 157
61 97 157
62 98 165
61 97 155
61 97 154
61 96 156
61 97 157
62 98 165
62 98 158
62 98 163
62 98 159
62 97 148
62 98 159
61 97 151
62 98 157
61 97 151
61 97 153
62 98 164
62 97 160
62 98 158
61 97 157
62 98 160
63 99 160
62 98 160
61 97 158
61 97 153
62 98 156
62 98 154
62 97 155
61 97 153
62 98 160
61 97 152
62 98 163
62 97 156
61 97 157
62 98 157
61 97 152
61 96 150
61 97 149
61 96 156
62 98 158
60 96 142
62 98 159
61 96 149
61 97 153
61 97 154
61 97 156
62 98 160
61 96 148
62 98 160
62 98 157
61 96 148
61 97 151
62 97 151
62 97 149
60 95 142
62 98 159
61 97 152
61 97 152
62 97 147
61 97 156
62 97 152
62 97 151
61 97 150
61 95 141
60 95 144
62 97 151
61 96 149
62 97 149
61 97 152
60 95 142
61 95 141
61 96 140
60 95 140
60 95 140
60 95 142
60 95 141
60 94 145
59 94 138
61 96 146
58 92 129
61 95 144
56 88 120
58 90 123
96 110 65
123 131 0
114 120 0
118 122 0
112 113 0
107 111 0
114 118 0
107 108 0
105 105 0
107 104 0
96 95 11
90 85 0
80 77 11
87 80 0
86 83 11
87 81 8
74 72 0
93 89 0
88 84 0
96 92 0
96 91 0
103 99 0
93 88 8
98 95 0
102 99 0
94 89 0
90 87 0
102 99 0
97 94 0
90 88 0
85 82 8
96 92 0
104 100 8
104 100 8
105 100 0
105 102 0
109 106 0
111 105 8
103 99 0
111 107 8
106 103 11
113 108 16
112 108 8
114 109 0
100 99 14
114 110 0
114 109 11
115 113 0
112 108 0
124 119 11
122 116 16
119 114 16
118 114 11
112 109 11
113 108 16
113 109 11
122 117 11
118 113 25
122 118 11
115 113 0
117 112 19
122 116 19
117 112 16
125 119 19
119 114 19
124 120 25
112 105 16
127 122 22
121 117 11
116 110 0
119 114 22
117 113 11
118 113 16
126 119 30
112 108 16
119 114 11
118 112 16
121 115 30
120 115 19
116 109 25
120 114 16
111 107 11
117 109 16
116 111 16
106 101 11
111 105 25
118 111 22
106 100 11
113 107 28
117 112 30
140 148 0
144 150 0
151 160 0
152 160 0
143 150 0
159 172 0
147 156 0
157 166 0
158 168 0
156 167 0
156 166 0
158 168 0
156 169 0
153 161 0
162 174 0
161 171 0
161 176 0
152 164 0
157 171 0
159 171 0
157 171 0
158 172 0
164 180 0
164 179 0
160 175 0
160 175 0
165 182 0
159 175 0
164 181 0
164 179 0
159 173 0
166 182 0
161 176 0
168 185 0
163 179 0
168 187 0
164 179 0
168 184 0
161 179 0
166 184 0
162 179 0
168 184 0
163 181 0
168 184 0
165 182 0
166 181 0
166 185 0
168 187 0
215 232 250
215 232 253
214 231 252
214 231 253
214 231 253
213 231 253
211 230 250
212 230 252
211 229 249
211 230 254
212 230 255
211 230 255
211 230 255
211 230 255
210 229 255
210 229 255
209 229 255
208 228 255
208 227 246
202 221 230
201 220 217
197 217 199
201 220 201
199 218 201
197 216 189
198 217 196
204 221 212
203 221 209
203 221 207
203 220 199
202 220 201
200 218 207
201 218 215
206 223 212
207 223 217
204 221 218
206 222 217
208 225 218
207 223 215
208 224 221
212 227 224
211 227 228
203 220 204
207 224 214
208 225 218
209 225 218
207 224 220
210 226 223
206 222 215
209 224 220
210 226 223
203 219 209
204 221 207
211 227 224
208 224 217
205 222 214
210 226 227
206 223 214
206 223 214
197 215 191
200 218 193
200 217 196
199 217 193
196 215 193
196 214 189
197 216 186
201 220 206
203 222 215
208 227 241
210 229 252
212 230 255
212 231 255
213 231 255
214 231 255
209 227 252
209 227 251
210 228 252
212 229 253
214 231 254
208 225 250
213 230 254
214 230 253
214 230 252
150 170 213
84 115 186
74 108 181
73 107 177
89 118 182
74 107 175
82 113 178
91 120 181
87 116 180
87 117 181
90 119 180
85 115 176
82 112 165
83 113 175
86 115 180
61 97 163
62 99 172
61 97 169
62 98 161
61 98 168
61 97 158
62 97 151
67 102 170
64 100 166
65 100 161
68 101 154
68 102 160
70 103 155
60 96 161
62 97 149
64 98 146
74 106 148
60 96 159
60 95 155
62 98 165
60 95 150
60 96 153
61 97 157
60 96 153
60 96 155
60 96 154
61 97 159
61 97 163
61 97 160
60 95 156
60 96 155
61 97 154
60 96 160
60 96 154
61 97 160
61 97 154
61 96 157
61 98 164
60 96 156
61 97 159
61 97 161
61 96 162
61 97 159
61 97 162
60 95 148
61 96 161
62 98 159
61 97 161
61 97 156
62 98 162
61 97 156
61 97 154
62 98 157
60 96 158
61 97 159
61 97 158
61 97 158
61 97 161
61 97 154
62 98 162
62 98 161
62 98 161
62 98 162
61 96 153
61 97 158
61 97 162
61 97 158
61 97 164
63 99 166
61 97 155
61 97 165
62 98 162
61 97 151
62 98 161
61 97 158
61 97 156
61 97 157
61 97 154
62 98 163
61 97 160
62 98 161
61 97 155
61 97 158
61 97 152
62 98 161
62 98 159
62 98 163
62 97 152
62 98 165
61 97 159
61 97 154
63 99 168
62 98 161
62 99 166
62 97 154
62 98 158
61 96 150
62 98 157
62 98 157
62 98 154
60 95 150
62 98 158
62 98 157
62 98 162
61 97 156
61 97 158
61 97 155
61 97 154
62 97 159
61 96 154
61 97 153
62 98 156
62 97 154
61 97 154
61 97 155
61 96 148
61 97 151
61 97 151
62 98 159
61 97 153
62 97 150
62 97 151
61 97 155
62 98 154
60 96 140
62 97 149
61 97 154
61 96 149
61 97 150
61 97 150
61 96 151
61 96 148
60 96 141
62 98 155
61 97 155
62 97 154
61 96 144
62 98 151
61 97 152
61 97 153
60 95 145
61 97 148
61 97 155
61 96 143
60 95 147
61 96 143
61 96 145
61 96 145
60 95 137
60 94 139
61 96 150
61 96 143
61 96 143
60 95 139
61 96 140
60 95 145
61 96 148
61 95 145
59 94 135
59 93 134
59 92 134
58 92 123
58 92 123
57 89 115
100 109 51
112 117 0
125 129 0
115 119 0
115 120 0
113 117 0
108 110 0
113 116 0
111 111 0
111 116 0
100 98 0
88 87 0
85 82 0
82 77 11
90 82 0
83 77 11
91 85 16
98 93 0
92 87 0
86 82 0
91 86 11
85 82 0
96 91 0
94 90 8
91 86 0
99 96 0
94 90 0
98 94 0
99 94 0
93 89 0
92 89 8
98 94 0
93 91 0
106 102 8
99 94 0
105 100 0
111 106 0
107 103 0
103 100 0
105 102 0
106 101 0
110 106 0
101 99 11
104 101 0
108 105 8
107 103 11
104 101 8
110 106 11
112 109 16
111 108 0
113 107 0
107 103 0
116 111 0
111 107 14
111 106 0
119 114 16
117 113 0
122 117 0
112 108 11
121 117 22
113 109 11
120 115 19
115 109 22
109 103 16
108 104 19
109 105 16
124 119 16
119 113 11
121 116 11
109 105 11
124 119 22
122 116 11
118 112 16
113 109 16
116 111 0
117 112 11
119 114 11
115 111 16
108 103 25
111 106 19
107 101 16
108 103 11
119 112 28
113 105 22
102 96 16
113 107 11
109 101 16
110 103 16
135 140 11
147 154 0
151 157 0
145 152 0
143 153 0
143 149 0
153 158 0
152 162 0
158 169 0
150 155 0
153 163 0
159 170 0
157 167 0
158 171 0
154 167 0
161 174 0
159 173 0
152 164 0
158 170 0
162 176 0
157 168 0
166 181 0
155 167 0
162 177 0
162 176 0
161 175 0
158 171 0
157 171 0
167 183 0
165 180 0
160 176 0
161 174 0
155 171 0
163 178 0
165 182 0
164 179 0
158 173 0
167 183 0
165 179 0
167 182 0
161 178 0
163 181 0
163 179 0
161 178 0
166 184 0
165 182 0
166 184 0
166 183 0
159 177 0
167 185 0
214 231 249
214 231 250
214 232 254
214 231 253
213 231 254
212 230 253
212 231 255
211 230 255
212 230 255
211 230 255
210 229 255
211 230 255
209 229 255
209 229 255
208 228 252
207 227 245
200 220 223
202 221 214
199 218 193
199 218 189
202 221 206
201 219 204
202 220 199
203 220 212
204 221 209
207 224 218
207 224 217
204 221 207
207 224 223
207 223 214
209 225 218
212 227 226
211 226 230
209 225 227
209 225 220
212 227 231
207 223 212
208 225 214
206 222 199
199 217 182
192 210 165
191 210 161
190 210 157
189 210 149
195 214 169
193 212 171
187 207 155
184 204 130
192 211 165
194 212 171
193 212 163
199 217 184
192 211 159
202 219 193
198 216 199
208 224 215
205 221 211
209 225 223
205 222 212
207 224 211
204 221 207
205 222 214
206 222 212
203 221 199
200 219 198
196 214 196
203 220 194
198 217 191
199 217 199
200 218 201
198 216 207
201 219 223
210 229 252
212 230 255
208 226 252
211 229 254
207 224 250
212 229 254
212 230 254
211 228 253
210 227 252
210 227 252
215 231 254
209 226 250
131 154 205
76 109 181
84 115 184
88 118 185
71 105 177
71 105 177
84 115 181
74 107 178
71 105 174
71 104 174
82 113 177
94 122 181
97 124 181
90 119 181
86 115 170
64 100 171
62 98 166
61 97 165
62 98 172
64 100 165
61 96 158
62 99 169
60 96 160
66 100 156
63 99 158
65 100 159
65 100 154
68 102 158
62 96 147
64 98 157
62 95 145
68 101 143
70 102 145
59 94 145
60 95 157
60 96 151
60 95 153
61 97 160
60 95 148
60 95 161
59 95 152
60 96 158
61 97 158
60 96 154
61 97 157
60 96 161
61 97 162
60 95 159
61 97 159
61 97 154
61 98 162
61 97 160
61 97 158
62 98 164
60 95 143
61 96 153
60 96 154
62 98 160
61 97 161
62 98 163
61 97 159
61 97 154
61 97 162
61 97 149
62 98 162
61 97 162
61 98 160
62 98 163
61 97 156
62 97 157
61 97 157
63 98 165
60 96 161
61 97 163
61 97 153
61 96 159
61 96 156
61 97 160
62 98 160
59 95 148
60 96 150
61 97 158
61 96 152
61 98 164
62 98 166
61 96 153
61 97 157
61 97 158
61 97 153
62 97 155
61 97 151
61 97 159
62 98 163
62 98 157
60 96 156
62 98 163
61 97 156
61 97 156
61 97 153
62 98 159
62 98 160
62 98 155
61 97 157
61 97 152
61 97 156
62 98 159
62 98 164
61 97 155
61 97 160
62 98 161
61 96 152
62 97 154
62 97 157
61 97 153
62 98 161
61 97 150
62 98 157
62 98 162
62 98 163
62 97 156
61 97 155
61 96 154
60 95 144
60 96 148
62 97 160
62 98 162
61 97 150
63 98 160
62 97 151
62 98 160
62 97 155
62 97 155
62 97 155
61 96 149
62 97 156
61 97 148
62 97 150
60 96 149
63 99 159
61 97 153
61 97 147
62 97 153
61 97 152
62 98 155
59 94 134
61 97 155
61 97 157
60 96 149
60 96 145
60 96 149
62 97 151
62 97 154
62 97 152
60 94 143
61 97 150
60 96 143
60 94 136
61 96 149
60 95 140
61 96 151
62 97 152
61 96 148
61 96 149
61 96 149
60 94 134
61 96 145
61 96 141
62 97 149
60 94 137
61 96 151
60 95 140
59 93 132
60 94 142
58 91 124
58 92 128
59 92 128
59 91 133
65 94 117
113 118 18
107 109 0
112 117 0
102 106 0
102 104 0
113 118 0
110 117 0
107 109 0
110 111 0
100 102 0
102 104 0
111 113 0
108 109 0
100 96 0
92 86 25
79 75 0
76 71 19
87 82 0
81 74 0
82 78 0
84 81 0
80 75 16
98 93 11
87 84 0
94 89 0
89 85 0
81 77 0
87 84 0
94 89 0
98 95 0
98 93 0
90 84 0
99 95 0
108 103 0
97 94 0
95 92 0
100 96 0
104 99 0
112 107 0
97 94 0
104 100 11
104 100 0
110 104 0
105 100 0
113 108 0
106 102 0
105 102 0
116 110 11
105 101 0
121 115 19
100 97 0
121 116 0
111 106 11
114 110 19
110 104 11
109 105 0
111 107 11
115 110 11
123 116 19
116 112 11
110 106 0
113 109 11
110 106 11
126 122 11
122 117 11
110 104 11
118 113 19
120 114 19
122 117 0
112 107 19
107 102 0
105 100 16
115 110 16
120 114 22
110 104 0
122 117 16
108 103 11
109 102 0
120 114 19
107 102 0
101 96 16
113 106 22
112 106 16
110 104 11
110 103 22
103 100 16
129 133 0
142 147 0
149 158 0
153 162 0
143 149 0
156 162 0
153 162 0
145 152 0
155 163 0
147 157 0
152 159 0
153 163 0
154 163 0
150 162 0
154 166 0
159 171 0
155 163 0
158 172 0
159 169 0
159 171 0
159 172 0
161 175 0
160 172 0
159 170 0
163 178 0
161 173 0
158 173 0
159 173 0
158 169 0
161 174 0
162 178 0
160 176 0
164 179 0
162 180 0
156 170 0
165 182 0
160 176 0
166 183 0
164 181 0
162 181 0
166 183 0
160 176 0
162 178 0
167 183 0
163 180 0
162 179 0
159 175 0
167 183 0
165 182 0
169 187 0
168 187 0
167 183 0
214 231 252
213 231 253
211 229 249
212 231 255
212 231 255
212 230 255
211 230 255
211 230 255
210 229 255
210 229 255
209 229 255
207 227 250
208 227 245
203 222 224
200 218 207
197 216 188
195 215 186
197 216 196
202 220 204
205 222 212
204 221 206
208 224 224
207 223 221
209 226 224
210 225 218
205 222 212
209 225 220
209 225 218
210 226 221
205 222 209
201 219 193
193 212 167
190 209 155
187 208 133
178 200 102
175 197 67
175 198 72
176 199 84
175 198 84
175 199 88
174 197 57
177 200 92
176 199 62
175 198 80
171 195 51
173 196 62
174 197 67
177 200 76
173 197 76
175 198 80
175 199 80
175 198 92
172 196 51
171 194 72
173 196 76
177 200 57
173 197 72
177 200 76
186 206 117
182 203 114
188 207 151
195 214 177
204 220 196
205 222 212
205 221 209
207 224 215
200 217 198
200 217 199
200 217 206
204 222 209
198 216 189
198 216 200
194 212 211
191 209 213
191 210 231
203 222 246
203 222 248
210 228 254
202 221 248
209 227 252
210 228 253
212 229 253
207 225 249
214 231 254
203 219 246
111 136 196
84 115 184
78 111 183
79 111 181
84 115 182
89 119 183
82 114 185
74 107 174
79 111 175
85 115 176
79 110 174
85 115 181
76 108 169
88 117 176
87 117 178
64 100 168
62 98 166
61 97 159
62 99 169
62 98 164
62 98 168
61 97 160
61 97 159
67 102 161
65 99 155
67 101 158
72 105 156
69 103 160
70 102 151
65 99 154
66 99 148
70 103 150
67 101 152
60 95 154
61 97 157
61 96 158
60 95 152
61 96 159
60 96 152
60 96 156
60 95 154
60 96 150
61 97 157
60 96 156
59 94 145
60 96 154
61 97 161
60 97 162
60 96 158
61 97 158
61 98 161
60 95 149
62 98 163
61 97 159
61 96 154
62 98 161
61 97 156
61 96 157
61 97 159
62 98 163
62 98 159
60 96 158
62 98 160
61 97 155
61 97 158
62 98 156
62 98 162
61 97 159
61 97 159
60 96 157
61 97 155
60 95 150
61 97 158
62 98 161
61 97 158
61 98 159
62 98 159
62 98 157
62 98 160
61 96 148
62 98 155
62 98 157
62 97 153
62 97 159
62 98 160
62 98 160
62 97 158
60 96 156
61 97 157
62 98 159
61 96 151
61 97 155
62 98 158
62 98 162
62 98 158
62 99 162
61 97 153
60 96 155
61 96 148
61 97 147
62 98 161
61 97 158
61 97 154
61 96 152
61 97 158
62 98 155
62 98 159
62 98 163
61 97 157
62 98 161
61 97 154
61 96 154
61 96 155
61 97 153
61 97 159
61 97 153
62 97 156
61 97 151
61 97 155
63 99 164
62 98 153
62 98 159
61 97 156
61 97 153
61 97 149
62 97 156
62 98 158
62 97 153
62 98 154
62 98 162
61 96 157
61 97 153
61 97 153
62 97 150
62 97 158
61 96 148
62 97 152
60 96 149
61 97 150
62 97 156
61 97 151
61 96 149
62 97 153
61 96 145
62 97 143
60 96 145
60 95 147
60 96 153
61 97 149
61 96 145
61 97 150
61 97 153
61 96 148
62 98 151
60 96 143
61 96 151
61 96 145
60 95 143
60 95 139
59 94 141
60 95 136
60 94 140
59 94 137
60 95 137
61 96 148
60 95 142
60 95 138
59 93 138
60 95 142
60 94 130
61 96 142
60 94 138
59 92 129
57 91 127
58 92 123
58 91 134
73 92 101
111 118 0
110 116 0
111 115 0
110 110 0
109 114 0
102 101 0
107 110 0
121 124 0
108 112 0
105 109 0
109 111 0
110 113 0
105 106 0
93 96 0
107 108 0
92 92 0
82 77 0
80 75 0
80 74 0
92 86 11
90 85 0
74 72 0
86 82 0
84 79 11
89 83 11
91 85 0
84 81 0
90 85 0
97 93 0
103 98 0
99 95 0
88 83 0
102 97 8
93 87 0
95 90 3
94 89 0
100 94 8
96 93 0
106 102 0
109 104 0
100 95 0
94 89 0
106 102 0
114 109 0
103 99 11
110 104 11
109 104 0
107 102 0
99 96 0
108 104 0
105 99 0
114 108 0
108 104 11
116 109 11
116 111 11
116 112 0
113 108 11
112 107 11
117 112 16
116 110 11
116 109 11
110 103 11
109 106 11
119 113 0
113 109 0
122 117 19
112 106 25
109 104 0
117 110 19
112 108 0
108 103 0
102 98 0
115 110 19
116 112 11
116 111 11
107 102 11
107 102 11
107 100 16
113 108 11
112 106 0
112 105 22
113 107 19
107 101 25
103 101 11
141 146 11
144 151 0
137 140 0
132 136 0
146 151 0
159 169 0
150 158 0
151 160 0
151 158 0
149 159 0
148 158 0
149 159 0
151 161 0
150 157 0
149 157 0
157 170 0
154 165 0
154 165 0
154 162 0
165 178 0
160 173 0
155 169 0
157 165 0
158 169 0
158 172 0
155 169 0
157 173 0
155 166 0
164 178 0
166 182 0
165 178 0
164 179 0
160 173 0
162 176 0
161 175 0
165 181 0
164 178 0
166 180 0
161 177 0
161 178 0
164 181 0
166 182 0
163 181 0
163 180 0
163 177 0
165 181 0
156 172 0
165 182 0
165 183 0
165 183 0
165 185 0
164 183 0
171 188 0
166 184 0
211 229 250
213 231 255
212 230 254
212 230 255
211 230 255
211 230 255
210 229 255
210 229 255
209 229 255
207 227 248
204 223 227
200 218 207
200 218 193
201 220 199
198 216 204
204 221 218
202 219 206
207 223 221
203 220 207
205 222 211
211 226 223
213 229 228
207 223 217
210 226 227
206 222 211
195 214 173
190 210 147
183 204 127
176 199 72
172 196 57
176 200 80
173 197 44
173 197 44
174 197 80
178 202 105
174 198 80
176 199 76
175 199 76
177 200 84
173 197 76
169 193 57
173 197 76
175 199 72
174 197 72
174 197 57
176 200 84
174 198 72
178 201 95
173 196 57
180 202 111
173 196 57
175 199 67
178 201 84
174 198 84
175 198 67
173 196 62
175 198 76
177 200 88
173 196 51
175 198 88
177 200 92
170 194 62
172 196 76
172 196 92
178 201 111
184 205 135
186 206 151
202 219 196
209 224 212
207 223 220
207 224 218
203 221 211
199 216 208
190 208 201
184 202 200
171 191 200
186 206 220
195 214 238
207 226 252
210 228 254
209 227 252
211 228 254
210 227 252
215 232 255
213 230 254
198 215 244
87 117 186
90 120 188
78 111 181
83 114 182
81 113 183
74 107 178
93 122 185
89 119 179
79 111 179
79 111 176
72 105 174
100 127 181
91 120 179
76 108 171
83 113 173
62 99 171
62 98 168
62 98 167
62 98 169
62 98 165
62 98 169
62 98 165
61 97 164
62 97 157
69 103 158
67 102 163
65 99 150
61 97 162
70 103 151
63 98 155
62 96 149
67 101 150
62 97 151
61 98 165
59 94 154
61 97 159
60 95 154
60 96 154
61 96 153
60 96 156
60 95 151
61 97 161
61 97 161
61 98 163
62 97 162
61 97 153
61 97 161
61 97 160
60 96 155
61 97 160
61 97 154
61 97 160
60 96 155
61 97 157
60 96 155
61 97 163
59 95 156
60 97 161
61 97 160
61 97 156
61 97 158
61 97 153
61 97 152
60 96 153
61 97 154
62 98 164
61 98 160
60 95 154
61 97 152
61 97 155
61 97 157
60 96 155
62 99 165
62 97 160
62 98 159
61 97 157
61 97 156
62 97 155
61 97 160
61 97 155
61 97 154
62 98 154
61 97 154
60 97 160
61 97 161
62 97 155
61 97 158
61 97 160
61 97 157
62 98 156
62 98 163
61 97 154
61 97 156
61 97 153
61 96 151
62 97 154
62 98 163
62 98 159
61 97 153
62 98 164
61 97 153
61 97 157
61 97 154
62 98 161
61 97 159
62 98 157
61 97 154
62 97 152
61 97 154
61 97 150
61 97 154
61 96 147
62 97 152
62 97 159
63 99 159
62 97 151
61 98 158
61 97 156
61 96 149
61 97 151
62 98 161
62 98 157
62 98 160
62 97 160
61 97 150
62 98 157
62 98 157
61 97 157
62 98 154
61 97 148
62 97 153
62 97 148
62 97 152
61 97 152
61 97 156
62 97 152
61 96 144
61 96 149
60 96 142
62 97 154
62 98 164
62 98 150
62 97 158
62 97 151
60 95 151
62 97 153
62 97 150
61 97 152
61 96 147
61 97 149
61 96 155
62 97 150
61 96 145
61 96 143
61 96 144
62 97 151
61 96 153
61 96 147
61 95 142
61 96 137
61 96 147
61 96 142
60 95 148
61 96 145
61 96 141
59 93 131
60 95 136
60 94 141
59 93 134
57 90 124
60 94 139
58 92 134
58 92 135
59 93 139
59 92 130
93 108 75
100 104 0
112 114 0
115 118 0
111 113 0
93 97 0
108 114 0
111 116 0
112 114 0
117 120 0
117 121 0
117 123 0
111 115 0
93 96 0
100 100 0
99 101 0
104 103 0
109 108 0
87 85 0
85 81 0
92 86 0
73 66 11
80 75 0
83 79 11
80 72 0
90 85 0
97 90 0
84 76 0
86 79 0
88 82 0
96 89 0
97 90 0
88 83 0
101 94 0
91 87 0
96 92 0
89 86 0
87 81 0
102 98 0
98 94 0
94 90 0
99 96 0
107 102 0
99 96 0
104 98 11
106 101 0
110 104 0
103 97 0
112 106 11
101 95 0
101 94 0
114 108 11
115 111 11
106 102 0
118 111 0
114 110 11
108 104 11
112 107 0
109 105 16
113 111 0
100 95 16
109 103 11
114 109 11
101 96 0
113 108 0
113 107 11
120 114 16
112 106 11
111 108 0
113 106 16
112 105 16
116 108 11
105 99 16
110 106 11
115 109 16
113 108 22
114 107 11
111 105 16
113 104 16
108 101 19
101 94 16
103 96 28
120 119 16
135 134 11
135 137 0
139 143 0
146 150 0
150 157 0
150 159 0
147 155 0
149 156 0
144 151 0
148 158 0
150 156 0
152 162 0
155 164 0
150 158 0
150 159 0
161 173 0
154 164 0
154 166 0
160 171 0
155 166 0
159 168 0
156 165 0
163 176 0
158 171 0
152 161 0
162 177 0
163 174 0
160 175 0
160 173 0
157 172 0
155 168 0
157 171 0
164 174 0
161 175 0
161 177 0
158 172 0
166 181 0
166 183 0
162 178 0
163 178 0
164 179 0
157 172 0
163 178 0
165 181 0
165 181 0
165 181 0
164 179 0
164 180 0
166 184 0
166 185 0
170 189 0
167 185 0
168 189 0
165 183 0
168 187 0
164 181 0
211 230 253
212 230 255
211 230 255
210 229 255
210 229 255
210 229 254
208 228 254
205 224 233
204 223 217
199 218 194
202 220 206
199 217 207
199 216 199
203 220 199
202 220 212
207 223 217
211 227 223
207 222 220
209 225 228
205 221 206
199 217 196
196 214 173
180 202 120
179 201 92
176 199 76
174 197 67
172 197 67
175 197 88
173 196 51
176 199 62
174 198 67
175 198 67
174 198 80
174 197 67
176 200 84
175 199 76
174 198 67
174 198 76
173 196 84
175 199 72
173 196 72
174 198 72
174 197 62
174 198 88
174 198 84
175 198 62
173 197 51
171 196 67
177 200 76
175 198 67
169 193 51
172 196 62
175 199 67
175 198 76
173 197 84
169 193 67
176 200 88
174 197 67
175 198 84
174 198 76
176 199 84
172 196 57
172 194 62
173 196 36
177 200 72
170 193 67
172 195 67
174 198 80
171 195 76
178 201 105
190 209 153
194 210 190
163 184 172
140 163 168
133 157 165
128 151 168
143 166 178
159 179 189
168 188 205
183 203 227
207 225 250
210 228 254
211 228 254
211 229 254
211 228 253
211 228 252
195 213 240
81 113 183
79 111 184
86 117 185
76 109 182
86 117 186
82 114 185
84 115 185
74 108 177
91 120 182
76 109 177
74 107 176
85 115 181
85 115 177
82 112 170
88 117 181
62 98 166
61 97 169
62 98 164
60 96 161
62 98 167
62 98 168
60 96 158
64 99 161
62 98 164
65 100 159
68 102 162
69 103 153
68 102 156
64 98 151
65 99 149
65 99 151
60 96 148
65 99 153
60 96 157
59 95 145
61 97 157
58 93 153
60 96 159
61 97 160
60 96 155
60 95 150
61 96 156
60 95 153
60 95 145
60 96 160
60 96 150
61 97 159
59 95 156
61 96 152
60 96 157
60 96 157
62 98 156
59 94 153
60 96 159
61 97 158
61 97 156
61 97 157
61 98 165
62 97 155
61 97 161
60 96 155
61 97 158
62 98 158
61 97 154
62 97 158
61 97 158
60 96 150
60 96 151
60 96 157
60 96 155
61 97 159
61 97 160
61 97 154
62 98 162
61 97 151
61 96 151
61 96 153
61 97 157
61 96 157
62 97 157
62 98 163
61 96 157
61 97 154
60 96 153
62 98 159
62 98 164
62 98 157
62 98 156
61 96 155
62 98 159
61 97 159
61 96 154
62 98 161
61 97 151
61 97 154
62 97 152
61 96 153
61 97 156
61 97 152
61 97 153
63 98 157
62 98 159
62 98 158
62 97 156
61 97 154
62 97 148
62 97 154
62 98 163
61 97 153
61 97 153
62 97 153
62 98 154
62 98 157
61 97 158
60 95 149
62 98 160
61 97 148
61 97 159
62 98 151
61 96 149
62 97 152
62 98 160
62 97 157
62 98 155
61 96 157
62 98 158
61 97 147
62 98 156
61 97 152
61 96 150
61 96 150
62 97 155
61 97 152
61 97 150
62 97 151
61 96 148
62 98 159
61 97 155
61 97 151
61 96 145
61 96 147
62 98 155
62 97 149
61 96 151
61 96 155
61 97 149
60 95 141
61 96 139
62 98 156
60 95 140
61 96 148
61 97 143
60 95 140
61 96 145
61 97 150
60 96 140
61 96 147
61 96 147
60 95 143
60 96 148
60 95 145
61 95 145
60 94 133
60 94 140
61 96 144
60 95 142
60 94 142
60 94 137
60 94 135
59 93 134
59 93 135
59 93 130
58 92 120
57 90 118
100 109 45
119 125 0
114 118 0
110 117 0
107 112 0
108 110 0
117 119 0
112 115 0
123 126 0
110 114 0
106 111 0
101 102 0
96 98 0
107 107 0
107 107 0
110 111 0
111 116 0
114 116 0
95 95 0
83 82 0
96 93 0
94 92 0
80 78 0
81 75 0
84 77 0
71 65 11
84 78 0
92 85 11
90 85 11
90 83 0
90 83 0
83 80 0
90 83 0
94 88 0
91 86 0
96 91 0
95 89 0
94 89 0
102 97 0
92 88 8
96 91 0
102 99 8
102 97 0
109 103 0
100 95 0
102 95 0
111 106 0
104 100 0
99 94 0
102 97 0
100 96 0
102 97 0
111 107 0
104 98 0
99 94 0
108 103 0
110 104 11
108 102 11
105 102 0
101 95 0
108 104 16
100 95 0
103 98 11
110 105 0
108 101 11
106 100 0
108 103 11
105 100 11
103 96 0
108 101 11
103 96 0
108 100 16
103 97 11
104 98 0
105 98 16
109 103 22
93 87 16
96 90 11
86 79 0
114 111 22
125 123 0
141 144 0
145 147 0
146 152 0
138 143 0
147 153 0
149 154 0
150 157 0
148 154 0
148 154 0
144 151 0
148 157 0
156 165 0
152 158 0
153 161 0
151 160 0
157 168 0
151 159 0
157 165 0
161 172 0
153 163 0
157 169 0
150 162 0
154 165 0
158 170 0
161 175 0
157 170 0
161 175 0
156 168 0
158 172 0
160 171 0
163 178 0
160 172 0
158 167 0
157 169 0
157 171 0
158 171 0
160 173 0
161 175 0
166 180 0
161 176 0
161 175 0
158 172 0
162 178 0
163 179 0
162 177 0
167 184 0
164 180 0
161 175 0
164 181 0
162 176 0
164 180 0
163 178 0
162 178 0
163 181 0
163 182 0
166 184 0
165 185 0
167 186 0
211 230 255
210 229 255
210 229 255
209 229 255
209 228 250
203 222 224
202 220 211
196 216 189
197 216 189
195 214 189
202 220 204
205 223 215
203 220 211
211 227 221
207 223 217
211 227 226
202 219 196
196 214 179
188 208 142
177 200 102
172 196 44
175 198 67
173 196 62
176 199 80
172 196 67
174 197 62
175 198 76
171 195 62
174 197 67
175 199 67
174 197 57
174 197 51
172 196 72
172 196 62
174 197 62
176 200 92
172 195 67
172 194 57
173 197 51
173 197 51
173 196 72
176 199 88
175 198 88
176 199 62
175 199 84
176 199 67
174 197 67
172 196 57
176 200 92
172 196 62
175 198 67
173 197 62
174 198 67
178 201 67
171 195 57
174 198 62
173 196 44
173 196 51
176 199 84
171 195 62
172 196 67
175 197 62
173 196 95
173 197 36
176 199 84
175 199 57
174 197 88
172 195 62
173 196 44
175 198 80
173 196 88
116 141 144
110 137 148
112 138 158
120 146 150
113 139 156
115 142 150
105 132 160
112 138 159
114 140 159
124 148 174
161 182 214
201 220 245
209 227 253
208 226 251
209 226 252
213 230 254
177 196 232
78 111 182
73 107 181
76 109 181
71 105 179
77 110 181
89 118 183
76 108 176
89 119 186
89 119 186
91 120 181
84 114 176
87 117 176
77 109 173
89 118 173
71 104 168
64 99 166
62 98 162
61 97 164
62 99 167
61 97 161
61 97 158
62 98 164
61 97 165
61 98 162
62 97 155
64 99 156
62 97 157
67 102 163
66 100 153
64 98 150
59 94 152
63 98 147
62 98 156
60 96 155
61 96 153
60 95 148
61 97 158
61 97 161
61 96 157
60 95 151
60 95 144
61 96 156
60 96 159
58 93 146
61 97 150
60 96 154
60 96 147
59 95 149
60 96 148
61 97 162
60 96 151
60 96 148
61 98 161
61 97 162
61 98 163
60 95 143
61 97 161
60 96 157
62 98 161
61 97 158
62 98 158
61 97 156
61 97 161
60 96 149
61 97 160
61 96 150
60 96 155
61 97 153
61 97 152
61 97 156
60 95 151
60 96 159
62 98 158
61 96 150
62 98 160
61 97 155
60 96 154
62 98 159
61 97 151
60 96 154
60 96 155
61 97 156
62 98 162
62 98 158
61 96 149
61 97 153
61 97 157
62 97 154
62 98 159
61 96 151
60 96 151
62 98 167
62 98 159
61 97 156
62 97 158
61 97 154
62 97 153
62 98 157
61 97 160
61 97 159
61 97 157
61 97 153
60 95 144
61 97 151
61 96 156
62 98 154
62 98 158
61 97 151
61 97 157
62 98 161
62 98 159
62 98 158
61 97 157
61 97 156
62 97 153
60 96 149
61 97 156
61 97 152
61 97 153
62 97 152
61 97 154
62 97 155
61 97 149
61 96 150
62 97 155
61 97 151
61 97 151
60 96 145
61 97 149
60 95 139
62 98 154
61 97 149
61 96 149
61 97 149
61 96 151
61 97 154
61 96 152
60 95 145
61 96 147
61 97 149
60 96 142
62 97 152
61 97 150
60 95 142
61 97 151
60 96 145
62 98 153
62 97 149
61 96 149
61 96 144
60 96 148
61 96 150
61 96 147
61 97 153
62 97 149
61 96 145
61 97 151
61 95 145
61 96 142
61 96 146
62 97 153
61 96 145
60 95 144
58 91 132
60 94 136
60 94 138
59 93 130
60 94 134
58 93 133
60 93 135
59 93 127
58 91 121
69 95 112
102 107 0
109 112 0
126 133 0
104 108 0
106 109 0
126 130 0
106 108 0
96 99 0
115 118 0
102 108 0
114 120 0
123 128 0
108 109 0
87 89 0
113 115 0
109 111 0
108 111 0
108 111 0
113 112 0
107 109 0
99 97 0
107 107 0
98 96 0
85 83 0
76 71 0
87 80 0
89 82 0
91 82 11
98 89 0
75 71 0
92 84 0
83 79 0
91 87 0
79 72 0
93 86 0
92 84 0
106 101 0
92 88 0
92 86 0
92 89 0
105 97 0
105 100 0
95 89 0
108 101 0
101 95 0
102 98 0
110 105 0
102 95 0
102 95 0
100 93 0
106 99 0
108 101 0
106 99 0
108 103 0
102 97 11
101 96 16
102 98 0
106 100 0
107 102 0
102 96 11
109 103 11
110 102 0
106 99 11
101 94 0
107 101 0
101 94 11
111 104 16
114 109 0
110 104 11
113 105 16
117 107 11
99 93 11
106 100 0
101 95 11
107 102 11
114 107 11
101 95 16
113 111 0
134 136 11
134 134 0
145 150 0
141 148 0
137 140 0
144 148 0
141 145 0
145 153 0
148 151 0
147 153 0
148 157 0
144 152 0
146 154 0
153 159 0
151 158 0
153 163 0
144 153 0
146 158 0
155 163 0
151 159 0
150 159 0
152 164 0
156 168 0
149 157 0
156 167 0
153 164 0
151 160 0
154 164 0
157 167 0
161 175 0
156 166 0
154 164 0
156 169 0
158 171 0
158 173 0
161 173 0
158 173 0
159 172 0
160 176 0
162 178 0
158 174 0
166 182 0
160 175 0
166 182 0
166 182 0
162 177 0
163 177 0
163 179 0
166 183 0
166 180 0
164 179 0
165 182 0
164 180 0
163 180 0
160 175 0
162 183 0
161 178 0
165 183 0
163 181 0
166 185 0
167 186 0
209 229 254
209 229 255
207 227 246
201 221 220
199 218 201
201 219 206
200 218 199
203 221 215
205 222 209
207 223 223
208 225 215
208 224 221
211 227 233
207 223 206
200 218 189
181 202 117
174 197 72
173 197 57
173 197 72
173 196 72
174 197 67
174 198 88
173 196 72
172 196 62
177 199 72
174 198 51
176 200 67
173 197 76
174 198 76
169 194 57
173 197 84
172 196 76
175 199 51
175 199 72
176 200 76
174 197 44
172 196 72
175 199 80
173 197 84
175 199 92
176 199 44
177 200 80
171 195 80
174 198 80
173 196 44
175 199 88
176 200 76
174 198 67
174 198 57
174 197 57
173 197 57
173 197 80
177 201 95
174 197 57
171 195 36
176 199 57
175 198 84
174 197 80
174 196 67
173 196 67
175 198 67
175 199 88
174 198 84
171 195 44
174 197 76
174 198 76
175 198 80
176 199 72
174 197 84
174 197 72
147 171 126
107 134 147
115 141 152
104 132 148
103 130 159
99 127 152
117 143 143
116 143 158
110 136 159
99 127 157
103 131 164
109 136 160
112 138 166
148 169 199
192 210 239
212 230 254
208 226 250
211 228 253
166 186 226
81 113 183
85 116 185
79 111 182
84 114 180
76 109 181
74 107 178
76 109 178
80 112 181
79 111 183
96 124 181
93 122 181
71 104 169
90 118 180
80 111 174
77 109 171
65 100 167
61 98 169
62 98 169
61 97 163
62 98 164
60 96 153
60 96 166
60 96 154
61 97 167
63 98 159
64 100 162
69 103 158
64 99 153
64 98 141
70 104 150
61 97 157
65 99 153
68 101 142
62 97 152
61 97 156
60 96 145
60 95 149
60 95 151
61 97 157
60 96 155
62 97 161
61 96 155
62 97 159
60 95 154
60 96 155
61 96 157
60 96 149
61 96 157
61 97 158
61 97 165
59 95 146
61 96 154
61 97 152
60 96 156
61 97 155
61 97 161
61 97 156
61 97 160
60 96 152
61 97 156
62 97 157
62 98 163
61 97 156
61 97 153
60 96 152
61 97 154
61 97 164
61 97 159
62 99 163
63 99 162
61 97 154
61 96 154
61 96 154
62 98 160
61 97 151
62 98 157
61 97 159
60 95 147
61 98 162
62 98 157
62 97 159
61 97 153
61 96 154
61 96 149
61 97 161
62 98 155
61 97 159
61 97 155
61 97 157
61 96 151
61 96 152
61 97 158
62 98 156
60 95 145
61 97 151
62 98 166
61 97 154
60 95 150
61 97 151
63 99 162
61 97 159
61 97 157
61 96 151
61 96 145
61 97 158
62 98 158
62 97 160
61 97 152
62 97 154
62 98 155
62 98 157
61 97 147
62 98 157
60 96 147
62 97 154
63 99 160
62 98 158
60 96 152
62 98 163
61 96 148
61 96 148
62 98 152
61 97 151
62 98 153
61 97 152
60 96 152
61 97 149
62 97 147
61 97 149
61 96 145
61 96 149
61 97 150
62 98 156
61 97 149
62 98 155
62 98 160
61 97 153
62 97 156
60 95 140
60 95 139
61 96 150
60 95 144
62 97 150
61 96 150
63 98 156
61 97 143
60 95 144
62 97 150
61 96 147
61 97 148
61 96 141
61 96 145
60 94 138
61 96 136
61 96 144
61 96 142
60 94 134
60 95 137
61 96 148
62 97 152
60 94 141
60 94 142
60 95 140
59 93 135
61 95 139
58 93 121
59 93 133
60 95 134
60 94 138
58 91 133
57 89 123
83 98 82
120 123 0
117 120 0
109 115 0
118 124 0
119 123 0
120 126 0
115 120 0
116 122 0
108 111 0
110 116 0
103 106 0
103 107 0
114 118 0
120 121 0
116 120 0
114 117 0
101 102 0
108 109 0
114 115 0
89 86 0
104 103 0
97 97 0
90 93 0
97 94 0
87 87 0
105 104 0
90 85 0
82 80 0
75 70 0
89 80 0
96 87 0
83 77 0
96 90 0
92 86 0
92 83 0
83 77 0
106 100 0
84 79 0
102 95 0
98 93 0
90 86 0
107 98 0
101 94 0
99 92 0
107 101 0
95 89 0
98 91 0
101 96 0
86 80 0
101 95 0
105 98 0
100 92 11
105 98 11
109 103 11
100 95 0
106 101 0
96 90 0
99 93 0
112 106 11
104 98 0
107 101 0
109 102 0
92 86 0
96 90 0
103 97 11
104 98 0
108 100 0
104 97 0
101 94 0
106 100 0
103 94 11
101 94 19
99 91 11
107 101 19
115 113 0
131 130 0
142 145 0
143 147 0
137 139 0
137 142 0
132 135 0
136 138 0
146 152 0
148 152 0
141 143 0
149 152 0
146 153 0
143 147 0
152 159 0
145 152 0
142 148 0
150 159 0
143 151 0
156 164 0
154 164 0
156 165 0
149 157 0
150 160 0
157 166 0
158 166 0
159 171 0
156 166 0
152 161 0
162 176 0
151 162 0
148 159 0
152 164 0
161 174 0
154 165 0
156 171 0
160 173 0
152 167 0
158 173 0
159 172 0
162 178 0
161 177 0
163 177 0
161 177 0
162 177 0
161 178 0
159 175 0
164 178 0
161 176 0
165 180 0
158 174 0
160 177 0
167 185 0
160 174 0
162 178 0
164 180 0
166 182 0
163 180 0
164 181 0
165 180 0
166 184 0
166 184 0
167 187 0
165 184 0
168 187 0
208 227 249
202 221 217
198 217 194
203 222 207
203 220 201
201 219 201
209 226 224
204 221 218
207 223 211
210 226 224
208 224 217
200 217 184
177 199 92
177 200 80
177 200 80
171 196 67
172 196 84
173 196 62
175 198 51
174 197 62
174 197 80
173 197 80
174 197 57
177 200 99
173 197 51
171 195 72
173 196 88
175 199 67
172 196 44
169 193 67
174 197 80
174 197 84
170 195 76
171 195 57
174 198 67
174 198 51
175 198 44
174 198 72
173 197 57
173 196 84
174 198 76
173 198 76
172 195 67
175 198 72
175 198 95
176 200 72
174 197 57
174 197 62
174 197 57
175 199 72
174 197 67
175 198 80
175 198 76
175 199 88
175 199 92
174 198 92
175 198 57
174 197 62
174 197 62
172 196 72
173 197 76
174 197 72
174 198 84
173 196 62
175 199 80
173 196 76
174 198 62
175 198 88
175 198 88
174 196 76
133 159 137
100 127 154
97 125 157
109 136 158
99 127 152
106 134 159
106 133 158
114 141 165
102 129 141
118 144 165
106 133 171
98 126 172
106 133 159
108 135 168
100 128 162
151 173 205
197 215 244
211 229 254
210 228 252
147 168 214
73 107 182
76 110 185
81 113 185
68 103 180
71 105 176
79 111 178
74 107 177
68 103 174
74 107 176
79 111 176
82 113 178
89 118 178
97 124 188
82 113 177
74 106 163
64 100 167
62 99 171
61 98 163
61 97 165
67 102 165
60 96 157
61 97 161
61 97 161
64 98 151
62 98 161
68 101 153
61 97 151
75 107 145
67 100 155
68 101 153
63 98 156
63 97 150
64 98 153
60 95 147
59 95 147
59 94 142
60 95 146
61 96 151
62 97 156
60 95 148
60 96 156
61 97 156
60 96 153
61 96 152
60 95 155
60 95 148
59 94 150
60 95 153
60 95 150
61 97 165
61 97 158
61 97 158
61 97 160
61 96 151
62 98 160
61 96 146
61 97 153
62 97 155
61 96 152
60 95 149
61 97 157
61 97 156
61 98 162
60 95 149
61 97 156
62 97 158
60 95 147
61 98 160
61 97 159
61 97 159
62 98 157
61 96 149
61 97 155
61 97 150
61 97 154
61 97 155
61 96 151
62 98 157
59 95 149
62 98 159
61 97 155
61 96 154
61 97 153
63 98 164
61 96 152
62 98 164
61 97 157
61 97 153
61 97 160
61 97 152
62 97 153
61 97 149
61 96 152
61 96 145
61 97 157
61 97 157
61 96 154
62 97 154
61 97 149
62 98 155
63 99 169
63 99 161
62 97 154
62 97 152
62 97 156
62 98 156
60 95 140
61 97 156
61 97 154
62 98 159
62 97 155
62 98 160
60 95 145
61 97 153
62 97 152
62 97 153
60 96 149
62 97 154
59 95 142
62 97 157
62 97 155
62 98 159
61 96 150
61 97 158
61 97 150
62 98 158
61 97 154
62 97 151
61 97 150
61 96 142
60 96 142
60 96 141
61 97 153
62 97 154
62 98 154
61 97 145
62 97 157
60 96 145
61 96 148
62 98 160
61 96 144
61 97 148
62 97 154
61 97 152
61 96 142
60 95 146
60 96 148
60 95 139
62 97 152
60 94 136
61 95 141
59 94 135
60 94 137
61 96 143
61 96 147
61 96 141
60 95 139
60 95 141
60 94 133
61 96 142
60 94 140
60 94 131
59 93 131
61 95 133
59 93 125
59 93 133
58 92 131
59 93 134
59 92 133
58 91 132
108 120 60
118 127 0
108 112 0
123 128 0
116 121 0
105 107 0
106 109 0
110 114 0
102 104 0
100 105 0
105 109 0
106 109 0
107 112 0
111 115 0
114 117 0
103 107 0
110 112 0
111 112 0
93 92 0
105 106 0
109 110 0
111 111 0
118 119 0
102 105 0
108 107 0
106 104 0
91 88 0
93 94 0
93 91 0
101 99 0
92 89 0
83 77 0
82 76 0
89 83 11
70 64 0
81 75 0
76 70 0
92 86 0
91 83 0
90 84 0
96 89 0
97 87 0
79 75 0
90 86 0
92 88 0
95 88 0
93 86 11
97 90 0
95 88 0
94 90 0
92 85 0
96 87 0
91 85 0
86 79 11
97 90 0
97 91 0
105 97 0
103 96 0
101 93 0
107 101 0
102 96 11
100 94 11
107 103 11
94 89 0
100 93 0
107 99 16
96 91 0
107 101 0
99 92 0
101 93 0
100 96 16
115 114 0
119 115 0
131 128 0
129 129 0
131 132 0
133 136 0
139 140 0
134 140 0
144 147 0
138 138 0
138 140 0
144 149 0
147 151 0
136 137 0
142 149 0
143 149 0
143 151 0
151 158 0
145 152 0
142 145 0
145 152 0
153 160 0
150 158 0
150 158 0
151 160 0
152 162 0
155 165 0
157 167 0
156 166 0
156 166 0
163 175 0
152 162 0
153 166 0
157 168 0
153 164 0
157 168 0
153 164 0
157 168 0
159 175 0
157 169 0
155 170 0
163 177 0
159 172 0
165 178 0
162 175 0
162 179 0
161 178 0
156 170 0
161 173 0
165 182 0
162 178 0
156 171 0
163 178 0
164 179 0
170 187 0
163 179 0
162 177 0
163 180 0
162 180 0
160 177 0
160 177 0
158 174 0
163 181 0
164 183 0
164 183 0
166 184 0
164 181 0
163 183 0
167 184 0
200 219 199
202 220 207
200 218 198
202 219 194
207 223 212
206 222 214
206 222 218
211 227 223
199 216 188
183 204 137
170 194 76
173 196 36
174 197 67
175 198 72
176 200 76
172 195 44
175 198 80
175 199 67
173 197 72
176 200 67
175 197 76
177 201 88
172 196 62
174 198 44
174 197 72
172 196 57
172 196 80
175 198 76
174 196 67
173 197 67
175 198 67
174 197 67
173 197 67
174 197 62
175 198 67
175 199 84
172 197 57
174 197 57
175 198 84
171 195 76
173 198 80
172 196 57
171 195 51
175 198 72
170 194 72
173 197 76
172 197 67
172 196 67
173 196 44
174 198 80
173 196 72
172 197 80
174 198 80
173 197 76
171 195 72
174 197 76
173 198 84
172 196 57
176 200 88
174 197 67
172 196 57
171 194 67
173 196 62
171 194 36
176 199 72
173 197 76
175 199 92
175 197 80
174 197 80
174 198 72
129 155 121
91 120 147
98 126 164
104 132 153
103 130 157
108 135 153
104 131 155
103 130 144
97 125 149
113 140 161
122 147 149
104 132 156
116 142 157
89 118 162
98 126 160
106 133 161
95 123 156
152 173 203
204 222 246
210 227 252
133 156 207
78 111 186
84 115 187
77 110 182
79 111 183
81 113 181
71 105 179
65 101 174
77 109 179
82 113 181
79 111 178
89 119 183
87 117 179
79 111 176
87 117 180
76 108 170
61 97 163
61 98 167
62 99 170
61 97 158
62 98 162
61 97 160
61 97 162
61 97 164
62 97 149
59 95 151
60 96 158
62 97 148
65 99 158
62 97 149
67 101 151
63 98 151
66 100 153
64 99 149
60 95 151
59 94 151
60 95 151
58 93 137
60 96 153
60 96 157
60 96 160
61 97 158
60 95 150
60 95 149
60 96 152
59 94 147
61 97 154
61 97 157
61 97 155
61 96 157
59 95 145
61 97 158
61 97 153
60 96 153
59 95 151
60 96 154
61 97 160
61 97 160
61 97 155
61 97 156
60 96 154
61 97 157
60 95 149
61 97 157
61 97 156
61 97 154
61 96 148
62 98 158
61 96 149
59 94 147
59 95 153
61 97 158
62 98 156
62 98 157
61 97 154
62 98 159
61 96 151
62 98 163
61 97 156
61 96 144
62 98 162
61 97 158
62 98 164
61 97 155
60 96 144
61 96 145
61 97 154
61 97 151
61 96 150
61 97 160
62 98 157
61 96 145
62 97 156
62 97 154
62 98 154
61 97 154
63 98 162
62 97 152
61 96 147
61 97 155
61 97 152
61 96 156
61 96 155
61 97 151
62 97 153
62 97 155
62 97 149
62 98 160
61 96 141
63 98 155
62 98 155
62 98 157
61 96 148
62 97 152
62 98 154
61 96 148
61 97 151
61 96 150
61 96 147
61 96 152
62 98 153
61 97 153
59 94 139
60 96 148
62 97 151
61 97 152
61 96 145
61 97 148
61 97 147
61 97 151
62 97 152
61 96 142
63 98 156
61 97 149
61 96 151
61 96 148
61 97 147
60 96 153
63 98 157
61 97 147
61 97 156
62 97 151
60 95 144
62 97 151
62 97 150
62 97 150
60 95 145
61 96 151
61 96 136
59 94 137
61 96 149
61 96 147
61 96 149
60 95 135
60 95 138
59 94 134
60 95 144
61 96 149
60 94 137
59 93 140
60 94 140
59 93 135
59 93 139
59 92 139
59 93 131
59 92 128
59 92 129
60 94 128
58 91 129
60 91 121
110 116 18
104 111 0
125 133 0
100 110 0
109 117 0
104 111 0
114 121 0
106 108 0
111 117 0
117 124 0
108 111 0
111 113 0
101 103 0
117 122 0
109 113 0
108 110 0
103 108 0
108 109 0
108 107 0
99 98 0
99 101 0
105 106 0
106 104 0
122 123 0
99 102 0
100 100 0
97 100 0
96 97 0
82 80 0
103 104 0
102 100 0
88 87 0
109 110 0
102 98 0
111 108 0
97 95 0
93 87 0
94 89 0
86 80 0
89 81 0
89 81 0
82 74 0
87 80 0
94 87 0
91 86 0
91 84 0
90 82 0
92 86 0
94 88 0
101 95 0
96 88 11
100 92 0
75 70 0
87 79 0
81 74 0
90 83 0
88 80 11
86 80 0
88 81 11
95 89 0
95 88 11
100 92 0
107 101 0
105 95 16
100 90 0
96 88 0
100 92 11
113 112 0
124 124 0
126 124 0
118 119 0
136 138 0
131 125 0
123 122 0
131 134 0
133 131 0
138 140 0
138 141 0
133 135 0
130 132 0
130 131 0
135 138 0
137 139 0
146 153 0
146 150 0
141 146 0
144 148 0
144 150 0
141 149 0
145 153 0
145 155 0
160 167 0
153 161 0
152 161 0
147 153 0
151 157 0
152 162 0
150 163 0
148 156 0
156 165 0
155 165 0
154 166 0
160 170 0
155 168 0
162 174 0
155 166 0
155 167 0
147 157 0
154 167 0
156 168 0
161 173 0
162 174 0
158 172 0
159 175 0
161 176 0
162 176 0
163 174 0
161 173 0
162 177 0
161 172 0
158 171 0
166 178 0
162 175 0
165 179 0
160 173 0
163 179 0
161 179 0
159 173 0
161 176 0
164 182 0
158 176 0
160 174 0
165 180 0
162 179 0
165 183 0
168 185 0
164 183 0
169 187 0
166 183 0
166 185 0
205 223 217
201 219 203
205 223 215
207 224 215
212 228 230
208 224 217
198 216 175
177 199 80
175 198 57
173 197 72
176 199 76
174 198 67
173 196 62
175 198 80
176 199 84
176 199 80
174 197 92
174 198 76
175 198 67
173 197 84
175 198 67
170 194 36
171 194 51
173 196 76
172 196 80
174 198 62
175 198 76
173 197 76
171 194 62
175 197 62
175 198 88
171 195 51
173 197 95
172 196 72
172 196 76
175 198 72
176 199 84
175 199 80
171 194 44
174 197 67
172 195 57
174 197 67
171 196 57
172 196 67
173 197 57
172 195 72
171 195 76
175 198 76
175 198 57
170 194 76
173 196 67
175 198 44
175 199 84
171 195 67
173 197 80
174 198 76
173 198 67
173 196 72
171 194 67
174 197 67
174 198 72
175 199 72
176 200 84
172 195 67
173 197 67
171 194 72
174 198 92
175 198 72
172 195 72
171 195 67
129 154 126
105 131 154
95 123 148
103 131 156
87 116 154
96 125 154
110 137 152
101 128 148
105 132 143
111 138 154
99 127 154
105 133 169
124 150 153
113 140 155
93 121 161
104 132 154
102 130 167
96 125 166
98 126 173
156 177 202
204 222 248
111 137 198
76 109 183
71 105 181
79 111 181
79 111 182
79 111 183
65 101 176
76 109 179
79 111 177
82 113 181
79 111 179
87 117 181
82 113 176
71 105 171
85 114 173
71 104 172
65 100 168
64 100 172
60 97 167
62 97 163
62 98 166
63 99 163
64 100 160
61 97 159
62 98 163
61 97 158
64 99 159
65 99 152
66 100 148
65 100 157
59 95 147
61 96 147
66 100 154
59 94 154
61 96 154
61 97 155
60 96 150
60 95 153
61 97 158
61 97 155
59 95 146
60 95 140
61 97 155
60 95 157
61 97 155
61 97 156
61 96 151
59 94 141
60 96 154
61 97 155
61 97 156
61 96 154
60 96 154
61 97 158
61 96 155
62 97 158
59 94 148
60 96 150
60 96 150
59 95 145
61 97 159
61 96 153
62 98 157
61 97 153
61 97 154
62 98 161
61 97 157
61 96 157
61 97 157
60 95 149
61 97 154
60 96 145
61 97 152
61 97 151
60 96 156
60 96 148
61 96 149
61 97 154
62 98 157
62 98 158
61 97 150
62 97 155
62 97 149
62 98 157
60 95 144
61 97 156
61 97 157
62 98 160
61 96 150
61 97 157
61 97 151
62 97 160
61 96 143
61 96 148
61 97 154
62 97 151
62 98 161
61 97 155
62 98 157
61 96 148
62 97 156
61 96 151
61 97 152
61 96 151
61 97 154
62 97 155
62 98 155
61 97 153
61 96 151
61 96 147
61 96 151
62 97 155
62 97 153
62 97 155
62 98 152
60 95 142
61 96 148
62 97 157
61 97 150
61 97 150
62 97 154
61 96 145
60 95 147
61 96 150
61 96 157
61 96 147
60 96 147
62 97 153
62 97 148
59 94 144
60 95 143
61 97 151
60 95 142
61 96 148
61 96 150
62 98 155
61 96 142
61 96 148
61 96 144
61 97 147
60 96 143
61 97 149
60 96 142
61 96 144
61 96 144
61 96 152
62 97 148
61 96 143
59 94 140
58 92 134
61 96 144
60 95 150
62 97 148
61 96 139
60 94 136
60 95 135
60 95 140
60 95 143
60 95 134
60 95 136
62 97 148
59 92 124
61 96 146
58 91 133
56 88 110
58 91 118
59 92 125
59 92 132
79 100 110
113 121 0
131 138 0
105 112 0
117 124 0
116 127 0
114 120 0
110 117 0
108 113 0
90 93 0
110 116 0
121 126 0
108 111 0
105 110 0
109 114 0
109 113 0
95 98 0
112 116 0
98 98 0
103 105 0
119 122 0
122 127 0
115 115 0
105 104 0
98 99 0
103 100 0
96 94 0
106 106 0
97 97 0
102 103 0
96 96 0
107 105 0
97 95 0
85 82 0
103 104 0
98 99 0
96 93 0
116 114 0
86 80 0
97 93 0
102 98 0
109 107 0
95 89 0
93 87 0
98 92 0
86 79 0
87 81 0
89 82 11
92 84 0
86 79 0
79 71 0
86 79 0
89 82 0
88 82 11
80 74 0
94 86 0
95 88 0
98 93 0
95 86 0
93 85 0
96 89 0
110 107 0
112 106 0
118 115 0
106 104 0
114 112 0
126 123 0
115 114 0
126 125 0
126 126 0
138 140 0
133 133 0
130 133 0
129 128 0
128 130 0
134 137 0
130 130 0
130 133 0
130 133 0
149 154 0
139 142 0
144 147 0
146 149 0
133 138 0
142 151 0
146 152 0
140 148 0
154 161 0
153 162 0
144 152 0
146 153 0
144 151 0
149 156 0
153 163 0
153 162 0
144 150 0
153 163 0
158 169 0
155 165 0
149 160 0
156 167 0
149 160 0
153 164 0
154 167 0
155 167 0
156 167 0
159 172 0
159 170 0
152 166 0
158 168 0
156 169 0
157 171 0
158 173 0
158 172 0
158 171 0
155 169 0
158 167 0
161 176 0
153 165 0
162 177 0
164 179 0
160 173 0
159 172 0
159 173 0
157 171 0
159 175 0
164 179 0
168 186 0
160 176 0
170 186 0
161 177 0
164 181 0
164 179 0
159 175 0
167 183 0
169 187 0
166 183 0
167 186 0
166 186 0
164 182 0
167 187 0
203 220 206
198 214 199
209 225 221
202 220 194
188 207 151
175 198 80
174 197 72
172 196 80
175 198 88
175 198 62
174 197 95
176 199 84
175 198 80
175 198 72
174 197 84
172 196 62
175 199 72
175 199 72
172 196 80
176 199 51
175 198 62
176 199 67
173 198 72
173 198 72
175 199 76
175 199 62
170 194 62
176 199 62
174 198 67
177 200 80
172 195 67
174 198 92
174 198 84
175 198 80
173 197 67
174 198 67
172 196 67
174 197 67
173 196 57
173 197 76
170 194 51
176 199 72
173 197 92
171 195 84
169 193 36
170 194 62
173 197 76
175 199 84
172 196 67
172 195 57
171 195 57
171 194 67
177 200 84
173 197 95
176 200 80
172 195 36
174 198 84
175 199 84
172 195 72
174 196 80
174 197 72
174 198 84
173 196 62
175 198 62
173 196 57
176 200 92
174 198 88
175 199 57
175 199 67
173 197 76
148 172 105
89 119 151
100 128 157
98 126 144
99 126 151
94 123 153
88 118 143
104 130 153
104 131 152
111 138 163
108 134 157
97 125 147
106 133 153
108 135 161
109 136 148
107 134 154
105 132 163
95 123 167
101 128 161
113 139 153
122 146 177
174 193 217
104 131 195
68 103 181
83 115 188
81 113 184
79 111 182
73 107 181
78 110 178
84 115 181
84 115 181
71 105 177
74 107 178
85 114 173
85 115 180
79 110 173
93 121 181
68 102 172
62 98 171
62 98 168
61 98 164
61 97 156
61 97 158
61 97 160
61 97 160
61 97 164
60 95 155
60 96 153
59 95 148
61 96 155
66 101 157
75 107 148
62 96 153
66 99 146
64 98 149
61 96 154
59 94 142
59 94 153
59 94 149
60 96 150
58 93 143
61 96 153
59 95 156
61 96 155
60 96 156
60 95 144
59 95 148
60 95 148
61 96 147
60 95 147
61 96 145
60 95 143
61 96 151
61 97 158
60 95 148
61 97 154
61 96 152
60 96 154
61 97 156
61 97 152
61 97 152
59 95 152
61 96 148
61 96 151
60 95 144
62 98 157
60 96 149
60 96 155
60 96 152
60 96 151
61 97 154
61 97 153
61 97 147
61 96 148
61 97 154
61 97 150
62 97 159
61 96 156
63 98 155
61 97 151
62 97 156
62 98 153
62 98 157
61 97 154
60 96 142
61 96 150
60 96 149
61 97 158
62 97 153
61 97 150
60 96 148
60 95 145
61 97 152
61 96 149
62 97 153
61 97 158
62 97 152
61 97 151
61 97 154
62 98 157
61 96 151
61 97 149
62 98 161
63 98 161
61 96 149
61 97 151
61 97 153
62 97 153
61 96 147
61 97 153
62 97 152
62 97 152
61 96 147
62 98 154
60 95 143
61 96 149
62 97 155
60 95 137
61 96 152
62 98 157
61 97 148
61 96 143
61 97 151
62 98 152
61 97 151
60 96 142
61 97 157
61 96 141
62 98 155
62 97 152
62 98 153
61 96 149
60 96 144
61 96 148
61 96 147
61 96 148
61 95 136
60 95 143
61 96 141
61 96 149
60 95 142
61 96 151
59 94 136
61 96 137
61 96 141
60 95 145
60 95 145
60 95 139
61 96 137
61 96 154
60 95 142
61 96 145
61 96 148
60 95 139
60 95 135
61 96 142
61 96 143
60 95 139
60 95 136
60 95 140
59 94 129
59 94 134
60 94 146
59 93 133
59 93 126
58 92 125
59 93 127
58 92 120
57 90 127
89 102 63
114 122 0
116 123 0
111 117 0
106 113 0
116 123 0
108 113 0
93 100 0
122 127 0
98 103 0
109 118 0
110 117 0
113 119 0
110 114 0
106 107 0
115 120 0
107 113 0
107 114 0
113 117 0
109 114 0
112 114 0
114 118 0
108 111 0
102 105 0
110 110 0
118 120 0
108 109 0
104 104 0
111 110 0
109 109 0
111 113 0
100 102 0
95 92 0
95 93 0
107 107 0
109 108 0
106 106 0
109 107 0
101 99 0
105 103 0
99 96 0
107 104 0
105 102 0
87 85 0
95 90 0
111 110 0
96 91 0
96 93 0
106 104 0
106 102 0
104 102 0
116 114 0
110 108 0
106 101 0
103 98 0
124 121 0
107 106 0
117 112 0
119 115 0
126 123 0
119 119 0
119 117 0
115 112 0
127 129 0
125 127 0
130 130 0
128 127 0
126 124 0
118 119 0
125 125 0
129 128 0
117 117 0
131 132 0
140 143 0
135 135 0
138 140 0
151 156 0
135 138 0
142 147 0
147 153 0
142 144 0
145 150 0
139 143 0
143 145 0
144 150 0
147 152 0
146 155 0
147 152 0
148 157 0
146 154 0
148 154 0
143 149 0
146 154 0
152 160 0
152 161 0
148 155 0
147 156 0
148 157 0
154 165 0
154 164 0
157 170 0
148 157 0
153 163 0
161 174 0
158 168 0
150 162 0
161 174 0
157 168 0
158 173 0
159 171 0
162 175 0
158 170 0
154 167 0
159 171 0
158 170 0
156 170 0
154 166 0
156 172 0
163 179 0
164 179 0
154 167 0
160 176 0
161 174 0
164 179 0
164 181 0
162 179 0
164 182 0
164 179 0
160 174 0
162 180 0
162 175 0
154 169 0
160 175 0
161 178 0
160 177 0
162 180 0
166 183 0
168 186 0
166 183 0
162 179 0
166 186 0
211 226 218
199 217 193
189 209 135
174 197 72
174 197 62
174 197 51
176 199 72
170 194 80
173 197 62
175 199 88
172 195 76
174 197 72
175 198 62
175 199 57
175 198 80
173 198 62
171 195 51
175 198 76
171 195 67
172 196 67
176 199 51
176 199 72
174 199 72
173 197 76
170 194 72
172 196 67
171 195 62
175 197 44
175 199 67
172 195 67
171 193 57
174 197 57
174 198 62
172 196 62
173 197 72
172 196 80
175 199 95
173 196 62
173 196 72
176 199 67
172 196 72
173 197 72
173 197 80
174 198 57
171 195 84
173 197 72
171 194 67
174 198 80
173 196 62
172 196 99
173 197 76
173 198 62
173 197 72
171 195 67
172 196 80
173 196 44
175 198 80
170 194 76
173 197 95
174 197 72
172 195 72
172 196 62
173 196 72
168 192 72
174 197 80
171 194 84
174 197 51
173 196 84
172 195 62
173 196 62
160 183 95
97 124 150
82 113 155
82 113 155
103 130 160
93 120 143
92 121 152
101 128 155
94 122 143
94 123 155
94 122 153
90 119 161
109 136 146
103 130 160
107 134 158
99 126 151
111 137 143
100 128 161
108 134 153
100 128 166
98 126 160
100 128 154
112 137 187
73 107 179
71 105 182
71 105 182
71 106 182
79 111 181
77 110 182
88 118 183
84 114 183
84 115 181
87 117 183
81 112 174
77 109 171
85 115 178
94 121 178
82 112 175
71 105 175
61 98 166
62 98 161
60 97 161
61 97 162
61 97 160
62 98 164
60 96 157
63 98 166
61 97 159
61 97 161
60 96 156
69 102 155
65 99 153
68 102 154
65 99 153
61 95 142
65 99 151
61 96 151
57 91 140
59 95 152
60 95 155
60 96 144
60 95 153
60 95 148
61 97 152
61 96 147
60 95 151
59 95 153
60 95 148
59 94 144
61 98 159
60 96 155
61 96 153
62 98 160
60 96 155
60 95 144
60 96 150
61 96 151
60 95 152
61 96 156
61 96 147
61 97 151
60 95 154
62 97 153
60 95 148
60 96 152
62 98 156
61 97 157
61 97 157
61 97 151
62 98 158
60 96 149
60 96 151
60 95 143
60 95 143
60 96 149
61 96 160
60 95 149
60 95 145
61 97 156
61 97 152
61 96 150
61 96 144
60 96 148
60 96 156
61 96 156
61 97 154
61 97 155
61 96 148
61 97 151
62 98 155
61 97 157
61 96 151
62 97 157
63 98 162
62 98 156
60 95 144
62 97 154
61 96 151
62 98 157
62 97 150
62 98 159
61 96 144
60 95 148
61 96 148
61 96 149
61 96 143
61 97 150
60 95 148
62 97 150
60 96 144
61 97 153
60 95 143
61 97 153
60 95 143
61 97 148
61 97 153
59 95 140
61 97 152
61 97 154
62 97 158
62 97 153
62 97 151
62 98 154
61 97 150
61 96 147
61 96 147
61 97 153
63 98 159
60 96 152
61 97 148
62 97 150
61 97 149
60 96 141
60 95 144
62 98 154
62 97 156
62 97 153
61 97 155
61 96 147
61 96 147
60 94 134
60 96 143
61 96 142
61 97 143
61 97 148
60 95 141
61 97 147
60 94 134
61 97 153
60 95 142
60 95 143
60 95 139
61 95 145
60 95 135
60 95 139
59 93 137
60 95 138
59 93 125
61 96 147
59 93 133
59 94 130
59 93 131
60 94 134
60 95 139
59 93 134
58 91 126
60 95 134
59 92 125
68 95 103
115 122 25
110 117 0
115 123 0
116 119 0
120 128 0
113 123 0
110 117 0
127 134 0
104 107 0
108 114 0
121 126 0
116 123 0
111 114 0
112 117 0
116 121 0
110 115 0
117 119 0
104 106 0
111 115 0
107 109 0
110 114 0
121 127 0
103 102 0
107 112 0
106 107 0
103 104 0
113 116 0
114 113 0
101 102 0
101 104 0
103 103 0
102 102 0
120 120 0
113 113 0
107 109 0
105 106 0
110 110 0
110 113 0
96 95 0
111 108 0
104 106 0
106 107 0
99 97 0
106 106 0
113 111 0
109 108 0
103 101 0
104 101 0
107 105 0
92 90 0
101 99 0
106 102 0
105 102 0
111 111 0
124 124 0
113 113 0
107 104 0
111 106 0
124 122 0
117 116 0
116 113 0
119 119 0
127 125 0
131 134 0
126 125 0
122 124 0
130 129 0
129 128 0
132 132 0
126 130 0
133 135 0
120 118 0
133 133 0
135 135 0
128 129 0
140 143 0
137 140 0
135 136 0
141 147 0
142 147 0
131 132 0
140 144 0
142 146 0
139 146 0
148 153 0
143 150 0
135 140 0
139 146 0
133 136 0
146 153 0
152 158 0
144 151 0
151 159 0
148 156 0
146 156 0
149 155 0
151 160 0
151 159 0
153 163 0
149 159 0
151 160 0
160 168 0
148 155 0
153 164 0
161 174 0
158 168 0
154 164 0
154 167 0
158 172 0
151 161 0
161 174 0
158 171 0
168 182 0
160 175 0
156 169 0
156 169 0
161 173 0
162 178 0
158 171 0
157 169 0
161 178 0
161 176 0
159 174 0
169 186 0
158 171 0
160 173 0
161 175 0
169 186 0
165 181 0
161 177 0
165 181 0
160 177 0
161 176 0
164 182 0
164 182 0
164 180 0
168 186 0
163 180 0
165 183 0
164 183 0
164 183 0
182 203 111
173 196 62
173 196 67
170 194 62
177 200 72
174 198 84
172 196 76
176 200 88
177 200 72
175 198 84
172 196 67
174 197 67
174 197 57
174 197 76
174 198 72
177 200 92
174 198 76
173 196 67
175 199 88
174 198 88
173 196 57
173 197 51
174 197 76
176 200 76
174 199 76
174 197 72
171 195 67
174 198 92
173 197 57
175 198 51
172 195 62
173 197 62
171 195 62
172 196 67
171 195 67
171 195 76
171 194 76
175 198 92
168 192 72
173 196 62
172 196 57
170 193 67
173 197 76
173 198 95
175 198 72
173 197 88
171 195 51
170 194 57
172 196 72
171 196 76
173 197 76
173 196 84
175 198 67
172 196 67
173 197 80
173 196 62
172 196 84
171 194 25
175 198 84
171 194 62
170 194 84
172 196 72
172 196 72
169 192 57
172 196 62
170 194 44
172 195 62
171 194 84
172 194 67
172 196 51
174 198 92
115 141 137
102 130 136
91 120 152
98 127 160
92 121 153
98 126 161
95 124 145
98 126 151
93 122 155
93 121 164
100 128 137
103 131 156
99 126 153
99 126 153
100 128 160
98 127 155
108 135 168
114 140 164
101 128 161
105 132 161
105 132 156
100 128 158
93 121 169
76 109 170
70 105 181
76 109 181
70 105 178
79 111 182
76 109 177
74 107 179
84 115 181
87 117 181
87 117 184
82 113 178
92 120 180
92 120 179
87 116 176
92 120 175
74 106 169
64 100 168
62 98 167
62 98 165
63 98 158
61 97 162
61 97 164
63 98 160
61 98 166
62 98 164
61 97 164
61 96 154
64 98 151
66 101 154
66 100 155
61 96 149
59 94 149
65 99 141
63 98 153
60 95 154
60 95 143
60 95 151
59 94 146
60 96 157
61 96 150
61 96 150
60 95 146
61 97 161
61 96 149
60 96 153
61 96 154
59 95 153
61 97 155
60 95 148
61 96 149
61 97 158
60 96 153
61 97 154
59 94 144
60 96 156
60 95 153
60 95 148
61 96 146
60 95 150
62 98 158
60 96 156
61 96 148
60 96 149
61 97 152
60 95 144
62 98 162
62 97 158
61 97 155
61 96 153
61 97 157
61 97 161
61 96 151
61 96 149
61 97 150
61 96 147
62 98 162
61 97 149
60 95 140
62 97 157
61 96 151
60 96 149
61 97 151
61 96 148
62 97 157
62 98 159
61 96 151
62 98 156
61 97 156
60 96 143
60 95 147
61 97 150
61 97 156
62 98 152
62 98 159
61 97 150
62 98 154
60 96 147
61 96 142
61 96 145
61 97 153
60 95 141
61 97 152
62 97 153
62 98 152
62 97 150
60 96 149
61 97 150
62 98 153
62 97 156
60 95 144
61 96 151
62 98 153
61 96 148
61 96 152
60 96 144
61 97 157
60 95 136
60 96 150
62 97 152
61 97 155
61 96 150
62 97 149
62 97 157
62 97 151
62 98 158
62 97 149
61 97 142
61 97 149
61 97 150
62 98 151
60 95 145
61 96 149
61 96 140
61 96 139
61 97 145
61 96 148
61 96 143
60 96 145
61 96 143
60 95 142
62 97 145
61 96 140
60 95 137
61 96 147
61 96 140
61 96 144
61 96 141
60 95 147
61 96 140
60 95 136
60 94 134
59 92 129
59 93 133
60 94 136
60 95 137
58 91 135
59 93 141
59 93 136
60 94 131
60 95 138
59 92 130
58 92 125
58 91 124
58 91 116
82 102 93
116 123 0
110 119 0
111 119 0
111 119 0
117 120 0
114 121 0
113 120 0
113 121 0
117 119 0
108 112 0
93 99 0
111 114 0
110 115 0
119 125 0
108 114 0
98 102 0
97 96 0
110 113 0
101 104 0
108 112 0
116 120 0
113 115 0
111 116 0
123 128 0
112 112 0
104 107 0
119 120 0
104 103 0
113 116 0
110 109 0
107 108 0
105 108 0
102 101 0
94 96 0
103 101 0
111 111 0
118 119 0
115 115 0
108 106 0
105 104 0
107 108 0
121 118 0
112 111 0
109 112 0
108 106 0
113 113 0
115 114 0
115 111 0
117 116 0
117 117 0
117 117 0
106 103 0
116 115 0
120 120 0
114 112 0
111 110 0
126 129 0
118 116 0
113 112 0
114 113 0
123 119 0
127 125 0
118 116 0
119 118 0
125 125 0
130 131 0
124 123 0
133 131 0
128 129 0
133 134 0
131 134 0
128 129 0
140 144 0
129 129 0
134 137 0
136 140 0
142 146 0
142 145 0
134 139 0
143 146 0
137 141 0
142 146 0
145 149 0
144 151 0
143 151 0
140 146 0
146 155 0
139 146 0
145 151 0
142 151 0
144 149 0
148 156 0
149 158 0
148 157 0
149 159 0
154 161 0
155 164 0
159 169 0
153 163 0
146 154 0
150 160 0
147 156 0
153 163 0
160 171 0
158 171 0
152 161 0
157 170 0
154 166 0
150 162 0
157 170 0
154 167 0
163 175 0
163 178 0
161 175 0
164 179 0
153 165 0
163 177 0
154 167 0
161 175 0
158 173 0
156 170 0
160 173 0
161 177 0
161 177 0
164 179 0
159 175 0
163 179 0
162 180 0
163 179 0
164 182 0
161 178 0
162 177 0
164 180 0
159 174 0
162 178 0
163 180 0
164 180 0
163 180 0
166 182 0
168 188 0
161 179 0
173 197 67
174 199 72
176 200 88
172 195 57
174 198 84
176 200 88
174 198 67
173 196 57
173 196 72
176 199 80
174 197 62
174 198 84
174 198 76
175 199 95
172 196 57
177 200 92
172 196 62
174 199 72
173 197 80
173 197 99
172 196 76
173 197 57
176 200 84
173 197 95
174 198 72
174 197 76
172 197 88
171 195 76
171 195 76
174 198 84
174 197 62
173 196 72
173 196 72
170 195 76
172 195 72
172 196 57
173 196 88
176 200 72
172 196 67
173 198 102
171 194 92
171 195 57
173 196 80
175 198 92
175 199 88
169 193 72
171 195 62
169 192 80
173 196 67
174 198 88
173 196 72
174 198 80
169 193 62
169 192 62
173 197 57
173 196 84
171 194 67
171 195 72
174 197 76
169 193 57
173 196 76
175 199 95
170 194 67
170 193 67
173 196 62
173 196 80
173 196 57
175 198 84
170 194 76
174 198 88
174 197 88
121 147 124
91 120 152
94 122 143
92 121 154
94 123 151
104 130 141
97 126 159
81 112 153
99 128 156
101 129 149
94 122 158
87 116 153
91 120 155
111 137 153
100 127 151
107 133 154
97 125 145
112 138 150
121 146 155
95 123 159
92 121 155
99 127 164
101 129 161
102 129 164
82 113 174
83 115 187
75 108 180
78 111 181
79 111 181
83 114 182
81 112 181
77 109 177
71 105 177
82 113 179
85 115 178
74 106 166
74 107 171
71 104 172
92 121 184
71 104 167
61 97 163
62 98 170
61 97 162
61 97 163
61 97 162
62 98 160
62 98 159
61 97 152
61 97 165
63 97 154
60 96 156
65 99 148
66 100 149
66 99 146
60 95 155
60 95 149
59 94 142
60 96 147
60 95 156
59 95 147
59 94 146
61 96 153
61 97 157
61 97 160
61 96 149
61 96 155
60 95 150
61 97 155
60 95 146
61 96 154
58 93 144
60 96 148
59 95 153
60 95 143
61 97 161
61 97 151
60 95 141
61 97 155
62 97 153
60 96 153
61 96 148
61 96 151
60 96 150
60 95 144
61 96 155
61 97 155
61 97 152
61 97 154
60 95 149
60 96 154
61 96 145
61 96 152
61 97 153
60 96 157
61 96 148
61 97 153
60 96 143
62 98 160
61 96 150
61 96 147
62 98 156
62 97 153
61 97 154
60 95 144
61 97 153
61 96 143
61 97 154
62 97 157
61 97 152
62 98 156
61 97 161
61 97 149
61 96 145
61 97 157
62 97 149
62 97 154
61 97 153
61 97 155
60 96 144
62 97 151
60 95 140
60 96 149
62 98 156
61 97 152
62 98 155
63 99 164
62 97 150
60 96 148
62 97 151
61 96 145
62 98 157
61 97 154
61 97 150
61 97 145
61 96 145
61 96 148
61 96 148
60 95 143
62 97 149
60 95 145
61 97 152
61 97 145
62 97 154
60 96 143
61 96 140
61 97 152
61 96 145
61 97 148
62 97 148
61 96 140
60 95 139
61 97 147
60 95 143
59 94 140
61 96 149
62 97 154
61 96 148
60 95 142
60 95 130
61 96 145
62 97 150
60 95 137
61 97 147
62 97 154
60 94 135
61 96 145
62 97 152
60 96 141
61 97 145
61 97 148
60 94 137
59 93 127
60 94 139
58 92 133
61 95 142
60 94 127
61 95 142
60 93 136
60 95 137
60 94 132
59 93 121
58 92 130
58 91 119
59 93 126
57 90 123
57 89 118
58 91 117
119 127 36
126 137 0
110 118 0
112 118 0
112 119 0
117 125 0
106 114 0
120 128 0
113 120 0
104 109 0
123 131 0
109 114 0
117 122 0
124 129 0
106 115 0
106 110 0
120 126 0
121 127 0
118 126 0
115 121 0
107 111 0
106 112 0
119 124 0
115 119 0
113 117 0
110 113 0
103 103 0
116 119 0
111 113 0
111 116 0
111 113 0
114 117 0
113 115 0
110 109 0
117 119 0
110 113 0
106 107 0
108 109 0
109 109 0
115 116 0
111 108 0
96 97 0
107 111 0
111 113 0
113 111 0
114 115 0
106 104 0
112 113 0
111 111 0
114 113 0
118 118 0
113 112 0
119 117 0
117 117 0
128 129 0
114 114 0
119 120 0
116 114 0
113 115 0
115 115 0
116 113 0
122 122 0
119 120 0
129 132 0
128 130 0
130 132 0
133 136 0
131 131 0
127 128 0
121 123 0
139 143 0
135 135 0
137 142 0
139 142 0
134 135 0
138 142 0
145 151 0
130 134 0
140 144 0
126 130 0
137 142 0
143 148 0
141 148 0
151 154 0
131 135 0
146 151 0
150 158 0
146 153 0
147 154 0
154 160 0
146 156 0
146 152 0
145 156 0
145 154 0
146 154 0
148 156 0
151 163 0
155 164 0
148 156 0
150 162 0
152 161 0
152 164 0
149 158 0
161 173 0
152 163 0
155 170 0
152 162 0
155 166 0
157 169 0
153 168 0
162 176 0
156 169 0
158 173 0
163 176 0
160 173 0
162 176 0
153 166 0
161 177 0
156 173 0
162 176 0
157 170 0
158 174 0
164 180 0
159 172 0
164 179 0
158 171 0
160 176 0
164 180 0
158 173 0
161 177 0
167 184 0
168 184 0
168 186 0
163 178 0
163 180 0
160 177 0
166 184 0
165 183 0
165 184 0
166 185 0
165 182 0
165 184 0
179 202 88
175 199 76
177 201 105
174 197 72
175 199 67
174 197 76
175 198 67
174 197 67
175 198 67
175 199 80
177 200 88
175 198 72
173 196 44
172 195 36
173 197 72
175 198 84
172 196 72
171 195 51
176 200 95
174 198 76
173 197 92
169 193 80
172 196 76
171 195 62
173 198 76
174 198 62
173 196 62
172 195 44
173 197 72
175 199 76
173 196 36
173 197 76
169 193 57
173 196 76
171 194 57
171 194 51
175 199 67
171 195 62
170 194 62
170 194 80
171 195 72
167 191 57
170 194 57
176 200 92
175 198 72
175 198 88
168 192 72
168 192 57
171 195 80
172 195 84
169 193 62
168 191 76
173 197 67
175 199 84
172 195 67
171 194 76
174 197 72
170 193 80
173 197 80
168 192 72
172 195 62
171 195 67
171 194 88
171 195 44
172 195 84
174 197 62
169 193 62
169 192 51
172 195 44
170 193 67
171 195 67
161 185 99
99 126 148
100 128 142
111 138 143
89 119 144
95 123 143
96 125 153
97 125 157
92 121 154
85 115 151
96 125 154
101 130 158
99 127 156
102 129 156
101 129 167
99 127 159
97 125 146
102 129 159
113 139 143
104 130 159
104 131 165
101 128 161
101 128 150
99 127 158
96 124 164
84 114 164
78 110 178
68 103 177
90 120 185
86 117 186
71 105 181
72 105 175
91 120 177
87 117 182
85 115 181
65 100 164
87 117 181
82 113 174
74 106 166
74 107 174
69 103 169
61 98 164
62 98 165
64 99 158
60 96 157
61 96 151
61 96 158
63 99 167
63 98 157
59 95 156
63 98 154
61 96 153
64 98 145
61 96 154
67 101 159
61 96 151
59 94 145
66 100 151
62 97 152
61 96 148
60 96 145
59 93 140
61 97 156
61 96 155
60 95 142
60 96 155
59 95 154
60 96 150
60 96 151
60 96 149
60 95 146
61 96 151
59 94 147
60 95 148
60 95 143
61 96 156
60 96 153
61 96 148
60 96 149
61 97 154
61 97 156
61 97 156
61 96 149
61 97 155
61 96 150
62 97 149
61 97 148
62 97 151
61 97 154
60 95 145
60 96 148
61 96 147
60 95 142
61 97 151
60 96 148
61 97 150
61 96 159
61 96 152
60 96 145
61 96 145
61 96 152
62 98 154
61 96 143
61 96 148
62 98 157
61 97 154
61 97 150
62 98 159
61 97 151
62 98 155
60 96 143
62 98 157
61 96 148
62 97 152
62 98 155
63 98 151
61 96 149
61 97 154
60 95 147
61 96 151
61 96 141
62 97 155
61 97 154
60 95 135
60 95 148
61 96 143
61 97 155
62 97 151
61 96 151
61 96 143
61 96 148
62 97 155
61 96 148
61 96 147
61 96 149
62 98 158
61 97 147
61 97 149
62 98 156
61 97 151
62 97 155
61 97 151
61 97 148
61 96 152
60 95 135
61 97 157
61 97 145
61 96 142
60 95 147
61 96 151
61 96 148
61 97 148
60 95 142
61 97 149
61 96 147
61 96 143
61 97 148
60 96 144
60 95 135
60 95 137
60 95 140
61 96 143
60 95 137
61 96 141
61 96 147
62 97 144
60 95 136
59 94 134
60 95 140
60 95 139
61 96 139
60 95 141
60 95 142
60 95 130
60 95 141
59 93 131
60 94 137
60 95 142
59 93 132
60 94 134
60 93 143
59 93 131
58 92 129
58 92 127
59 93 125
60 94 133
76 98 94
116 127 0
114 120 0
107 115 0
122 132 0
115 122 0
118 125 0
115 125 0
109 117 0
123 129 0
118 124 0
122 130 0
119 125 0
104 111 0
106 107 0
100 106 0
105 110 0
94 98 0
103 102 0
117 122 0
110 115 0
110 113 0
119 123 0
116 124 0
101 106 0
118 123 0
114 116 0
115 117 0
114 116 0
120 123 0
117 123 0
121 125 0
116 121 0
106 105 0
97 99 0
119 119 0
114 117 0
112 113 0
114 116 0
101 97 0
106 108 0
108 107 0
111 113 0
118 119 0
122 121 0
115 114 0
123 127 0
123 122 0
115 117 0
109 109 0
108 107 0
125 123 0
111 108 0
122 122 0
112 112 0
116 117 0
119 121 0
127 127 0
123 121 0
123 122 0
121 124 0
133 136 0
122 125 0
132 136 0
126 127 0
131 134 0
140 144 0
131 134 0
132 132 0
134 136 0
131 134 0
139 145 0
136 140 0
139 142 0
135 138 0
134 136 0
132 136 0
131 136 0
132 134 0
141 146 0
140 141 0
137 141 0
144 150 0
141 146 0
143 151 0
141 146 0
143 148 0
146 149 0
145 150 0
147 157 0
140 149 0
149 156 0
145 152 0
149 157 0
148 154 0
153 162 0
151 160 0
149 157 0
151 161 0
148 160 0
151 160 0
148 158 0
157 169 0
156 168 0
152 163 0
154 166 0
153 164 0
155 163 0
155 166 0
156 169 0
157 171 0
154 167 0
151 165 0
159 173 0
164 178 0
158 171 0
158 173 0
166 181 0
155 170 0
163 179 0
161 175 0
163 177 0
158 172 0
161 179 0
159 174 0
160 175 0
164 181 0
161 177 0
158 178 0
164 182 0
167 181 0
161 178 0
166 182 0
171 190 0
162 178 0
166 185 0
168 188 0
164 181 0
165 183 0
161 180 0
167 185 0
167 184 0
168 185 0
175 198 84
176 199 76
175 197 72
173 197 44
174 197 51
173 197 84
174 197 57
174 197 67
172 195 57
175 199 92
172 196 76
176 199 80
172 196 84
177 200 76
173 197 72
174 197 62
174 197 62
174 198 80
174 199 108
176 199 67
173 196 57
173 197 51
174 197 72
173 197 57
174 197 76
172 195 72
172 196 67
173 197 84
172 196 76
173 196 76
169 193 51
173 197 76
170 194 80
172 196 92
173 197 88
172 196 76
172 195 67
171 195 51
169 192 57
169 193 67
172 196 72
170 193 67
171 195 80
172 196 67
170 194 84
169 193 57
170 194 84
170 193 76
171 195 76
168 192 62
169 194 88
171 194 67
172 195 84
171 195 72
172 196 76
171 194 62
169 193 62
170 194 76
169 192 51
171 195 51
171 193 51
173 196 57
172 196 72
171 194 57
175 199 80
171 195 72
172 196 72
172 195 76
173 196 62
173 195 80
172 195 62
170 193 62
108 134 136
93 122 144
102 129 151
94 122 147
99 126 141
93 121 157
88 117 154
92 121 156
81 112 152
97 125 156
98 126 151
108 135 158
103 130 160
104 131 160
102 130 161
106 132 137
102 130 151
111 137 168
97 125 164
111 137 155
120 145 156
95 123 159
90 119 156
103 130 156
92 120 164
95 124 164
87 117 176
76 109 181
81 113 181
77 109 181
76 109 176
74 107 179
93 122 184
82 113 181
79 111 173
89 119 181
89 118 179
84 114 171
82 113 175
85 114 166
65 100 172
63 99 162
60 96 164
63 98 160
60 96 156
62 98 162
61 97 157
61 97 156
61 97 156
62 98 152
60 96 153
65 100 162
63 98 156
67 100 150
69 102 145
62 96 141
60 95 145
62 96 146
59 94 139
59 93 147
61 97 151
60 95 147
61 96 156
60 95 144
60 96 151
60 94 147
60 95 151
60 95 149
61 97 164
61 96 153
61 96 151
61 96 155
59 94 146
61 96 149
60 95 140
61 97 155
61 96 152
60 95 142
61 97 152
60 95 151
61 97 150
61 97 155
61 96 153
60 96 152
61 96 148
61 96 152
59 95 147
60 95 153
60 96 151
61 97 155
60 95 147
61 97 150
62 97 157
61 97 153
61 96 151
60 96 148
60 95 153
61 96 149
60 95 140
59 95 147
61 97 153
61 96 145
60 95 145
61 96 149
60 95 141
61 97 155
60 95 147
61 97 151
61 96 150
61 97 152
63 98 155
61 96 148
61 96 149
62 98 159
62 97 156
61 97 150
62 97 151
61 97 155
61 97 154
61 97 150
62 97 153
61 97 148
61 97 154
61 97 148
61 97 153
61 97 153
62 98 153
61 96 145
61 96 148
61 96 143
61 96 142
62 97 152
60 95 137
61 97 154
61 97 149
61 96 139
61 96 149
61 97 144
60 96 142
61 96 145
62 97 145
61 96 144
60 96 150
60 95 139
59 94 136
60 95 144
61 97 145
61 96 133
60 95 144
61 96 145
62 97 144
62 97 151
60 96 136
61 96 151
60 95 139
62 97 152
59 94 133
61 97 147
61 96 144
59 94 134
62 98 156
61 97 147
59 93 139
61 96 149
60 95 134
61 96 144
61 96 139
59 94 137
61 96 139
61 96 146
61 95 141
59 94 133
60 95 139
59 94 129
58 92 125
60 94 140
60 94 133
59 94 129
59 93 132
58 92 127
59 93 130
58 91 129
59 92 131
57 91 123
58 92 130
102 117 84
122 131 0
124 135 0
103 115 0
129 136 0
124 132 0
120 130 0
116 126 0
118 128 0
118 124 0
114 123 0
118 124 0
120 128 0
119 127 0
121 129 0
119 128 0
106 111 0
109 115 0
115 120 0
111 117 0
108 112 0
115 121 0
112 119 0
107 114 0
117 123 0
113 116 0
109 113 0
112 116 0
114 117 0
120 126 0
118 120 0
111 113 0
109 113 0
108 112 0
111 116 0
105 109 0
119 121 0
107 107 0
114 115 0
114 114 0
103 104 0
112 114 0
116 116 0
114 117 0
116 116 0
112 111 0
117 118 0
120 124 0
108 108 0
122 125 0
114 115 0
127 131 0
118 119 0
125 127 0
123 126 0
124 124 0
124 124 0
132 136 0
121 122 0
135 134 0
119 121 0
121 123 0
131 135 0
124 126 0
126 128 0
124 128 0
136 137 0
125 127 0
132 136 0
126 126 0
138 140 0
133 133 0
138 144 0
144 148 0
127 133 0
136 139 0
131 137 0
147 153 0
133 139 0
138 143 0
136 141 0
144 149 0
139 145 0
147 152 0
151 159 0
139 146 0
144 150 0
148 154 0
145 153 0
148 156 0
152 160 0
149 158 0
148 152 0
151 158 0
146 155 0
153 165 0
143 150 0
156 166 0
153 163 0
154 165 0
162 176 0
156 168 0
154 167 0
153 163 0
152 162 0
151 160 0
154 163 0
154 164 0
155 170 0
153 166 0
162 174 0
152 166 0
162 175 0
159 171 0
152 166 0
160 172 0
164 180 0
164 179 0
164 178 0
158 174 0
162 178 0
161 174 0
161 176 0
154 169 0
159 175 0
162 178 0
157 171 0
161 177 0
163 179 0
161 179 0
167 184 0
161 176 0
163 181 0
163 180 0
166 183 0
163 179 0
162 177 0
165 183 0
165 182 0
163 180 0
165 184 0
165 182 0
168 188 0
175 199 67
176 200 67
176 199 80
174 197 57
174 197 67
174 198 99
176 200 84
172 197 80
170 194 67
174 197 80
175 199 84
173 197 80
173 198 80
174 197 67
173 197 99
173 197 57
174 197 44
174 197 76
173 197 67
173 197 57
174 198 67
173 197 76
174 198 80
173 197 76
171 194 67
171 195 67
172 197 88
171 196 84
173 196 76
175 199 76
173 196 76
172 195 67
172 195 76
173 196 57
176 200 99
170 195 76
172 196 76
172 196 67
172 197 80
173 196 57
170 194 62
171 196 92
170 193 44
171 195 57
168 191 67
174 198 95
173 196 84
174 196 72
174 197 67
173 197 67
173 196 80
174 197 84
171 195 36
170 194 67
173 196 51
168 192 80
169 193 76
172 195 92
167 191 57
175 199 99
170 194 72
169 192 72
170 194 62
169 192 57
173 196 88
169 193 80
171 195 67
171 194 72
169 192 76
171 194 76
173 196 67
172 195 72
139 164 120
92 120 149
87 116 141
95 124 151
98 126 156
93 122 156
79 110 154
84 114 149
84 114 155
97 125 142
94 123 164
96 125 151
86 115 149
99 127 156
96 123 150
99 127 154
89 118 153
99 127 161
96 124 159
115 140 158
117 142 158
115 140 150
116 142 159
97 124 159
91 120 161
97 125 163
79 109 156
85 115 164
71 105 180
71 105 178
74 107 177
84 115 181
76 108 172
82 113 177
79 111 176
85 115 180
85 115 179
80 111 176
94 122 179
83 114 179
85 114 172
65 100 164
62 98 168
61 97 164
62 98 162
61 97 163
62 98 163
64 98 156
62 98 165
63 98 154
61 96 153
60 95 147
60 95 148
62 97 154
66 100 149
61 97 157
68 102 145
66 100 143
59 94 144
60 95 154
59 94 147
60 96 154
60 96 151
60 96 146
59 93 140
59 94 141
60 96 140
60 96 147
61 96 146
61 96 151
60 95 147
60 95 149
61 96 153
60 95 151
60 95 145
61 96 153
59 95 149
61 96 155
61 96 152
61 96 156
60 95 140
60 95 143
60 95 148
61 96 155
61 97 153
60 96 146
61 96 154
60 96 150
60 96 147
61 96 149
61 97 153
60 96 145
60 95 142
61 96 142
61 96 148
61 97 155
61 97 148
60 95 136
60 96 141
61 97 150
61 96 145
62 97 155
60 96 149
61 96 147
61 96 148
62 98 153
61 96 149
60 96 154
61 97 153
61 96 145
61 97 150
61 96 149
62 97 154
61 97 149
62 97 156
61 96 147
60 96 148
62 98 160
60 95 152
61 97 151
62 97 147
60 96 149
61 97 153
61 97 152
61 97 145
61 96 141
61 96 143
61 97 143
61 97 152
61 96 145
61 97 148
61 97 149
60 96 145
61 97 148
61 97 147
60 95 135
60 95 136
61 96 145
61 97 147
61 96 141
62 97 149
60 95 137
61 96 145
61 96 140
61 96 147
62 97 152
61 96 144
61 96 149
59 94 139
62 97 145
61 96 148
61 96 141
60 95 136
60 95 143
61 96 141
60 95 140
61 96 149
59 95 140
61 96 142
60 95 134
61 96 145
61 97 153
62 97 148
60 95 133
59 93 137
59 93 135
61 96 145
58 93 126
60 95 135
61 96 147
61 96 144
59 93 129
59 92 130
60 94 142
60 95 135
59 93 134
59 93 133
60 93 128
58 91 123
59 93 128
61 94 140
58 91 122
57 90 118
58 90 120
65 94 115
113 123 18
110 121 0
118 129 0
119 131 0
111 121 0
112 118 0
116 124 0
118 124 0
119 128 0
119 127 0
113 122 0
114 121 0
120 128 0
118 125 0
126 135 0
119 126 0
121 127 0
111 119 0
118 125 0
123 128 0
119 127 0
111 117 0
114 117 0
112 120 0
116 119 0
114 119 0
109 114 0
115 118 0
111 114 0
118 123 0
111 113 0
109 114 0
109 111 0
117 120 0
110 110 0
114 115 0
109 112 0
118 121 0
109 113 0
119 124 0
114 117 0
112 112 0
116 119 0
119 125 0
112 114 0
120 119 0
114 114 0
116 119 0
115 115 0
115 115 0
106 107 0
110 111 0
122 122 0
124 126 0
120 121 0
121 122 0
128 130 0
132 133 0
126 126 0
129 131 0
118 120 0
140 148 0
125 127 0
136 139 0
137 140 0
132 136 0
130 135 0
133 138 0
138 142 0
121 125 0
131 134 0
137 143 0
138 143 0
138 142 0
126 127 0
135 136 0
140 147 0
140 143 0
139 145 0
136 141 0
136 142 0
138 143 0
147 155 0
142 148 0
143 149 0
139 148 0
144 151 0
150 157 0
153 160 0
148 154 0
146 155 0
150 156 0
153 162 0
150 160 0
148 154 0
157 167 0
149 158 0
153 163 0
150 160 0
151 161 0
149 162 0
151 161 0
155 167 0
154 168 0
151 162 0
152 164 0
149 160 0
161 175 0
163 178 0
154 165 0
152 164 0
162 175 0
160 174 0
160 176 0
162 177 0
160 172 0
160 174 0
162 174 0
154 169 0
158 172 0
160 172 0
164 180 0
162 178 0
160 178 0
161 177 0
162 179 0
162 178 0
165 180 0
160 175 0
166 183 0
160 175 0
166 179 0
165 182 0
166 184 0
163 180 0
165 182 0
163 179 0
167 187 0
162 181 0
169 186 0
168 185 0
165 184 0
167 187 0
176 199 88
173 197 76
175 198 51
175 198 80
173 197 72
174 197 76
173 197 80
174 197 80
174 198 99
171 193 36
173 196 88
174 199 92
175 198 72
173 197 67
174 197 62
174 197 51
173 197 67
173 197 62
174 197 72
176 200 76
174 197 67
172 197 88
172 196 57
175 198 84
171 195 62
175 199 88
173 196 84
169 193 51
173 196 62
171 195 57
173 197 67
173 197 67
175 199 76
170 194 80
173 196 84
174 197 88
173 195 36
173 196 84
171 195 92
173 196 44
170 194 36
170 193 72
173 197 80
170 195 84
173 197 80
173 197 72
172 196 84
169 192 51
169 193 67
171 195 76
171 194 44
171 194 62
171 195 84
173 196 72
172 195 84
171 194 72
170 194 84
169 193 51
172 195 84
168 191 67
170 194 57
168 192 72
170 194 88
171 194 57
173 197 67
171 195 84
169 193 44
172 196 76
172 196 67
169 192 62
174 197 62
168 192 67
161 184 76
85 114 136
95 124 153
99 126 136
94 122 147
92 121 157
92 120 149
93 121 154
93 121 144
105 133 160
105 132 156
88 117 151
90 119 160
89 118 151
97 125 150
103 131 159
86 116 155
101 129 152
100 127 153
107 134 156
102 129 149
99 126 152
110 136 163
97 125 153
105 132 165
88 117 148
95 123 161
100 128 151
89 118 163
84 116 182
88 118 184
79 111 180
86 117 181
64 100 171
84 114 178
80 111 169
80 111 175
92 120 179
74 106 173
79 110 173
97 124 176
72 105 164
61 97 158
61 97 158
60 96 159
62 98 163
60 96 158
62 98 158
58 93 147
60 96 153
62 97 155
61 97 153
60 96 156
61 96 154
62 96 144
65 99 151
60 95 148
66 99 150
63 96 140
60 95 147
60 95 142
59 93 137
60 95 143
61 96 154
60 95 146
59 94 140
59 95 152
60 95 149
59 95 146
58 92 140
61 97 158
61 97 156
59 95 142
59 93 145
60 96 155
60 96 149
60 95 147
60 96 142
61 96 148
60 95 140
61 96 150
61 96 151
60 96 149
60 96 151
62 97 153
60 95 149
61 97 153
60 96 151
61 97 153
61 96 152
61 96 148
61 96 151
60 96 147
61 96 142
60 96 149
61 97 149
61 97 155
60 96 147
61 97 152
62 97 151
61 96 148
60 95 141
62 98 154
61 96 150
62 97 154
59 95 147
60 96 148
61 97 152
61 97 152
61 97 149
60 95 140
61 96 144
61 96 148
60 96 149
61 97 149
61 97 150
61 97 152
61 96 147
60 96 150
61 96 141
61 97 153
62 98 159
59 94 137
60 95 130
62 97 148
60 95 140
61 96 148
60 96 148
61 96 143
60 95 145
61 96 151
60 95 148
62 97 150
60 95 140
60 95 142
60 96 139
61 96 145
62 97 148
62 97 150
61 96 145
60 95 141
62 97 150
60 95 139
59 94 141
61 96 149
61 96 142
61 97 145
63 98 155
62 97 150
61 96 137
60 94 139
61 96 141
62 97 144
60 95 131
60 95 134
60 95 137
60 95 143
62 97 150
60 95 134
60 94 141
61 96 142
59 94 133
61 96 142
61 96 143
60 95 137
60 95 147
60 95 139
61 96 145
60 94 133
60 94 129
60 95 135
61 96 141
61 95 135
59 93 137
59 93 129
60 94 129
60 94 134
60 94 135
59 93 130
59 94 126
58 92 122
59 93 125
59 92 134
56 88 116
92 109 84
121 133 0
114 123 0
118 126 0
118 129 0
115 123 0
119 129 0
114 122 0
104 116 0
119 128 0
117 126 0
124 133 0
117 124 0
115 123 0
125 134 0
108 114 0
109 116 0
114 122 0
123 129 0
119 126 0
116 118 0
107 114 0
99 103 0
120 126 0
112 119 0
112 117 0
117 122 0
115 117 0
121 128 0
115 123 0
109 115 0
111 114 0
116 119 0
110 112 0
116 120 0
119 122 0
117 124 0
112 115 0
112 116 0
123 124 0
108 115 0
111 111 0
117 120 0
117 120 0
121 124 0
125 127 0
121 127 0
103 105 0
124 126 0
120 123 0
123 124 0
118 120 0
122 126 0
121 124 0
128 131 0
121 122 0
119 121 0
134 136 0
126 128 0
128 132 0
134 139 0
133 137 0
127 129 0
129 132 0
140 143 0
131 134 0
129 132 0
124 126 0
133 135 0
140 145 0
128 133 0
148 157 0
133 135 0
138 141 0
139 144 0
136 141 0
134 138 0
131 134 0
139 147 0
138 143 0
138 141 0
136 142 0
143 150 0
142 149 0
142 149 0
143 150 0
148 158 0
146 153 0
147 155 0
150 162 0
148 155 0
148 156 0
155 166 0
149 160 0
148 157 0
146 156 0
154 167 0
150 161 0
158 170 0
146 153 0
145 152 0
155 165 0
155 165 0
155 165 0
149 159 0
151 164 0
153 164 0
154 164 0
157 170 0
158 171 0
153 165 0
157 172 0
152 164 0
159 173 0
156 170 0
159 174 0
153 163 0
159 174 0
156 171 0
161 175 0
157 172 0
159 176 0
167 183 0
160 174 0
162 177 0
164 180 0
159 176 0
163 179 0
165 182 0
169 187 0
161 178 0
162 180 0
163 180 0
164 181 0
160 177 0
163 181 0
164 183 0
164 182 0
160 177 0
165 182 0
168 185 0
161 179 0
162 179 0
166 183 0
174 198 72
175 199 76
173 197 84
173 197 80
174 198 62
174 197 57
177 200 88
175 199 84
172 195 36
173 196 67
172 196 62
172 197 62
174 198 67
174 198 88
174 198 51
171 195 57
174 198 72
170 195 62
172 196 88
174 197 72
172 196 84
171 195 92
173 197 80
170 193 62
168 191 57
172 196 62
172 196 72
171 196 76
172 195 80
175 198 72
173 196 80
170 194 88
174 197 84
174 197 76
173 196 67
174 198 84
174 197 102
173 198 84
169 193 44
172 196 62
170 194 62
169 193 62
173 197 80
172 196 80
172 195 67
174 197 57
171 193 67
175 198 67
174 198 88
174 198 99
174 197 72
174 197 67
174 197 80
172 196 76
170 193 57
173 196 76
171 195 67
167 190 51
171 194 57
167 190 72
172 196 62
168 192 99
173 197 84
176 198 80
171 195 76
170 194 67
171 194 51
173 196 62
169 193 67
167 191 62
168 192 76
167 190 67
169 193 76
130 154 117
89 117 139
96 124 152
95 123 146
96 123 140
88 118 152
79 109 141
94 123 159
78 110 155
89 118 152
81 112 149
95 123 158
94 123 155
99 127 157
101 128 158
89 119 165
101 128 163
100 127 151
87 115 154
99 126 149
93 121 153
102 129 160
101 128 154
95 123 153
99 127 151
106 132 163
80 110 148
82 113 151
94 122 155
77 109 173
79 111 183
82 113 185
68 103 174
81 112 177
85 115 183
84 114 173
62 98 169
85 115 176
80 111 174
79 110 170
77 109 174
74 106 166
62 98 160
61 98 164
61 97 157
60 96 157
61 97 160
60 96 147
61 97 161
60 95 144
59 94 148
63 98 151
59 94 145
59 94 148
64 97 141
62 96 142
63 97 149
64 98 148
62 97 148
61 95 148
60 95 144
59 94 139
62 97 152
60 95 151
60 96 156
59 95 154
60 95 150
60 94 137
60 95 137
59 95 139
59 94 145
61 96 151
60 95 144
58 94 137
61 96 149
60 96 150
62 98 156
61 96 144
61 97 155
61 97 156
60 96 149
60 95 147
61 97 153
61 97 156
61 95 143
61 96 147
61 97 152
60 95 144
60 94 136
61 96 156
60 95 144
60 95 147
60 95 150
61 96 153
60 96 147
62 98 157
62 98 158
61 97 152
60 96 154
60 95 145
62 97 152
61 96 149
61 96 153
61 97 149
61 96 151
61 97 155
61 96 148
62 98 155
60 95 150
61 96 147
61 96 149
61 96 153
60 96 151
59 95 145
59 94 141
61 96 141
62 98 157
62 97 150
60 95 136
61 96 145
61 97 148
61 96 152
62 97 154
61 97 149
61 97 148
61 96 143
62 97 148
61 97 152
60 96 147
61 96 144
60 95 144
60 95 139
61 96 144
61 96 147
62 97 148
61 96 147
61 97 153
61 96 150
61 97 143
61 96 144
61 97 150
61 96 148
60 95 135
61 96 147
60 95 142
60 96 142
61 96 145
61 96 145
61 96 139
60 95 136
61 96 137
61 97 148
61 96 140
61 97 150
60 94 133
60 94 137
60 95 136
60 95 142
60 95 140
60 94 134
61 96 143
61 96 140
60 94 129
60 94 135
61 97 143
61 95 141
60 95 133
60 95 139
62 97 143
60 94 134
61 95 134
59 92 135
60 94 134
59 94 136
60 94 135
61 96 142
57 90 114
59 92 135
59 93 119
59 92 134
58 91 123
55 87 111
59 91 125
120 131 31
117 126 0
117 126 0
119 128 0
120 133 0
124 134 0
116 126 0
112 122 0
109 119 0
111 120 0
113 122 0
112 124 0
102 107 0
122 131 0
117 127 0
110 117 0
111 118 0
122 129 0
111 120 0
118 126 0
108 115 0
121 128 0
124 130 0
124 131 0
123 129 0
119 124 0
114 118 0
112 119 0
111 115 0
127 132 0
110 113 0
102 104 0
120 126 0
117 122 0
108 111 0
114 120 0
113 116 0
119 121 0
125 129 0
123 125 0
113 118 0
125 130 0
125 130 0
122 127 0
124 129 0
115 119 0
119 123 0
119 121 0
121 125 0
126 130 0
123 124 0
118 122 0
125 128 0
132 137 0
130 136 0
124 127 0
126 129 0
131 134 0
118 120 0
124 125 0
132 136 0
133 139 0
133 137 0
131 135 0
133 136 0
134 136 0
142 147 0
127 130 0
136 139 0
133 136 0
137 139 0
137 145 0
138 143 0
135 137 0
144 149 0
137 143 0
135 141 0
135 140 0
136 141 0
141 149 0
145 154 0
145 150 0
143 149 0
138 148 0
143 148 0
143 149 0
152 163 0
151 160 0
149 156 0
143 152 0
142 151 0
141 149 0
149 157 0
152 163 0
150 158 0
152 163 0
147 159 0
160 170 0
148 160 0
150 160 0
156 169 0
156 168 0
149 159 0
154 165 0
156 169 0
157 170 0
158 169 0
154 164 0
159 170 0
164 178 0
154 168 0
155 169 0
156 169 0
157 169 0
155 167 0
160 173 0
159 174 0
154 169 0
154 167 0
166 181 0
162 178 0
162 177 0
160 176 0
163 180 0
158 171 0
163 178 0
156 168 0
158 175 0
163 181 0
162 179 0
161 175 0
161 179 0
167 183 0
165 183 0
166 183 0
161 176 0
165 183 0
162 180 0
162 179 0
162 179 0
164 182 0
169 187 0
165 182 0
165 182 0
175 199 67
174 198 72
173 198 72
177 200 84
172 196 62
176 199 67
172 196 80
174 197 62
172 196 80
172 196 88
170 193 57
173 196 57
173 197 72
175 197 76
173 197 51
173 198 80
176 199 62
170 194 72
171 195 62
170 193 44
169 194 67
172 197 67
172 195 76
173 196 51
173 196 57
173 196 72
174 198 67
173 197 80
171 196 72
169 193 72
171 196 88
167 191 76
170 194 62
173 197 72
171 195 76
172 196 76
172 196 72
167 191 80
171 196 84
171 195 102
170 193 57
174 198 80
170 194 72
172 195 88
172 195 67
174 197 67
170 194 44
169 193 72
170 195 76
172 196 76
172 196 76
171 195 88
166 189 72
168 191 76
171 195 95
172 196 88
170 193 44
175 197 84
172 196 84
172 196 76
166 189 84
172 195 51
168 192 62
167 191 84
168 191 67
170 192 72
173 197 84
167 191 72
173 196 72
176 199 95
172 195 72
168 191 62
169 192 62
158 182 103
87 116 142
90 118 133
99 127 161
87 115 144
88 117 147
80 110 135
93 122 158
82 112 146
94 122 153
89 118 149
87 116 144
100 128 157
97 125 160
89 117 143
91 119 148
94 123 153
87 117 152
96 124 158
94 123 147
88 117 156
106 133 159
104 131 154
101 129 148
103 130 151
97 125 162
94 122 159
103 129 156
88 118 153
89 118 149
84 115 180
65 100 173
74 107 177
87 117 182
82 113 181
79 111 180
74 107 178
84 114 174
85 115 181
75 107 174
87 115 172
77 108 166
80 111 169
61 97 159
62 98 166
62 98 168
61 97 155
61 97 156
61 97 160
60 96 149
62 97 148
60 96 150
61 97 155
59 95 148
69 102 148
65 100 156
60 95 146
59 94 152
65 98 137
62 97 147
60 95 147
59 94 144
59 94 140
59 94 140
61 96 152
60 95 141
60 95 152
60 96 149
61 97 152
60 95 147
60 95 147
60 96 145
59 95 143
59 94 141
60 96 149
61 96 148
61 96 153
62 97 160
60 95 148
61 97 152
59 94 147
59 94 148
59 94 139
60 95 142
60 95 142
60 95 149
60 95 137
60 95 147
61 97 160
60 95 148
61 97 154
59 94 147
61 96 148
61 97 154
61 96 147
61 97 149
59 94 139
60 95 143
60 96 150
60 95 143
61 97 154
62 97 156
59 94 141
61 96 142
61 96 147
60 95 144
61 97 152
60 96 144
60 95 139
60 96 144
60 96 149
60 95 150
60 96 145
61 96 143
59 94 141
61 97 144
60 94 136
62 97 153
61 96 144
61 96 141
58 93 134
61 97 152
61 96 151
61 97 151
60 96 148
62 98 155
62 97 153
61 97 151
61 96 149
61 96 153
61 96 144
62 97 149
60 95 140
61 97 150
60 95 147
61 96 139
62 97 147
60 95 147
61 96 143
61 96 143
61 96 142
62 97 144
60 95 135
60 96 137
61 96 142
59 94 136
61 96 143
60 95 136
62 97 147
61 95 143
60 95 148
61 97 147
60 95 135
60 95 134
60 94 135
61 96 140
60 95 134
61 95 136
60 94 137
61 96 140
62 96 148
61 96 147
59 94 133
58 92 126
60 95 144
61 96 143
59 94 133
60 95 134
60 94 136
59 93 126
59 93 129
60 95 139
60 95 133
59 93 126
60 95 140
59 93 122
59 93 127
57 90 125
58 92 129
57 91 117
57 90 122
58 91 113
89 108 92
118 131 0
110 121 0
122 133 0
118 128 0
113 122 0
127 137 0
117 127 0
119 126 0
114 121 0
108 115 0
120 129 0
113 124 0
113 123 0
113 122 0
113 119 0
118 125 0
114 123 0
106 112 0
121 128 0
118 126 0
122 128 0
115 121 0
116 122 0
115 123 0
106 113 0
120 129 0
120 126 0
130 139 0
124 130 0
117 124 0
122 128 0
109 114 0
116 124 0
126 129 0
120 127 0
120 126 0
105 108 0
121 127 0
119 124 0
115 119 0
106 106 0
119 124 0
134 141 0
121 126 0
120 124 0
118 121 0
120 124 0
121 126 0
135 141 0
130 135 0
129 132 0
126 131 0
120 120 0
124 129 0
122 127 0
133 137 0
122 126 0
126 129 0
136 140 0
128 130 0
123 128 0
129 130 0
136 142 0
128 130 0
131 136 0
133 137 0
129 131 0
133 136 0
136 144 0
137 142 0
128 133 0
136 143 0
142 149 0
140 145 0
139 144 0
137 140 0
140 148 0
136 143 0
151 159 0
144 149 0
138 146 0
141 148 0
150 155 0
143 150 0
147 155 0
146 154 0
145 152 0
147 156 0
148 155 0
150 160 0
149 158 0
148 156 0
144 152 0
146 153 0
150 160 0
152 164 0
150 159 0
153 162 0
151 163 0
156 165 0
150 159 0
151 163 0
154 166 0
150 160 0
154 162 0
157 169 0
159 175 0
156 166 0
153 166 0
159 172 0
159 172 0
157 169 0
159 172 0
153 165 0
160 173 0
154 168 0
161 177 0
158 172 0
162 177 0
153 166 0
165 181 0
158 171 0
159 175 0
160 176 0
159 175 0
158 174 0
158 172 0
159 177 0
164 182 0
160 175 0
156 170 0
161 178 0
159 175 0
157 172 0
163 181 0
160 178 0
163 181 0
160 175 0
164 182 0
166 186 0
168 185 0
165 183 0
163 182 0
161 178 0
176 200 102
173 196 92
175 199 84
173 197 67
174 198 51
172 197 76
170 194 72
174 197 51
174 198 67
169 193 67
173 198 80
172 195 57
176 199 76
171 195 84
171 195 72
172 196 44
174 198 62
170 193 72
173 196 62
172 196 72
174 198 92
173 197 72
173 198 95
170 194 67
172 196 62
170 194 67
174 198 84
173 196 80
173 196 84
171 195 80
170 193 76
172 197 88
173 196 62
168 192 72
168 192 62
175 198 84
171 195 80
171 194 67
169 194 88
170 193 72
171 195 92
173 197 111
172 197 80
175 199 95
165 188 57
169 193 57
171 195 67
171 195 76
171 195 72
168 192 80
173 196 72
168 192 76
170 193 72
168 192 62
171 196 84
170 192 57
166 190 72
167 191 72
168 191 57
172 196 57
171 195 88
173 197 80
168 192 62
169 192 67
171 194 57
173 196 80
166 189 67
169 193 62
170 192 62
169 192 62
171 195 67
168 192 102
170 192 88
169 193 102
117 143 125
102 129 148
96 124 147
93 121 151
90 120 154
87 117 150
103 130 157
96 124 143
103 129 135
93 121 146
92 120 124
97 125 149
100 127 147
108 135 153
105 133 164
92 120 152
99 126 155
98 126 155
97 125 141
90 119 145
109 134 141
91 119 144
101 128 153
113 138 143
100 126 140
94 122 153
98 125 156
101 129 157
96 123 160
91 120 163
85 115 161
76 109 176
71 105 174
67 102 174
79 111 176
84 114 176
77 109 173
79 110 171
80 111 172
87 116 174
83 113 171
92 120 177
65 100 164
61 97 164
61 97 160
62 98 160
61 97 160
62 98 160
61 97 160
61 97 162
62 97 150
60 96 153
60 95 149
58 93 140
64 97 141
67 101 145
61 96 148
62 96 146
63 98 145
60 94 151
60 95 150
59 94 149
60 95 149
60 95 145
60 96 147
59 94 138
60 95 144
60 95 147
59 94 135
59 94 143
60 96 151
59 93 143
61 96 147
60 95 145
60 96 151
60 96 155
60 96 143
61 96 147
60 95 142
60 95 145
61 96 152
59 94 148
59 95 141
59 94 145
61 96 144
60 96 150
60 95 147
61 96 150
61 96 148
62 98 154
60 96 148
60 95 144
60 95 140
62 97 154
60 96 144
61 97 154
61 97 147
61 97 153
61 96 148
60 95 144
60 94 141
62 98 158
61 97 149
59 94 140
61 97 148
60 95 137
59 95 142
60 95 140
61 97 151
62 98 156
61 97 154
61 97 151
60 95 145
61 96 147
61 96 144
61 97 153
60 96 144
60 95 139
61 96 141
62 97 152
61 96 141
61 96 150
62 97 148
60 96 148
60 95 143
61 97 145
60 95 145
61 96 142
61 96 149
61 96 147
60 95 144
61 97 147
60 95 136
60 95 144
60 95 140
61 96 147
61 95 142
61 97 151
60 96 139
61 96 147
61 96 147
60 95 134
60 95 134
62 98 153
61 96 144
61 96 141
60 95 139
60 96 145
60 95 141
61 96 142
61 96 141
61 96 142
61 96 145
62 97 150
60 94 139
61 96 143
61 96 140
60 96 137
60 94 135
61 96 145
59 93 134
60 95 137
61 95 136
60 95 137
61 96 140
60 95 135
60 95 139
60 95 145
59 93 133
59 92 133
59 94 137
59 93 124
60 94 134
60 94 139
58 91 125
58 92 124
59 93 131
57 90 123
59 93 123
60 94 130
64 93 111
119 132 31
123 136 0
112 122 0
122 131 0
117 125 0
118 130 0
124 134 0
114 121 0
126 137 0
110 119 0
120 128 0
121 131 0
103 111 0
117 125 0
122 134 0
121 129 0
123 132 0
132 138 0
120 132 0
116 125 0
123 129 0
121 130 0
125 133 0
107 112 0
122 128 0
121 130 0
128 135 0
120 124 0
112 117 0
122 129 0
117 125 0
122 128 0
117 124 0
123 129 0
115 121 0
115 120 0
126 130 0
126 132 0
122 126 0
126 132 0
111 115 0
131 139 0
121 122 0
120 124 0
122 122 0
121 126 0
122 132 0
123 125 0
129 132 0
113 119 0
125 130 0
128 134 0
131 136 0
132 136 0
133 139 0
132 137 0
120 123 0
127 134 0
137 143 0
121 122 0
134 141 0
123 127 0
130 136 0
119 119 0
136 142 0
139 145 0
127 129 0
140 145 0
136 141 0
138 143 0
129 136 0
142 151 0
138 145 0
134 139 0
142 151 0
143 150 0
134 139 0
143 150 0
140 148 0
132 138 0
147 156 0
149 158 0
145 152 0
147 157 0
143 152 0
151 160 0
147 155 0
144 151 0
142 148 0
143 149 0
146 155 0
146 155 0
156 167 0
146 153 0
153 162 0
149 158 0
157 169 0
151 159 0
153 166 0
149 159 0
148 158 0
159 168 0
158 172 0
146 157 0
159 170 0
149 160 0
152 166 0
157 172 0
157 170 0
156 170 0
159 173 0
160 174 0
152 162 0
163 178 0
158 173 0
157 170 0
158 173 0
162 177 0
154 167 0
157 170 0
163 178 0
162 179 0
161 177 0
161 174 0
159 174 0
164 181 0
162 179 0
159 175 0
163 177 0
163 180 0
161 173 0
159 176 0
165 182 0
165 181 0
171 189 0
162 181 0
164 180 0
164 182 0
168 185 0
161 179 0
163 181 0
164 183 0
168 186 0
162 178 0
169 187 0
175 199 67
174 198 72
173 197 67
172 194 62
176 200 92
174 197 72
175 199 80
175 198 88
174 198 51
174 197 67
174 197 88
174 197 62
174 198 62
169 194 95
171 195 72
175 199 84
176 199 62
173 198 88
171 195 80
174 198 88
171 195 57
172 196 51
172 196 76
174 198 62
174 198 62
170 194 80
170 195 84
171 195 67
170 194 62
170 193 62
169 193 84
172 196 76
169 193 62
169 193 72
170 196 95
171 196 76
171 195 76
170 193 72
175 198 84
173 197 80
171 194 62
166 190 84
175 198 67
171 195 62
170 193 62
169 192 51
170 194 95
168 193 72
169 194 80
173 196 57
169 192 67
173 196 72
166 190 84
170 195 88
169 192 72
175 199 76
172 195 84
169 193 84
166 191 62
168 192 80
169 192 76
163 186 36
169 192 51
169 192 72
169 194 80
167 191 72
167 191 72
173 196 80
170 194 92
168 192 76
170 193 57
167 190 62
171 195 80
166 190 72
158 182 76
84 113 131
82 112 145
92 120 128
85 116 151
88 116 140
101 128 145
91 119 136
88 117 141
96 124 152
87 116 155
96 125 153
89 117 148
93 121 139
81 111 147
92 120 143
92 121 148
78 108 147
111 137 158
99 126 149
100 127 157
90 118 152
98 126 159
97 123 148
112 138 157
110 136 153
93 121 154
97 125 159
95 124 158
100 128 163
91 121 159
77 110 165
77 110 179
81 112 173
84 114 175
84 115 178
77 109 178
71 105 169
71 105 173
71 104 169
72 105 171
78 109 175
75 107 166
71 102 159
62 98 158
61 97 155
61 97 161
61 97 157
62 98 157
64 99 154
61 98 160
61 96 157
61 97 157
59 94 148
61 97 151
69 102 143
63 97 147
63 97 153
61 95 139
59 94 137
66 99 134
60 95 148
60 96 145
58 93 136
59 94 141
58 93 143
60 95 140
60 95 143
60 95 143
61 96 143
60 96 149
60 95 150
61 96 149
60 95 143
61 97 153
60 95 149
60 95 144
61 97 152
59 94 141
60 95 144
60 95 143
60 95 145
60 95 148
60 96 150
61 97 148
60 95 145
60 95 144
61 96 144
60 95 147
61 96 148
61 97 149
61 96 144
61 96 145
60 95 143
61 96 159
60 96 140
60 96 143
61 96 147
62 98 156
61 96 148
61 96 145
60 95 143
60 95 147
61 96 145
60 95 141
61 97 147
60 96 145
61 97 152
61 96 149
60 95 147
60 95 143
60 95 144
61 97 145
59 94 131
61 96 145
61 96 140
60 96 149
61 97 149
61 96 139
61 96 140
61 96 147
61 96 139
60 95 151
61 97 147
60 95 143
60 95 137
62 98 155
61 97 150
61 96 148
61 97 149
62 97 148
62 97 151
60 95 143
60 95 141
63 98 156
61 96 145
60 96 141
61 95 144
61 96 144
61 97 145
60 96 143
61 96 144
61 97 147
60 95 144
59 94 129
62 97 149
60 95 133
59 93 127
61 96 139
60 95 136
61 96 143
59 94 139
59 94 129
60 95 137
61 96 141
60 94 129
60 95 140
60 95 140
60 95 141
60 95 144
60 95 135
61 96 143
61 96 136
60 95 139
59 93 127
61 96 147
60 94 130
60 94 143
60 94 129
60 94 125
59 93 124
59 93 125
58 92 115
58 92 127
59 92 122
59 93 129
57 90 120
58 91 117
59 92 124
57 89 116
76 97 89
114 124 0
114 124 0
121 133 0
112 120 0
119 128 0
116 127 0
120 131 0
123 133 0
122 133 0
111 117 0
115 126 0
120 130 0
120 127 0
125 134 0
116 128 0
115 126 0
130 139 0
123 133 0
108 116 0
125 134 0
127 137 0
122 133 0
114 123 0
114 121 0
111 117 0
116 121 0
109 116 0
124 131 0
116 123 0
119 127 0
121 131 0
125 133 0
117 125 0
121 127 0
119 126 0
119 123 0
120 127 0
130 139 0
122 129 0
120 125 0
118 118 0
120 126 0
129 137 0
126 133 0
121 126 0
122 127 0
134 137 0
120 123 0
134 141 0
123 128 0
127 130 0
131 137 0
123 130 0
121 126 0
124 126 0
130 135 0
133 140 0
135 141 0
135 141 0
136 142 0
135 139 0
129 133 0
135 141 0
125 132 0
131 136 0
129 133 0
136 142 0
135 138 0
142 149 0
133 142 0
136 142 0
131 138 0
143 152 0
140 146 0
135 140 0
143 148 0
148 156 0
142 151 0
141 145 0
131 138 0
144 153 0
142 150 0
143 153 0
146 153 0
145 154 0
148 156 0
148 157 0
140 145 0
148 157 0
144 156 0
154 164 0
147 155 0
145 153 0
149 160 0
149 159 0
156 167 0
143 156 0
155 166 0
156 168 0
150 161 0
150 159 0
157 169 0
155 167 0
149 157 0
152 162 0
152 166 0
160 175 0
155 170 0
155 168 0
156 166 0
159 170 0
158 171 0
161 176 0
155 169 0
163 178 0
158 171 0
161 177 0
159 173 0
150 163 0
164 181 0
160 173 0
151 165 0
160 175 0
158 173 0
166 183 0
159 177 0
160 175 0
161 177 0
161 176 0
160 174 0
162 177 0
156 170 0
158 175 0
163 181 0
162 180 0
163 182 0
161 179 0
166 184 0
166 182 0
164 181 0
167 186 0
161 177 0
170 188 0
160 177 0
165 183 0
174 198 36
174 198 76
173 198 80
173 197 62
173 197 67
171 194 57
171 195 76
176 200 67
170 194 72
170 194 57
174 197 76
175 199 88
172 196 76
174 197 76
169 192 67
172 196 84
173 197 72
171 196 92
172 196 72
172 196 72
173 197 88
170 195 92
172 195 72
170 195 62
173 197 88
171 195 76
170 195 72
172 196 80
172 195 57
171 194 72
169 193 51
170 194 72
170 194 62
175 198 67
168 191 67
171 196 62
169 194 84
166 190 80
170 195 88
170 195 62
170 193 57
174 198 67
170 194 67
170 194 62
169 193 62
169 194 76
169 193 67
170 194 80
170 193 72
170 194 62
171 195 80
169 193 76
168 192 80
169 192 76
171 194 72
173 196 72
169 194 76
160 184 51
163 186 84
170 192 62
171 195 67
172 195 80
171 194 62
166 188 67
172 196 76
169 193 80
168 192 84
165 188 72
166 189 72
160 184 72
172 196 72
171 195 80
170 194 84
164 187 88
171 194 92
114 140 145
92 121 153
89 118 149
93 121 150
101 129 155
93 121 137
92 120 150
87 116 152
89 118 147
90 119 142
97 124 148
94 122 144
82 113 150
105 131 155
100 128 160
94 123 145
102 129 161
100 127 158
86 115 154
96 123 154
102 130 152
95 123 159
102 128 150
98 126 162
99 127 155
105 131 144
111 137 151
97 124 148
88 117 153
86 115 150
88 117 156
90 118 160
71 105 172
73 107 179
71 104 172
62 99 172
74 107 173
74 107 167
90 118 175
77 109 171
80 111 172
95 122 178
74 104 160
67 100 156
61 96 153
62 98 160
62 98 162
61 97 156
61 97 162
62 97 157
60 95 156
61 96 150
62 97 147
61 96 155
63 96 137
62 96 144
66 99 141
65 99 150
62 97 147
60 95 141
59 94 137
60 95 144
60 95 148
60 95 148
61 97 152
59 94 142
60 95 141
60 95 145
60 95 144
61 96 149
60 96 154
60 95 145
61 96 143
61 96 149
60 95 143
60 96 141
61 96 152
59 94 142
61 96 150
60 95 150
60 96 148
60 95 141
60 95 145
61 97 152
60 95 145
60 95 147
58 92 134
60 95 146
60 95 147
61 96 147
61 96 151
61 96 148
60 95 143
61 96 150
59 94 142
62 97 150
62 97 150
61 97 147
61 96 148
61 97 153
60 95 140
59 93 144
61 96 153
60 95 140
61 96 147
61 97 153
61 96 150
60 95 142
61 97 153
60 95 142
61 97 150
61 96 145
60 95 144
60 95 142
60 96 147
61 96 149
61 97 150
62 97 147
62 97 151
61 97 151
61 96 140
59 94 133
61 96 144
61 96 147
61 97 142
62 97 151
62 97 149
60 95 140
61 96 142
60 95 147
59 94 134
61 96 147
61 96 141
61 96 141
62 97 152
60 95 143
59 94 137
60 95 131
59 94 139
60 95 147
61 96 140
61 97 149
60 96 141
61 97 151
60 95 141
60 95 133
60 95 136
58 92 127
61 96 137
60 95 134
61 95 137
60 94 129
60 94 137
60 95 139
60 95 130
60 95 136
62 97 147
60 94 137
60 95 133
60 94 133
60 95 133
61 96 142
60 94 131
59 93 127
59 94 127
61 96 140
59 93 126
60 95 137
59 92 121
60 94 131
58 92 129
61 95 141
60 93 131
59 93 130
58 91 120
58 92 125
58 91 116
57 90 120
59 90 114
121 136 36
127 139 0
117 126 0
115 124 0
124 136 0
115 124 0
120 129 0
115 126 0
119 128 0
122 134 0
114 120 0
115 125 0
127 139 0
113 121 0
119 129 0
110 117 0
122 132 0
124 133 0
116 124 0
123 133 0
122 131 0
132 144 0
125 134 0
130 142 0
121 131 0
128 138 0
126 134 0
120 127 0
127 137 0
130 140 0
123 130 0
124 131 0
130 139 0
122 126 0
123 132 0
115 122 0
121 129 0
125 133 0
125 133 0
126 133 0
135 144 0
121 127 0
122 125 0
123 130 0
122 127 0
121 125 0
130 139 0
130 136 0
126 133 0
137 144 0
121 127 0
124 132 0
124 129 0
128 132 0
132 137 0
125 129 0
131 135 0
134 139 0
132 140 0
133 137 0
134 139 0
128 129 0
129 136 0
127 131 0
136 139 0
135 142 0
138 144 0
139 147 0
136 141 0
141 148 0
144 150 0
136 145 0
137 145 0
145 152 0
142 149 0
147 153 0
146 155 0
137 143 0
139 144 0
135 142 0
141 149 0
148 154 0
145 153 0
145 151 0
147 156 0
146 157 0
140 148 0
145 154 0
155 165 0
148 158 0
152 162 0
151 159 0
150 160 0
151 160 0
150 161 0
153 164 0
158 169 0
151 161 0
150 160 0
143 151 0
144 151 0
153 166 0
148 160 0
149 162 0
150 163 0
154 167 0
155 167 0
156 169 0
154 165 0
159 170 0
160 175 0
163 180 0
159 172 0
160 175 0
156 170 0
160 173 0
153 166 0
159 173 0
162 176 0
156 170 0
159 175 0
159 174 0
159 176 0
164 181 0
165 179 0
161 177 0
164 179 0
162 179 0
156 169 0
163 179 0
165 182 0
165 183 0
162 177 0
158 175 0
165 182 0
166 184 0
166 185 0
162 181 0
165 183 0
161 179 0
163 180 0
163 178 0
167 188 0
164 180 0
165 183 0
164 182 0
175 199 57
172 196 76
172 196 67
174 197 62
174 197 51
172 195 62
171 196 76
173 197 76
173 196 72
173 197 72
174 198 72
172 196 67
173 197 76
172 196 62
173 197 67
173 196 67
173 197 72
173 197 95
171 195 80
174 198 76
174 197 57
172 197 76
170 194 67
171 195 88
172 196 76
172 196 76
171 194 62
169 192 67
171 195 92
172 196 76
171 195 88
167 190 57
170 194 76
173 196 84
170 194 57
169 192 67
170 194 57
170 194 80
168 191 72
170 193 62
169 194 84
169 192 36
174 198 67
168 193 80
171 194 76
170 194 92
169 193 84
166 189 67
169 193 72
167 191 76
170 194 76
164 188 51
167 190 57
173 197 72
168 193 92
167 190 67
166 189 72
170 193 80
167 192 67
172 196 80
169 193 80
170 194 67
169 192 67
165 189 72
167 190 80
162 185 62
164 188 76
168 192 67
166 189 51
168 191 80
170 193 88
165 188 72
166 188 62
168 191 76
162 185 62
148 172 94
84 113 131
91 119 135
96 124 153
92 121 148
88 117 148
89 118 136
105 132 151
95 122 136
90 119 150
90 118 144
92 120 141
93 122 157
102 128 151
87 115 138
99 126 157
88 117 143
91 120 160
99 126 156
92 120 151
104 130 153
94 122 156
102 129 152
87 116 147
102 129 149
112 138 145
97 124 140
97 124 151
93 121 158
90 118 150
90 119 164
92 120 151
78 109 164
77 109 174
77 109 179
94 122 185
68 102 168
82 113 178
82 113 175
90 119 175
85 114 174
83 114 177
89 117 172
67 99 151
62 98 156
61 97 158
62 97 148
61 96 153
61 96 149
64 99 158
59 95 144
61 96 151
60 95 150
60 96 145
60 94 137
63 97 152
62 96 144
60 94 143
59 93 134
66 99 136
62 95 143
60 95 149
59 94 144
59 94 137
60 95 152
59 94 134
58 93 140
59 94 144
59 94 145
60 95 150
61 96 153
61 97 153
61 96 140
60 95 144
59 94 148
60 95 144
60 95 144
61 96 148
61 96 148
59 95 142
60 96 150
59 95 139
60 96 146
60 95 146
60 96 139
60 96 153
61 96 149
61 97 149
60 95 141
59 94 135
60 96 142
60 95 144
62 97 151
61 96 152
61 97 147
61 96 147
60 95 142
60 95 136
61 96 151
60 96 148
60 95 142
61 97 148
60 95 145
60 95 145
60 95 141
59 95 140
61 96 148
60 95 137
61 96 145
61 96 147
60 95 140
61 96 136
60 95 144
61 96 141
62 97 151
61 96 142
61 96 147
61 97 149
61 97 149
60 95 139
62 97 151
62 97 147
61 97 151
60 95 141
60 95 142
61 96 142
61 96 139
60 95 139
60 95 143
60 95 143
61 96 149
62 97 151
61 96 142
59 94 137
61 96 145
61 96 143
61 96 144
60 95 141
61 97 148
60 95 143
60 95 139
60 95 134
61 97 150
61 96 143
61 96 140
61 97 141
61 95 140
60 94 136
60 95 144
60 95 139
61 96 136
60 96 140
60 95 137
60 95 136
60 95 131
60 95 134
61 96 139
61 96 145
60 94 135
59 94 130
59 93 134
60 94 131
60 95 137
60 94 131
60 95 139
60 95 134
60 95 133
57 90 120
59 93 129
58 92 125
60 94 133
60 94 133
58 91 118
59 94 130
58 92 125
59 92 130
57 90 113
56 89 113
89 107 72
118 130 0
118 130 0
114 123 0
117 128 0
114 125 0
119 129 0
106 117 0
121 132 0
127 140 0
121 129 0
118 129 0
123 130 0
126 135 0
114 122 0
112 121 0
120 130 0
118 128 0
118 129 0
128 138 0
111 119 0
124 133 0
121 131 0
118 127 0
116 122 0
122 129 0
112 119 0
124 133 0
128 137 0
120 128 0
118 124 0
124 130 0
111 116 0
113 121 0
121 129 0
123 131 0
121 127 0
124 130 0
114 123 0
125 133 0
121 129 0
125 131 0
127 136 0
128 134 0
122 128 0
130 137 0
127 132 0
123 127 0
133 139 0
130 132 0
121 125 0
130 136 0
127 132 0
123 129 0
129 139 0
134 141 0
129 135 0
129 133 0
128 133 0
135 140 0
129 135 0
139 142 0
143 151 0
133 138 0
136 143 0
141 146 0
120 124 0
143 149 0
134 142 0
127 132 0
145 150 0
142 147 0
137 144 0
144 151 0
132 138 0
139 147 0
143 150 0
140 148 0
140 146 0
149 157 0
145 152 0
142 150 0
148 158 0
149 157 0
142 152 0
143 149 0
149 159 0
150 158 0
144 151 0
146 157 0
145 154 0
142 152 0
147 158 0
151 161 0
150 161 0
150 162 0
149 162 0
148 159 0
156 168 0
153 165 0
155 167 0
151 161 0
151 161 0
155 167 0
156 169 0
155 165 0
151 161 0
156 166 0
154 167 0
157 171 0
159 171 0
153 165 0
155 169 0
158 172 0
159 174 0
156 168 0
158 170 0
158 174 0
152 167 0
157 170 0
159 173 0
153 167 0
161 178 0
156 171 0
161 178 0
158 172 0
163 179 0
159 175 0
159 174 0
153 169 0
164 180 0
168 184 0
164 180 0
162 178 0
157 173 0
165 182 0
163 180 0
161 178 0
165 182 0
166 183 0
167 185 0
163 181 0
167 182 0
165 182 0
164 182 0
165 182 0
167 185 0
177 199 57
169 193 57
171 195 76
174 198 84
173 197 67
170 194 51
171 194 84
168 191 72
171 195 67
171 196 92
170 194 80
173 197 62
173 197 92
169 192 62
174 198 95
168 191 51
170 195 72
172 196 67
174 198 72
169 194 76
172 196 72
173 197 67
172 196 92
168 193 72
170 194 76
171 195 57
171 196 95
173 197 72
173 198 84
171 195 84
172 196 72
173 197 76
168 192 67
174 198 72
171 195 62
169 193 62
172 197 67
173 197 76
171 195 57
170 193 67
170 193 62
166 190 72
169 191 57
173 198 80
169 193 92
163 186 51
168 191 51
169 194 80
165 188 62
171 195 76
173 196 76
170 194 95
168 191 62
170 195 76
167 190 62
165 188 62
163 187 57
165 189 51
163 187 44
170 193 62
164 187 44
167 190 57
167 191 84
164 189 80
164 188 62
168 192 80
167 191 62
167 190 76
168 191 67
167 190 67
166 189 62
164 188 67
171 194 62
166 189 67
168 192 88
162 185 67
106 132 111
91 118 137
87 115 136
103 131 156
96 125 162
93 121 153
91 119 138
90 119 142
95 123 147
97 124 147
99 126 152
98 125 149
91 119 141
96 124 155
97 125 155
99 126 144
95 122 143
89 117 147
93 121 151
89 117 156
106 132 166
92 121 157
96 123 144
106 132 158
103 129 143
105 132 145
109 135 156
88 117 150
88 117 156
78 109 151
79 111 157
99 127 165
84 115 169
68 103 169
87 117 181
81 112 179
80 111 176
87 116 174
74 107 166
85 115 176
77 109 176
88 117 181
67 100 161
69 100 155
62 98 160
61 97 161
61 96 152
59 94 144
60 95 153
62 97 156
61 97 157
60 95 147
61 97 156
60 96 148
61 97 153
66 99 146
65 98 141
61 95 143
67 100 145
58 92 147
59 94 144
60 95 148
59 93 141
60 95 144
59 94 136
60 95 140
60 94 142
59 94 143
60 96 148
60 95 144
60 95 146
60 95 140
60 95 143
60 95 142
60 95 140
60 96 148
60 95 152
60 95 144
61 96 144
61 96 149
60 94 144
60 95 148
61 96 146
61 96 140
59 94 145
60 95 143
59 94 147
60 96 147
61 97 149
60 95 143
62 97 155
61 96 147
60 94 127
60 95 139
61 96 142
59 94 137
61 96 148
60 96 140
62 98 158
61 96 150
60 96 143
61 96 144
61 97 155
60 95 143
60 95 144
61 96 148
62 97 145
60 95 141
61 97 155
62 97 151
61 96 148
60 95 142
61 96 143
60 95 139
62 97 147
60 94 144
59 94 131
61 96 143
60 95 145
61 96 144
62 97 153
61 96 144
61 96 151
61 97 152
61 97 153
60 95 135
60 94 139
60 95 140
61 97 151
61 96 150
60 95 133
62 97 150
62 97 145
60 95 137
61 96 147
60 95 139
61 96 148
60 95 141
61 95 143
60 95 134
61 97 144
60 95 140
62 98 148
62 97 145
59 94 136
60 95 139
61 96 136
61 96 145
61 96 140
61 97 145
60 94 125
58 92 125
60 94 133
61 96 143
61 95 139
60 95 137
60 93 127
60 94 131
61 96 139
60 95 135
58 92 122
61 96 142
61 95 135
60 94 127
60 94 130
59 94 133
59 94 135
58 91 115
59 92 121
58 92 133
60 93 126
58 91 116
59 93 124
58 92 117
58 90 115
55 87 113
64 95 110
120 130 18
118 131 0
135 148 0
116 128 0
111 121 0
115 125 0
116 127 0
122 136 0
117 128 0
117 126 0
124 136 0
122 133 0
119 130 0
122 133 0
128 142 0
126 136 0
127 133 0
123 135 0
123 131 0
126 136 0
129 139 0
121 129 0
116 126 0
120 128 0
132 143 0
124 135 0
123 131 0
122 129 0
118 127 0
118 128 0
112 116 0
123 130 0
126 137 0
120 127 0
116 121 0
125 133 0
124 132 0
130 138 0
128 138 0
130 136 0
119 125 0
128 137 0
125 134 0
131 142 0
128 135 0
129 139 0
125 131 0
122 129 0
131 134 0
129 136 0
127 133 0
126 132 0
129 136 0
131 137 0
121 126 0
144 154 0
131 139 0
134 141 0
132 139 0
136 145 0
142 149 0
138 146 0
134 140 0
133 140 0
137 147 0
135 142 0
137 144 0
147 153 0
136 146 0
137 145 0
144 153 0
133 140 0
140 150 0
139 146 0
139 146 0
138 146 0
145 154 0
140 148 0
143 153 0
138 150 0
145 153 0
149 159 0
149 157 0
144 153 0
141 150 0
147 155 0
141 149 0
148 160 0
138 149 0
141 150 0
151 157 0
149 162 0
151 162 0
150 161 0
150 160 0
156 170 0
144 157 0
153 168 0
157 169 0
150 161 0
149 161 0
150 163 0
156 170 0
150 161 0
155 169 0
159 175 0
151 163 0
155 168 0
150 162 0
153 165 0
156 171 0
161 175 0
153 165 0
156 169 0
156 171 0
159 173 0
158 171 0
154 167 0
162 178 0
157 174 0
162 176 0
160 175 0
159 172 0
160 174 0
156 172 0
160 176 0
164 180 0
162 178 0
165 181 0
159 174 0
157 173 0
162 179 0
157 173 0
165 184 0
161 179 0
163 181 0
164 180 0
160 177 0
164 181 0
168 186 0
164 181 0
166 184 0
165 184 0
162 182 0
165 183 0
166 185 0
164 180 0
174 198 67
174 198 76
172 197 84
173 196 67
172 196 44
174 198 92
172 196 67
172 196 72
172 196 62
171 196 67
173 197 88
171 195 76
174 198 76
169 194 62
170 193 57
173 197 67
172 196 57
169 193 72
171 196 72
175 200 92
174 198 84
169 193 62
165 190 72
171 194 44
169 193 67
171 194 72
171 195 72
170 195 80
173 197 62
171 195 51
165 189 62
172 196 88
167 191 62
172 196 80
168 191 67
171 195 67
172 195 62
171 195 80
169 193 62
168 192 72
169 193 67
173 197 72
169 193 92
171 195 62
168 192 67
172 196 76
174 198 76
173 196 80
168 191 57
170 195 95
166 190 88
169 192 72
165 189 62
167 190 51
170 194 62
174 198 72
164 188 76
167 190 80
166 190 62
164 188 67
164 188 76
169 193 84
172 195 84
171 195 92
168 192 88
168 192 92
169 192 72
167 191 57
167 191 62
165 189 76
159 182 57
172 195 62
168 192 67
170 193 76
168 192 84
165 188 72
160 183 105
85 115 150
82 110 135
83 112 136
87 116 137
100 128 143
90 119 144
96 124 144
94 121 145
87 115 139
97 125 153
97 125 148
87 116 143
94 122 152
83 111 147
95 122 144
94 122 150
92 120 141
100 127 158
105 132 156
95 122 153
95 123 159
108 134 156
115 140 167
93 121 145
89 118 143
116 141 152
114 139 155
81 111 148
94 122 155
87 116 158
90 120 164
82 113 157
80 110 151
73 106 174
68 103 171
80 111 177
92 120 180
81 112 180
68 103 173
71 104 166
76 107 162
77 107 171
79 106 154
65 99 156
62 98 158
67 101 161
61 97 163
61 97 155
62 97 155
59 94 145
60 95 145
60 95 152
60 95 150
59 94 146
60 96 151
71 103 151
64 98 146
64 98 149
65 98 136
63 97 144
62 96 135
60 95 145
60 95 143
58 92 133
60 95 143
60 94 142
60 95 147
61 96 148
58 93 132
60 95 145
60 94 144
59 94 146
59 94 140
61 96 146
61 96 147
60 95 146
60 95 141
61 97 153
61 96 145
60 95 139
59 94 137
59 94 147
59 94 139
61 96 147
60 95 144
61 96 147
61 96 144
60 95 143
60 95 140
60 96 150
61 96 142
60 96 147
59 93 131
61 97 152
61 96 147
61 96 151
61 96 148
61 96 148
60 94 137
60 95 149
62 97 151
59 94 137
61 96 145
61 96 149
61 96 145
60 96 147
61 97 149
61 96 148
61 95 148
61 96 150
61 96 142
60 95 145
61 97 147
60 96 145
61 97 148
59 94 141
60 96 141
60 95 148
60 95 136
60 94 139
60 95 144
60 95 140
61 96 144
62 97 150
61 97 149
61 97 142
59 93 126
61 96 141
60 95 139
60 95 141
60 95 139
61 96 148
60 95 139
60 95 136
60 94 136
61 96 147
61 96 153
60 96 140
59 94 134
61 97 147
60 94 130
62 97 148
59 94 136
58 92 120
60 95 141
60 95 140
62 97 150
60 94 135
62 97 143
59 94 134
59 93 127
60 95 137
61 96 144
60 94 131
59 93 129
61 96 137
60 95 144
59 94 133
60 94 134
60 94 133
60 94 139
58 92 124
59 93 124
59 93 133
60 94 139
57 90 120
59 93 124
60 94 129
59 93 129
59 91 125
60 94 132
59 92 129
58 91 125
58 91 114
56 88 110
92 111 78
118 131 0
122 133 0
116 127 0
118 130 0
117 127 0
117 129 0
117 126 0
121 131 0
122 134 0
116 125 0
108 120 0
122 132 0
126 138 0
109 119 0
110 119 0
135 146 0
119 131 0
124 135 0
112 121 0
107 114 0
121 134 0
123 136 0
125 135 0
113 122 0
127 136 0
122 130 0
127 138 0
111 120 0
121 130 0
127 137 0
122 131 0
126 134 0
131 141 0
120 132 0
135 145 0
128 138 0
120 126 0
123 133 0
118 128 0
128 137 0
126 133 0
126 133 0
119 123 0
133 141 0
126 134 0
132 139 0
129 135 0
121 127 0
137 146 0
133 141 0
131 139 0
136 145 0
128 134 0
139 148 0
134 142 0
130 140 0
127 136 0
133 141 0
138 145 0
131 139 0
133 139 0
131 136 0
127 133 0
143 151 0
134 141 0
126 133 0
138 145 0
138 146 0
138 148 0
140 147 0
141 148 0
143 148 0
138 145 0
145 152 0
144 151 0
146 153 0
137 146 0
148 159 0
138 148 0
144 155 0
144 155 0
145 154 0
140 147 0
149 159 0
142 152 0
146 156 0
149 159 0
148 157 0
146 156 0
143 150 0
152 162 0
146 156 0
158 170 0
158 169 0
149 161 0
148 155 0
155 167 0
158 171 0
154 168 0
154 167 0
151 164 0
152 162 0
158 171 0
145 154 0
154 167 0
160 175 0
153 164 0
151 163 0
153 165 0
159 176 0
155 170 0
153 167 0
157 171 0
155 167 0
162 177 0
156 172 0
157 169 0
153 167 0
160 172 0
156 169 0
158 173 0
160 173 0
157 171 0
160 174 0
162 177 0
159 173 0
159 171 0
163 180 0
164 179 0
165 183 0
161 175 0
162 180 0
162 179 0
157 172 0
160 176 0
159 174 0
161 179 0
164 179 0
162 179 0
160 178 0
162 179 0
164 182 0
160 175 0
163 181 0
162 179 0
161 178 0
167 187 0
174 197 84
174 197 57
171 194 62
174 197 72
176 199 72
174 198 84
171 195 72
173 197 76
171 195 84
172 196 84
173 196 76
174 198 92
171 194 51
173 197 76
173 198 95
173 196 62
171 193 67
171 195 72
173 197 72
170 194 88
169 193 84
170 193 62
170 193 72
172 196 57
171 195 76
169 193 80
166 191 67
172 196 62
172 195 57
172 196 84
172 196 67
170 193 57
170 193 57
170 193 80
168 192 67
169 194 76
173 197 88
172 197 92
170 193 57
169 193 72
164 188 76
174 197 67
166 191 72
165 189 80
163 187 67
163 187 72
168 191 62
169 193 67
168 192 51
167 192 84
170 195 67
166 191 99
166 189 67
162 185 76
167 191 80
168 191 44
163 187 76
166 190 67
169 192 57
169 192 76
168 192 67
170 195 76
161 185 80
165 189 67
166 190 62
171 194 92
162 185 57
166 190 84
165 187 62
167 191 88
166 189 67
161 186 88
170 194 80
165 188 72
164 187 72
163 187 88
159 181 80
119 144 127
89 118 142
89 118 143
100 128 150
86 115 137
91 119 149
84 113 139
91 117 132
87 115 120
100 127 161
88 117 137
102 129 163
96 123 146
88 116 150
93 121 148
89 117 149
109 135 163
106 132 160
83 112 129
87 116 158
93 122 156
91 119 143
81 110 144
97 124 151
95 122 143
108 134 161
101 127 144
111 137 157
99 126 137
91 119 143
84 114 155
90 119 158
87 116 158
79 110 173
74 107 177
74 107 173
79 111 169
79 110 170
86 116 185
85 114 170
68 102 168
87 116 180
77 105 152
69 99 150
60 96 154
61 97 159
61 97 159
60 95 147
59 95 145
61 96 153
63 98 150
60 96 153
61 96 156
62 97 148
61 96 144
62 97 149
69 101 140
62 97 148
62 96 145
63 96 144
62 96 139
57 91 138
59 93 131
60 95 144
60 95 141
60 95 148
59 93 132
60 95 143
61 96 150
58 92 138
59 94 131
60 95 141
60 95 141
61 97 148
59 94 135
59 94 130
61 96 148
60 95 141
60 95 145
61 95 145
60 95 145
59 94 136
59 94 140
59 94 139
60 95 139
60 95 145
60 95 134
60 95 140
60 95 145
60 94 141
60 95 134
61 96 142
61 96 142
62 97 156
59 93 139
60 95 135
61 97 145
60 95 140
60 95 142
61 97 152
60 95 144
61 96 140
61 97 149
60 96 137
61 96 140
60 96 143
60 95 137
60 95 143
61 96 143
59 93 129
61 96 148
61 96 142
61 96 144
60 94 134
61 95 147
60 96 143
60 95 139
61 97 147
61 96 143
61 96 141
60 94 133
61 96 153
60 96 141
61 96 135
60 95 139
60 95 137
61 96 142
62 98 155
61 96 145
59 94 133
60 95 133
61 96 148
60 94 143
59 94 134
60 96 137
59 94 137
59 93 125
61 97 143
59 94 134
60 95 134
60 95 135
60 95 139
60 95 141
62 97 151
60 95 140
61 96 144
60 95 137
60 95 137
59 94 136
61 96 145
61 96 139
60 94 125
60 95 140
61 95 135
59 94 134
59 93 124
59 94 131
60 94 136
61 96 142
60 94 141
59 94 124
59 93 130
59 94 126
60 94 140
59 94 124
60 94 129
57 91 117
57 90 120
58 92 122
59 92 124
59 93 129
59 92 124
58 91 110
58 90 123
78 101 105
119 131 0
122 133 0
123 135 0
125 139 0
113 126 0
108 122 0
130 143 0
114 125 0
123 137 0
106 117 0
116 127 0
115 126 0
125 137 0
120 129 0
119 130 0
125 136 0
128 139 0
109 117 0
119 132 0
123 135 0
126 135 0
124 134 0
116 127 0
116 128 0
124 135 0
113 122 0
125 136 0
115 126 0
131 142 0
124 135 0
117 127 0
116 126 0
123 134 0
121 129 0
124 132 0
126 135 0
128 136 0
129 138 0
125 134 0
114 121 0
133 141 0
125 136 0
130 138 0
120 127 0
127 135 0
135 143 0
123 133 0
134 142 0
124 131 0
135 144 0
137 146 0
120 127 0
129 135 0
138 146 0
141 151 0
134 142 0
136 144 0
127 135 0
131 138 0
132 140 0
138 145 0
126 133 0
135 143 0
129 137 0
133 142 0
134 139 0
135 141 0
146 153 0
136 144 0
135 144 0
141 150 0
151 160 0
133 140 0
129 136 0
150 161 0
145 151 0
143 154 0
150 160 0
139 147 0
142 153 0
146 156 0
142 152 0
144 152 0
154 167 0
144 152 0
138 150 0
153 164 0
153 164 0
151 162 0
149 158 0
148 157 0
145 157 0
153 163 0
150 160 0
150 162 0
152 163 0
157 172 0
152 166 0
153 167 0
153 167 0
148 156 0
154 168 0
153 165 0
160 174 0
153 166 0
150 161 0
163 176 0
161 173 0
157 172 0
149 162 0
158 172 0
156 169 0
158 172 0
153 168 0
156 171 0
159 175 0
157 172 0
158 173 0
156 171 0
161 175 0
152 168 0
160 175 0
158 173 0
169 184 0
160 173 0
160 177 0
162 178 0
164 182 0
158 174 0
158 175 0
164 182 0
159 176 0
163 181 0
161 177 0
157 171 0
161 177 0
162 179 0
163 181 0
163 182 0
161 179 0
163 180 0
168 186 0
162 179 0
160 177 0
162 181 0
163 181 0
163 183 0
163 180 0
174 199 88
173 197 80
170 192 62
173 196 67
169 192 67
170 195 72
172 196 51
172 196 80
174 198 76
174 197 92
171 195 57
173 197 88
172 195 62
173 197 67
175 199 72
167 192 92
171 196 80
171 196 67
172 197 92
172 196 67
172 196 80
172 196 62
173 197 80
168 192 72
167 193 84
171 195 80
171 195 84
166 190 62
170 193 62
169 192 76
166 191 76
167 191 67
169 194 88
170 194 80
172 196 72
167 192 88
170 194 62
167 191 88
172 195 62
169 193 84
169 193 80
167 191 76
170 193 62
170 194 51
170 194 92
169 193 57
166 190 84
170 194 72
168 192 92
168 192 72
171 194 76
171 194 76
164 189 92
165 189 72
167 191 72
167 191 57
165 188 76
167 190 25
164 188 72
167 191 57
164 187 67
171 194 80
170 193 57
164 189 76
167 190 88
165 189 72
171 195 84
160 184 57
170 194 76
167 190 51
158 180 67
160 184 57
163 186 36
163 187 67
162 185 80
173 196 62
164 187 80
148 172 84
82 109 118
96 123 127
79 109 140
102 129 144
104 131 154
81 110 141
98 126 154
91 120 156
83 112 143
80 110 142
97 124 144
96 123 147
106 133 162
89 117 140
86 114 145
97 124 154
96 122 142
82 111 140
92 120 150
89 116 139
84 113 140
95 122 151
101 128 158
91 119 136
102 129 140
113 138 154
105 132 150
103 129 158
78 109 152
85 114 148
90 120 158
87 117 163
88 117 162
74 106 159
84 114 176
71 104 169
71 104 174
75 107 163
74 107 165
92 120 173
83 113 174
68 101 161
71 102 158
76 105 162
61 97 159
61 96 151
61 96 156
60 96 156
59 94 142
60 96 155
59 94 144
60 95 145
59 94 141
61 95 136
65 98 142
61 95 145
63 97 150
62 96 140
63 98 149
63 97 137
67 99 138
59 93 137
59 94 139
59 93 143
59 94 144
59 94 136
58 93 140
60 95 143
60 96 145
59 94 131
61 96 153
60 95 149
61 97 144
61 95 145
59 95 147
60 95 140
60 96 149
60 95 149
61 96 147
60 96 143
59 94 141
58 93 133
61 97 151
61 96 149
61 96 153
61 96 147
60 95 142
61 96 144
60 95 140
62 97 155
61 96 149
61 96 140
60 95 137
61 96 140
60 96 144
60 96 144
59 94 133
61 96 140
60 95 137
59 93 134
60 95 140
59 94 134
62 97 151
60 95 144
61 96 140
60 95 131
61 96 148
61 96 150
61 96 149
60 95 137
61 95 142
61 97 148
60 95 144
61 96 151
59 94 129
60 95 145
60 95 139
61 96 140
61 96 148
62 97 148
60 95 131
61 96 141
60 95 140
58 93 122
60 95 141
59 94 134
61 95 135
60 95 135
61 96 144
61 96 140
60 95 141
61 97 139
59 93 129
61 96 142
61 96 149
61 96 141
62 97 149
61 96 145
61 96 141
59 93 131
60 95 139
61 96 140
60 95 143
59 94 126
60 95 135
61 96 147
59 94 130
60 95 130
61 96 141
60 95 135
59 93 126
60 95 134
59 94 127
59 94 127
60 95 141
60 95 141
60 94 133
60 94 134
59 93 121
61 95 140
58 92 126
59 94 126
59 92 121
58 91 115
59 93 125
57 91 115
57 91 124
59 93 122
57 90 115
57 91 111
59 93 126
56 88 102
56 88 108
109 125 62
114 124 0
117 129 0
119 132 0
111 122 0
118 130 0
116 128 0
113 126 0
122 133 0
121 130 0
123 136 0
122 136 0
120 134 0
122 132 0
116 127 0
128 137 0
123 134 0
124 134 0
126 135 0
120 134 0
120 129 0
120 130 0
121 130 0
113 126 0
121 131 0
123 134 0
117 126 0
120 131 0
120 131 0
118 128 0
130 141 0
131 141 0
120 129 0
124 133 0
128 137 0
129 139 0
119 129 0
125 134 0
130 140 0
124 131 0
124 133 0
129 135 0
122 128 0
132 143 0
125 135 0
141 147 0
130 141 0
120 129 0
137 147 0
120 127 0
139 150 0
131 139 0
131 141 0
132 141 0
129 136 0
129 133 0
135 141 0
135 144 0
131 136 0
131 137 0
126 135 0
134 143 0
140 146 0
140 148 0
141 150 0
136 143 0
138 146 0
141 152 0
139 148 0
136 143 0
143 152 0
130 139 0
142 149 0
145 157 0
131 141 0
137 145 0
145 154 0
143 151 0
145 155 0
146 158 0
142 151 0
148 158 0
137 145 0
139 148 0
142 152 0
144 155 0
153 165 0
153 162 0
150 160 0
150 158 0
147 157 0
148 156 0
147 159 0
147 158 0
149 160 0
150 164 0
143 154 0
151 163 0
154 167 0
160 173 0
157 170 0
158 172 0
155 167 0
150 161 0
147 159 0
157 171 0
159 173 0
158 174 0
155 170 0
157 171 0
155 171 0
159 173 0
159 174 0
148 160 0
158 173 0
161 178 0
157 173 0
151 164 0
160 175 0
160 173 0
154 169 0
161 177 0
154 168 0
163 178 0
161 178 0
162 179 0
160 177 0
162 178 0
166 183 0
160 177 0
160 174 0
162 178 0
161 179 0
165 184 0
162 180 0
163 179 0
162 179 0
162 178 0
168 187 0
161 178 0
159 176 0
163 182 0
164 179 0
165 183 0
165 182 0
165 183 0
165 184 0
159 177 0
161 180 0
174 198 57
174 197 76
168 192 72
174 197 80
171 193 62
173 196 80
173 197 67
174 198 88
170 193 76
173 198 84
172 196 80
174 198 72
171 195 72
172 195 57
166 189 80
172 196 72
176 199 57
167 191 76
169 193 76
171 194 67
167 191 57
172 197 95
171 195 88
171 195 51
170 195 76
169 193 62
170 194 76
172 196 72
169 193 76
167 191 67
171 195 80
173 197 88
171 196 84
170 195 80
165 188 76
161 185 72
169 193 76
165 188 72
167 191 57
171 194 57
169 193 57
171 195 84
167 191 76
171 195 92
169 193 72
164 188 57
172 197 84
169 193 72
167 192 76
164 188 67
166 190 88
169 192 80
167 192 72
162 185 80
165 188 57
168 192 57
167 190 76
165 188 36
172 195 76
166 190 76
161 186 51
167 192 88
166 189 72
167 190 76
170 194 67
165 188 76
161 184 72
161 185 88
169 192 51
164 187 76
169 192 76
168 191 62
162 186 51
166 188 72
154 177 76
159 182 62
158 182 67
163 187 88
126 151 113
87 116 124
97 124 144
96 124 134
91 120 142
96 123 141
93 120 146
100 127 143
90 118 147
83 112 145
109 134 149
98 125 151
93 120 149
86 115 144
94 121 145
96 123 151
94 122 152
89 117 149
99 126 147
94 122 154
96 124 152
86 115 146
81 110 144
83 112 135
85 113 155
101 128 166
101 128 153
114 139 158
104 130 151
94 122 151
92 120 151
84 113 143
81 110 141
84 113 152
89 119 176
72 105 176
72 105 170
69 103 168
92 120 174
77 109 171
74 106 162
83 113 173
69 100 161
65 99 153
67 100 151
61 97 150
64 99 160
61 96 148
61 97 151
59 94 143
61 96 157
59 94 139
58 93 137
60 95 149
60 95 151
61 96 153
61 95 141
61 95 141
66 99 136
62 96 136
66 100 147
61 95 139
59 94 141
59 94 147
57 91 133
60 95 141
59 94 141
59 93 136
60 95 136
60 94 137
59 95 143
61 96 145
59 94 144
60 94 135
61 96 147
59 93 133
60 95 137
61 96 147
60 94 137
61 96 145
61 96 144
60 95 137
59 93 139
60 95 145
60 96 147
60 95 146
59 94 137
60 95 140
60 95 142
59 93 141
61 96 151
60 95 150
60 95 145
61 96 147
60 96 152
60 95 150
61 96 139
61 96 147
60 95 142
60 95 139
60 95 135
60 95 142
61 96 148
61 96 147
61 95 137
60 95 129
61 96 145
60 95 141
60 95 130
61 96 143
61 96 145
60 95 140
59 94 137
60 96 142
62 97 155
60 95 142
60 95 142
60 95 135
59 94 130
62 97 144
61 95 141
60 95 140
60 94 135
62 97 149
61 95 137
60 95 134
60 95 140
59 93 129
61 96 144
60 94 141
61 96 148
60 94 136
60 95 131
61 95 136
61 96 144
61 95 149
60 95 140
61 96 139
61 95 137
60 94 127
60 94 137
58 93 122
60 94 139
60 94 140
60 95 135
61 96 137
60 95 139
59 93 137
61 96 145
60 94 135
60 95 127
59 94 133
58 92 126
61 95 136
59 93 130
59 94 129
60 95 133
59 94 127
59 93 134
59 93 125
58 92 118
59 93 124
59 93 126
60 95 130
58 92 123
59 92 125
57 91 114
58 91 110
57 90 120
58 91 120
57 90 117
59 92 123
82 101 85
113 122 0
121 133 0
119 131 0
129 141 0
131 143 0
121 132 0
119 132 0
119 129 0
125 137 0
122 132 0
131 143 0
114 125 0
123 137 0
118 126 0
128 141 0
118 131 0
115 126 0
122 133 0
118 129 0
124 134 0
123 133 0
122 134 0
132 145 0
110 120 0
125 138 0
123 131 0
128 140 0
123 132 0
113 123 0
117 126 0
120 129 0
139 151 0
119 128 0
133 145 0
141 153 0
129 140 0
129 133 0
133 142 0
133 142 0
133 141 0
134 144 0
126 136 0
123 131 0
123 133 0
125 134 0
125 132 0
124 132 0
137 145 0
134 141 0
135 146 0
129 139 0
129 134 0
135 143 0
131 139 0
132 141 0
134 143 0
137 147 0
128 137 0
127 136 0
139 147 0
139 150 0
141 151 0
141 150 0
137 147 0
135 145 0
134 143 0
133 143 0
135 144 0
141 152 0
131 138 0
136 147 0
137 144 0
145 154 0
148 157 0
140 149 0
137 145 0
146 154 0
143 152 0
149 159 0
141 151 0
145 155 0
143 154 0
139 149 0
146 157 0
143 153 0
153 163 0
144 153 0
151 164 0
142 151 0
153 165 0
140 150 0
151 162 0
148 158 0
150 161 0
155 168 0
146 158 0
152 165 0
152 165 0
148 161 0
150 162 0
153 168 0
159 173 0
160 177 0
154 167 0
152 166 0
155 167 0
155 168 0
156 168 0
153 166 0
157 169 0
159 173 0
160 173 0
155 169 0
156 172 0
155 168 0
159 173 0
160 177 0
162 178 0
159 175 0
162 179 0
153 167 0
156 170 0
161 179 0
158 175 0
164 182 0
163 179 0
162 177 0
167 185 0
160 175 0
158 175 0
165 181 0
161 176 0
157 175 0
163 180 0
160 177 0
162 179 0
162 178 0
160 178 0
158 173 0
165 184 0
164 182 0
163 182 0
166 182 0
164 184 0
164 182 0
165 185 0
164 182 0
169 188 0
167 186 0
174 198 57
173 196 67
173 196 80
173 197 76
173 197 80
170 194 57
172 196 67
172 195 72
171 195 92
171 194 51
175 198 72
173 197 62
175 199 95
171 196 88
173 196 44
171 195 72
169 193 67
174 198 76
168 192 76
173 197 76
173 197 62
168 191 57
173 198 80
170 194 80
171 195 72
170 195 84
173 197 76
169 193 72
165 189 57
165 189 51
166 189 57
166 190 84
170 194 92
170 194 67
168 192 67
170 194 62
167 192 76
169 194 72
168 193 84
166 189 67
167 191 84
167 191 88
170 195 92
165 189 72
161 185 67
171 194 95
171 195 92
169 192 72
171 195 80
169 193 76
168 192 72
166 190 72
158 181 51
168 192 72
168 192 72
163 187 51
163 188 57
168 192 88
170 193 62
168 190 62
167 191 67
168 191 57
167 190 51
162 185 51
161 185 57
164 187 76
166 191 84
165 188 76
167 190 92
167 189 76
168 191 92
164 187 67
162 186 62
161 185 80
164 188 62
163 186 84
166 189 72
159 183 76
159 182 74
97 125 142
88 116 124
78 108 131
82 112 136
84 113 141
97 124 147
81 110 133
86 114 124
87 115 136
96 124 151
79 108 140
98 126 145
90 118 137
94 122 158
92 120 146
93 121 129
86 115 141
90 118 153
91 118 141
84 113 138
97 124 150
93 120 157
104 130 153
111 136 152
88 115 132
90 118 156
102 129 147
93 121 146
108 134 145
87 116 148
87 116 147
84 114 140
83 112 153
83 113 159
84 114 175
75 107 174
79 110 169
82 113 171
77 109 174
85 114 170
77 108 163
73 104 161
77 105 155
72 102 154
70 102 158
61 97 156
61 97 153
61 97 158
60 96 158
60 96 149
61 96 143
61 97 160
61 95 142
60 95 145
60 95 150
65 99 139
72 104 143
64 97 136
63 97 142
65 99 145
62 95 141
59 94 142
59 94 136
59 94 136
59 93 133
60 95 144
59 94 138
59 94 136
59 93 134
59 94 139
60 95 141
61 96 143
60 95 141
59 94 143
58 92 131
60 95 144
58 93 139
61 96 140
60 95 145
60 96 143
61 96 144
59 93 141
59 93 139
61 96 141
61 96 140
60 96 149
60 95 141
60 94 142
61 97 144
60 95 143
60 95 144
61 96 144
59 94 136
61 96 141
59 94 141
61 96 144
61 96 143
59 93 131
61 96 141
60 94 142
60 94 141
61 96 150
61 96 144
61 96 147
61 96 144
59 94 140
60 95 141
60 95 142
61 96 145
60 96 145
61 96 142
60 95 144
61 96 152
60 95 139
60 95 147
61 96 143
60 95 137
61 96 134
60 96 140
59 93 140
60 94 134
61 96 147
59 94 135
60 95 134
60 94 134
59 93 131
60 96 144
59 93 122
62 97 148
59 93 129
61 96 140
60 95 133
60 94 134
61 96 136
60 95 137
60 95 135
60 95 129
60 95 136
60 95 141
60 95 143
60 95 139
59 93 135
58 92 136
60 94 134
59 94 126
61 96 139
61 96 139
60 94 127
60 95 134
61 96 143
59 94 131
60 95 133
60 94 133
60 95 135
60 94 134
59 94 124
59 94 124
58 91 129
57 91 117
58 92 130
59 93 127
58 92 114
58 92 122
58 91 122
58 92 115
58 92 117
57 89 116
57 90 116
57 90 120
56 87 105
68 95 107
117 133 25
110 123 0
111 125 0
114 126 0
130 144 0
103 115 0
108 118 0
108 118 0
112 123 0
118 130 0
120 133 0
123 136 0
126 138 0
133 146 0
112 122 0
115 125 0
128 138 0
129 144 0
135 148 0
120 130 0
120 129 0
115 126 0
128 141 0
118 126 0
117 127 0
134 147 0
131 142 0
123 134 0
124 135 0
119 131 0
126 137 0
123 134 0
123 134 0
137 148 0
126 135 0
137 150 0
117 126 0
135 145 0
132 144 0
132 143 0
126 134 0
129 140 0
132 144 0
128 140 0
131 140 0
133 142 0
136 145 0
140 151 0
132 144 0
133 141 0
128 138 0
130 140 0
142 152 0
132 143 0
143 153 0
130 140 0
137 149 0
127 136 0
133 140 0
139 146 0
129 134 0
135 144 0
140 152 0
138 148 0
129 138 0
132 139 0
125 136 0
133 141 0
142 155 0
143 153 0
144 153 0
138 147 0
139 148 0
142 151 0
148 159 0
141 149 0
145 155 0
136 146 0
151 162 0
138 148 0
135 144 0
149 161 0
145 155 0
156 170 0
142 150 0
148 160 0
145 157 0
137 147 0
155 167 0
153 168 0
143 151 0
146 155 0
152 164 0
152 160 0
148 160 0
150 163 0
147 157 0
156 169 0
154 166 0
152 164 0
149 159 0
147 157 0
159 173 0
157 170 0
156 169 0
158 172 0
154 168 0
157 173 0
157 166 0
160 174 0
147 159 0
156 171 0
155 170 0
161 176 0
154 167 0
161 177 0
153 166 0
162 178 0
157 173 0
156 171 0
165 181 0
159 174 0
165 181 0
160 177 0
158 174 0
162 179 0
161 177 0
166 183 0
154 171 0
161 180 0
162 180 0
165 185 0
161 178 0
159 175 0
162 180 0
163 180 0
159 175 0
163 182 0
164 183 0
161 179 0
165 184 0
166 185 0
162 179 0
166 182 0
160 177 0
164 182 0
168 186 0
165 185 0
163 183 0
160 179 0
170 194 67
174 197 72
173 196 44
173 196 72
171 195 51
171 195 51
172 195 76
171 194 76
172 196 84
172 196 84
167 192 72
167 191 67
173 197 80
171 196 76
171 194 44
172 195 57
173 197 80
171 194 67
165 189 72
174 198 80
166 191 95
166 191 72
167 191 25
172 197 84
172 196 62
173 197 72
169 193 57
171 195 62
172 197 92
166 191 80
168 192 76
166 191 76
172 196 76
172 197 72
172 196 62
170 194 76
166 190 72
169 194 84
170 195 72
173 197 80
167 191 67
167 192 95
165 189 67
170 194 76
167 191 72
163 187 72
169 193 57
168 193 84
171 195 84
164 188 67
169 193 80
170 194 67
164 188 84
170 193 88
167 191 80
164 187 57
165 188 67
160 183 72
166 189 51
163 187 84
165 187 51
163 187 72
164 188 72
165 188 67
165 189 80
165 188 80
160 182 44
168 193 84
161 186 84
161 184 62
162 185 76
169 192 80
164 188 76
163 186 67
165 188 62
159 182 57
161 184 76
165 188 76
161 183 67
127 151 103
89 117 137
97 124 133
99 127 150
89 117 134
95 123 142
85 114 143
93 120 149
86 115 139
88 116 141
87 115 136
92 119 134
92 120 141
103 129 143
86 113 136
87 115 136
89 117 153
87 115 137
90 118 135
94 121 140
90 116 143
94 121 156
97 123 152
110 135 139
100 127 151
101 128 149
93 120 147
96 123 139
103 129 149
100 127 151
86 115 147
81 111 158
78 107 147
81 111 143
92 120 156
81 111 169
71 104 169
74 107 169
80 111 171
74 107 166
79 110 164
72 105 166
64 97 149
65 98 153
70 101 157
65 98 147
60 96 152
60 96 149
60 96 142
61 97 151
62 97 153
60 95 146
60 95 141
59 95 142
59 94 139
58 93 138
62 96 144
66 99 139
60 95 145
65 98 146
65 98 134
60 95 141
59 94 138
59 95 145
59 94 133
59 94 136
58 92 127
60 95 137
60 95 140
61 96 142
59 94 130
61 96 141
60 95 137
59 94 135
60 95 144
59 94 139
61 96 151
59 94 137
60 96 142
60 94 136
60 95 144
60 95 142
61 95 145
59 94 134
61 96 149
62 97 157
59 94 132
60 94 137
61 96 147
60 94 147
61 97 149
61 97 145
59 94 136
61 96 148
59 94 131
60 95 133
60 95 135
61 96 144
61 96 145
59 94 134
61 96 140
60 95 141
61 97 147
60 96 142
60 95 141
60 95 142
59 94 139
61 96 139
61 96 149
60 95 134
60 95 139
59 94 131
60 95 139
60 95 136
61 96 145
61 96 141
61 96 151
59 93 126
61 96 144
60 94 133
59 93 133
60 95 137
60 94 139
60 95 137
61 96 141
61 96 140
60 94 137
61 97 142
60 95 142
61 95 139
60 94 134
59 94 140
62 97 145
61 96 139
59 93 129
60 94 127
60 95 135
60 95 133
59 93 130
60 95 134
59 94 131
60 94 129
60 95 135
60 95 141
59 94 131
61 96 143
60 94 136
59 94 124
60 95 134
58 92 120
58 92 130
61 96 136
61 95 136
58 92 122
58 92 125
58 92 121
59 93 129
59 93 126
60 94 134
59 94 135
58 92 122
59 94 130
59 92 125
57 90 120
59 92 120
57 91 115
60 94 132
58 91 105
57 90 111
55 86 103
109 124 57
125 138 0
115 128 0
118 130 0
124 135 0
114 126 0
128 141 0
129 142 0
124 138 0
119 131 0
122 135 0
127 139 0
108 120 0
121 131 0
119 131 0
120 133 0
128 142 0
128 138 0
124 134 0
127 141 0
118 128 0
119 130 0
124 133 0
123 133 0
115 126 0
131 142 0
124 137 0
122 132 0
130 142 0
118 130 0
118 129 0
128 143 0
135 147 0
133 143 0
120 131 0
135 147 0
126 136 0
120 130 0
130 139 0
124 135 0
131 140 0
120 131 0
133 144 0
132 141 0
139 150 0
133 139 0
136 147 0
130 142 0
134 143 0
121 131 0
123 130 0
122 133 0
130 138 0
144 156 0
129 136 0
144 155 0
129 138 0
135 143 0
132 140 0
133 144 0
135 145 0
134 141 0
141 150 0
140 149 0
140 149 0
139 149 0
132 139 0
133 142 0
141 153 0
143 150 0
137 143 0
133 143 0
147 157 0
145 156 0
142 153 0
149 161 0
150 161 0
145 155 0
147 158 0
144 152 0
147 159 0
140 150 0
149 159 0
150 162 0
150 162 0
151 163 0
140 152 0
143 156 0
149 161 0
146 154 0
148 158 0
158 169 0
152 164 0
147 157 0
152 164 0
148 158 0
151 164 0
149 162 0
151 163 0
149 161 0
150 163 0
146 158 0
148 162 0
147 160 0
155 168 0
153 168 0
157 169 0
155 169 0
158 171 0
156 169 0
157 171 0
150 165 0
155 168 0
157 172 0
160 176 0
153 168 0
159 177 0
157 173 0
157 172 0
155 169 0
164 180 0
155 171 0
161 176 0
162 178 0
160 177 0
157 172 0
155 172 0
160 175 0
155 172 0
154 171 0
162 175 0
159 175 0
163 180 0
165 182 0
158 178 0
158 177 0
167 184 0
168 184 0
155 173 0
163 181 0
160 175 0
167 185 0
163 180 0
165 183 0
165 185 0
164 182 0
161 178 0
164 183 0
166 184 0
167 186 0
168 187 0
166 189 51
172 196 95
175 199 92
174 198 99
172 196 80
172 196 84
174 198 67
169 192 57
172 195 51
170 195 84
172 196 92
168 192 57
171 195 76
172 196 72
171 194 72
174 198 72
170 194 62
171 196 88
175 198 76
172 196 76
171 195 88
173 196 76
172 196 84
170 194 67
170 193 44
170 194 76
172 196 62
169 194 76
170 194 72
169 193 72
170 193 76
169 194 67
167 190 62
173 197 84
167 191 72
167 191 62
166 190 80
167 191 72
166 189 72
172 196 76
170 194 80
169 192 72
166 191 51
165 188 76
168 192 72
165 190 80
170 192 67
165 189 51
169 192 72
170 194 95
164 189 80
168 192 88
167 191 67
167 191 88
170 192 72
164 187 51
166 190 62
167 191 72
168 192 72
159 182 72
162 185 80
167 191 76
159 183 72
160 183 80
164 188 78
164 188 88
162 186 67
168 190 57
166 190 62
162 185 51
160 184 80
159 183 80
166 189 76
165 190 95
163 186 67
167 191 95
161 184 76
157 180 80
162 185 76
162 186 60
107 133 115
89 117 129
90 118 141
93 121 136
95 123 143
89 118 134
87 115 131
82 112 143
95 122 136
86 115 145
96 123 140
80 109 129
95 122 143
93 121 153
84 113 134
97 125 151
104 130 139
99 125 150
100 127 158
87 115 144
87 115 134
89 117 148
101 126 138
100 127 152
99 125 160
102 129 144
105 131 157
110 136 158
95 122 147
102 128 143
98 124 151
103 129 155
92 120 161
80 110 141
90 119 158
77 109 168
75 107 172
80 111 173
74 106 161
77 109 169
87 116 164
66 99 155
78 105 155
66 98 148
68 99 145
62 96 158
60 95 156
61 96 144
62 96 143
61 96 149
60 96 148
61 97 158
60 94 141
60 95 142
60 95 141
66 98 139
63 96 135
60 95 144
63 96 137
58 92 133
60 94 135
57 91 133
59 94 138
59 94 137
59 93 136
60 95 150
58 93 132
60 96 145
59 93 137
61 96 143
59 94 139
59 94 142
60 95 141
60 95 141
59 93 134
60 95 135
60 95 141
59 94 135
61 96 142
61 96 148
60 95 140
60 96 148
60 94 144
59 94 141
60 95 141
61 96 142
59 93 133
58 93 134
61 96 143
58 93 139
61 96 147
61 96 145
59 94 133
59 93 137
60 95 137
60 95 143
60 95 143
61 96 145
61 97 149
62 97 145
61 96 145
61 96 145
60 94 137
60 96 143
61 96 143
60 94 143
60 95 134
61 97 149
60 95 131
59 94 135
60 95 141
61 96 142
61 96 141
61 96 144
60 95 142
59 93 134
62 97 148
60 95 131
60 94 137
61 96 145
61 96 135
61 97 144
61 96 137
59 94 126
61 96 139
60 95 134
60 95 131
61 96 145
60 95 142
59 94 121
59 94 127
60 94 134
62 97 149
60 95 135
60 94 133
60 95 133
60 95 139
58 92 117
60 95 133
59 94 134
59 93 125
60 95 136
60 95 135
60 94 139
60 94 139
61 95 136
59 94 134
59 93 130
59 94 134
59 94 127
59 93 134
59 93 129
60 94 129
60 94 131
58 92 129
58 92 120
58 93 124
58 92 124
57 91 114
60 94 121
58 92 120
58 91 117
56 89 110
58 91 118
58 91 115
57 89 110
57 90 120
55 88 108
84 106 90
115 127 0
114 127 0
110 121 0
121 135 0
114 128 0
114 127 0
120 134 0
123 136 0
113 126 0
121 135 0
119 132 0
127 140 0
128 142 0
122 135 0
124 134 0
119 132 0
118 129 0
115 128 0
118 130 0
131 143 0
123 136 0
125 135 0
137 149 0
125 136 0
127 139 0
136 150 0
122 134 0
117 128 0
126 138 0
115 129 0
132 142 0
126 137 0
120 133 0
133 145 0
120 130 0
128 138 0
134 144 0
129 141 0
122 134 0
125 137 0
121 132 0
127 139 0
137 148 0
132 142 0
129 140 0
124 133 0
135 148 0
128 140 0
140 151 0
125 137 0
133 145 0
134 144 0
133 141 0
139 150 0
134 142 0
133 145 0
130 141 0
141 151 0
139 152 0
147 157 0
135 143 0
130 140 0
143 154 0
143 155 0
150 162 0
131 139 0
137 146 0
138 146 0
141 152 0
145 156 0
143 155 0
144 154 0
142 153 0
138 150 0
149 159 0
139 151 0
151 161 0
150 162 0
151 163 0
151 162 0
143 153 0
149 160 0
145 155 0
135 144 0
155 164 0
146 155 0
142 152 0
144 157 0
151 162 0
141 153 0
147 158 0
149 162 0
146 158 0
154 166 0
150 162 0
150 164 0
151 165 0
153 167 0
157 171 0
149 159 0
155 167 0
154 167 0
152 164 0
151 166 0
159 175 0
157 172 0
159 173 0
158 174 0
155 170 0
155 168 0
150 161 0
155 170 0
155 170 0
152 169 0
158 174 0
155 167 0
158 174 0
161 177 0
156 170 0
153 168 0
159 175 0
159 176 0
161 177 0
162 180 0
154 168 0
162 179 0
158 173 0
164 181 0
158 173 0
157 174 0
157 172 0
162 181 0
164 180 0
160 177 0
159 174 0
159 176 0
166 184 0
160 178 0
158 174 0
162 181 0
158 174 0
157 174 0
159 177 0
166 184 0
163 182 0
158 177 0
168 187 0
158 174 0
166 186 0
167 188 0
164 184 0
175 198 76
173 195 67
174 197 76
169 194 62
171 195 80
167 191 80
169 193 72
168 193 57
169 193 84
167 192 76
174 198 57
173 197 72
173 197 80
169 193 57
175 198 84
174 197 80
167 191 76
170 193 72
171 195 80
171 195 62
170 194 76
167 191 44
165 190 44
173 198 62
170 193 76
169 193 51
172 195 72
169 192 44
166 191 76
173 197 84
170 194 67
166 191 76
168 192 88
166 190 72
173 197 80
171 195 88
168 193 80
166 190 67
170 194 67
170 195 80
168 192 84
168 192 76
166 190 92
167 191 67
168 192 76
168 193 62
166 192 95
168 191 67
169 193 57
166 190 67
158 182 62
168 192 72
167 191 88
171 195 88
164 187 51
170 193 80
166 189 92
166 190 76
165 188 80
153 177 72
167 191 72
166 190 72
165 189 67
161 185 57
164 187 57
162 186 92
159 183 67
166 189 88
165 188 80
166 191 84
162 186 72
161 184 44
167 190 76
160 183 57
162 184 25
164 186 72
163 186 84
163 187 92
165 188 72
165 190 80
150 173 82
85 114 142
93 119 118
79 108 131
89 117 141
95 122 139
92 120 143
94 120 122
89 116 140
112 136 142
85 114 141
94 121 140
93 121 141
88 116 139
101 128 153
89 116 130
100 126 148
106 132 149
80 108 127
94 121 142
96 122 140
94 121 143
106 130 139
91 119 151
101 127 143
93 119 134
98 124 144
100 127 155
98 125 157
99 125 143
89 117 152
82 111 159
92 120 135
101 127 148
92 120 154
81 112 167
79 110 169
80 111 173
75 107 168
83 113 175
84 114 165
70 103 157
70 101 148
79 106 147
73 103 149
72 102 150
60 96 153
60 96 144
61 97 154
60 95 151
61 96 147
60 95 143
61 97 150
59 94 130
57 91 136
57 92 136
64 97 139
66 99 139
63 97 141
63 97 133
66 99 134
68 100 137
59 93 133
60 95 135
59 93 129
60 95 144
60 94 135
59 94 143
59 94 136
60 94 135
60 94 138
59 94 141
58 93 130
59 94 131
59 94 141
60 95 136
58 93 131
60 95 139
60 95 139
60 95 139
60 95 140
58 93 130
61 96 147
59 94 133
60 95 144
61 96 145
60 95 142
59 93 134
59 94 135
60 94 131
60 95 140
60 95 135
60 94 141
60 95 137
59 94 133
58 93 131
59 94 136
62 97 143
62 97 141
61 96 141
60 95 137
59 94 134
59 95 137
59 94 126
60 95 143
60 95 139
60 95 139
60 94 131
60 95 137
60 94 139
60 94 131
59 93 130
62 96 142
60 95 143
61 96 145
61 96 139
60 94 130
59 94 134
61 97 149
60 95 140
61 96 134
60 94 129
61 96 140
60 95 139
60 95 136
61 96 147
60 95 142
59 92 130
60 95 139
61 95 139
60 95 141
61 96 142
60 95 129
60 95 134
61 95 135
61 96 144
61 96 137
59 94 125
60 95 129
60 94 131
60 94 135
60 95 140
59 94 129
59 94 129
60 94 136
60 94 133
58 92 117
61 96 141
60 95 133
58 92 118
58 92 125
58 92 118
60 95 130
59 93 129
60 94 139
57 90 114
59 92 127
59 93 133
59 93 125
59 93 124
60 94 131
58 92 130
59 93 121
59 93 127
57 90 117
59 92 128
56 88 111
68 95 101
105 119 25
111 124 0
136 149 0
108 117 0
123 135 0
122 134 0
123 139 0
116 129 0
126 138 0
111 124 0
119 133 0
124 136 0
117 130 0
117 132 0
124 137 0
113 127 0
114 124 0
126 140 0
126 139 0
110 121 0
126 139 0
122 136 0
121 133 0
132 143 0
133 145 0
126 140 0
115 129 0
125 136 0
127 140 0
135 147 0
123 137 0
122 133 0
123 134 0
132 143 0
128 140 0
131 144 0
130 143 0
123 132 0
126 138 0
124 135 0
130 143 0
130 142 0
126 137 0
133 145 0
132 144 0
128 140 0
125 135 0
130 143 0
136 144 0
139 150 0
134 145 0
134 143 0
134 144 0
129 139 0
126 136 0
138 149 0
139 149 0
124 133 0
130 141 0
139 152 0
133 142 0
137 150 0
138 148 0
140 152 0
139 149 0
146 157 0
142 152 0
141 149 0
135 148 0
144 156 0
135 146 0
138 149 0
142 154 0
149 162 0
139 149 0
140 153 0
142 152 0
143 154 0
145 156 0
143 154 0
143 154 0
148 161 0
144 156 0
152 166 0
146 161 0
154 167 0
145 157 0
147 159 0
154 167 0
142 155 0
152 166 0
150 163 0
145 155 0
147 159 0
152 165 0
148 160 0
147 159 0
153 166 0
153 167 0
159 173 0
158 172 0
154 165 0
154 168 0
159 172 0
155 168 0
156 169 0
150 163 0
154 168 0
156 169 0
153 167 0
153 165 0
151 166 0
150 164 0
149 164 0
156 170 0
158 175 0
163 180 0
158 173 0
156 172 0
157 173 0
160 176 0
155 169 0
150 164 0
160 175 0
159 178 0
158 174 0
160 175 0
156 172 0
155 171 0
155 169 0
161 178 0
162 180 0
154 169 0
163 179 0
161 178 0
161 180 0
164 181 0
161 181 0
162 180 0
160 178 0
166 182 0
166 185 0
156 174 0
164 182 0
167 184 0
166 185 0
165 185 0
164 179 0
165 182 0
165 183 0
162 180 0
166 184 0
174 198 62
173 197 95
170 194 80
170 195 76
170 194 67
172 195 57
172 195 80
173 197 80
175 199 88
171 195 67
173 196 76
169 192 67
171 195 57
166 190 67
172 197 76
168 193 99
171 194 80
171 195 72
175 198 57
173 198 67
173 196 67
173 195 51
168 192 72
171 194 67
173 196 80
172 197 80
168 192 67
168 192 67
171 195 76
167 191 88
168 192 62
171 195 80
168 192 72
168 192 95
164 189 72
164 188 76
166 189 67
166 191 67
169 193 76
164 188 44
171 195 76
171 194 76
165 191 67
167 192 88
169 193 67
169 193 88
170 193 80
162 186 67
168 191 67
168 193 76
167 191 72
167 190 57
166 189 57
168 192 67
167 191 88
167 191 88
168 192 80
163 186 51
163 188 92
163 186 44
167 191 84
164 188 80
163 187 72
160 184 76
166 189 84
163 187 57
164 188 84
169 192 80
164 188 72
165 189 51
163 186 62
166 189 84
166 190 80
157 180 62
159 182 62
162 185 80
168 191 72
165 189 67
160 183 72
156 177 57
154 176 67
133 158 125
86 114 138
83 112 131
91 118 127
97 123 133
89 118 148
83 112 140
91 119 143
81 110 139
86 115 145
93 119 118
79 109 147
94 120 145
91 118 145
86 112 129
94 121 153
95 121 144
97 123 143
88 116 137
89 116 142
77 107 142
90 118 137
97 124 144
92 120 146
102 128 151
99 125 153
96 123 145
92 120 154
106 131 156
104 129 152
108 133 151
82 112 147
91 118 143
83 112 147
88 116 148
93 121 173
85 115 176
74 106 166
75 106 160
74 106 159
74 107 168
89 117 173
70 101 149
70 100 155
75 103 150
71 101 151
62 98 158
61 96 148
60 96 145
60 96 143
60 95 147
60 96 144
61 96 147
61 96 141
62 96 153
65 97 129
66 99 136
69 100 125
62 96 137
66 98 118
59 93 136
58 93 137
58 92 123
59 94 147
57 91 130
58 93 126
59 93 129
57 92 129
59 94 146
59 94 130
58 92 133
58 92 127
60 94 141
59 94 128
59 93 133
58 92 125
59 94 131
60 95 130
60 95 145
59 93 136
60 95 142
60 94 136
61 96 136
59 94 134
58 92 130
61 96 144
60 95 145
59 94 135
60 95 136
61 96 148
59 93 129
59 94 140
60 95 142
60 94 131
60 95 147
60 95 135
60 95 137
59 93 129
60 94 142
61 96 143
60 95 141
60 95 141
60 94 137
59 94 130
61 96 148
59 93 127
61 95 137
59 94 139
61 97 145
61 96 144
59 94 136
58 93 127
59 94 133
60 94 131
60 94 133
60 95 141
60 95 137
59 94 133
58 92 121
60 95 137
60 94 133
60 95 139
60 95 136
59 94 131
59 94 129
60 94 130
59 94 126
60 94 131
59 94 130
61 96 143
60 96 144
60 95 136
59 93 126
59 93 126
60 94 134
59 93 131
59 94 130
60 95 139
60 95 133
60 95 139
59 94 131
58 92 134
59 93 133
59 94 133
60 94 136
58 92 117
60 94 130
58 91 121
59 94 124
59 92 122
58 92 134
59 94 125
60 95 137
58 92 125
58 92 121
59 94 126
59 93 121
60 94 131
58 92 122
59 93 122
58 91 125
56 89 107
58 92 124
57 90 110
56 89 108
54 86 108
108 123 54
100 114 0
117 131 0
128 142 0
131 146 0
117 131 0
119 130 0
103 114 0
126 141 0
121 135 0
121 137 0
112 125 0
129 142 0
132 148 0
131 143 0
121 132 0
136 150 0
123 137 0
121 133 0
114 126 0
128 141 0
129 140 0
130 142 0
113 123 0
128 140 0
121 135 0
118 132 0
124 137 0
129 141 0
134 146 0
134 145 0
126 138 0
123 137 0
123 135 0
131 144 0
121 133 0
131 144 0
121 135 0
136 148 0
121 132 0
136 147 0
139 150 0
141 154 0
133 144 0
130 144 0
133 144 0
128 142 0
132 143 0
136 148 0
133 142 0
135 144 0
137 150 0
143 153 0
129 141 0
135 150 0
138 147 0
131 140 0
132 141 0
135 145 0
144 156 0
133 144 0
139 152 0
150 162 0
138 148 0
141 152 0
132 142 0
141 153 0
142 151 0
142 153 0
143 152 0
143 155 0
138 148 0
145 153 0
142 153 0
141 153 0
148 159 0
145 156 0
149 162 0
151 165 0
137 148 0
149 163 0
141 154 0
140 152 0
153 167 0
152 164 0
150 165 0
142 154 0
145 157 0
154 168 0
154 165 0
154 166 0
150 163 0
154 168 0
154 171 0
149 162 0
151 162 0
154 170 0
151 164 0
151 166 0
148 161 0
147 162 0
149 161 0
152 166 0
153 168 0
158 173 0
157 169 0
152 163 0
159 175 0
159 175 0
152 166 0
159 176 0
151 164 0
156 170 0
155 168 0
157 170 0
156 170 0
161 178 0
149 165 0
158 174 0
159 174 0
162 178 0
157 173 0
160 178 0
160 174 0
153 168 0
161 177 0
166 182 0
161 177 0
160 176 0
167 182 0
164 182 0
158 176 0
160 178 0
160 177 0
160 176 0
162 178 0
154 171 0
163 180 0
160 177 0
159 176 0
158 176 0
166 184 0
165 183 0
161 179 0
163 182 0
161 179 0
160 176 0
163 181 0
164 182 0
159 175 0
166 184 0
167 186 0
163 182 0
172 195 67
176 199 88
169 193 72
168 192 72
172 196 76
169 193 67
175 198 67
170 195 84
172 196 72
172 196 62
174 198 76
170 194 57
168 192 67
170 194 62
172 196 62
172 195 57
171 195 72
171 195 72
167 191 76
166 191 84
167 191 84
173 197 88
167 191 88
171 195 72
169 193 80
171 194 62
172 195 76
164 188 62
171 196 80
169 192 84
169 192 76
170 196 95
165 189 62
167 192 80
171 195 72
168 192 80
168 192 76
161 185 76
168 192 80
168 192 62
170 194 72
167 191 67
167 191 62
166 191 76
169 193 76
167 192 72
166 189 62
168 192 80
164 189 80
167 190 62
166 190 72
159 184 67
166 190 76
168 191 76
166 190 72
167 191 80
169 194 72
167 191 76
165 189 67
160 184 36
166 190 67
164 188 62
170 194 67
162 186 72
160 184 80
162 184 80
160 184 51
156 179 70
160 183 92
169 194 105
165 189 99
167 192 92
157 181 84
160 183 62
159 182 67
158 181 76
164 188 92
160 183 76
164 188 76
161 184 84
162 185 72
153 176 92
103 128 121
84 112 121
102 128 140
94 121 129
88 116 127
96 123 143
78 107 138
97 124 143
93 121 142
96 122 138
89 117 145
97 124 155
88 116 149
100 126 140
84 112 138
103 129 153
95 121 136
96 124 146
103 129 155
78 107 142
98 125 150
95 122 141
85 113 143
97 124 154
101 127 143
85 113 145
80 110 145
100 125 142
86 113 149
88 114 134
82 112 149
101 127 155
94 122 141
87 116 155
83 112 151
70 104 166
68 102 163
80 111 169
77 109 168
80 111 171
71 104 166
61 97 150
70 100 152
75 103 151
75 104 157
65 98 156
60 96 151
60 95 147
62 97 145
60 95 142
59 94 151
62 97 154
59 94 135
59 93 134
60 94 147
64 98 137
67 99 134
65 99 145
62 96 144
63 95 123
64 98 143
57 91 124
60 95 137
59 93 131
58 92 126
58 93 132
57 91 130
60 95 137
60 95 140
59 93 134
59 94 141
61 96 142
61 96 137
60 94 135
59 94 138
59 93 122
60 95 135
59 93 133
58 93 133
61 96 144
58 93 124
60 95 142
59 93 126
60 94 134
60 95 139
59 94 139
60 95 134
60 95 136
60 95 145
58 93 136
61 97 145
60 94 130
60 95 141
59 93 134
60 95 136
60 94 132
61 96 142
58 92 119
59 94 133
59 94 131
60 95 137
60 96 149
60 96 145
58 93 129
59 94 126
61 96 148
60 95 141
60 95 142
60 94 134
61 96 137
60 94 133
59 93 130
60 95 131
61 97 151
61 96 135
60 94 137
59 93 127
60 94 137
61 96 141
59 94 140
59 94 133
59 94 133
60 94 133
59 93 131
62 97 147
60 95 141
60 95 136
60 94 130
61 96 136
60 95 139
60 95 145
61 96 140
61 95 136
60 94 133
59 93 127
59 93 126
60 95 136
60 94 129
59 93 124
58 92 126
60 95 137
60 95 135
59 93 129
57 91 124
58 93 122
61 96 135
60 95 130
60 94 129
58 92 124
59 94 124
58 92 126
58 92 122
59 93 127
60 94 129
59 94 129
59 93 125
56 88 113
59 93 131
59 93 123
58 91 117
58 91 122
57 89 118
56 89 107
55 87 107
92 112 78
100 113 0
122 136 0
112 125 0
118 133 0
132 148 0
120 133 0
124 139 0
118 130 0
117 129 0
129 143 0
120 135 0
117 131 0
114 129 0
123 134 0
121 135 0
131 145 0
120 131 0
135 147 0
125 136 0
119 132 0
121 135 0
133 147 0
119 131 0
128 140 0
126 139 0
129 143 0
125 137 0
123 136 0
127 140 0
135 148 0
136 150 0
123 135 0
124 135 0
130 145 0
125 139 0
128 141 0
127 138 0
126 138 0
135 150 0
122 134 0
135 143 0
142 154 0
128 139 0
126 137 0
130 143 0
133 146 0
146 158 0
127 140 0
143 156 0
140 154 0
135 147 0
138 147 0
140 153 0
131 144 0
137 150 0
143 156 0
137 147 0
140 152 0
142 154 0
133 142 0
141 153 0
143 158 0
141 153 0
139 152 0
149 161 0
142 153 0
147 158 0
144 156 0
147 161 0
138 149 0
142 152 0
136 148 0
149 163 0
146 159 0
147 159 0
148 160 0
145 158 0
145 156 0
145 156 0
140 153 0
142 152 0
148 158 0
141 152 0
147 160 0
141 156 0
149 161 0
143 158 0
140 155 0
147 160 0
152 164 0
149 162 0
156 171 0
150 162 0
154 167 0
152 165 0
146 158 0
152 166 0
146 158 0
154 167 0
159 173 0
154 168 0
154 170 0
155 166 0
157 175 0
155 167 0
153 166 0
146 159 0
150 163 0
160 176 0
154 168 0
154 167 0
160 176 0
150 163 0
160 176 0
156 172 0
155 171 0
163 179 0
157 171 0
156 170 0
159 176 0
155 171 0
158 174 0
156 171 0
157 172 0
161 179 0
162 178 0
163 180 0
159 175 0
164 181 0
162 179 0
156 172 0
161 179 0
165 181 0
165 183 0
161 178 0
162 177 0
162 177 0
157 173 0
159 176 0
165 183 0
162 180 0
162 182 0
161 181 0
162 180 0
166 186 0
162 180 0
158 177 0
165 186 0
165 184 0
162 181 0
161 178 0
166 185 0
163 181 0
173 197 67
168 191 67
171 195 72
174 198 72
172 196 67
169 192 84
174 198 95
174 198 72
169 193 67
172 196 72
174 197 80
170 195 72
169 193 76
172 196 62
174 198 102
170 195 76
169 194 67
165 190 51
170 193 72
168 193 88
171 195 72
169 192 51
169 192 57
169 193 80
168 192 51
170 193 51
167 190 44
168 192 51
166 190 62
170 195 72
167 190 67
170 194 62
168 193 99
169 192 57
167 191 80
170 195 88
166 190 62
169 193 57
167 192 99
166 190 99
164 188 76
164 188 67
165 189 67
170 194 72
169 193 76
165 188 67
171 195 76
166 190 51
165 190 95
163 187 80
163 187 84
160 184 72
166 189 67
163 186 36
165 189 72
161 184 51
165 188 57
167 191 99
165 190 95
160 183 51
172 194 62
161 185 62
170 194 92
161 185 76
167 190 72
165 187 76
165 188 80
162 186 80
155 178 57
165 188 67
157 180 76
162 185 95
157 180 88
165 188 67
160 183 76
159 182 84
161 184 72
155 177 67
158 181 76
163 186 76
161 184 80
158 181 51
136 159 78
80 109 118
88 116 129
100 126 133
92 120 144
92 119 127
101 127 137
98 125 153
89 117 138
85 113 137
111 137 158
95 121 137
96 123 149
95 121 138
95 122 151
81 108 134
85 114 139
91 119 147
88 116 148
81 109 130
91 118 151
106 131 153
95 122 155
100 126 145
88 115 142
103 129 161
100 126 155
92 118 139
97 124 143
94 119 136
97 123 125
97 123 148
96 123 147
77 109 147
82 112 154
78 109 150
83 113 169
80 110 166
77 108 165
77 108 161
83 112 171
89 116 166
63 96 147
69 101 156
66 98 145
71 101 142
63 97 148
60 95 143
62 97 154
60 96 144
61 96 144
60 95 139
64 99 149
60 95 152
59 94 139
65 99 136
59 94 139
69 101 136
63 96 129
58 92 128
75 105 123
59 93 130
60 95 138
59 94 129
58 92 119
59 94 143
57 92 131
59 93 135
58 93 133
60 95 139
58 92 129
57 91 119
59 94 134
59 93 133
59 93 137
60 94 136
58 92 125
60 95 140
60 95 137
60 95 148
61 95 143
58 92 133
60 95 141
60 95 140
61 96 139
60 95 134
59 94 145
60 95 131
60 95 145
59 93 136
60 95 129
60 95 141
60 95 139
60 95 141
60 94 127
59 94 138
61 96 141
61 96 137
59 94 137
61 96 140
62 97 145
59 94 136
60 95 141
59 93 131
60 95 136
60 95 136
60 94 141
61 97 145
60 94 140
59 95 131
59 94 126
59 93 133
61 96 143
60 94 133
60 94 129
60 94 134
61 96 136
60 95 141
59 94 134
61 96 140
60 95 140
61 96 137
59 93 125
60 95 139
59 94 129
63 98 149
60 96 140
59 93 130
62 97 142
60 95 127
59 93 127
60 94 137
59 94 126
59 94 126
61 96 137
60 95 135
60 94 135
60 94 129
58 92 131
58 92 124
60 95 133
58 91 124
59 94 130
60 95 135
59 93 120
60 94 137
60 94 121
59 94 127
58 92 118
58 92 120
60 94 135
59 93 129
58 92 115
59 93 121
57 91 115
56 89 105
58 91 113
58 91 117
58 91 118
58 92 120
57 89 117
56 88 110
56 89 103
75 98 92
118 131 18
113 126 0
121 135 0
118 133 0
118 130 0
112 125 0
132 146 0
116 129 0
106 121 0
118 133 0
116 130 0
131 146 0
124 136 0
122 136 0
130 143 0
128 141 0
127 141 0
127 139 0
124 138 0
126 141 0
123 136 0
125 139 0
133 148 0
133 147 0
127 141 0
133 147 0
126 136 0
135 148 0
125 137 0
132 143 0
136 150 0
133 147 0
132 144 0
130 142 0
136 150 0
127 136 0
123 135 0
128 138 0
141 155 0
136 148 0
135 148 0
137 151 0
127 140 0
142 155 0
141 157 0
133 146 0
136 149 0
135 146 0
129 143 0
144 157 0
135 146 0
132 143 0
131 144 0
132 145 0
137 152 0
132 144 0
147 159 0
137 148 0
144 159 0
140 153 0
131 138 0
149 162 0
137 149 0
135 146 0
142 156 0
141 157 0
150 161 0
150 163 0
144 157 0
144 156 0
143 154 0
137 148 0
139 151 0
147 159 0
138 150 0
145 158 0
143 158 0
139 149 0
146 158 0
145 156 0
147 160 0
148 162 0
145 156 0
150 164 0
145 157 0
145 156 0
147 160 0
144 159 0
141 152 0
147 163 0
155 170 0
154 169 0
150 162 0
150 163 0
154 170 0
151 164 0
155 166 0
155 171 0
154 168 0
157 173 0
154 169 0
153 166 0
156 170 0
152 166 0
154 165 0
152 168 0
153 165 0
154 165 0
156 172 0
151 165 0
153 169 0
160 173 0
159 174 0
152 167 0
156 171 0
153 168 0
162 177 0
155 170 0
158 176 0
165 179 0
153 167 0
157 174 0
155 170 0
159 175 0
159 176 0
159 173 0
159 174 0
161 179 0
162 181 0
155 171 0
157 175 0
158 176 0
157 173 0
163 181 0
162 178 0
163 182 0
163 181 0
163 180 0
161 179 0
164 183 0
163 180 0
166 185 0
165 184 0
166 184 0
165 184 0
166 185 0
166 184 0
166 187 0
166 185 0
163 180 0
162 181 0
168 189 0
163 182 0
165 184 0
174 198 84
173 197 95
171 194 80
172 195 72
171 195 88
172 195 57
171 194 57
167 191 72
169 193 76
172 196 80
169 192 62
169 194 76
167 191 76
174 198 88
166 190 44
170 194 80
170 195 72
168 192 57
171 196 92
170 194 67
165 189 67
170 194 88
171 195 76
168 190 57
173 196 57
169 194 76
169 193 57
168 192 80
168 193 76
170 195 67
168 193 72
175 199 67
171 195 72
167 192 88
169 193 76
167 191 88
169 193 72
170 195 67
172 196 84
171 196 92
167 192 72
166 190 62
170 194 62
167 192 62
165 188 67
163 187 44
168 192 67
172 197 105
170 193 88
166 190 76
167 192 88
163 187 62
171 195 76
161 184 67
167 190 72
165 189 76
165 189 67
168 192 72
165 189 84
163 187 72
168 191 67
166 191 76
164 187 67
161 185 76
161 184 67
161 184 44
167 190 72
159 182 72
160 183 44
161 183 67
164 187 88
163 186 76
156 180 76
155 178 57
161 184 62
158 181 62
163 186 88
162 185 84
161 184 62
160 183 76
162 185 72
148 170 57
156 180 72
110 134 103
79 107 114
87 115 136
80 109 124
88 116 137
94 122 145
93 121 144
91 119 140
97 124 144
92 119 139
88 116 129
96 123 143
86 114 142
92 119 133
97 122 134
84 112 144
104 129 147
87 115 138
90 117 141
87 115 136
91 118 148
85 113 143
105 131 146
102 129 160
110 135 158
98 125 143
97 124 142
107 132 154
96 122 141
100 124 138
79 107 131
83 110 134
87 116 137
81 111 143
88 116 143
70 103 161
87 116 163
78 110 174
71 104 157
67 100 154
80 110 164
74 104 152
72 102 152
67 97 149
73 103 154
64 96 150
61 97 151
60 96 147
60 96 144
59 94 140
59 94 137
60 96 147
58 92 137
62 95 135
65 98 138
61 95 137
59 94 141
64 96 128
68 100 140
62 95 127
77 107 124
59 94 136
59 93 129
58 93 134
59 93 129
59 93 129
60 95 139
59 93 129
59 93 129
58 93 132
59 94 137
60 95 136
60 95 129
58 92 134
59 93 128
60 95 140
59 93 132
58 92 136
60 95 129
60 94 136
59 93 136
60 95 131
60 95 130
58 93 129
60 95 145
60 95 137
60 95 136
60 95 133
59 93 129
60 94 137
60 95 143
58 93 131
60 95 137
60 95 139
60 95 142
60 94 139
61 96 143
59 93 129
60 94 139
59 94 134
59 94 139
60 94 136
61 96 140
59 93 129
60 95 133
58 92 127
59 94 141
60 94 134
58 93 127
58 93 134
60 94 138
60 95 140
60 95 134
60 96 139
59 94 140
59 94 122
60 95 132
60 94 127
59 93 131
59 94 130
60 95 137
59 94 126
59 93 121
59 93 126
60 95 137
60 95 131
60 94 130
60 95 141
59 94 129
59 93 125
59 94 121
60 95 133
58 92 117
59 93 124
58 92 124
61 97 143
59 93 124
60 94 127
59 93 133
59 93 130
58 93 129
59 94 124
60 94 137
58 91 124
58 92 117
59 93 129
57 90 120
59 93 127
59 94 130
60 94 134
57 91 114
59 93 124
59 93 124
58 92 108
57 90 118
59 93 121
56 89 117
57 89 113
58 92 124
58 92 108
55 87 90
71 98 106
112 127 18
115 129 0
116 128 0
128 143 0
117 130 0
126 139 0
120 132 0
118 132 0
122 136 0
128 141 0
120 133 0
123 137 0
124 138 0
115 127 0
122 135 0
135 149 0
123 137 0
124 137 0
119 135 0
132 145 0
116 129 0
130 143 0
128 142 0
122 135 0
131 146 0
129 142 0
127 142 0
131 145 0
115 126 0
135 149 0
124 136 0
121 134 0
133 145 0
135 146 0
131 143 0
128 139 0
128 140 0
123 137 0
130 143 0
133 144 0
131 142 0
135 149 0
136 149 0
128 141 0
133 146 0
142 154 0
134 146 0
137 152 0
131 141 0
137 147 0
135 147 0
127 141 0
140 151 0
135 145 0
129 141 0
131 142 0
131 144 0
127 140 0
143 155 0
144 155 0
136 144 0
140 155 0
134 144 0
140 153 0
147 160 0
137 151 0
145 158 0
140 151 0
147 160 0
148 160 0
143 155 0
146 159 0
145 156 0
143 157 0
146 157 0
146 159 0
145 157 0
140 153 0
140 152 0
152 164 0
144 154 0
148 162 0
145 157 0
154 168 0
152 165 0
149 161 0
151 166 0
144 156 0
149 161 0
151 165 0
147 159 0
150 163 0
149 162 0
149 164 0
156 167 0
147 158 0
145 157 0
151 166 0
157 173 0
156 169 0
148 163 0
155 170 0
151 166 0
152 167 0
156 171 0
157 172 0
159 176 0
156 172 0
148 162 0
153 170 0
158 175 0
157 172 0
151 166 0
154 169 0
158 174 0
153 169 0
157 172 0
159 175 0
159 174 0
162 180 0
161 176 0
160 177 0
161 179 0
159 178 0
161 179 0
156 171 0
158 174 0
156 170 0
155 172 0
164 181 0
166 182 0
158 176 0
162 177 0
160 176 0
162 179 0
159 174 0
161 177 0
162 179 0
160 178 0
158 174 0
162 179 0
157 177 0
164 183 0
162 181 0
163 181 0
163 182 0
167 186 0
162 179 0
167 186 0
161 179 0
159 177 0
159 177 0
162 181 0
168 188 0
170 189 0
172 195 51
171 195 99
172 196 76
173 197 84
172 195 80
170 194 62
170 195 88
168 192 44
173 197 80
169 193 57
172 196 76
169 193 88
170 194 72
166 190 80
174 197 57
167 192 76
168 193 99
174 198 72
171 195 76
169 194 80
167 191 62
170 193 76
169 194 72
169 193 72
169 193 72
170 194 84
169 194 92
169 194 76
169 193 80
172 197 84
164 189 95
169 193 51
169 194 76
168 193 67
165 190 88
172 195 76
167 192 84
166 191 67
167 191 72
170 194 62
171 194 84
165 189 67
171 195 72
166 190 62
161 185 51
166 192 95
171 196 92
166 191 88
167 191 72
163 187 62
166 190 80
164 188 57
170 194 80
168 191 62
167 191 62
165 189 95
167 191 76
167 191 62
161 185 72
166 190 84
162 186 62
160 185 67
165 189 88
168 192 57
158 182 67
160 184 80
164 188 72
153 176 57
162 185 72
160 184 72
161 184 62
158 182 80
158 181 67
154 177 72
159 182 76
159 182 99
168 191 88
163 186 67
155 178 84
162 185 51
159 182 72
157 180 84
159 181 99
150 173 78
110 136 133
85 112 130
89 116 120
99 125 134
91 119 133
92 119 119
89 116 130
91 119 136
93 120 127
96 123 148
102 128 141
82 110 118
101 126 136
98 124 143
89 118 144
88 116 150
105 130 150
98 125 140
88 116 134
95 122 140
100 127 148
106 131 151
99 125 150
95 121 144
102 128 139
95 122 153
100 126 135
100 126 152
94 120 142
92 118 139
91 118 136
95 121 144
82 111 140
89 116 151
83 113 157
77 108 167
77 108 167
75 107 164
65 99 155
77 107 157
84 113 163
67 98 145
78 105 154
73 103 156
73 103 150
64 97 150
61 97 152
61 96 151
60 96 144
59 93 142
59 94 147
60 95 149
59 93 137
61 94 139
64 98 131
64 98 139
66 99 133
65 98 127
67 100 133
78 108 123
58 93 127
59 93 130
59 94 134
58 92 133
59 94 136
60 95 142
60 95 140
60 95 134
59 93 135
59 93 121
59 93 135
59 93 126
59 94 134
59 93 134
59 93 131
59 93 135
58 92 118
58 93 136
60 95 136
59 93 126
60 94 135
60 95 138
60 94 136
59 93 135
59 93 120
59 94 139
58 93 131
60 94 129
60 95 145
61 96 137
58 92 130
60 95 133
60 95 137
61 96 139
60 94 133
60 95 137
58 91 127
59 94 143
61 95 142
61 96 139
60 94 130
58 93 127
61 96 142
59 93 126
61 96 145
60 95 130
60 95 137
59 93 127
60 94 141
59 93 129
60 95 145
60 95 137
60 94 141
60 95 126
57 91 129
59 93 129
60 94 129
58 92 117
61 96 142
61 95 131
60 95 131
59 94 139
60 94 130
61 95 131
60 94 130
59 93 129
58 93 127
60 95 135
57 91 115
59 93 127
60 94 129
60 94 125
60 95 127
60 95 134
58 92 124
60 94 136
57 91 114
59 93 126
59 93 131
60 94 135
58 91 117
60 95 125
59 93 121
59 93 134
60 94 126
58 91 114
58 91 130
60 94 127
57 90 115
59 94 126
57 89 117
58 93 117
58 91 115
59 93 121
58 92 113
59 92 118
57 89 100
56 88 113
56 87 100
60 90 92
102 120 40
118 133 0
115 129 0
128 143 0
107 119 0
110 125 0
115 127 0
123 137 0
123 140 0
122 137 0
112 126 0
125 136 0
123 137 0
120 133 0
119 134 0
134 150 0
127 139 0
125 139 0
113 127 0
130 141 0
116 129 0
129 144 0
139 154 0
126 141 0
132 146 0
132 145 0
126 139 0
123 136 0
127 141 0
124 137 0
122 136 0
125 138 0
125 138 0
136 148 0
129 143 0
131 144 0
129 141 0
120 134 0
139 155 0
133 146 0
132 146 0
123 136 0
127 142 0
141 152 0
129 141 0
136 149 0
135 147 0
135 148 0
127 140 0
139 151 0
144 157 0
135 148 0
138 152 0
136 150 0
133 146 0
133 145 0
126 137 0
142 153 0
135 148 0
136 147 0
144 159 0
134 148 0
142 153 0
140 153 0
139 153 0
143 155 0
142 158 0
138 151 0
134 147 0
145 159 0
137 148 0
146 162 0
145 159 0
143 155 0
148 161 0
141 156 0
145 159 0
144 157 0
146 161 0
144 156 0
146 159 0
147 159 0
148 159 0
159 173 0
148 160 0
148 161 0
140 151 0
155 171 0
145 157 0
146 157 0
152 167 0
154 166 0
146 157 0
157 172 0
149 162 0
153 169 0
154 166 0
150 164 0
144 156 0
155 170 0
157 170 0
155 169 0
157 172 0
153 164 0
150 165 0
156 171 0
154 169 0
156 169 0
152 163 0
161 179 0
156 172 0
158 175 0
154 169 0
152 168 0
157 172 0
159 175 0
158 174 0
151 166 0
155 171 0
162 180 0
157 173 0
155 171 0
159 177 0
162 178 0
160 176 0
161 178 0
158 175 0
165 183 0
160 175 0
161 177 0
162 179 0
162 180 0
163 181 0
159 178 0
163 182 0
161 179 0
161 177 0
162 181 0
159 175 0
160 180 0
163 180 0
158 176 0
161 181 0
163 183 0
164 182 0
172 193 0
166 186 0
163 182 0
168 187 0
161 179 0
163 182 0
165 183 0
167 187 0
167 187 0
167 186 0
163 181 0
173 197 95
171 196 67
173 197 76
170 194 84
171 195 72
170 194 51
170 195 67
173 196 67
171 195 76
170 194 88
166 190 67
172 196 76
169 193 72
169 193 80
172 195 44
170 195 76
167 192 62
168 192 36
170 194 62
169 193 51
170 195 76
169 193 72
165 189 44
170 193 80
166 191 67
169 193 44
166 190 62
168 192 62
169 193 84
166 190 44
165 189 88
168 193 67
166 190 80
170 195 92
171 196 72
165 189 80
168 193 80
166 191 92
168 192 62
167 191 72
167 191 67
170 195 95
166 191 57
168 192 67
158 182 67
164 188 84
165 190 72
167 191 80
163 187 72
165 190 80
163 187 80
164 188 80
165 190 72
166 190 72
165 190 84
160 184 67
167 191 84
169 195 105
162 187 57
164 188 84
160 184 72
155 179 62
164 187 67
159 183 88
158 183 92
157 181 62
166 189 76
159 183 51
160 183 80
164 188 92
148 171 44
159 183 88
168 191 95
157 180 62
162 186 72
157 180 80
153 176 80
152 175 36
154 178 80
159 180 80
156 179 99
159 181 67
153 177 80
154 177 67
134 157 88
83 112 125
91 119 130
82 110 113
105 131 141
77 105 120
92 119 133
93 121 148
84 112 132
80 108 124
104 130 150
75 105 127
100 126 152
81 109 127
81 110 127
95 121 141
90 117 138
90 118 144
91 117 138
89 117 133
100 127 137
90 118 134
109 134 149
99 125 130
101 126 150
101 128 148
101 127 149
98 126 148
110 134 149
98 124 135
104 126 134
98 123 130
86 114 127
87 115 153
95 122 150
84 114 158
68 101 156
83 113 167
75 107 165
80 110 167
82 111 156
64 99 166
67 98 143
67 99 149
70 100 146
74 101 142
63 97 147
62 97 149
60 95 148
61 96 139
60 96 150
60 95 142
58 93 131
59 94 135
64 97 127
67 99 134
62 95 134
68 100 130
66 98 135
65 97 115
72 103 121
60 94 135
59 94 133
58 92 126
58 92 125
60 95 139
59 93 132
58 92 131
59 93 131
59 94 136
60 94 133
60 94 133
58 92 124
58 92 127
60 95 136
59 94 127
60 95 133
59 94 133
61 96 143
59 93 134
58 93 129
60 95 143
59 93 137
60 94 137
60 95 134
58 92 131
59 93 139
59 93 133
60 95 143
62 97 152
62 97 147
60 95 131
58 93 133
60 95 134
59 93 135
59 93 129
59 94 133
58 92 120
60 95 142
60 95 136
61 96 133
59 94 129
60 95 139
59 93 126
59 93 125
58 92 131
59 93 126
60 94 134
59 93 134
58 91 125
60 95 139
59 94 133
60 95 137
60 94 130
60 95 134
59 94 131
60 95 130
60 94 126
61 96 140
62 98 154
59 93 125
58 92 115
59 94 133
59 93 126
60 96 137
58 92 125
59 93 127
60 94 130
59 93 129
60 94 126
59 94 129
59 93 125
60 94 130
60 94 139
58 93 125
59 92 126
62 97 140
59 94 131
58 91 118
57 91 113
59 93 122
59 93 124
57 91 121
58 92 115
61 95 137
59 94 136
60 94 133
58 91 120
59 93 127
57 90 111
58 91 121
59 93 126
59 93 121
58 91 110
56 88 114
58 91 118
57 90 114
56 88 110
53 84 92
91 111 70
106 121 0
111 124 0
111 124 0
110 124 0
109 121 0
120 135 0
124 139 0
139 156 0
114 128 0
123 138 0
128 142 0
110 123 0
129 144 0
128 141 0
132 148 0
126 142 0
125 139 0
126 142 0
117 130 0
124 139 0
119 135 0
127 141 0
116 131 0
114 128 0
137 153 0
127 141 0
127 142 0
137 151 0
134 147 0
135 149 0
125 138 0
128 140 0
130 143 0
130 143 0
133 148 0
120 132 0
134 151 0
136 149 0
133 146 0
130 142 0
132 145 0
131 143 0
134 147 0
138 150 0
131 148 0
132 144 0
129 145 0
136 148 0
131 144 0
129 142 0
126 138 0
138 151 0
134 144 0
131 143 0
142 156 0
141 156 0
139 153 0
143 155 0
139 151 0
133 145 0
148 163 0
132 144 0
141 152 0
141 152 0
137 149 0
143 156 0
144 157 0
149 163 0
139 152 0
144 155 0
145 157 0
141 154 0
144 157 0
150 164 0
142 153 0
146 157 0
144 156 0
148 161 0
141 154 0
149 163 0
150 165 0
147 160 0
150 164 0
143 157 0
151 166 0
154 166 0
146 160 0
148 158 0
145 157 0
148 161 0
153 167 0
144 158 0
145 162 0
150 165 0
153 168 0
147 159 0
159 175 0
147 159 0
158 175 0
148 161 0
155 169 0
149 165 0
155 171 0
151 164 0
154 169 0
155 170 0
150 165 0
160 175 0
155 169 0
154 170 0
157 171 0
152 165 0
156 172 0
157 173 0
158 174 0
157 175 0
157 172 0
161 180 0
160 177 0
162 178 0
159 175 0
155 172 0
162 178 0
161 178 0
161 177 0
161 178 0
152 170 0
157 172 0
161 177 0
161 177 0
159 177 0
160 180 0
157 175 0
161 179 0
159 178 0
162 180 0
159 177 0
159 176 0
159 177 0
158 173 0
162 179 0
157 174 0
165 184 0
168 188 0
164 184 0
165 183 0
161 180 0
166 183 0
164 183 0
166 183 0
166 185 0
167 186 0
164 184 0
162 180 0
162 183 0
160 180 0
174 197 84
169 193 67
171 196 67
172 196 72
172 196 72
171 195 57
172 195 80
169 193 62
172 195 67
170 194 72
171 195 72
170 193 57
172 196 80
171 195 72
166 190 88
170 194 72
170 193 62
167 191 80
168 192 57
168 192 51
170 195 72
170 193 57
166 191 76
170 194 57
168 193 72
170 194 72
173 198 84
167 191 76
169 193 95
169 194 80
166 191 76
164 189 72
168 191 44
170 195 72
166 190 62
166 190 57
168 192 62
166 189 51
168 192 72
164 189 72
168 192 67
166 190 67
164 188 57
167 191 76
167 191 67
162 187 76
162 186 51
164 187 80
165 188 72
166 189 44
166 190 67
167 191 84
165 188 57
157 182 67
163 186 88
163 187 57
163 187 88
158 182 72
158 182 67
158 182 84
163 187 76
161 185 76
163 188 105
163 186 57
160 183 84
162 186 76
161 185 67
160 184 102
158 182 72
157 181 80
155 178 62
158 180 51
164 188 72
156 179 62
160 184 57
158 182 72
158 180 76
160 183 92
152 174 44
159 182 76
158 182 72
162 184 95
161 184 67
160 183 76
157 179 76
116 141 111
86 114 121
91 118 113
90 118 146
86 115 127
91 117 140
94 122 139
93 120 137
79 108 127
94 120 146
89 116 132
86 114 141
87 114 138
88 115 127
94 121 143
99 125 144
105 131 154
85 113 146
103 128 139
89 116 139
97 122 141
99 125 143
110 135 156
104 129 148
101 126 157
99 125 130
96 122 143
96 123 141
95 120 135
89 113 129
101 127 141
94 119 139
88 117 143
77 107 141
72 104 144
83 113 166
75 107 171
77 108 163
78 109 165
74 105 149
75 106 161
72 101 141
73 102 150
77 104 136
83 107 140
78 105 148
60 95 137
60 96 142
60 95 148
61 96 145
61 97 152
60 94 127
59 94 139
63 97 136
63 95 133
68 100 133
61 94 128
59 92 123
58 92 124
74 105 125
58 92 125
57 91 129
59 94 133
58 93 124
59 94 133
59 93 133
57 91 121
59 94 130
58 92 134
59 94 130
59 93 129
58 93 133
57 91 130
59 93 129
60 94 137
58 92 126
59 93 138
58 93 134
57 91 134
60 95 131
60 95 140
60 95 130
59 94 137
60 95 136
59 94 129
59 94 132
59 94 127
59 93 131
61 96 141
59 94 127
58 92 122
59 94 132
60 95 140
60 94 129
58 92 120
59 93 124
59 93 129
60 94 131
59 93 124
61 96 142
61 96 140
59 94 129
58 92 122
58 93 127
59 94 127
58 93 131
58 92 129
59 94 126
60 94 135
60 94 137
59 93 139
59 94 130
60 95 142
59 93 126
60 95 134
58 91 110
59 94 127
59 94 125
60 95 134
60 94 135
58 92 125
60 94 129
60 95 130
59 93 118
59 93 125
60 95 133
60 94 134
58 93 122
60 95 133
61 96 139
60 95 131
60 94 131
58 92 120
59 94 124
58 92 121
60 94 125
58 92 126
57 91 122
58 92 126
59 94 129
59 92 126
59 93 120
57 91 118
57 90 117
59 93 131
58 91 115
56 89 111
57 91 113
58 91 120
59 93 130
57 90 118
59 92 120
56 88 103
59 93 122
56 88 100
57 90 105
54 85 105
89 110 67
113 126 0
114 125 0
115 128 0
118 133 0
123 137 0
118 131 0
116 133 0
120 132 0
130 146 0
127 144 0
129 144 0
111 124 0
131 144 0
136 151 0
129 145 0
133 148 0
116 130 0
131 145 0
123 136 0
124 137 0
116 131 0
129 144 0
129 142 0
130 146 0
134 148 0
127 140 0
138 152 0
131 146 0
134 150 0
145 160 0
135 149 0
128 142 0
132 146 0
130 144 0
131 145 0
133 149 0
130 145 0
130 142 0
139 152 0
133 146 0
121 135 0
135 149 0
131 146 0
134 149 0
123 137 0
126 139 0
127 138 0
139 152 0
137 149 0
129 141 0
139 156 0
140 154 0
145 160 0
136 149 0
136 148 0
139 152 0
133 148 0
142 154 0
139 153 0
136 152 0
141 154 0
141 156 0
132 145 0
144 159 0
143 159 0
142 154 0
144 158 0
151 167 0
137 150 0
143 157 0
143 157 0
150 162 0
140 154 0
146 158 0
146 159 0
152 167 0
143 154 0
153 166 0
153 165 0
150 163 0
139 152 0
143 157 0
147 160 0
151 162 0
149 163 0
151 165 0
147 163 0
154 169 0
148 166 0
154 168 0
154 168 0
150 164 0
151 166 0
146 159 0
150 164 0
150 162 0
155 169 0
151 165 0
151 165 0
155 171 0
148 162 0
149 163 0
154 170 0
152 166 0
155 169 0
154 169 0
152 168 0
158 174 0
160 175 0
158 173 0
153 167 0
157 172 0
158 175 0
157 171 0
159 177 0
160 177 0
151 165 0
151 167 0
151 166 0
160 177 0
159 174 0
158 175 0
157 176 0
157 173 0
162 180 0
156 173 0
157 174 0
159 175 0
159 177 0
164 182 0
160 179 0
160 174 0
162 179 0
160 177 0
160 176 0
156 173 0
164 181 0
161 179 0
158 177 0
161 179 0
159 177 0
162 182 0
161 180 0
164 182 0
162 183 0
161 181 0
163 182 0
164 181 0
169 188 0
165 186 0
163 181 0
171 191 0
166 185 0
164 181 0
161 179 0
165 183 0
166 187 0
174 198 84
171 194 80
171 195 72
172 197 84
170 193 67
170 194 67
173 196 80
169 193 57
173 197 76
168 192 57
172 196 76
172 196 67
173 197 99
169 193 44
170 194 62
170 195 88
170 195 72
170 194 88
171 196 67
168 192 80
165 188 25
172 196 62
167 191 62
168 193 88
171 196 84
170 194 80
167 191 44
168 193 76
169 193 57
165 189 67
165 189 62
164 189 76
166 191 72
167 192 67
168 192 76
168 192 62
166 191 76
168 191 62
166 189 67
166 191 62
168 192 57
169 194 92
166 190 44
161 185 67
168 193 67
162 185 57
166 191 84
170 194 84
158 183 62
164 187 72
169 193 88
167 191 72
166 190 88
165 189 80
161 185 76
161 185 57
166 190 76
162 186 84
165 189 72
165 190 80
161 185 76
161 185 80
163 187 67
165 187 72
161 185 84
158 181 62
163 186 67
165 188 80
161 185 84
162 186 67
162 185 67
154 177 76
154 178 76
156 179 25
161 184 80
162 186 57
161 184 67
161 184 76
157 179 57
156 178 67
157 180 51
155 177 80
151 175 76
159 182 84
154 176 72
163 186 95
100 126 126
82 110 122
93 120 127
97 124 138
86 114 127
91 118 133
87 115 129
98 125 140
89 116 137
90 118 134
91 118 133
91 118 129
88 116 142
82 110 114
90 118 141
92 119 145
93 120 135
94 120 143
97 123 134
92 119 144
106 130 139
85 113 137
85 112 131
97 123 141
108 133 156
98 123 137
100 126 141
99 124 141
98 123 130
105 129 136
107 133 146
85 113 140
97 123 144
87 116 154
91 118 156
78 109 170
88 116 165
71 103 155
74 106 156
80 110 163
69 101 146
65 98 149
71 101 145
72 101 137
74 103 148
72 102 141
59 94 148
59 94 141
60 94 145
62 96 133
59 94 130
60 96 144
59 94 140
63 97 143
58 92 134
64 98 133
62 96 133
58 92 133
68 99 119
68 100 125
57 91 128
59 94 128
59 93 134
59 93 127
57 90 118
59 93 126
58 92 127
57 91 128
58 92 127
60 95 145
58 92 125
58 92 124
60 95 129
58 93 129
59 94 129
59 94 133
59 93 129
60 95 136
59 94 131
59 94 140
58 92 116
59 93 121
60 94 137
58 92 127
58 91 119
59 94 130
60 94 133
60 96 137
61 95 139
58 92 122
59 93 129
60 95 142
59 94 131
59 94 131
58 92 124
58 92 125
59 94 130
60 94 133
59 93 130
59 94 124
60 95 137
59 93 127
61 95 139
60 95 136
60 95 140
59 94 130
61 96 134
59 94 133
60 94 133
59 93 126
59 93 121
58 92 134
60 95 135
60 95 140
59 94 129
61 96 143
59 93 127
58 92 121
59 92 135
60 94 124
59 94 133
57 91 113
59 93 131
60 95 135
60 95 133
58 92 117
59 93 126
60 94 129
61 95 135
60 94 122
59 92 120
58 92 121
60 94 130
58 92 126
59 93 127
59 93 126
59 93 130
59 93 136
58 92 120
59 93 125
60 94 125
57 90 121
59 94 134
57 90 113
58 92 115
57 91 113
58 91 122
59 92 124
59 93 122
54 86 100
57 90 108
57 89 115
58 91 120
58 91 122
57 90 124
80 101 74
116 130 18
122 135 0
111 124 0
124 138 0
121 137 0
118 132 0
124 137 0
114 129 0
118 130 0
128 142 0
109 122 0
121 134 0
117 133 0
130 144 0
117 133 0
110 124 0
127 143 0
121 136 0
132 146 0
127 143 0
123 138 0
126 141 0
126 140 0
116 131 0
139 154 0
127 143 0
131 146 0
121 134 0
132 147 0
130 144 0
131 146 0
125 138 0
137 152 0
136 151 0
123 137 0
123 137 0
126 138 0
139 155 0
128 140 0
134 147 0
136 149 0
136 150 0
142 156 0
128 141 0
147 162 0
142 157 0
134 148 0
139 153 0
131 145 0
131 144 0
141 157 0
136 150 0
144 161 0
146 158 0
133 147 0
137 151 0
137 152 0
139 155 0
138 151 0
142 157 0
151 167 0
146 162 0
140 155 0
148 163 0
136 149 0
148 163 0
141 156 0
148 162 0
143 159 0
143 156 0
141 153 0
146 158 0
140 154 0
139 152 0
145 159 0
148 163 0
144 157 0
142 156 0
147 161 0
153 167 0
142 155 0
152 168 0
147 162 0
145 161 0
146 162 0
155 170 0
150 164 0
153 166 0
150 165 0
155 172 0
148 163 0
150 165 0
149 163 0
152 167 0
147 161 0
147 161 0
149 161 0
144 157 0
156 171 0
158 172 0
154 171 0
161 176 0
148 164 0
160 177 0
152 166 0
156 171 0
154 170 0
151 166 0
156 173 0
160 176 0
155 170 0
155 171 0
153 167 0
158 173 0
154 171 0
160 176 0
159 175 0
157 173 0
158 176 0
156 175 0
159 175 0
153 167 0
162 180 0
162 180 0
154 169 0
159 174 0
158 176 0
158 175 0
160 177 0
158 175 0
158 174 0
155 174 0
163 182 0
159 176 0
164 184 0
160 178 0
160 177 0
163 183 0
167 188 0
161 179 0
160 178 0
164 181 0
156 174 0
156 174 0
162 180 0
163 180 0
164 184 0
165 184 0
165 186 0
167 186 0
166 184 0
163 182 0
164 183 0
163 182 0
164 182 0
165 182 0
166 185 0
167 186 0
172 195 92
171 196 84
168 192 92
172 195 62
174 198 84
169 192 76
168 191 57
169 192 57
172 196 80
170 195 57
167 191 62
170 194 51
171 195 95
166 190 95
167 191 72
167 191 88
168 192 72
168 193 80
169 193 72
166 191 62
170 193 67
170 195 92
167 191 44
167 192 84
173 197 84
169 194 80
171 195 88
170 194 67
167 190 76
171 195 72
166 190 92
170 195 76
169 194 88
170 194 76
167 191 62
165 188 57
167 191 92
168 191 62
169 194 76
164 190 88
171 195 88
167 190 57
163 187 67
165 190 67
168 192 95
168 193 67
160 184 72
166 189 72
163 186 57
165 189 57
162 187 84
156 180 57
167 191 88
162 186 72
167 192 76
166 190 84
161 185 57
162 186 84
167 191 84
168 192 72
161 185 80
163 187 76
158 183 51
160 183 67
162 185 67
160 183 80
158 182 62
161 184 80
162 186 62
159 182 67
162 186 84
156 178 62
159 183 84
157 180 62
156 178 62
159 182 72
154 176 67
160 183 62
158 181 72
151 175 62
149 171 62
156 179 76
147 170 57
160 183 84
144 166 62
153 175 74
141 163 72
94 120 126
84 112 124
87 115 125
94 121 136
97 124 134
90 118 135
82 110 110
88 116 127
92 119 137
87 114 131
88 115 137
97 123 137
99 123 133
92 118 117
96 122 134
96 123 140
104 129 153
92 119 150
94 120 133
90 118 138
91 118 141
103 128 147
101 127 144
85 112 130
104 129 153
103 128 144
99 125 138
97 123 130
92 119 129
102 126 133
93 119 135
76 106 145
97 124 147
89 117 137
84 113 163
74 105 160
87 116 169
85 113 157
78 109 159
83 112 158
67 99 153
66 98 146
79 105 142
64 97 147
78 104 144
68 99 141
61 96 150
59 93 127
59 93 135
61 97 148
59 94 136
58 92 134
62 96 140
64 98 133
62 96 135
62 96 137
63 96 121
65 97 118
77 105 110
59 93 127
58 92 120
59 94 134
59 92 130
58 92 126
60 94 136
59 93 120
58 92 126
58 92 125
58 93 133
59 93 121
60 94 130
58 92 118
58 91 123
61 96 136
60 95 136
59 94 131
59 93 124
58 92 128
60 95 137
60 95 127
60 94 129
59 94 130
60 95 130
59 94 126
60 94 134
60 95 134
58 92 118
58 92 134
58 93 124
59 94 131
60 94 135
58 93 129
60 94 129
58 92 122
60 95 134
59 93 126
58 92 130
60 94 133
58 92 126
60 94 136
60 95 136
58 92 126
60 94 131
59 94 121
59 93 124
59 93 133
61 96 133
60 94 131
60 95 139
58 93 129
60 94 130
59 93 120
59 93 122
58 92 124
60 95 131
59 93 117
60 94 130
60 95 139
60 94 130
61 96 140
60 95 127
60 94 126
59 93 130
60 94 125
60 95 133
59 93 131
58 91 125
60 94 122
58 92 115
59 93 121
61 95 135
58 92 118
57 90 115
58 93 121
59 93 117
59 93 125
58 91 115
58 92 122
59 93 120
57 90 118
57 91 118
57 91 117
57 90 124
57 91 124
59 94 125
58 92 103
59 93 126
58 91 121
57 90 110
57 90 114
58 91 124
58 91 115
55 87 107
81 103 78
112 126 0
108 122 0
109 123 0
117 131 0
110 125 0
124 138 0
120 135 0
121 137 0
117 132 0
128 144 0
129 144 0
125 139 0
108 122 0
119 135 0
124 139 0
118 133 0
114 129 0
125 140 0
123 139 0
114 128 0
118 133 0
126 142 0
122 137 0
131 147 0
128 143 0
132 147 0
129 144 0
128 143 0
132 147 0
127 141 0
121 134 0
126 140 0
138 154 0
131 148 0
135 151 0
129 144 0
140 154 0
141 158 0
133 148 0
133 148 0
138 154 0
135 149 0
132 147 0
138 151 0
129 139 0
125 140 0
137 151 0
143 158 0
137 153 0
144 158 0
136 151 0
141 157 0
138 150 0
132 144 0
143 158 0
133 147 0
134 148 0
141 156 0
136 148 0
139 152 0
142 156 0
145 157 0
137 149 0
146 161 0
144 157 0
143 157 0
143 157 0
142 155 0
144 157 0
146 162 0
143 157 0
147 160 0
144 158 0
139 154 0
148 163 0
145 156 0
143 156 0
151 167 0
143 156 0
145 159 0
138 152 0
154 169 0
148 163 0
146 160 0
150 164 0
151 165 0
147 160 0
148 163 0
148 162 0
155 171 0
148 164 0
149 164 0
157 173 0
148 164 0
155 168 0
157 169 0
153 168 0
149 163 0
154 169 0
153 167 0
147 161 0
153 170 0
159 176 0
151 165 0
159 173 0
161 176 0
152 167 0
159 175 0
150 166 0
158 174 0
157 175 0
160 174 0
144 158 0
154 171 0
159 176 0
158 174 0
163 179 0
158 175 0
154 172 0
159 173 0
158 176 0
162 178 0
147 165 0
151 165 0
159 177 0
158 175 0
158 177 0
158 174 0
160 175 0
164 179 0
159 176 0
158 174 0
156 172 0
163 180 0
161 178 0
162 179 0
164 180 0
164 182 0
157 175 0
162 181 0
160 180 0
164 182 0
169 189 0
166 187 0
158 175 0
164 182 0
163 183 0
159 178 0
164 185 0
161 179 0
161 180 0
159 177 0
164 183 0
164 183 0
165 187 0
164 183 0
163 182 0
164 183 0
160 179 0
170 195 88
173 197 76
171 194 67
171 195 76
168 192 62
171 195 92
169 193 76
172 196 57
172 196 92
172 196 80
172 197 92
174 197 67
168 192 80
173 198 105
170 195 67
167 192 72
169 192 51
169 192 57
168 192 76
163 187 62
168 192 76
167 192 95
171 195 84
168 191 67
165 189 62
167 191 67
170 195 62
172 196 80
165 190 76
166 190 72
169 194 95
166 190 72
169 194 108
169 193 80
163 188 80
167 191 67
166 190 67
165 190 84
169 193 88
162 187 72
169 193 67
166 189 51
167 192 76
169 193 80
171 195 72
163 188 88
164 189 76
166 190 62
159 183 57
163 186 44
166 190 62
166 189 76
163 187 62
168 192 57
162 187 76
171 196 99
159 182 44
162 185 51
166 189 76
166 190 80
164 188 72
157 181 80
160 183 67
154 177 57
159 182 57
163 187 80
159 182 80
157 182 80
162 186 88
168 191 76
155 179 67
155 179 80
154 177 72
165 189 108
152 176 76
158 181 67
154 176 51
146 169 57
152 174 62
155 177 76
164 187 76
158 180 80
148 170 72
151 174 76
156 178 86
148 170 80
149 172 76
134 157 108
95 120 111
97 124 141
82 111 124
88 115 134
92 119 141
94 120 129
91 118 137
92 117 122
94 121 125
95 121 143
95 121 131
99 123 135
92 117 134
90 117 121
97 123 141
90 117 137
90 117 144
89 116 130
88 115 149
99 125 136
93 120 144
102 127 144
101 126 144
96 123 140
101 126 141
105 131 141
96 122 141
92 118 130
92 118 133
99 124 136
91 118 145
81 110 136
89 118 143
85 113 148
82 112 160
80 111 163
88 116 164
80 111 164
88 117 166
72 103 152
66 98 150
67 99 144
72 101 144
74 101 130
71 100 143
63 97 145
60 94 139
61 96 142
61 96 151
59 93 136
60 96 136
58 91 134
63 97 133
61 95 130
61 94 130
65 98 130
62 94 117
75 106 121
63 97 135
58 91 115
59 93 124
57 91 110
58 92 125
59 93 127
59 93 133
58 92 121
59 93 131
59 93 126
59 93 127
59 94 129
60 94 131
58 92 124
59 93 125
60 95 139
59 94 135
59 93 126
60 95 136
58 92 117
60 95 135
59 92 127
59 93 134
59 93 131
59 93 123
59 94 137
59 93 120
58 92 128
59 93 126
59 93 124
61 95 134
60 94 134
59 93 129
59 93 130
57 91 117
57 90 118
58 91 115
59 93 133
59 94 127
58 92 122
59 93 129
60 95 130
60 95 137
59 94 124
60 95 133
60 95 145
60 94 139
59 93 133
58 93 124
58 93 125
58 92 121
61 95 135
59 94 129
60 95 138
59 94 129
59 94 130
57 90 111
60 95 135
58 92 115
58 92 121
58 93 120
58 92 126
59 94 124
60 94 134
59 93 120
59 93 126
59 93 127
57 89 111
57 90 121
59 93 121
58 91 117
59 93 126
59 93 121
59 94 129
58 91 117
59 93 114
60 94 125
58 93 125
58 92 129
59 93 131
57 90 111
58 91 121
59 93 129
58 92 125
58 90 120
57 91 120
55 87 105
58 92 114
57 89 122
55 87 100
55 87 111
56 88 105
55 87 95
75 100 90
111 126 0
114 127 0
113 127 0
105 117 0
124 141 0
123 137 0
109 122 0
109 123 0
114 129 0
122 137 0
124 137 0
110 123 0
118 131 0
131 147 0
127 140 0
120 133 0
123 139 0
124 140 0
107 119 0
128 141 0
127 140 0
133 150 0
123 138 0
135 152 0
131 147 0
128 141 0
122 138 0
130 145 0
130 145 0
130 145 0
123 137 0
127 139 0
108 122 0
135 150 0
127 143 0
126 143 0
126 142 0
131 147 0
135 148 0
132 146 0
128 141 0
130 146 0
135 151 0
138 153 0
134 148 0
143 160 0
139 152 0
134 148 0
141 158 0
136 151 0
143 157 0
135 150 0
134 149 0
132 145 0
149 165 0
130 145 0
146 161 0
130 146 0
131 145 0
142 158 0
143 157 0
132 146 0
139 154 0
132 145 0
144 157 0
142 157 0
140 154 0
144 158 0
148 163 0
143 155 0
137 151 0
148 164 0
147 163 0
147 161 0
139 151 0
142 155 0
149 163 0
143 157 0
146 162 0
148 162 0
144 158 0
147 160 0
152 168 0
146 161 0
153 168 0
149 163 0
156 171 0
156 170 0
143 157 0
145 159 0
152 166 0
148 162 0
148 165 0
151 164 0
152 167 0
151 164 0
152 165 0
149 163 0
153 169 0
150 167 0
155 171 0
160 175 0
155 170 0
154 171 0
159 174 0
152 168 0
159 176 0
153 167 0
156 170 0
156 170 0
155 172 0
156 170 0
160 174 0
159 175 0
158 176 0
158 175 0
150 165 0
164 182 0
156 173 0
154 172 0
156 171 0
155 171 0
159 174 0
158 175 0
157 174 0
155 171 0
158 175 0
157 174 0
164 183 0
166 185 0
161 177 0
159 175 0
162 180 0
164 183 0
159 176 0
160 177 0
161 180 0
163 182 0
165 184 0
165 183 0
164 182 0
159 175 0
163 181 0
165 183 0
160 178 0
163 180 0
163 182 0
163 181 0
161 179 0
159 177 0
162 181 0
162 181 0
169 189 0
164 184 0
163 182 0
165 185 0
164 184 0
165 185 0
169 188 0
167 187 0
171 194 51
173 198 84
171 195 76
167 193 80
172 197 99
172 196 72
170 194 57
172 196 80
168 192 62
172 196 80
170 194 67
167 191 67
168 192 67
169 193 51
169 193 76
164 188 67
171 194 51
167 191 62
165 189 51
170 194 76
162 187 72
165 189 57
166 190 84
168 191 57
169 192 51
172 195 62
167 192 62
168 193 51
167 193 76
164 189 62
167 192 76
168 192 72
172 197 67
165 189 72
168 192 76
169 192 57
168 192 62
168 192 76
165 188 67
165 191 88
164 188 57
167 191 67
165 189 76
166 190 67
163 187 62
167 193 88
164 188 80
164 188 72
163 187 84
159 182 62
160 184 80
164 187 57
164 188 67
158 181 67
163 187 57
161 184 67
162 186 62
162 186 76
161 186 88
154 178 62
163 186 62
161 184 51
160 184 62
161 185 80
154 178 72
155 179 44
159 183 80
158 183 84
163 186 76
157 181 67
158 182 84
155 179 80
159 183 88
158 181 76
155 178 84
160 183 72
163 187 80
155 179 80
149 173 80
155 178 51
158 181 82
152 174 80
152 174 70
158 181 57
154 176 44
146 167 72
144 167 67
148 170 51
115 138 113
88 115 118
92 119 124
88 115 108
90 118 125
88 113 119
88 116 129
94 121 125
81 109 125
103 128 136
106 131 147
77 107 133
71 100 131
89 116 129
87 114 137
89 116 141
101 127 143
92 119 143
95 120 146
94 120 140
99 126 157
93 119 142
89 116 138
97 123 146
102 128 143
110 135 149
114 137 146
104 128 136
100 125 123
101 126 137
100 125 138
93 120 137
85 113 137
92 118 138
88 117 157
72 105 165
86 115 165
74 105 155
72 104 158
77 108 159
72 103 155
65 98 147
73 102 148
74 103 140
66 97 138
72 101 144
59 94 143
64 98 145
60 95 134
60 95 142
61 96 145
58 92 131
64 98 132
66 99 131
67 99 131
62 95 120
66 99 132
66 98 126
85 114 129
57 91 112
58 93 131
56 89 118
58 92 128
58 91 122
59 93 126
55 88 112
59 94 126
58 93 129
58 91 121
59 93 122
59 93 129
59 93 121
60 94 131
61 96 139
60 94 130
58 93 131
60 94 139
60 94 134
59 94 130
59 93 125
57 91 125
60 96 140
57 91 121
59 93 125
58 91 120
60 95 133
60 94 129
60 95 133
59 93 125
58 92 118
58 93 127
60 95 136
60 94 129
58 92 123
59 94 131
60 95 127
58 92 124
60 95 139
58 92 117
59 93 122
59 94 121
58 93 118
58 92 126
59 93 126
59 93 124
60 95 131
59 93 134
58 92 118
59 93 127
58 92 125
59 93 122
61 95 135
60 94 125
58 92 124
59 93 126
59 93 133
59 94 126
59 93 124
61 95 135
60 94 129
60 94 127
59 94 125
60 94 134
58 92 110
58 93 129
59 93 118
59 92 122
61 95 134
58 92 111
60 94 130
59 93 131
58 92 114
57 90 117
59 94 122
56 89 113
58 92 121
58 92 131
59 93 124
58 91 111
57 90 121
58 92 117
59 92 122
56 89 111
58 92 122
56 89 111
56 89 113
58 92 116
55 88 114
56 89 100
55 86 102
67 91 78
107 121 0
122 137 0
118 132 0
109 123 0
117 132 0
118 133 0
103 117 0
122 136 0
119 135 0
121 136 0
110 123 0
121 137 0
118 134 0
116 130 0
121 135 0
122 138 0
128 144 0
119 134 0
126 138 0
118 134 0
122 137 0
130 145 0
134 148 0
121 135 0
125 141 0
118 133 0
133 149 0
134 150 0
122 137 0
125 139 0
121 137 0
135 147 0
123 138 0
131 148 0
128 142 0
137 152 0
141 157 0
125 137 0
125 138 0
129 144 0
138 153 0
135 151 0
133 148 0
132 148 0
134 148 0
127 140 0
143 156 0
136 151 0
134 150 0
138 155 0
136 151 0
137 151 0
135 150 0
141 156 0
141 158 0
141 157 0
132 145 0
141 155 0
143 157 0
133 147 0
145 159 0
135 148 0
145 158 0
145 163 0
140 155 0
140 154 0
131 144 0
143 157 0
138 154 0
138 152 0
147 164 0
150 166 0
145 159 0
145 161 0
147 163 0
148 164 0
150 166 0
150 165 0
147 164 0
145 159 0
140 155 0
152 165 0
147 161 0
146 160 0
151 167 0
153 168 0
142 157 0
152 168 0
150 165 0
148 163 0
153 166 0
151 165 0
147 162 0
155 170 0
153 170 0
152 164 0
151 166 0
151 165 0
160 176 0
144 160 0
153 167 0
149 165 0
144 160 0
158 175 0
157 172 0
150 163 0
158 174 0
154 168 0
154 170 0
155 172 0
159 175 0
154 169 0
158 173 0
160 176 0
153 170 0
157 176 0
156 171 0
153 169 0
158 176 0
162 179 0
163 179 0
153 167 0
159 175 0
159 176 0
159 176 0
159 176 0
164 181 0
161 179 0
163 181 0
157 172 0
159 174 0
161 179 0
158 174 0
160 178 0
162 181 0
161 180 0
162 180 0
163 182 0
166 185 0
159 177 0
160 177 0
164 184 0
165 183 0
164 182 0
164 182 0
162 180 0
156 175 0
161 180 0
161 177 0
163 181 0
158 176 0
166 185 0
167 187 0
160 178 0
167 186 0
160 178 0
159 178 0
160 179 0
163 181 0
166 186 0
168 187 0
173 196 76
170 194 44
171 195 72
168 192 76
172 196 67
171 195 72
170 194 76
173 197 67
171 195 80
169 193 80
171 196 57
168 192 76
167 192 72
170 195 76
172 196 80
172 196 67
172 197 84
173 197 62
172 196 92
169 193 67
172 196 62
167 191 76
169 194 67
171 196 92
166 190 57
164 189 92
173 196 51
171 196 67
164 189 67
166 190 51
167 190 57
163 187 72
168 193 80
165 188 57
167 192 62
168 192 51
166 191 84
161 185 62
168 192 76
163 187 88
169 193 92
169 193 92
166 191 76
164 188 72
166 190 67
161 185 57
167 191 72
169 192 57
166 190 76
162 186 67
162 186 72
166 190 76
167 191 80
164 188 67
163 187 72
166 189 76
157 181 57
162 186 62
163 187 51
162 186 80
157 180 67
165 189 80
158 182 80
163 186 80
162 186 57
164 188 76
160 183 72
158 183 84
162 186 92
157 180 57
149 172 51
156 180 54
157 180 84
161 184 76
150 172 67
161 184 80
159 182 92
160 183 84
155 177 80
154 178 72
153 176 72
148 170 62
154 175 67
148 170 84
148 171 76
156 179 62
146 169 72
150 172 84
143 165 82
103 128 137
84 113 111
88 115 121
85 113 126
86 114 125
83 110 110
88 115 127
88 115 129
97 123 137
95 121 126
107 132 144
100 125 133
105 130 134
84 111 128
90 117 131
91 118 141
105 129 151
95 121 131
96 122 145
89 115 131
96 120 125
94 120 149
89 115 141
99 125 138
112 136 154
112 136 146
93 120 136
88 114 120
106 129 130
104 125 123
96 121 142
85 113 131
86 114 137
89 117 142
71 103 156
74 106 155
78 109 165
93 120 167
77 108 156
70 102 155
65 98 151
69 98 139
70 98 131
80 106 135
71 100 138
66 97 134
60 96 144
58 92 129
61 95 143
61 96 143
58 93 130
61 95 131
61 94 124
64 96 127
66 98 124
60 94 125
62 95 126
67 98 111
59 93 131
58 91 118
57 91 116
60 94 133
58 93 111
58 93 130
58 92 128
60 94 140
58 92 129
59 93 120
59 93 115
59 94 129
57 91 123
60 95 133
59 94 137
58 91 114
58 92 124
60 94 136
59 94 135
57 91 115
60 94 126
60 94 135
57 91 118
59 93 135
59 93 124
61 96 142
60 95 130
61 96 135
59 93 127
58 91 115
60 95 136
59 93 126
57 90 120
60 94 134
59 93 127
59 94 124
59 93 134
57 90 116
59 93 133
59 93 116
59 93 129
58 93 130
60 95 135
60 95 131
60 95 135
59 93 133
59 93 124
60 94 126
60 94 130
59 93 121
59 93 122
58 92 126
58 92 130
60 94 131
58 91 110
58 91 114
60 94 133
58 92 124
58 92 117
59 93 124
57 91 117
59 93 118
60 95 129
59 93 124
59 94 139
58 92 114
59 93 131
60 94 133
58 92 122
58 92 118
58 91 120
57 91 107
58 92 120
58 92 118
58 92 118
59 93 126
56 89 117
59 92 124
58 92 115
59 93 126
58 91 122
58 92 113
56 89 111
58 91 115
57 90 100
56 89 108
55 88 105
55 88 108
56 89 107
55 88 105
69 96 99
115 130 36
99 115 0
123 138 0
105 119 0
110 124 0
115 129 0
110 126 0
119 134 0
127 143 0
110 123 0
129 144 0
121 136 0
125 141 0
128 143 0
131 145 0
121 138 0
131 149 0
123 139 0
130 146 0
124 139 0
125 140 0
127 141 0
125 138 0
130 143 0
122 137 0
130 145 0
131 147 0
126 143 0
129 144 0
118 133 0
129 144 0
136 153 0
138 153 0
130 145 0
124 137 0
134 150 0
134 151 0
127 142 0
136 152 0
125 139 0
138 156 0
131 146 0
138 152 0
135 153 0
146 164 0
133 147 0
137 151 0
134 146 0
142 158 0
134 148 0
141 157 0
144 158 0
135 151 0
141 157 0
142 159 0
142 158 0
131 147 0
135 151 0
141 155 0
142 158 0
132 146 0
138 154 0
139 153 0
142 156 0
138 152 0
141 155 0
142 159 0
141 158 0
144 161 0
147 164 0
136 148 0
150 164 0
147 161 0
141 155 0
151 165 0
146 161 0
144 155 0
144 159 0
146 163 0
150 164 0
154 169 0
144 160 0
143 158 0
152 168 0
141 156 0
150 165 0
149 164 0
144 160 0
148 164 0
159 177 0
147 162 0
149 166 0
150 165 0
149 164 0
153 169 0
143 157 0
153 169 0
145 159 0
154 170 0
144 159 0
157 172 0
154 169 0
152 168 0
154 171 0
152 168 0
148 165 0
157 173 0
157 172 0
154 169 0
155 172 0
155 169 0
154 171 0
155 170 0
157 173 0
154 170 0
156 173 0
156 171 0
154 169 0
156 170 0
159 175 0
154 168 0
157 174 0
155 172 0
161 179 0
156 173 0
157 175 0
165 183 0
162 178 0
156 174 0
163 180 0
159 177 0
164 183 0
165 185 0
159 176 0
155 172 0
161 179 0
161 178 0
162 180 0
161 178 0
159 177 0
164 182 0
159 179 0
164 184 0
164 181 0
161 181 0
164 181 0
166 184 0
162 180 0
162 181 0
164 182 0
162 180 0
166 184 0
164 182 0
165 183 0
164 182 0
162 181 0
167 188 0
162 181 0
164 183 0
166 188 0
167 187 0
163 184 0
171 196 67
170 193 57
168 190 36
171 195 62
171 194 62
170 195 84
170 194 92
170 194 67
170 194 72
172 195 76
166 190 62
169 193 62
168 193 72
172 197 84
167 191 44
165 189 88
170 194 80
171 195 95
170 194 72
168 193 76
168 193 84
172 196 76
168 192 76
170 194 84
166 190 51
168 193 67
167 192 67
169 193 84
168 193 76
165 189 80
168 192 72
169 193 62
166 190 88
167 192 80
168 192 92
166 191 44
167 191 84
164 188 80
165 190 72
165 189 92
169 193 99
162 187 80
170 194 44
166 189 62
165 189 72
161 185 84
166 190 72
167 191 88
160 185 67
165 189 67
163 187 62
164 187 76
163 186 62
166 190 92
164 188 51
159 184 80
161 184 62
161 185 62
169 193 76
161 184 72
158 182 72
166 189 76
165 188 51
165 189 76
161 184 80
161 184 72
158 182 84
160 185 72
158 181 44
162 186 88
160 183 76
153 176 80
159 182 80
152 175 62
152 174 76
153 177 67
159 183 84
151 173 72
148 170 51
153 176 72
158 180 67
158 180 84
149 171 95
147 169 60
151 174 76
152 174 95
152 173 76
155 177 80
143 165 88
152 175 92
89 116 107
94 120 127
85 111 114
90 117 113
99 125 129
95 121 135
101 126 142
92 118 136
88 115 126
85 113 124
98 123 126
85 113 132
90 117 137
104 129 149
94 120 130
82 110 123
101 126 142
92 119 135
94 120 140
95 121 144
99 125 151
102 127 136
104 130 140
118 142 157
112 136 145
109 132 148
90 117 131
98 121 123
99 123 130
110 132 129
83 109 133
82 111 141
92 119 145
93 119 150
82 112 153
86 115 166
80 110 156
86 114 157
89 116 156
81 109 153
70 100 147
74 103 143
74 102 134
78 103 131
76 103 136
63 96 142
58 93 131
60 94 130
58 93 137
59 94 139
62 95 134
69 100 122
66 99 133
63 96 122
60 93 113
61 93 113
68 98 120
67 98 127
57 90 120
58 92 117
58 91 121
58 92 129
58 92 120
59 94 134
57 91 124
58 92 118
59 93 131
58 92 125
58 92 125
59 93 135
59 94 128
58 92 126
59 93 122
59 94 130
58 92 121
61 95 134
59 93 125
59 93 129
60 94 130
61 96 136
58 92 120
59 93 129
59 94 134
59 93 131
59 93 126
60 95 132
58 92 125
58 92 118
58 92 121
61 95 140
58 92 121
57 91 120
57 90 121
59 93 122
59 93 120
59 93 126
57 91 121
58 92 124
57 91 122
58 92 120
59 93 126
59 94 134
58 93 126
59 93 129
58 92 121
60 94 136
59 93 122
60 95 133
59 93 124
58 92 120
59 94 124
59 93 120
59 93 131
61 95 136
58 93 115
59 93 125
59 93 129
58 92 114
59 93 126
58 92 124
60 94 133
60 95 134
58 92 127
59 93 124
58 92 124
59 93 127
58 93 119
58 92 115
57 91 120
58 92 114
57 91 107
56 89 99
58 92 120
57 91 110
56 89 111
60 94 136
57 90 111
58 91 115
55 88 103
57 90 113
57 89 111
55 88 105
56 89 102
57 90 121
57 90 114
55 86 97
67 93 80
107 123 37
99 113 0
128 141 0
103 117 0
107 122 0
118 134 0
105 120 0
116 127 0
121 137 0
121 136 0
111 126 0
107 122 0
131 147 0
123 138 0
111 124 0
122 138 0
126 141 0
127 142 0
120 132 0
126 142 0
133 150 0
128 143 0
126 142 0
132 146 0
121 135 0
136 150 0
125 139 0
123 138 0
118 133 0
127 141 0
122 137 0
129 145 0
122 135 0
140 157 0
123 139 0
132 147 0
130 147 0
131 147 0
140 158 0
124 139 0
137 154 0
136 151 0
140 157 0
143 160 0
135 150 0
135 151 0
129 146 0
137 151 0
133 146 0
135 148 0
144 158 0
143 159 0
139 155 0
131 144 0
135 149 0
139 155 0
140 156 0
144 157 0
143 156 0
144 162 0
134 149 0
140 154 0
148 165 0
133 149 0
145 159 0
143 158 0
138 152 0
146 163 0
146 163 0
144 160 0
148 165 0
149 163 0
140 154 0
148 163 0
148 163 0
144 159 0
139 154 0
141 156 0
145 160 0
146 161 0
149 164 0
146 163 0
149 164 0
147 161 0
147 161 0
149 165 0
147 161 0
153 169 0
154 169 0
145 161 0
146 161 0
156 172 0
145 159 0
153 168 0
145 161 0
154 171 0
143 158 0
157 177 0
157 174 0
154 170 0
152 169 0
152 169 0
152 167 0
151 167 0
158 172 0
149 166 0
147 162 0
154 171 0
150 166 0
156 172 0
154 172 0
151 166 0
157 174 0
159 177 0
156 173 0
158 177 0
158 173 0
156 173 0
163 181 0
155 170 0
155 173 0
161 180 0
161 178 0
156 173 0
160 177 0
164 181 0
160 177 0
159 178 0
159 176 0
161 179 0
161 178 0
163 180 0
164 183 0
160 178 0
156 174 0
156 173 0
162 180 0
159 177 0
164 183 0
164 183 0
162 178 0
158 175 0
160 178 0
166 183 0
170 190 0
163 182 0
159 176 0
163 182 0
160 178 0
159 177 0
162 181 0
163 182 0
163 183 0
163 181 0
167 187 0
161 181 0
166 185 0
160 179 0
166 186 0
159 179 0
165 183 0
159 177 0
164 183 0
172 197 88
172 197 80
170 194 51
173 197 44
168 193 92
171 195 80
171 196 92
172 196 57
171 196 80
168 193 72
171 195 72
170 193 72
171 196 67
170 194 51
173 196 67
166 190 80
170 195 88
164 188 62
167 191 57
171 196 95
165 189 76
168 192 67
167 192 62
165 189 67
170 195 88
166 190 57
164 188 62
167 192 84
163 189 95
170 194 76
164 188 57
168 191 67
164 187 57
163 187 51
167 191 88
167 191 62
168 193 67
163 188 72
164 187 67
165 189 92
164 188 51
167 191 67
162 186 62
165 189 76
165 188 67
167 191 62
167 190 57
164 188 88
166 190 88
163 186 72
163 186 57
162 185 72
161 184 67
165 189 76
162 185 57
164 188 67
159 183 80
160 184 76
163 187 67
163 188 80
166 191 67
161 185 76
156 179 57
156 179 57
153 176 51
154 177 51
155 179 62
157 181 80
158 182 76
159 183 80
152 175 36
162 185 67
168 192 76
155 179 84
155 178 67
157 180 84
154 177 36
149 171 72
151 175 67
150 174 102
149 172 62
153 177 105
147 169 72
151 173 76
155 178 84
151 173 76
151 173 62
151 174 57
148 170 57
149 170 72
131 154 105
94 120 126
88 114 129
93 120 139
83 111 124
80 109 110
79 107 117
102 127 131
90 116 124
92 118 124
91 118 141
89 115 127
89 116 133
89 116 132
96 121 134
100 125 138
89 114 121
89 115 132
100 126 141
84 111 134
104 129 143
85 112 113
82 109 136
91 118 131
83 111 129
94 120 141
92 119 129
99 123 123
96 122 140
101 125 121
91 118 137
87 114 148
88 115 124
79 108 143
85 115 165
81 111 166
71 103 151
77 107 151
83 112 157
94 120 160
68 100 148
67 98 143
76 103 139
66 98 145
79 104 133
70 99 137
61 96 145
60 96 145
60 95 139
61 95 137
59 93 132
67 99 126
63 95 127
65 98 117
66 98 124
61 93 126
66 97 116
71 101 118
57 90 119
57 90 115
57 92 125
57 91 115
59 93 125
58 91 121
57 91 118
58 91 110
58 92 126
58 92 129
57 91 124
59 94 128
58 93 124
58 91 122
59 93 122
57 91 125
57 91 117
57 91 115
58 93 124
59 93 127
59 93 129
58 92 125
59 93 130
59 94 125
59 93 129
59 93 122
58 91 115
59 93 122
58 92 125
58 91 122
59 94 133
60 94 133
58 92 121
58 92 118
57 90 117
59 94 130
57 91 124
58 92 118
60 95 131
59 93 134
60 94 131
59 93 124
58 92 139
58 92 117
58 92 118
59 93 121
60 94 131
58 92 115
57 90 126
60 94 130
57 91 113
59 94 133
57 91 120
58 91 114
58 92 124
58 92 117
58 92 120
57 90 114
58 91 111
60 94 129
59 93 126
59 94 122
57 91 118
59 93 126
59 93 125
58 91 118
59 94 117
58 92 118
60 94 131
59 93 117
58 91 117
58 91 113
57 90 111
58 92 111
58 91 117
57 90 108
55 88 99
57 90 111
57 91 114
55 87 103
57 90 107
57 90 115
57 90 102
55 87 114
55 87 97
55 88 99
56 88 99
74 99 90
112 127 25
110 125 0
109 124 0
116 127 0
110 125 0
109 122 0
122 136 0
106 120 0
118 131 0
123 139 0
122 138 0
119 132 0
122 137 0
121 136 0
125 138 0
122 136 0
123 136 0
134 150 0
126 142 0
131 148 0
126 141 0
122 136 0
121 135 0
121 138 0
127 139 0
122 137 0
132 148 0
136 154 0
138 155 0
136 152 0
127 143 0
135 150 0
135 150 0
132 147 0
129 142 0
137 154 0
142 159 0
141 156 0
135 150 0
137 152 0
129 145 0
128 142 0
129 144 0
128 145 0
128 143 0
132 146 0
136 153 0
135 149 0
141 158 0
146 163 0
142 157 0
147 162 0
130 143 0
137 152 0
132 149 0
133 147 0
131 147 0
149 167 0
139 156 0
142 160 0
148 166 0
138 152 0
138 153 0
144 158 0
143 160 0
147 161 0
147 164 0
144 159 0
140 155 0
143 158 0
145 162 0
149 166 0
149 165 0
151 168 0
145 159 0
145 161 0
150 166 0
134 148 0
148 166 0
152 167 0
146 161 0
143 157 0
146 163 0
152 169 0
142 153 0
147 162 0
142 158 0
145 159 0
146 159 0
149 163 0
145 161 0
155 171 0
152 168 0
154 170 0
153 169 0
150 168 0
148 160 0
158 176 0
149 165 0
150 167 0
154 170 0
157 173 0
151 168 0
143 160 0
150 165 0
152 169 0
152 168 0
155 172 0
155 173 0
152 169 0
155 172 0
153 166 0
159 175 0
153 167 0
152 167 0
154 167 0
153 169 0
154 171 0
158 173 0
161 178 0
152 170 0
153 170 0
152 167 0
165 184 0
158 174 0
158 177 0
162 178 0
158 175 0
159 176 0
161 179 0
158 175 0
163 182 0
159 178 0
158 173 0
157 175 0
161 179 0
159 178 0
161 179 0
165 184 0
160 179 0
158 176 0
159 177 0
158 179 0
156 174 0
165 185 0
159 176 0
169 189 0
162 179 0
165 185 0
159 178 0
156 176 0
167 187 0
159 177 0
164 184 0
163 183 0
164 182 0
164 180 0
162 183 0
160 180 0
168 188 0
166 186 0
160 179 0
164 185 0
167 186 0
169 191 62
166 190 44
169 194 80
171 195 62
169 194 62
176 199 67
169 195 84
171 195 80
168 193 80
171 195 72
167 191 62
173 197 80
169 192 36
169 194 92
171 196 95
173 196 62
171 195 76
165 190 62
171 195 67
167 192 95
171 195 92
169 193 72
168 192 72
165 189 72
168 193 76
167 191 72
167 190 62
171 195 80
173 197 84
167 191 80
170 194 76
171 195 72
166 190 51
161 184 72
169 193 72
169 194 92
168 194 88
171 195 72
169 194 76
167 193 99
162 185 67
164 188 51
166 190 57
167 192 76
162 187 84
167 190 67
157 182 72
168 191 62
160 184 62
161 185 67
163 187 72
164 188 72
164 188 57
165 189 88
169 195 76
167 190 76
160 184 67
166 190 76
161 185 76
163 188 95
165 188 72
157 180 76
157 180 67
161 185 76
164 186 44
163 187 67
156 180 67
155 179 80
158 181 36
151 174 99
161 184 92
161 185 95
158 182 67
155 178 72
151 174 80
155 179 80
157 180 62
150 172 57
163 187 99
158 180 99
145 168 57
157 179 95
157 179 67
154 177 62
150 172 62
147 169 57
149 172 72
138 159 67
150 172 76
148 170 72
147 170 84
124 146 113
87 114 115
98 123 134
85 113 122
100 126 135
101 126 120
88 115 124
70 99 117
87 113 112
88 115 127
82 110 115
97 122 135
92 119 143
90 117 113
90 117 136
87 115 131
85 113 130
92 118 131
94 120 146
103 127 136
82 110 131
102 127 147
90 117 126
95 120 134
91 117 122
97 122 130
99 124 137
90 117 131
95 121 135
102 126 125
97 122 136
96 122 142
96 122 147
81 111 150
72 104 159
85 113 154
80 109 153
74 106 152
74 105 154
63 96 126
65 97 143
62 96 142
68 99 141
67 97 135
80 106 136
61 94 135
60 95 135
59 94 130
60 94 138
57 91 125
59 93 134
64 97 119
63 96 124
62 95 126
63 96 126
63 96 121
90 118 115
62 95 117
56 90 114
59 92 122
59 93 127
58 92 115
58 93 127
58 91 117
59 93 124
59 94 129
57 90 115
58 92 120
58 92 125
58 92 125
58 92 120
58 92 120
59 94 135
58 91 110
59 93 122
56 89 115
57 91 118
59 94 129
58 92 121
58 91 122
57 91 115
59 93 124
60 94 131
58 92 124
59 94 124
58 92 120
60 94 130
59 93 120
56 90 117
59 93 124
60 94 131
59 94 124
58 92 133
60 95 130
59 94 124
59 93 133
59 93 129
58 92 113
60 94 127
59 93 121
59 93 121
60 94 133
57 91 107
58 92 118
60 94 130
59 94 130
58 91 125
59 93 122
58 92 121
59 93 124
58 92 121
59 93 126
58 91 115
59 93 126
57 91 107
58 92 122
58 92 122
59 93 120
56 89 108
58 91 122
59 93 117
57 91 120
59 93 126
58 91 117
59 94 126
59 93 129
60 94 126
59 92 120
57 90 113
58 91 122
57 89 105
58 91 122
58 91 122
59 93 122
60 94 118
57 91 107
58 92 124
59 93 118
57 90 110
57 90 121
56 89 100
54 86 95
55 86 103
78 100 76
103 116 0
115 129 0
111 123 0
117 134 0
116 130 0
116 133 0
103 119 0
121 135 0
125 140 0
113 124 0
127 142 0
119 135 0
114 128 0
119 134 0
123 139 0
128 143 0
117 131 0
124 141 0
123 137 0
122 137 0
124 138 0
120 136 0
123 139 0
116 131 0
127 144 0
127 144 0
132 148 0
114 127 0
130 145 0
133 151 0
134 150 0
140 155 0
132 145 0
126 141 0
127 143 0
131 149 0
136 154 0
134 150 0
134 151 0
128 144 0
127 144 0
134 150 0
146 163 0
140 158 0
138 157 0
131 147 0
136 152 0
141 157 0
128 144 0
132 148 0
136 152 0
139 154 0
141 160 0
134 149 0
143 158 0
135 150 0
132 149 0
131 147 0
141 158 0
138 154 0
133 147 0
141 155 0
147 165 0
145 160 0
137 151 0
140 154 0
146 162 0
151 169 0
146 162 0
147 162 0
143 161 0
142 155 0
150 165 0
146 161 0
146 161 0
143 157 0
147 164 0
144 160 0
145 161 0
143 159 0
152 168 0
144 160 0
148 164 0
146 164 0
146 160 0
153 170 0
151 167 0
152 168 0
149 164 0
153 169 0
153 171 0
150 166 0
150 165 0
149 166 0
152 168 0
144 159 0
155 171 0
146 162 0
156 174 0
152 169 0
157 171 0
152 167 0
149 163 0
152 169 0
150 164 0
149 166 0
149 166 0
157 174 0
156 171 0
152 168 0
158 177 0
158 175 0
157 175 0
154 172 0
152 166 0
159 177 0
155 174 0
158 177 0
159 179 0
162 178 0
158 178 0
152 171 0
159 177 0
164 182 0
153 170 0
158 177 0
164 181 0
167 187 0
162 181 0
158 177 0
161 179 0
169 188 0
159 178 0
157 173 0
161 179 0
163 180 0
161 180 0
160 180 0
158 176 0
163 181 0
162 179 0
163 182 0
162 178 0
161 181 0
163 181 0
161 180 0
160 176 0
158 174 0
164 184 0
167 185 0
162 182 0
165 185 0
165 185 0
167 185 0
161 180 0
164 184 0
159 177 0
166 186 0
162 180 0
163 183 0
162 180 0
165 184 0
163 183 0
162 180 0
168 187 0
171 196 80
172 197 92
170 194 62
169 194 62
172 197 84
172 197 80
166 190 62
170 195 80
171 196 80
169 193 76
169 193 72
172 197 88
170 194 62
171 195 80
169 193 88
170 194 88
167 192 51
166 190 62
170 195 84
167 192 57
167 192 88
164 188 51
168 193 88
172 195 62
166 190 76
165 190 67
165 189 57
164 189 84
167 190 72
168 193 84
165 189 67
169 194 62
165 190 76
166 189 44
170 194 80
165 188 51
163 187 67
171 196 92
168 193 67
168 193 99
162 185 62
167 191 67
167 191 62
165 189 76
164 188 72
170 194 102
165 190 72
162 185 62
161 184 67
160 184 99
168 191 80
163 186 51
163 187 80
162 186 88
162 186 95
160 184 80
165 189 57
160 184 57
161 184 36
162 185 62
157 181 67
163 187 80
158 182 67
162 185 57
160 183 57
160 184 72
160 184 76
159 182 57
166 190 88
158 181 76
160 183 67
151 175 67
161 185 72
155 179 44
154 177 84
153 176 57
154 178 62
159 182 84
148 170 57
153 175 57
157 179 80
153 174 67
156 179 84
150 172 62
157 179 88
156 177 76
152 174 84
140 161 72
151 173 67
145 166 92
138 159 47
145 167 88
100 125 118
83 111 108
87 113 122
87 114 117
95 121 126
88 115 126
99 126 135
87 115 126
97 123 136
94 120 117
90 117 123
85 112 126
87 112 126
96 122 137
79 106 123
98 124 131
93 119 139
95 121 141
101 125 149
98 123 138
94 120 136
105 130 139
94 120 125
91 118 138
87 115 131
112 136 121
85 112 123
101 126 125
90 116 121
81 109 139
93 117 119
104 127 140
97 124 148
74 106 158
78 108 156
74 106 157
77 107 153
84 113 158
86 114 158
74 103 147
69 99 140
73 101 143
71 99 133
72 101 130
72 100 127
62 96 136
61 96 141
60 95 136
60 95 135
64 96 129
61 94 136
59 93 130
67 100 124
63 97 133
63 95 116
79 107 108
69 100 123
58 91 115
58 92 121
58 93 123
57 90 121
57 91 115
58 92 128
59 93 126
57 90 113
57 91 127
59 93 133
58 93 122
58 92 111
59 94 131
57 91 116
57 91 118
58 92 122
57 91 123
58 92 126
59 94 122
59 93 122
59 94 131
60 94 127
58 91 116
58 92 120
59 94 131
59 94 126
58 92 121
60 95 140
58 92 120
58 92 118
59 93 126
58 92 117
59 94 129
58 92 125
58 92 122
59 92 120
59 93 126
60 94 122
59 93 125
59 94 128
58 93 124
59 94 135
58 91 120
59 92 121
59 93 121
60 94 135
58 92 126
59 93 121
58 92 115
59 94 129
59 93 124
59 93 125
60 94 125
58 91 108
59 94 122
59 94 130
57 91 113
58 91 117
58 92 124
57 91 118
58 91 114
57 90 113
58 91 108
56 89 94
58 92 120
58 92 115
57 90 118
59 92 120
57 90 113
58 91 121
59 93 118
55 87 95
58 92 115
58 91 111
56 90 107
58 91 122
57 90 122
57 89 111
56 88 105
57 91 108
56 88 99
56 89 100
58 91 113
55 87 100
76 97 78
108 124 0
108 123 0
106 120 0
118 133 0
119 135 0
120 134 0
116 129 0
124 141 0
120 136 0
113 128 0
116 132 0
118 133 0
123 137 0
117 131 0
112 127 0
120 135 0
114 130 0
118 132 0
127 143 0
122 138 0
118 136 0
122 137 0
131 148 0
118 133 0
118 132 0
135 150 0
126 143 0
130 144 0
139 155 0
131 146 0
134 150 0
131 147 0
130 145 0
134 149 0
129 143 0
129 144 0
134 150 0
136 151 0
133 149 0
136 152 0
139 155 0
141 159 0
140 158 0
138 154 0
140 158 0
132 148 0
137 151 0
140 158 0
140 158 0
140 154 0
138 155 0
137 152 0
145 162 0
142 159 0
143 160 0
145 161 0
144 159 0
139 155 0
144 162 0
148 164 0
143 156 0
138 156 0
131 148 0
139 156 0
141 157 0
140 154 0
142 156 0
144 159 0
144 161 0
144 158 0
143 159 0
142 156 0
144 159 0
154 170 0
153 169 0
138 153 0
144 159 0
146 162 0
139 154 0
142 158 0
152 166 0
151 167 0
153 169 0
145 161 0
142 158 0
153 171 0
151 168 0
147 162 0
143 161 0
147 162 0
151 171 0
152 170 0
148 163 0
151 166 0
157 171 0
150 165 0
153 171 0
146 162 0
158 176 0
153 171 0
150 164 0
153 168 0
150 165 0
153 168 0
152 171 0
154 169 0
154 171 0
155 171 0
155 171 0
149 165 0
152 170 0
152 169 0
160 176 0
156 173 0
159 177 0
155 173 0
152 170 0
164 182 0
158 175 0
158 176 0
161 180 0
155 173 0
155 171 0
159 179 0
161 178 0
160 179 0
159 176 0
156 172 0
155 172 0
157 177 0
164 182 0
157 175 0
161 178 0
159 177 0
161 181 0
158 178 0
162 183 0
161 178 0
160 177 0
156 175 0
164 183 0
155 174 0
162 180 0
163 181 0
162 182 0
163 181 0
162 179 0
167 186 0
165 184 0
164 184 0
166 185 0
164 182 0
165 184 0
162 181 0
158 176 0
162 181 0
167 188 0
163 181 0
162 183 0
160 179 0
166 186 0
167 188 0
165 186 0
164 184 0
165 184 0
163 184 0
169 193 84
170 194 80
170 193 80
168 192 57
169 193 72
169 194 76
167 190 62
168 192 62
166 191 62
169 193 57
169 192 57
169 193 72
171 195 92
169 193 62
173 197 76
168 192 51
167 192 84
170 194 72
170 194 88
171 195 88
169 193 72
168 191 44
167 191 72
168 193 92
166 190 76
164 188 72
170 194 80
167 192 80
164 189 72
167 191 76
163 188 62
164 188 84
167 191 80
167 192 84
168 192 99
169 193 67
166 191 80
164 188 72
164 189 76
169 193 92
166 190 57
171 195 72
164 188 67
163 187 67
165 188 51
162 186 80
161 185 84
166 190 99
168 191 72
159 183 0
162 186 57
167 190 57
163 187 76
167 191 84
167 190 88
160 183 80
161 185 76
162 186 92
167 190 92
161 184 84
165 189 72
164 186 67
159 182 88
157 180 88
162 185 76
164 188 92
161 185 80
155 179 57
157 180 67
157 181 72
157 179 67
160 182 57
156 179 57
156 179 57
155 178 62
153 175 67
160 183 92
155 178 67
149 173 72
147 170 84
150 172 67
158 180 92
157 179 82
150 172 72
142 164 57
149 171 72
146 169 62
142 164 92
139 160 76
149 170 67
140 161 72
143 164 72
146 167 84
96 121 102
74 102 113
91 116 116
84 112 129
83 110 106
92 119 125
94 120 137
93 118 127
86 113 124
82 110 124
79 107 125
89 115 121
91 117 121
76 104 124
90 117 131
99 124 137
86 114 135
91 117 130
94 120 129
101 127 139
85 112 127
97 122 130
98 123 137
100 125 136
95 121 133
102 126 146
90 116 121
73 102 132
98 122 133
94 118 132
99 124 129
87 115 133
75 107 141
85 114 159
78 108 155
74 105 149
96 122 166
66 100 154
94 120 165
73 102 135
70 99 129
71 100 137
70 98 135
76 102 133
72 99 139
59 94 130
60 94 132
59 93 134
60 94 135
58 92 138
62 95 120
58 92 129
62 95 108
61 95 126
71 100 107
88 115 107
56 89 110
58 91 117
58 92 110
57 91 113
58 92 109
58 91 120
59 93 126
58 91 120
57 91 108
57 91 115
58 92 124
56 90 118
59 94 127
57 90 108
58 92 124
59 92 118
58 92 115
58 92 120
58 92 126
58 92 120
58 93 131
59 93 115
59 93 122
60 94 126
58 91 117
58 92 127
60 95 130
58 91 122
59 93 124
59 93 121
57 90 115
60 94 135
59 94 126
59 93 131
59 93 121
58 92 110
56 89 117
58 92 124
58 92 117
58 92 120
60 95 126
59 93 126
59 93 124
56 89 110
58 91 130
58 92 125
58 92 125
58 92 115
59 94 122
60 94 124
59 93 120
58 91 114
57 90 110
58 92 117
56 89 110
59 93 121
59 93 115
57 90 111
58 92 111
58 92 125
58 92 114
58 91 117
58 92 122
57 90 114
59 92 121
58 92 117
58 91 121
59 93 127
56 89 99
57 90 105
57 91 105
56 90 97
56 88 100
57 91 113
57 90 111
54 86 99
57 90 120
57 89 113
57 90 113
56 89 107
55 87 99
54 85 90
52 83 88
90 110 62
97 111 0
97 113 0
109 125 0
107 121 0
105 119 0
115 132 0
121 135 0
135 153 0
116 131 0
108 122 0
106 122 0
129 145 0
130 148 0
109 123 0
128 146 0
123 137 0
119 135 0
126 143 0
128 143 0
134 150 0
126 140 0
126 142 0
128 145 0
126 141 0
116 133 0
127 142 0
118 135 0
108 121 0
130 147 0
131 148 0
126 142 0
123 140 0
133 149 0
118 134 0
131 148 0
127 142 0
125 141 0
135 152 0
136 154 0
136 154 0
135 150 0
131 146 0
141 157 0
133 148 0
127 143 0
139 157 0
140 158 0
139 156 0
136 153 0
134 150 0
133 150 0
147 161 0
140 156 0
143 160 0
142 157 0
145 162 0
135 149 0
145 163 0
132 147 0
148 164 0
138 154 0
138 154 0
138 154 0
155 172 0
140 155 0
138 155 0
139 155 0
142 159 0
146 162 0
144 161 0
141 160 0
138 154 0
138 154 0
146 163 0
146 163 0
148 164 0
151 168 0
145 161 0
146 164 0
152 169 0
146 161 0
144 160 0
144 161 0
146 162 0
151 168 0
147 161 0
152 168 0
151 167 0
147 163 0
151 168 0
150 167 0
150 168 0
153 170 0
155 173 0
145 161 0
145 159 0
159 175 0
152 169 0
146 162 0
162 180 0
152 169 0
157 174 0
154 171 0
158 173 0
153 169 0
150 165 0
151 167 0
154 172 0
156 172 0
155 175 0
156 174 0
153 170 0
150 167 0
160 177 0
158 175 0
159 178 0
160 174 0
153 171 0
150 166 0
155 171 0
160 176 0
151 166 0
162 178 0
159 176 0
163 180 0
156 172 0
156 173 0
161 177 0
158 176 0
160 177 0
166 185 0
160 180 0
161 179 0
159 179 0
160 178 0
162 181 0
160 177 0
160 180 0
160 177 0
165 182 0
159 177 0
163 183 0
157 176 0
161 179 0
163 184 0
160 180 0
158 177 0
165 184 0
162 180 0
164 184 0
163 183 0
161 181 0
166 187 0
163 182 0
168 187 0
165 185 0
160 180 0
164 184 0
168 187 0
168 187 0
166 186 0
159 179 0
160 180 0
164 182 0
159 178 0
166 187 0
164 183 0
167 192 76
170 194 84
170 194 84
172 195 62
173 196 76
173 196 62
171 195 62
169 193 72
172 196 99
170 194 51
170 194 62
166 190 67
169 192 57
170 195 84
168 192 62
170 194 57
172 196 67
170 194 62
168 192 88
169 193 62
170 193 67
169 193 62
174 198 92
168 191 72
170 195 88
165 190 72
168 192 62
166 191 92
164 187 67
170 195 80
165 189 57
167 192 80
163 188 72
164 188 62
170 194 72
164 188 51
165 189 76
165 189 57
165 190 62
164 189 99
171 195 76
169 193 92
163 188 84
167 191 67
168 191 84
164 189 80
163 188 95
164 187 92
161 185 72
160 183 92
165 188 84
160 183 76
161 185 76
170 194 84
162 185 84
165 189 108
159 183 88
162 186 76
157 180 76
161 184 102
161 184 62
166 190 62
162 185 92
166 189 80
157 180 84
159 182 95
153 175 76
155 177 92
159 182 80
160 184 67
158 181 88
158 182 80
152 176 72
156 180 57
154 177 84
157 179 76
147 170 72
155 178 92
157 179 76
160 182 80
154 177 80
149 171 80
153 174 57
148 170 67
149 172 76
150 172 62
147 169 76
155 177 57
146 168 57
150 172 67
146 166 67
143 164 86
155 177 105
137 159 82
100 124 113
86 112 120
78 106 121
89 114 120
91 117 134
90 117 122
95 121 129
92 118 129
92 117 120
82 110 114
106 130 136
100 124 139
99 123 127
92 118 133
90 117 134
96 121 133
93 118 125
108 132 149
83 111 118
91 118 144
105 130 140
97 123 142
98 124 133
114 138 151
111 134 142
97 123 140
104 128 126
95 121 129
97 121 137
107 130 133
96 121 135
87 115 135
77 108 156
90 117 161
74 106 155
84 112 154
80 108 150
88 115 151
74 104 142
65 96 129
68 98 136
73 99 135
77 102 126
72 97 121
64 96 129
59 94 129
59 94 140
58 92 124
66 98 129
61 95 135
66 98 130
67 99 118
61 94 126
62 93 107
99 124 103
60 93 121
57 91 116
58 92 118
56 89 110
57 91 121
57 91 117
58 91 117
58 92 122
56 90 107
58 93 122
58 92 117
57 91 118
57 90 113
56 89 111
59 93 131
57 90 115
57 90 113
57 91 110
58 92 117
58 91 117
59 93 124
58 92 121
57 91 120
58 91 120
57 91 115
60 94 129
60 94 125
57 90 111
59 93 126
59 93 122
58 92 126
59 94 134
58 92 113
59 93 129
57 91 117
59 93 124
59 93 124
58 91 114
60 94 125
58 92 126
59 93 124
57 90 111
58 92 120
58 92 127
58 91 113
58 92 121
58 92 117
58 92 125
56 89 117
58 91 114
60 95 139
59 94 133
58 92 117
59 92 120
58 92 115
59 93 125
58 92 118
55 88 103
56 89 99
59 92 125
57 91 109
57 90 117
57 91 111
57 91 117
57 90 108
57 90 110
58 91 115
57 90 118
60 94 127
58 91 108
58 91 114
56 89 103
57 90 105
58 92 115
55 88 100
54 86 99
55 88 107
56 89 105
58 91 107
56 88 113
54 85 95
63 92 99
97 115 51
104 116 0
108 123 0
121 136 0
109 121 0
106 119 0
113 129 0
117 133 0
111 127 0
122 138 0
111 126 0
118 133 0
104 120 0
115 131 0
120 136 0
125 143 0
131 147 0
120 133 0
107 123 0
139 156 0
130 147 0
126 142 0
131 148 0
134 151 0
134 151 0
127 142 0
126 143 0
131 148 0
122 137 0
131 147 0
130 147 0
133 151 0
131 147 0
136 152 0
142 160 0
133 151 0
141 157 0
126 141 0
128 144 0
134 149 0
137 152 0
126 144 0
138 154 0
140 158 0
135 152 0
146 164 0
136 153 0
134 150 0
142 161 0
144 161 0
140 155 0
137 151 0
130 147 0
138 153 0
133 149 0
138 154 0
141 159 0
137 152 0
143 160 0
133 149 0
145 161 0
146 164 0
143 159 0
145 162 0
145 161 0
143 162 0
139 156 0
151 169 0
129 146 0
144 159 0
151 169 0
146 162 0
147 161 0
141 157 0
140 155 0
140 155 0
144 160 0
141 157 0
143 160 0
156 172 0
148 163 0
150 167 0
146 159 0
151 167 0
152 171 0
150 166 0
146 162 0
145 160 0
141 158 0
146 163 0
147 164 0
148 164 0
147 161 0
146 162 0
145 162 0
157 173 0
150 166 0
160 178 0
155 171 0
152 170 0
156 174 0
147 164 0
151 168 0
156 173 0
154 169 0
150 168 0
155 172 0
157 175 0
151 168 0
152 171 0
149 165 0
154 171 0
151 168 0
154 168 0
152 170 0
160 180 0
159 177 0
158 175 0
155 174 0
158 175 0
158 175 0
155 171 0
158 177 0
156 171 0
157 175 0
162 179 0
152 171 0
156 173 0
159 177 0
156 171 0
162 179 0
155 173 0
153 169 0
156 175 0
160 179 0
153 170 0
159 179 0
158 176 0
163 183 0
168 187 0
158 176 0
161 181 0
166 184 0
160 179 0
162 180 0
164 182 0
156 174 0
161 179 0
157 176 0
161 181 0
164 184 0
158 174 0
166 186 0
165 184 0
163 184 0
165 184 0
169 188 0
163 183 0
170 190 0
164 185 0
164 182 0
165 186 0
169 190 0
163 184 0
162 182 0
167 187 0
160 180 0
163 183 0
164 183 0
172 195 84
168 193 84
169 193 72
171 195 72
171 196 67
166 190 72
174 199 95
169 193 62
166 191 72
169 193 76
170 194 76
170 195 57
165 189 72
168 192 72
167 191 44
170 194 84
168 192 72
164 188 51
169 193 72
166 189 25
168 192 67
168 193 88
171 196 76
168 192 62
167 192 88
164 188 72
166 190 80
167 191 92
164 187 57
167 192 67
167 191 72
168 192 76
162 186 88
166 190 72
167 191 99
168 192 88
172 195 72
168 191 88
164 188 88
165 188 72
169 192 88
165 188 88
167 191 108
171 194 99
170 194 84
171 193 80
169 194 92
170 193 120
166 190 88
166 189 92
166 189 99
167 191 84
164 187 95
166 189 92
160 183 105
159 181 76
165 189 108
160 184 51
160 184 62
160 182 72
164 187 76
159 183 80
159 183 84
161 183 80
165 188 105
160 182 92
163 186 88
153 176 57
158 181 80
156 177 80
153 176 72
163 186 108
164 187 102
154 177 88
157 179 84
157 179 51
148 169 36
155 178 84
154 177 92
149 172 57
146 167 25
144 166 80
141 163 62
149 170 72
149 171 62
143 165 62
150 172 57
150 173 62
152 174 67
144 165 76
143 164 72
133 154 76
140 161 67
148 170 72
132 154 57
93 119 117
77 105 118
80 107 115
73 101 117
98 123 114
88 115 122
81 109 120
91 117 127
98 124 126
85 112 130
100 124 127
95 121 126
87 112 115
104 129 126
105 130 141
97 123 139
92 118 125
100 124 128
96 121 127
100 124 145
84 111 129
88 114 134
105 130 128
95 120 125
98 124 125
83 111 129
99 124 136
93 118 120
88 114 133
90 115 112
99 124 127
75 104 138
72 104 152
84 113 159
79 108 144
79 108 149
85 112 144
68 100 150
73 101 133
72 101 134
71 98 127
73 98 125
80 103 127
69 98 125
61 96 140
60 95 134
58 92 123
62 95 131
60 93 115
62 95 124
63 95 99
61 93 120
60 93 117
82 109 110
73 103 111
58 92 121
57 91 122
58 92 118
56 90 107
59 93 116
59 93 124
58 92 122
58 92 120
58 92 121
58 91 125
59 93 126
58 91 117
57 90 111
57 90 114
58 92 117
58 91 123
58 91 118
56 89 114
57 91 117
58 92 121
58 91 120
60 94 131
56 89 107
59 93 118
59 93 120
59 93 129
58 92 124
58 92 114
57 91 110
59 93 121
57 91 115
58 92 114
57 90 114
59 93 120
58 92 111
59 93 120
60 95 133
58 92 125
60 94 129
58 91 115
58 92 122
58 91 115
60 94 131
57 91 111
60 94 120
57 91 118
57 90 110
59 92 105
58 91 113
58 92 115
58 91 114
58 92 122
57 91 114
58 92 111
59 94 127
59 93 121
58 91 118
56 89 105
58 92 118
57 91 117
57 90 108
58 91 121
56 89 100
58 91 110
57 90 110
58 91 114
56 89 114
56 89 107
58 91 118
57 91 115
57 90 113
56 89 102
56 89 102
54 86 94
54 86 99
56 89 113
54 86 99
56 88 94
55 87 102
65 91 95
104 120 31
114 128 0
97 111 0
108 122 0
106 121 0
106 121 0
107 123 0
115 131 0
124 141 0
118 131 0
116 132 0
121 136 0
118 131 0
116 131 0
114 130 0
112 126 0
120 133 0
125 141 0
109 124 0
123 138 0
119 136 0
129 145 0
120 137 0
123 138 0
132 148 0
123 138 0
136 153 0
124 142 0
115 129 0
123 141 0
126 143 0
139 156 0
131 148 0
128 143 0
134 152 0
127 146 0
132 149 0
138 155 0
130 147 0
129 147 0
134 151 0
131 147 0
142 158 0
132 148 0
129 146 0
139 155 0
135 151 0
148 167 0
137 153 0
137 155 0
123 138 0
134 152 0
140 157 0
133 150 0
144 164 0
147 165 0
141 156 0
143 159 0
135 149 0
140 156 0
142 158 0
141 158 0
143 158 0
142 160 0
138 153 0
143 159 0
144 161 0
140 158 0
139 156 0
143 159 0
140 156 0
139 156 0
146 163 0
149 165 0
143 160 0
150 168 0
148 162 0
154 173 0
140 157 0
144 159 0
147 163 0
146 163 0
146 163 0
150 164 0
151 166 0
153 170 0
153 169 0
138 153 0
154 170 0
154 173 0
143 159 0
151 168 0
149 164 0
152 168 0
140 156 0
150 165 0
147 164 0
150 168 0
151 169 0
153 168 0
156 171 0
148 166 0
157 173 0
147 163 0
157 176 0
155 173 0
154 172 0
158 175 0
145 162 0
161 178 0
153 171 0
165 183 0
158 177 0
155 173 0
156 173 0
152 170 0
156 171 0
157 176 0
155 172 0
160 177 0
154 174 0
162 180 0
153 172 0
158 176 0
159 176 0
158 176 0
153 171 0
160 181 0
158 175 0
160 178 0
158 176 0
156 173 0
155 172 0
159 176 0
161 180 0
162 180 0
161 180 0
160 180 0
163 183 0
165 184 0
158 174 0
164 182 0
161 179 0
155 171 0
159 177 0
160 178 0
162 181 0
163 182 0
164 184 0
166 185 0
165 182 0
165 184 0
159 180 0
165 185 0
163 183 0
161 180 0
160 179 0
165 185 0
166 184 0
161 180 0
163 182 0
163 184 0
166 186 0
163 180 0
168 190 0
163 184 0
169 190 0
166 188 0
168 189 0
165 185 0
175 198 84
170 193 44
169 193 67
171 195 62
174 197 80
170 194 57
169 194 80
170 194 57
169 194 84
165 189 72
166 190 76
168 192 62
172 196 67
170 194 80
170 194 80
174 196 80
167 191 92
166 190 44
169 193 57
172 195 67
164 189 72
164 189 72
167 192 92
169 193 76
170 195 80
169 193 72
165 190 76
169 192 72
165 190 88
170 196 95
169 194 80
167 192 80
169 193 88
165 189 76
165 189 80
166 190 92
165 188 80
166 189 84
165 189 80
168 192 88
163 187 99
169 193 108
165 190 57
167 191 57
165 187 80
164 188 72
168 191 92
171 194 80
160 185 76
165 188 80
160 184 80
160 184 76
165 188 84
166 189 88
165 189 92
165 188 111
167 191 84
164 188 99
155 178 80
165 188 88
163 186 99
159 183 88
161 184 80
159 181 67
158 181 92
166 189 92
160 183 84
162 185 76
163 186 88
154 176 62
160 183 76
154 177 84
166 188 92
155 177 92
154 177 84
156 178 92
162 184 88
159 180 92
152 174 72
159 181 67
156 178 76
161 184 88
153 176 76
155 177 76
154 176 88
149 171 80
151 173 76
140 161 62
146 168 80
150 171 72
144 164 72
146 167 76
146 167 76
138 158 76
142 165 84
131 153 102
86 113 112
90 117 111
92 118 111
86 113 118
79 107 106
87 113 117
84 112 114
94 120 117
88 114 109
95 121 125
90 116 131
86 113 130
104 128 135
98 123 132
100 124 136
95 120 124
101 125 141
90 116 129
104 129 136
95 121 136
82 110 123
79 107 108
106 129 136
103 128 122
103 127 137
107 130 126
91 118 130
93 118 129
94 117 126
88 115 126
87 114 143
63 96 136
74 105 156
78 108 150
70 102 137
82 110 149
70 101 141
72 103 125
62 95 124
66 97 127
72 98 127
72 100 132
66 95 122
62 95 129
59 93 129
61 95 129
61 95 127
59 92 119
62 95 111
66 98 124
59 92 124
64 97 116
73 102 99
82 109 97
57 91 105
58 91 115
58 92 118
58 91 117
59 93 124
59 94 120
57 90 111
56 89 113
57 91 118
59 93 118
57 91 120
58 92 125
59 93 129
56 90 108
59 93 121
57 90 121
58 92 117
57 91 115
59 93 118
57 90 110
59 93 122
58 92 117
59 93 124
57 90 113
58 92 115
58 91 115
58 92 117
57 91 118
58 92 113
58 91 117
60 94 135
59 94 127
58 92 120
56 89 105
59 94 127
57 91 120
58 92 121
57 91 114
57 90 114
57 91 113
57 91 111
58 92 115
58 92 117
59 93 126
56 89 114
57 90 111
59 93 121
58 92 113
57 91 110
57 91 118
60 94 137
58 92 117
57 90 107
59 92 111
57 91 107
58 92 117
56 89 103
57 91 111
55 88 103
57 90 111
57 91 117
57 91 105
56 88 94
56 88 107
56 89 120
58 92 113
58 92 120
58 92 113
57 90 108
57 90 114
55 87 99
56 88 103
56 89 100
56 89 100
53 84 95
56 88 102
55 87 102
57 90 94
75 98 72
92 105 0
110 124 0
106 121 0
100 112 0
104 120 0
116 131 0
124 142 0
118 133 0
116 131 0
114 129 0
122 137 0
119 135 0
116 132 0
127 144 0
122 140 0
124 142 0
111 126 0
107 121 0
127 143 0
127 144 0
125 139 0
131 146 0
129 145 0
126 145 0
115 132 0
109 124 0
119 135 0
126 142 0
125 140 0
130 146 0
130 144 0
128 144 0
133 149 0
127 144 0
141 157 0
141 160 0
125 141 0
133 149 0
139 157 0
132 149 0
133 148 0
137 155 0
138 154 0
135 151 0
142 160 0
133 149 0
145 163 0
134 150 0
132 148 0
139 155 0
140 158 0
144 159 0
137 153 0
136 153 0
141 159 0
141 158 0
134 151 0
144 164 0
140 156 0
144 162 0
139 156 0
143 161 0
148 166 0
144 160 0
144 161 0
147 165 0
150 168 0
141 157 0
147 164 0
150 168 0
148 165 0
139 156 0
150 168 0
146 161 0
153 170 0
146 163 0
138 155 0
144 161 0
146 163 0
148 163 0
146 163 0
149 165 0
151 169 0
153 169 0
145 163 0
157 174 0
150 168 0
150 169 0
154 172 0
154 170 0
151 169 0
143 158 0
147 164 0
150 167 0
151 166 0
152 168 0
148 163 0
154 170 0
153 172 0
155 173 0
154 172 0
150 167 0
152 167 0
153 171 0
152 169 0
153 172 0
153 170 0
150 169 0
162 180 0
157 173 0
151 170 0
154 171 0
157 174 0
157 175 0
158 178 0
157 176 0
156 172 0
156 174 0
159 178 0
154 170 0
152 170 0
160 180 0
160 179 0
151 169 0
153 171 0
154 171 0
157 174 0
151 169 0
161 180 0
160 179 0
160 177 0
161 183 0
164 183 0
155 173 0
158 174 0
161 180 0
157 176 0
167 186 0
155 173 0
152 169 0
156 176 0
160 179 0
164 184 0
164 181 0
158 178 0
161 180 0
162 182 0
163 184 0
159 178 0
164 184 0
160 180 0
160 181 0
162 180 0
159 180 0
163 183 0
165 185 0
166 186 0
163 182 0
163 182 0
165 185 0
165 184 0
166 185 0
162 179 0
163 184 0
164 184 0
166 184 0
160 178 0
166 186 0
163 184 0
166 185 0
165 186 0
171 195 76
168 192 76
168 193 62
173 196 57
170 195 88
170 193 76
174 198 84
169 192 80
174 198 72
168 191 76
170 194 72
170 194 51
169 192 72
166 190 62
165 189 76
167 192 76
166 190 51
172 196 80
168 192 51
165 190 80
170 195 102
169 193 76
166 190 95
165 189 51
168 193 76
167 191 67
168 192 88
163 187 92
170 194 76
166 190 72
168 192 88
165 188 72
167 190 80
173 197 80
170 193 92
169 193 102
173 197 122
162 186 67
171 194 99
164 188 95
167 190 84
165 187 80
166 189 92
164 189 92
166 189 80
161 184 67
170 194 76
160 184 80
166 190 99
161 185 84
161 184 84
163 187 95
163 187 72
170 193 117
164 188 95
162 185 102
168 191 105
168 191 108
169 192 111
167 190 108
162 185 84
169 192 95
160 184 99
167 190 102
158 181 88
152 175 92
155 178 92
155 177 76
161 184 88
146 169 88
162 185 84
158 181 84
158 180 88
158 181 80
148 171 80
161 183 88
154 176 80
153 176 72
151 173 84
156 178 99
154 176 76
137 158 67
156 179 84
145 168 80
139 161 67
155 178 51
147 168 76
150 172 84
149 170 62
144 165 76
143 165 62
148 168 80
138 160 88
143 165 72
146 166 76
144 165 95
113 136 82
89 114 102
98 123 133
103 128 124
95 120 126
89 114 117
98 123 129
92 117 118
94 119 125
89 115 121
94 120 129
95 120 123
88 115 123
106 129 146
95 120 132
83 109 122
100 126 143
96 122 137
97 122 128
84 110 126
86 112 134
107 131 129
91 117 120
102 126 147
98 124 128
94 119 133
106 129 121
89 116 135
92 117 130
104 128 131
100 124 148
85 111 141
77 108 154
75 106 145
85 113 150
83 111 149
88 115 145
75 106 131
67 99 133
70 98 119
71 99 130
73 99 118
73 99 120
62 91 118
59 92 118
60 95 135
61 95 130
61 94 120
59 91 120
62 94 125
75 104 105
64 94 110
75 104 109
93 119 95
59 93 117
58 92 118
56 89 110
58 91 109
59 93 117
56 89 114
59 92 122
60 94 134
59 92 120
57 91 114
57 91 114
58 92 115
59 93 124
57 90 108
58 92 118
56 88 108
58 91 116
58 92 118
58 92 117
58 91 111
58 92 117
57 91 108
57 91 124
56 89 117
59 93 125
57 90 113
58 92 118
59 93 111
57 90 103
58 92 114
56 89 113
59 93 120
58 92 111
58 92 118
57 91 111
57 91 115
59 93 124
58 91 119
59 92 124
58 92 118
57 90 114
59 94 121
59 93 126
58 92 122
57 91 115
57 90 108
57 90 114
57 91 118
57 90 117
58 92 118
56 90 110
59 93 120
58 91 114
57 90 108
58 92 118
57 90 110
57 90 117
57 91 111
58 91 103
58 92 111
58 91 111
56 89 107
56 89 107
58 91 118
58 91 118
57 90 113
56 89 110
56 88 102
57 90 105
54 86 94
56 89 102
53 86 84
54 86 86
55 88 105
52 82 100
54 86 95
58 87 84
93 113 57
108 121 0
107 121 0
116 129 0
101 115 0
112 128 0
96 110 0
116 131 0
110 125 0
102 117 0
108 125 0
116 130 0
117 134 0
110 125 0
125 142 0
119 136 0
107 122 0
114 131 0
122 136 0
121 138 0
122 136 0
124 140 0
129 145 0
118 135 0
118 135 0
115 131 0
125 141 0
136 153 0
128 145 0
128 145 0
118 133 0
120 138 0
135 153 0
126 143 0
127 142 0
131 151 0
140 157 0
134 150 0
128 145 0
136 155 0
130 148 0
136 154 0
141 159 0
136 156 0
133 147 0
153 172 0
143 160 0
146 162 0
139 156 0
133 149 0
140 157 0
132 148 0
142 159 0
126 142 0
143 158 0
147 164 0
141 160 0
140 157 0
141 159 0
146 164 0
140 158 0
137 155 0
151 169 0
144 163 0
141 158 0
142 158 0
141 158 0
137 153 0
140 158 0
147 164 0
148 162 0
146 160 0
139 157 0
150 168 0
142 160 0
143 161 0
145 160 0
145 162 0
148 167 0
147 165 0
143 161 0
148 164 0
141 159 0
153 171 0
154 172 0
143 160 0
150 167 0
147 164 0
153 170 0
153 170 0
143 161 0
146 160 0
149 165 0
152 170 0
150 165 0
153 169 0
145 162 0
156 173 0
158 175 0
148 165 0
154 170 0
143 159 0
150 167 0
160 178 0
155 173 0
156 176 0
162 180 0
154 173 0
151 169 0
150 167 0
156 174 0
159 176 0
154 173 0
156 174 0
159 178 0
154 172 0
157 174 0
160 177 0
157 173 0
156 175 0
152 171 0
158 174 0
162 179 0
155 175 0
159 176 0
157 177 0
159 179 0
154 171 0
164 182 0
153 170 0
161 178 0
156 173 0
160 178 0
157 174 0
163 181 0
161 179 0
161 179 0
166 184 0
162 182 0
164 186 0
160 177 0
158 175 0
164 182 0
162 180 0
160 179 0
166 187 0
161 180 0
161 179 0
157 177 0
165 184 0
159 176 0
164 183 0
159 178 0
159 177 0
164 183 0
165 184 0
162 181 0
163 183 0
166 185 0
162 181 0
161 181 0
164 184 0
164 184 0
162 181 0
161 182 0
160 181 0
166 185 0
165 185 0
167 187 0
162 181 0
166 186 0
165 187 0
162 184 0
171 196 72
169 193 80
169 193 88
169 193 62
167 191 72
171 195 80
172 195 67
169 193 76
173 197 76
170 195 76
169 193 57
172 196 80
170 195 84
166 191 67
170 194 67
166 191 80
169 193 67
171 195 80
170 195 84
167 191 67
169 192 51
162 187 72
164 188 62
166 191 62
169 193 72
169 193 92
162 186 84
173 196 99
169 193 88
167 191 76
173 198 84
166 190 72
169 192 80
168 191 76
166 191 84
172 196 92
166 191 92
168 193 105
165 188 72
169 193 88
168 191 111
167 191 95
172 196 92
163 187 80
167 190 84
169 192 88
164 188 88
170 192 108
168 192 88
159 183 88
170 192 105
168 192 114
167 191 111
170 192 122
166 189 99
170 193 108
165 188 95
163 186 84
164 188 117
164 187 92
169 192 105
167 190 95
157 180 88
161 183 105
174 195 102
167 189 111
160 183 84
158 181 99
164 186 95
161 184 88
168 190 80
161 184 95
157 180 88
162 185 88
153 177 102
157 179 88
159 181 80
160 182 92
158 181 88
146 168 67
145 167 80
150 172 84
151 173 72
139 161 76
153 176 80
147 168 84
143 165 57
145 168 57
147 169 80
158 180 84
137 159 63
144 166 67
148 169 80
139 159 62
142 162 67
138 159 51
145 164 95
119 142 113
99 124 120
91 117 118
92 117 120
96 122 124
84 111 107
93 118 97
95 121 129
87 112 113
87 113 126
96 122 127
95 120 120
91 117 127
100 124 142
89 114 126
93 119 121
101 125 126
108 132 134
106 129 127
101 126 127
98 122 136
94 120 122
99 124 131
96 121 113
102 127 143
96 121 108
107 130 117
87 111 121
99 120 105
93 119 143
118 130 116
79 108 141
80 108 153
67 99 142
77 107 147
88 114 145
68 102 139
72 104 133
71 101 120
68 97 124
61 93 122
69 98 121
70 96 113
66 95 128
61 94 124
59 94 136
64 97 130
62 95 118
57 91 110
68 98 105
58 90 104
60 92 113
89 115 98
69 100 113
56 89 117
57 90 113
56 88 99
56 89 90
57 90 108
58 92 114
57 91 115
57 90 115
58 92 118
58 91 120
59 93 120
57 90 116
56 89 115
57 91 103
55 88 101
59 93 120
58 91 113
57 90 120
59 93 129
58 92 113
59 93 124
58 91 117
57 91 113
58 92 120
59 93 126
59 93 122
56 89 115
58 92 124
59 93 120
58 91 124
58 92 122
58 91 113
55 88 99
57 91 111
59 93 124
58 91 120
55 88 113
56 88 102
58 91 117
58 91 120
58 92 118
57 90 118
57 91 113
55 88 108
57 91 118
59 94 121
59 92 122
57 89 115
58 92 108
58 91 100
56 90 102
58 91 126
57 91 111
57 90 108
57 90 111
57 90 107
58 92 113
54 86 94
55 88 99
56 89 102
57 90 120
55 87 90
55 87 107
57 90 111
55 87 95
56 89 97
53 85 90
57 90 108
54 86 95
56 90 107
55 87 103
53 85 95
56 88 92
51 82 95
67 91 54
104 121 31
106 120 0
112 128 0
101 116 0
109 122 0
115 131 0
117 133 0
109 126 0
124 139 0
109 124 0
116 131 0
112 127 0
99 115 0
120 134 0
113 128 0
120 137 0
116 131 0
123 140 0
117 133 0
127 145 0
117 133 0
117 135 0
115 129 0
123 141 0
111 127 0
125 140 0
124 140 0
130 148 0
114 131 0
121 140 0
130 147 0
132 149 0
122 140 0
146 164 0
135 149 0
134 153 0
131 147 0
129 146 0
125 141 0
125 141 0
126 142 0
136 155 0
136 153 0
138 156 0
140 156 0
132 150 0
132 148 0
131 148 0
123 139 0
136 155 0
140 156 0
135 152 0
143 162 0
133 152 0
143 162 0
137 157 0
138 153 0
138 154 0
138 154 0
142 160 0
141 158 0
147 166 0
145 163 0
139 158 0
147 165 0
148 164 0
141 157 0
148 166 0
147 166 0
143 160 0
145 163 0
143 160 0
140 155 0
142 161 0
143 159 0
147 164 0
148 166 0
147 166 0
144 159 0
148 165 0
144 162 0
148 165 0
154 172 0
148 165 0
153 170 0
146 162 0
142 159 0
156 174 0
140 156 0
151 169 0
143 160 0
144 161 0
150 166 0
155 173 0
150 170 0
146 162 0
150 169 0
144 162 0
156 174 0
152 170 0
156 173 0
150 168 0
150 170 0
158 176 0
155 173 0
152 170 0
150 169 0
152 168 0
150 169 0
153 172 0
156 172 0
155 174 0
156 173 0
153 172 0
154 171 0
158 175 0
151 170 0
156 174 0
151 168 0
151 168 0
164 182 0
162 179 0
156 173 0
163 179 0
158 178 0
154 172 0
161 180 0
155 173 0
160 177 0
156 173 0
158 178 0
156 175 0
160 180 0
161 178 0
154 173 0
167 187 0
156 172 0
160 180 0
167 187 0
161 180 0
160 177 0
160 177 0
166 186 0
155 174 0
164 183 0
165 185 0
168 188 0
163 182 0
165 185 0
162 182 0
162 182 0
165 185 0
159 176 0
162 183 0
156 174 0
159 176 0
160 180 0
167 186 0
162 180 0
165 184 0
164 181 0
164 185 0
162 181 0
164 183 0
161 179 0
163 183 0
166 186 0
165 185 0
169 189 0
162 182 0
161 180 0
163 185 0
166 187 0
170 189 0
167 191 57
167 192 67
171 195 67
169 193 84
167 191 62
168 191 44
167 191 62
171 195 62
168 192 72
171 194 76
168 191 57
166 190 62
166 190 67
170 194 92
171 196 88
169 193 62
167 192 99
168 193 92
168 192 80
166 190 51
167 191 67
169 193 88
166 190 84
169 193 84
170 194 80
166 190 67
169 193 84
172 196 95
169 193 95
170 193 84
169 193 67
167 192 76
168 191 102
172 196 92
168 191 99
167 190 84
166 189 80
171 194 92
171 194 108
168 191 99
170 194 105
170 192 120
171 194 111
172 195 120
175 198 105
164 188 80
169 192 105
167 190 99
164 186 88
164 187 76
167 189 72
168 190 84
157 180 80
166 188 102
169 191 99
158 180 95
163 187 95
163 186 114
163 186 102
162 185 99
164 187 88
165 188 76
162 185 92
165 187 95
163 185 102
166 189 95
159 182 105
165 188 117
154 176 95
162 184 102
169 191 102
162 184 114
161 184 84
156 178 99
152 174 72
159 182 80
153 176 92
150 172 99
154 177 76
153 175 76
152 174 92
154 176 92
148 169 80
154 175 92
146 168 88
151 172 67
161 183 95
137 159 76
154 176 90
152 173 88
143 165 88
143 165 57
146 165 84
151 172 72
141 162 76
132 151 67
134 154 62
136 157 62
115 137 92
86 112 107
93 118 122
83 108 94
96 122 135
79 106 118
85 112 120
80 108 125
87 112 109
85 111 125
104 127 141
94 120 137
99 124 122
98 123 135
91 117 135
93 119 126
94 119 130
112 136 131
101 126 139
106 129 149
113 135 129
107 131 131
113 137 143
107 130 145
110 133 127
97 121 129
92 118 130
78 105 117
94 119 129
109 124 113
112 122 106
76 105 140
77 106 150
89 116 163
74 104 136
72 104 135
69 102 144
77 108 134
68 98 110
65 95 122
68 97 122
68 95 119
67 94 123
65 93 115
59 94 126
61 94 117
66 98 117
61 93 107
61 94 120
58 91 102
58 88 97
98 123 91
86 113 89
56 89 107
58 91 117
55 88 107
58 91 112
56 88 114
58 91 113
56 89 110
55 88 115
57 91 100
55 87 103
57 90 113
58 92 113
58 92 119
58 92 113
58 92 118
57 90 115
58 92 118
57 90 113
56 89 115
58 92 122
58 91 110
57 91 120
57 91 120
57 91 117
56 89 118
56 89 102
59 93 114
58 92 121
57 90 105
57 91 110
57 90 111
56 89 105
59 93 122
59 93 125
58 92 118
57 90 111
59 94 127
58 92 110
59 94 121
58 93 115
57 90 113
57 90 114
57 90 117
57 90 108
58 92 120
58 92 110
58 92 114
54 87 103
57 90 107
58 92 114
56 89 105
58 92 122
55 88 111
56 89 99
58 92 114
58 92 120
56 89 108
57 89 113
57 90 113
56 89 99
57 90 113
58 92 113
57 90 108
57 90 107
56 88 88
56 88 105
57 89 107
56 88 100
54 85 103
55 87 100
56 88 114
54 86 90
59 88 99
83 102 44
102 117 0
102 116 0
109 124 0
106 121 0
104 119 0
115 131 0
118 131 0
104 119 0
104 118 0
118 134 0
106 123 0
108 124 0
121 137 0
115 131 0
125 141 0
121 137 0
117 132 0
113 128 0
121 138 0
126 143 0
119 134 0
128 145 0
130 147 0
123 140 0
122 139 0
119 136 0
125 142 0
126 142 0
125 140 0
135 154 0
139 155 0
124 142 0
135 150 0
135 153 0
130 146 0
126 143 0
134 152 0
134 151 0
134 151 0
122 139 0
135 154 0
130 147 0
131 149 0
137 154 0
133 148 0
128 144 0
131 146 0
137 154 0
134 149 0
140 157 0
145 163 0
140 159 0
144 160 0
147 164 0
138 155 0
140 156 0
139 156 0
141 159 0
144 162 0
139 156 0
137 154 0
143 159 0
139 156 0
138 157 0
130 147 0
135 149 0
145 162 0
144 163 0
143 160 0
137 152 0
148 164 0
151 170 0
141 159 0
143 160 0
138 154 0
151 167 0
154 175 0
149 168 0
145 164 0
149 166 0
149 167 0
145 164 0
143 160 0
144 161 0
143 161 0
148 166 0
146 162 0
148 166 0
154 174 0
148 165 0
145 163 0
149 165 0
154 174 0
150 167 0
150 166 0
149 163 0
151 168 0
151 169 0
153 169 0
150 165 0
155 172 0
154 172 0
155 174 0
149 166 0
154 174 0
150 168 0
157 176 0
156 174 0
155 171 0
158 177 0
158 178 0
159 179 0
158 177 0
156 175 0
156 175 0
156 172 0
153 172 0
159 179 0
154 171 0
156 174 0
158 176 0
158 178 0
153 170 0
157 175 0
157 175 0
160 177 0
154 171 0
152 172 0
156 173 0
152 169 0
154 174 0
153 170 0
160 176 0
161 180 0
161 179 0
159 176 0
160 179 0
159 179 0
160 179 0
161 181 0
164 184 0
163 182 0
164 184 0
165 184 0
160 179 0
159 177 0
162 180 0
162 183 0
162 181 0
168 188 0
157 178 0
162 180 0
166 186 0
162 183 0
163 180 0
158 179 0
161 180 0
161 182 0
161 181 0
166 186 0
163 182 0
163 183 0
162 182 0
163 182 0
159 177 0
162 182 0
163 185 0
163 184 0
167 188 0
161 181 0
165 185 0
165 185 0
164 184 0
160 181 0
164 185 0
169 194 80
169 193 67
169 193 25
170 194 72
172 196 88
171 195 76
168 192 72
170 194 76
173 195 44
165 189 76
167 190 72
168 192 72
168 192 67
170 194 62
168 192 57
168 193 84
166 191 95
165 188 44
169 194 92
162 186 88
164 188 76
168 191 57
172 195 92
167 191 76
169 193 88
171 195 108
167 191 88
167 190 72
172 195 92
172 195 95
174 198 84
170 195 92
169 192 95
173 195 105
170 193 95
170 193 102
166 190 84
166 190 105
167 190 99
172 195 111
169 192 105
170 194 99
170 192 80
165 189 92
160 183 72
172 195 117
166 189 108
167 190 108
162 187 95
167 190 105
172 194 108
167 190 108
167 191 108
169 192 105
168 191 120
166 188 105
163 187 102
166 189 67
167 190 102
166 189 108
161 183 88
163 185 67
160 181 105
160 183 102
161 184 99
173 196 114
166 188 108
160 183 72
154 176 84
163 185 102
160 182 84
157 180 105
161 183 67
153 176 80
159 182 92
159 181 99
161 183 111
161 183 95
159 180 95
160 182 92
149 170 99
150 172 84
151 173 84
155 177 105
150 171 62
145 165 80
147 168 88
147 169 84
146 167 88
142 164 72
153 175 80
141 162 51
143 164 80
147 168 72
137 157 76
144 165 80
143 164 72
137 157 72
138 157 78
117 138 100
84 109 102
93 117 100
93 117 122
95 120 131
94 118 103
86 114 105
87 114 120
85 110 115
82 110 122
82 109 116
87 114 118
93 118 127
95 120 137
96 120 121
90 116 134
111 134 133
110 132 117
99 123 134
102 126 126
92 118 138
105 130 136
102 127 113
100 125 135
114 137 129
108 131 119
87 113 124
88 114 120
83 112 142
147 144 90
72 101 132
77 107 142
80 109 149
71 102 140
76 107 134
68 101 134
78 108 118
74 104 118
70 100 123
70 98 118
71 98 128
63 91 103
65 93 120
64 96 118
66 97 111
64 96 119
70 99 113
69 100 114
60 94 124
61 93 118
94 119 82
93 118 98
56 89 103
56 89 108
57 91 111
56 88 110
56 89 105
57 90 102
56 89 117
56 90 105
57 90 110
56 89 107
56 88 115
58 91 120
57 91 115
57 90 117
54 87 92
55 88 100
55 88 96
57 90 114
59 93 122
57 90 111
56 89 114
57 91 114
55 88 94
57 91 111
57 90 107
58 91 114
59 92 114
58 91 124
57 91 111
56 89 105
57 89 100
58 92 117
57 90 114
58 92 108
58 92 129
57 90 110
57 90 110
58 91 108
57 91 108
59 93 122
58 91 108
57 90 108
56 89 107
58 92 122
56 89 107
56 88 108
57 90 110
57 90 114
57 90 112
56 88 108
59 92 120
58 92 117
57 90 115
56 89 100
56 90 105
55 88 110
57 91 108
56 90 107
55 87 92
56 89 100
55 87 100
57 89 100
54 85 92
54 86 102
56 88 111
54 86 90
56 88 99
53 85 90
53 85 88
52 83 86
54 86 97
69 94 80
101 118 25
106 120 0
95 110 0
103 117 0
94 110 0
109 123 0
106 120 0
98 115 0
98 115 0
110 127 0
116 130 0
113 127 0
110 125 0
114 128 0
120 136 0
118 134 0
122 139 0
114 131 0
116 133 0
121 136 0
129 147 0
124 142 0
124 140 0
136 153 0
117 131 0
135 152 0
120 137 0
128 145 0
118 134 0
135 150 0
133 150 0
132 150 0
121 139 0
116 133 0
112 129 0
131 149 0
132 150 0
131 149 0
133 149 0
134 151 0
133 151 0
141 159 0
141 160 0
132 151 0
139 158 0
132 150 0
127 143 0
141 159 0
136 154 0
132 149 0
134 153 0
147 163 0
133 151 0
140 159 0
135 153 0
138 156 0
141 158 0
142 159 0
147 166 0
141 159 0
139 156 0
139 155 0
129 148 0
141 158 0
145 163 0
144 162 0
147 164 0
147 165 0
137 155 0
141 158 0
140 156 0
141 159 0
145 163 0
137 154 0
145 161 0
147 165 0
148 165 0
149 169 0
142 159 0
146 164 0
150 166 0
145 160 0
154 172 0
145 162 0
153 172 0
148 166 0
155 172 0
149 167 0
153 169 0
149 166 0
150 167 0
144 161 0
159 178 0
150 167 0
152 170 0
144 160 0
150 168 0
144 161 0
154 171 0
146 164 0
153 170 0
156 175 0
145 164 0
150 168 0
156 176 0
160 178 0
151 169 0
154 171 0
150 171 0
151 170 0
156 172 0
151 168 0
153 172 0
149 168 0
158 178 0
155 173 0
153 172 0
160 179 0
156 175 0
159 176 0
163 183 0
156 174 0
157 176 0
154 173 0
155 174 0
158 176 0
160 178 0
161 180 0
151 167 0
160 180 0
162 181 0
162 180 0
159 176 0
147 164 0
153 172 0
162 181 0
155 173 0
162 182 0
154 172 0
159 178 0
154 172 0
160 180 0
164 184 0
160 179 0
168 188 0
160 178 0
162 180 0
165 187 0
162 183 0
162 182 0
161 179 0
164 183 0
163 183 0
160 179 0
163 182 0
160 180 0
162 182 0
164 183 0
163 183 0
155 175 0
163 183 0
165 183 0
162 182 0
164 184 0
163 185 0
167 188 0
165 184 0
166 186 0
164 183 0
163 184 0
166 187 0
163 183 0
160 182 0
161 178 0
168 190 0
168 190 0
164 185 0
168 193 76
171 195 76
170 194 76
168 193 67
172 196 84
171 196 99
167 191 67
173 198 105
170 194 84
171 195 51
170 194 57
172 196 76
163 188 67
168 193 84
169 193 76
172 195 44
168 191 51
170 194 67
169 193 95
166 190 62
170 194 95
168 192 80
171 194 80
170 194 76
170 194 80
169 193 84
169 193 76
168 192 67
168 192 111
163 186 76
172 196 76
166 190 95
172 195 102
175 197 105
177 200 125
168 191 99
167 190 95
163 186 84
164 187 84
170 193 111
171 194 102
167 190 92
169 191 92
166 188 99
171 193 95
166 189 102
168 191 95
160 182 111
163 187 84
168 191 95
173 195 102
162 186 92
170 192 88
165 189 88
163 186 99
166 188 99
168 191 95
162 184 102
166 189 88
164 187 102
162 185 108
168 191 120
169 191 102
164 187 84
161 184 84
163 187 84
155 179 92
152 175 80
159 181 72
161 183 80
159 182 105
163 185 88
162 185 105
154 175 102
155 177 84
165 187 108
155 176 99
155 175 99
150 172 80
158 179 95
156 178 99
156 176 88
153 175 76
144 166 80
152 174 95
152 174 105
146 168 80
146 167 95
144 165 84
156 177 102
144 164 57
148 168 80
139 159 67
133 155 67
142 163 67
137 157 62
144 164 80
142 162 72
142 162 76
132 151 84
103 125 95
89 116 125
79 107 113
87 112 117
89 114 108
95 119 118
93 118 109
108 132 124
86 111 107
94 119 120
103 127 132
85 112 129
96 121 124
93 118 115
105 129 145
96 121 124
107 130 137
96 121 125
99 123 132
103 127 122
106 130 127
89 115 115
114 137 131
104 129 125
104 129 107
89 114 119
89 115 118
88 115 131
113 123 115
133 132 82
84 110 145
91 117 150
74 104 135
70 102 125
75 107 126
75 106 129
75 107 135
71 103 130
82 108 109
68 96 111
66 96 124
71 95 113
62 94 120
56 89 110
65 97 120
57 90 110
63 95 111
62 94 114
62 95 108
79 107 102
96 121 93
62 93 103
56 89 115
57 91 111
55 88 108
55 88 101
57 91 107
58 91 115
57 90 113
57 89 110
56 89 113
57 90 108
56 90 102
58 92 113
58 92 120
56 89 107
55 88 100
57 90 103
58 91 108
57 90 107
58 91 114
56 89 111
55 87 110
59 93 122
58 92 120
55 88 102
57 90 108
57 90 107
56 89 107
57 89 115
56 89 110
57 90 110
57 91 110
57 91 113
56 89 105
57 91 105
57 90 110
57 91 105
59 93 125
58 92 120
57 90 115
57 90 114
57 91 105
56 89 108
56 89 108
57 90 113
56 89 107
56 88 107
56 88 99
56 88 103
55 88 102
57 91 103
57 90 110
56 89 110
56 89 114
55 87 99
56 88 108
55 88 102
55 87 90
55 87 92
58 91 110
54 86 92
55 87 108
53 84 84
55 87 94
56 89 102
55 88 102
56 89 107
54 86 94
55 87 103
65 93 80
83 101 51
96 110 0
96 111 0
109 125 0
110 126 0
112 127 0
113 128 0
98 114 0
105 118 0
114 129 0
111 126 0
101 118 0
110 126 0
119 134 0
112 129 0
112 128 0
125 142 0
121 135 0
112 126 0
119 135 0
125 140 0
120 136 0
122 139 0
128 143 0
124 139 0
125 141 0
125 141 0
115 131 0
125 142 0
131 149 0
127 144 0
126 142 0
128 145 0
134 151 0
117 133 0
126 143 0
123 139 0
140 158 0
126 143 0
130 146 0
130 148 0
125 142 0
133 151 0
131 147 0
138 155 0
130 147 0
138 156 0
132 148 0
129 146 0
142 158 0
142 160 0
136 155 0
132 152 0
144 160 0
131 148 0
146 166 0
146 164 0
144 164 0
137 154 0
142 159 0
143 161 0
145 162 0
146 165 0
151 169 0
152 169 0
149 167 0
152 171 0
140 157 0
140 158 0
144 160 0
145 161 0
146 164 0
144 163 0
142 160 0
144 163 0
149 168 0
146 164 0
139 156 0
147 164 0
144 161 0
139 155 0
147 166 0
147 164 0
149 167 0
151 169 0
154 173 0
146 162 0
144 162 0
149 166 0
153 171 0
150 169 0
151 170 0
157 175 0
142 160 0
154 172 0
149 168 0
149 167 0
152 170 0
150 166 0
157 175 0
148 167 0
153 172 0
142 157 0
152 170 0
155 172 0
154 171 0
152 170 0
156 175 0
161 181 0
147 163 0
151 168 0
157 175 0
143 158 0
150 169 0
145 163 0
157 175 0
152 170 0
151 168 0
153 170 0
157 177 0
158 177 0
151 169 0
154 171 0
155 171 0
159 177 0
158 176 0
160 179 0
154 171 0
155 176 0
156 176 0
160 180 0
161 180 0
164 182 0
153 171 0
157 175 0
153 171 0
166 184 0
159 179 0
159 178 0
161 180 0
158 177 0
160 178 0
162 182 0
166 185 0
159 176 0
161 182 0
156 176 0
162 182 0
163 183 0
163 183 0
162 181 0
162 181 0
164 183 0
158 177 0
165 186 0
162 181 0
163 184 0
163 181 0
163 181 0
166 188 0
164 183 0
163 179 0
161 182 0
167 186 0
165 184 0
166 187 0
167 187 0
164 184 0
163 183 0
167 187 0
167 187 0
163 184 0
167 187 0
165 184 0
164 185 0
164 185 0
166 187 0
167 188 0
164 184 0
171 196 84
174 197 57
172 196 62
173 196 62
168 192 57
169 193 67
165 190 67
169 193 44
172 196 88
170 194 80
169 195 80
167 191 95
168 192 67
167 192 72
170 194 88
169 192 57
169 192 84
171 193 95
168 192 72
172 196 99
169 192 84
173 196 99
170 195 102
170 193 84
169 192 76
171 194 95
171 195 111
173 197 92
162 186 95
165 188 95
174 197 102
167 191 88
169 192 92
170 194 105
170 193 95
172 195 95
167 190 80
171 194 95
175 197 102
165 189 99
175 198 105
168 192 95
169 192 102
167 190 95
168 191 92
168 192 102
168 191 102
170 194 130
168 190 111
164 188 95
158 183 80
163 185 102
170 192 95
166 188 114
172 194 111
161 184 84
163 186 80
164 186 92
167 191 88
162 185 99
158 181 99
163 186 95
161 184 84
160 184 105
167 189 114
159 181 80
167 190 108
166 188 111
155 178 92
166 188 102
166 188 99
158 181 102
160 181 102
145 167 92
170 192 127
159 181 88
150 173 88
154 176 92
155 178 95
152 173 72
148 170 108
156 177 111
157 179 88
152 173 99
147 169 84
154 176 102
144 166 76
144 165 80
152 174 80
152 173 95
146 166 80
143 165 57
134 153 72
141 162 72
143 164 80
153 173 95
135 155 76
145 165 95
133 152 62
143 163 76
129 148 60
100 122 92
92 117 101
95 120 105
91 116 115
82 109 113
87 112 102
106 129 122
90 115 117
103 127 120
97 123 118
91 116 111
92 118 115
82 109 123
77 105 118
100 124 128
76 104 103
101 125 125
100 124 133
87 114 118
86 112 130
98 123 133
109 133 129
93 119 109
107 131 133
110 132 121
91 116 125
86 112 125
102 117 102
142 139 83
110 115 84
77 107 147
83 111 137
73 103 131
68 100 125
73 104 126
71 101 108
75 105 125
69 100 120
76 105 113
72 97 110
76 98 113
67 94 108
60 91 108
60 92 113
63 96 113
68 98 110
59 92 106
64 95 108
79 106 95
98 122 94
72 100 102
55 87 107
56 88 108
56 89 107
56 89 103
56 89 110
57 90 109
58 92 122
55 88 100
57 91 113
56 89 107
57 90 114
58 91 122
58 92 110
57 91 114
57 91 108
55 87 110
57 90 110
56 89 97
54 86 102
57 91 107
58 91 115
59 93 114
56 88 100
55 87 97
57 91 107
57 91 107
57 90 113
56 90 110
56 89 97
58 91 113
57 90 111
56 89 111
56 90 102
57 90 94
59 92 115
59 92 117
57 90 110
58 91 100
57 90 103
59 93 127
57 90 105
56 90 107
57 90 114
57 90 114
55 87 102
56 89 99
56 89 103
57 90 111
57 91 115
57 91 114
57 91 111
56 89 105
55 88 99
55 87 95
56 88 102
53 85 97
54 85 97
55 89 95
55 87 99
56 89 102
56 88 108
55 88 95
56 89 103
54 85 103
55 87 97
54 85 102
54 85 100
71 91 54
89 103 0
106 122 0
107 121 0
103 120 0
105 119 0
106 122 0
106 121 0
107 123 0
115 129 0
108 124 0
100 117 0
113 128 0
109 125 0
123 140 0
109 123 0
117 134 0
112 128 0
107 124 0
104 119 0
117 134 0
127 144 0
122 140 0
123 138 0
114 130 0
128 145 0
119 137 0
112 129 0
121 138 0
114 131 0
117 135 0
124 141 0
127 142 0
122 140 0
125 143 0
123 142 0
123 140 0
134 150 0
130 148 0
135 153 0
116 133 0
130 149 0
131 149 0
139 158 0
138 156 0
127 146 0
133 149 0
140 156 0
141 159 0
137 156 0
140 159 0
144 164 0
143 160 0
138 156 0
142 160 0
132 149 0
133 149 0
140 157 0
143 161 0
131 147 0
149 167 0
148 168 0
142 160 0
141 157 0
141 158 0
143 161 0
149 167 0
145 164 0
149 167 0
141 160 0
140 158 0
151 171 0
143 161 0
150 168 0
150 168 0
135 152 0
147 165 0
146 165 0
142 162 0
134 150 0
145 163 0
148 164 0
149 170 0
142 158 0
144 163 0
149 169 0
150 166 0
150 169 0
148 167 0
156 175 0
157 175 0
156 174 0
143 161 0
149 168 0
148 167 0
152 169 0
149 168 0
148 167 0
148 164 0
154 172 0
143 157 0
150 169 0
152 171 0
155 173 0
152 167 0
157 176 0
154 172 0
155 173 0
159 178 0
155 174 0
157 176 0
161 179 0
150 167 0
159 177 0
154 170 0
155 174 0
154 172 0
153 172 0
152 171 0
159 177 0
155 172 0
149 165 0
158 178 0
157 177 0
155 172 0
153 172 0
160 180 0
152 169 0
156 175 0
158 176 0
162 182 0
159 177 0
154 173 0
153 173 0
161 179 0
158 178 0
158 176 0
161 180 0
161 178 0
162 181 0
164 184 0
156 174 0
163 183 0
159 177 0
163 183 0
165 183 0
153 170 0
160 178 0
165 186 0
165 184 0
157 176 0
160 179 0
165 185 0
163 185 0
160 180 0
165 184 0
158 177 0
162 180 0
163 182 0
161 181 0
166 187 0
164 182 0
162 180 0
164 186 0
162 182 0
163 183 0
166 184 0
164 185 0
161 180 0
164 184 0
167 187 0
167 190 0
162 182 0
168 189 0
162 181 0
162 181 0
167 188 0
164 185 0
164 183 0
160 178 0
167 187 0
174 198 80
172 196 76
172 196 72
169 193 84
169 193 76
167 192 80
167 190 62
169 193 72
168 193 80
173 197 80
172 196 92
173 197 88
169 193 80
171 195 92
170 194 92
173 196 95
170 194 88
173 197 99
170 193 62
170 193 57
170 194 72
171 194 76
172 195 95
173 196 88
163 187 92
166 189 95
171 194 80
174 198 99
171 195 99
172 196 92
174 197 80
169 193 117
174 198 108
171 193 92
166 190 92
173 197 92
172 194 105
170 193 102
167 190 92
171 194 108
171 193 84
166 189 99
164 188 88
170 192 102
168 192 105
168 191 92
166 190 114
171 195 99
167 191 80
166 188 99
165 188 114
165 188 108
164 187 102
169 191 108
161 184 114
158 182 76
165 188 111
167 190 99
161 184 100
159 182 80
168 190 102
160 183 102
164 187 99
163 187 95
164 187 99
152 174 99
164 186 84
164 186 120
160 182 84
160 183 95
156 179 92
161 183 95
155 178 102
160 181 92
161 182 92
146 168 92
156 178 108
159 180 105
157 179 99
159 180 102
156 177 99
152 172 92
161 181 102
153 175 92
150 170 92
154 175 108
148 170 88
142 162 84
152 174 84
156 176 99
158 179 95
143 164 80
146 166 62
146 166 99
143 163 76
142 163 84
129 149 76
141 160 72
135 155 72
137 155 84
132 151 72
128 148 67
112 132 103
90 115 105
92 116 110
86 111 102
81 107 117
87 113 120
91 116 125
84 110 114
84 111 116
104 127 124
90 115 122
98 122 115
88 113 108
92 116 128
102 126 118
92 116 121
89 114 105
88 113 107
103 128 118
108 132 133
101 125 127
97 122 126
96 121 105
103 128 122
92 118 127
91 115 106
84 109 125
120 120 75
133 131 78
101 113 113
86 113 144
76 107 126
76 107 125
72 104 122
71 102 127
78 108 121
69 100 108
76 105 111
77 105 115
73 102 108
76 103 109
72 98 107
58 91 107
62 93 100
57 90 112
59 92 114
58 90 99
60 91 92
103 126 65
83 110 97
55 87 100
54 86 103
55 88 99
55 87 103
56 89 105
55 88 100
53 85 107
57 91 107
56 89 102
55 87 111
54 86 97
58 92 118
57 90 114
58 91 117
58 91 111
58 91 113
56 90 103
57 90 113
56 88 107
55 87 99
56 89 100
57 90 103
55 87 99
55 88 100
56 89 110
57 91 113
58 92 121
55 88 102
56 89 113
55 88 100
56 88 95
55 88 107
57 90 103
57 90 111
58 91 114
54 86 107
57 91 111
56 89 118
57 90 103
55 88 103
56 88 105
57 90 110
57 91 111
58 91 115
57 89 108
56 89 100
57 90 102
56 88 100
56 89 100
58 91 121
56 88 92
54 87 92
54 86 99
56 89 105
56 89 102
57 89 105
56 88 99
54 86 100
56 88 103
57 90 113
52 83 84
56 88 100
52 84 95
55 88 99
55 86 97
63 89 88
96 113 36
92 106 0
89 105 0
88 103 0
98 113 0
103 117 0
105 120 0
100 117 0
94 111 0
101 117 0
114 129 0
104 121 0
112 128 0
108 125 0
98 113 0
111 127 0
103 118 0
117 134 0
115 131 0
116 133 0
106 123 0
112 130 0
118 136 0
120 137 0
121 138 0
117 135 0
127 144 0
124 142 0
123 139 0
130 147 0
131 149 0
123 141 0
131 148 0
131 146 0
128 147 0
136 155 0
132 150 0
127 146 0
124 139 0
134 151 0
128 144 0
134 153 0
136 153 0
131 147 0
128 146 0
124 143 0
134 153 0
134 152 0
133 151 0
135 155 0
133 150 0
140 157 0
139 157 0
135 154 0
138 157 0
138 157 0
137 156 0
137 154 0
133 152 0
135 155 0
142 161 0
141 157 0
148 166 0
134 153 0
148 167 0
137 153 0
151 169 0
148 168 0
140 160 0
137 155 0
140 159 0
140 157 0
148 166 0
146 166 0
147 167 0
150 168 0
141 157 0
147 166 0
144 160 0
154 173 0
138 156 0
149 168 0
151 170 0
146 163 0
141 159 0
144 163 0
148 165 0
150 169 0
153 170 0
156 176 0
146 164 0
156 174 0
149 168 0
151 169 0
144 160 0
154 173 0
147 166 0
147 164 0
155 172 0
158 178 0
147 164 0
153 172 0
154 173 0
157 176 0
157 175 0
160 178 0
152 169 0
158 175 0
156 176 0
152 168 0
157 177 0
155 176 0
157 176 0
154 173 0
155 174 0
155 175 0
155 172 0
153 172 0
159 180 0
156 173 0
151 168 0
154 174 0
161 181 0
155 174 0
152 170 0
154 172 0
163 181 0
157 177 0
164 184 0
158 177 0
159 178 0
157 174 0
160 176 0
161 179 0
154 172 0
158 177 0
162 181 0
156 174 0
158 178 0
161 180 0
160 178 0
165 184 0
163 183 0
160 179 0
164 184 0
162 182 0
162 182 0
157 176 0
163 182 0
158 177 0
161 182 0
160 179 0
160 179 0
159 178 0
167 187 0
160 181 0
161 181 0
165 185 0
160 181 0
166 186 0
161 181 0
160 180 0
162 182 0
168 186 0
160 180 0
163 183 0
166 186 0
165 185 0
159 178 0
164 184 0
162 181 0
163 183 0
164 184 0
165 185 0
163 182 0
164 183 0
165 186 0
163 183 0
164 182 0
169 191 0
166 187 0
168 189 0
169 192 76
170 194 80
170 194 76
169 193 76
169 194 57
169 194 67
172 196 72
170 194 88
171 195 67
170 194 88
170 194 88
170 195 95
168 192 84
169 193 84
168 191 95
168 192 76
171 195 92
170 195 108
171 194 99
170 193 76
167 192 76
170 193 95
174 197 108
177 200 102
175 198 122
169 192 95
168 192 105
171 194 88
173 196 105
168 191 88
173 197 108
177 201 117
164 187 95
168 191 76
169 192 88
173 196 88
176 199 111
170 194 102
164 188 99
164 187 88
165 188 80
169 191 105
165 188 80
173 197 95
169 191 105
170 193 108
167 189 99
170 193 99
169 192 120
175 198 102
163 186 108
161 185 84
162 185 84
160 182 92
169 192 88
162 185 95
163 188 110
162 186 95
168 191 102
163 186 102
162 185 95
153 176 76
162 185 92
159 182 88
165 188 111
159 182 95
160 183 99
165 187 114
159 181 99
165 187 111
165 187 105
164 185 127
171 193 114
155 177 105
151 172 92
156 179 102
157 180 99
159 180 84
158 180 95
154 176 102
150 172 108
159 181 102
158 180 95
158 179 95
146 167 92
144 164 72
153 174 102
155 175 111
139 160 84
147 168 92
146 167 72
140 160 62
139 159 80
139 158 92
136 155 97
159 178 102
137 156 92
141 161 72
129 148 62
137 156 57
119 138 47
126 144 67
112 130 72
101 121 78
88 113 105
87 111 99
90 116 115
88 113 99
97 120 113
102 125 126
86 111 97
95 120 127
102 125 129
95 120 119
91 116 126
100 124 120
103 127 124
99 123 113
98 122 133
89 115 99
103 127 118
105 128 125
94 119 126
99 124 115
91 118 105
107 132 121
94 119 125
97 121 110
94 119 115
119 124 88
134 131 68
119 115 60
80 104 129
70 102 118
74 105 133
73 104 115
73 103 120
67 98 120
68 100 113
68 98 100
80 109 111
85 114 124
76 103 117
67 95 105
66 96 115
60 92 115
62 93 107
61 95 130
60 93 102
55 87 92
99 122 76
89 114 88
55 87 88
56 89 100
56 89 99
53 85 86
55 88 100
55 88 103
56 88 117
53 85 99
56 88 107
56 89 103
56 90 97
57 90 109
57 90 107
55 87 102
57 91 115
56 88 108
55 87 95
57 90 115
57 90 106
58 91 114
55 88 99
55 88 110
57 90 99
57 90 114
56 90 105
56 89 113
57 91 114
57 90 108
57 90 110
57 90 105
56 89 110
55 88 102
54 86 99
57 90 105
56 88 103
57 90 111
54 87 92
56 88 105
58 91 110
56 89 100
56 89 103
56 89 111
56 88 95
54 86 99
54 87 99
55 88 92
54 85 95
55 87 94
56 90 99
55 87 108
56 88 113
54 87 94
54 85 102
56 89 95
56 89 110
55 87 103
54 86 90
53 84 99
54 86 94
57 89 103
54 87 90
54 85 90
53 84 86
74 97 74
73 89 44
86 101 0
99 114 0
95 109 0
96 110 0
109 124 0
101 116 0
110 125 0
112 128 0
103 118 0
97 111 0
111 127 0
108 122 0
102 118 0
112 127 0
113 128 0
119 136 0
113 130 0
114 131 0
112 128 0
122 140 0
117 133 0
112 130 0
123 138 0
121 137 0
123 140 0
126 144 0
133 151 0
126 143 0
126 143 0
120 139 0
124 140 0
134 151 0
130 147 0
121 139 0
127 144 0
134 151 0
130 148 0
116 132 0
131 149 0
126 145 0
124 141 0
138 157 0
128 145 0
123 141 0
141 159 0
132 150 0
128 145 0
136 153 0
148 165 0
136 155 0
144 162 0
133 152 0
129 146 0
142 162 0
135 152 0
137 156 0
144 159 0
142 159 0
131 150 0
133 151 0
144 163 0
138 157 0
136 153 0
140 158 0
139 155 0
134 152 0
149 167 0
146 166 0
135 152 0
147 165 0
149 167 0
148 166 0
147 166 0
146 165 0
145 164 0
144 162 0
139 158 0
148 167 0
151 169 0
147 164 0
150 169 0
153 172 0
144 161 0
142 160 0
155 175 0
149 169 0
146 162 0
154 174 0
145 164 0
160 177 0
148 167 0
149 168 0
157 173 0
150 168 0
152 172 0
150 168 0
152 171 0
159 178 0
141 158 0
145 164 0
151 169 0
150 167 0
151 171 0
155 172 0
153 172 0
157 177 0
154 172 0
157 175 0
154 171 0
159 179 0
157 176 0
155 172 0
159 178 0
153 171 0
157 176 0
158 178 0
163 181 0
158 176 0
153 174 0
162 180 0
158 176 0
145 163 0
153 174 0
157 177 0
158 176 0
158 178 0
158 178 0
160 181 0
155 174 0
153 174 0
162 180 0
155 174 0
163 181 0
153 170 0
154 174 0
157 173 0
159 179 0
154 171 0
154 173 0
164 184 0
157 177 0
165 184 0
161 180 0
157 177 0
155 174 0
157 176 0
158 177 0
157 176 0
163 184 0
159 178 0
161 181 0
162 183 0
157 177 0
157 178 0
160 181 0
160 179 0
163 183 0
162 182 0
160 180 0
164 185 0
165 185 0
166 185 0
165 183 0
159 178 0
158 176 0
165 187 0
166 187 0
166 185 0
164 185 0
167 187 0
167 188 0
164 182 0
163 183 0
160 179 0
163 184 0
164 183 0
165 185 0
163 184 0
162 182 0
165 184 0
166 187 0
166 186 0
168 189 0
170 194 76
168 192 72
174 198 62
172 196 88
172 197 88
169 193 88
170 194 84
171 195 72
169 194 72
173 198 88
173 197 84
169 192 84
174 196 84
172 195 80
171 195 80
172 195 80
171 196 108
174 198 102
172 195 95
171 194 117
165 188 80
169 193 92
174 197 108
167 191 84
169 192 95
168 191 95
173 196 102
167 190 88
168 191 80
171 195 99
170 193 92
167 189 80
170 193 84
174 198 108
168 192 111
170 193 76
169 192 84
161 185 76
167 190 102
169 192 84
165 189 99
166 189 105
163 187 84
166 189 88
164 188 99
165 188 95
169 193 117
165 189 84
167 190 122
168 191 76
168 191 114
162 185 92
164 188 92
167 190 111
166 189 95
166 189 92
163 187 92
163 187 114
165 188 108
163 185 92
165 187 114
162 185 111
167 189 94
157 179 76
170 194 108
161 184 88
162 185 97
159 181 88
164 186 105
166 188 108
153 176 88
166 188 88
165 187 105
157 180 99
156 178 114
155 175 88
160 182 92
153 175 102
162 184 102
160 182 114
147 168 88
145 166 95
147 168 108
157 178 105
151 173 99
158 178 111
146 167 105
147 169 80
151 172 99
148 168 99
143 164 80
139 160 62
146 167 72
150 171 92
149 169 108
135 154 99
139 159 78
134 153 72
144 164 84
121 140 51
139 158 72
136 155 80
136 154 88
145 164 84
91 113 76
85 110 97
81 107 107
90 115 110
85 111 118
94 118 126
99 123 126
79 106 115
84 110 103
86 112 126
78 105 114
103 127 128
91 115 119
80 107 115
98 122 118
100 124 131
107 130 127
101 125 122
101 125 114
107 131 117
86 112 111
93 117 102
97 122 114
105 128 141
103 127 117
114 130 104
131 133 63
130 130 71
125 134 69
72 101 113
69 100 120
79 109 125
73 103 110
77 107 114
75 104 115
81 108 113
76 105 103
78 103 118
80 104 113
77 104 112
78 102 103
62 93 107
59 92 103
67 98 109
69 100 108
61 92 95
89 112 65
102 126 78
57 89 102
53 84 90
56 88 107
55 87 95
54 86 102
56 90 107
55 87 102
57 89 97
54 86 84
56 88 112
54 86 97
56 89 86
55 87 96
56 88 97
55 88 92
56 88 105
58 91 114
55 88 100
54 86 92
55 87 80
57 90 117
55 87 92
54 86 99
57 90 107
58 91 103
56 89 103
57 90 108
56 89 95
55 87 111
56 89 108
56 88 100
56 88 103
56 88 105
56 89 108
57 91 120
56 89 95
54 86 90
54 86 88
56 89 115
56 89 105
54 86 103
55 88 103
55 87 90
57 90 108
54 86 97
56 89 108
55 87 105
56 89 107
55 88 95
54 86 99
56 88 102
54 86 92
54 85 107
55 87 95
55 88 102
55 87 95
55 88 97
54 86 102
52 83 92
50 81 74
53 84 74
72 96 72
85 101 51
98 111 0
98 113 0
101 116 0
103 118 0
90 105 0
109 123 0
98 112 0
102 117 0
102 115 0
102 117 0
102 119 0
98 114 0
117 133 0
106 122 0
104 119 0
107 122 0
117 133 0
109 126 0
110 126 0
112 129 0
109 125 0
119 136 0
113 129 0
116 134 0
122 140 0
120 137 0
114 131 0
130 147 0
110 128 0
126 143 0
114 132 0
125 142 0
130 148 0
132 150 0
120 136 0
125 143 0
132 150 0
136 155 0
129 146 0
131 149 0
122 139 0
133 151 0
139 158 0
130 149 0
133 150 0
134 152 0
131 148 0
125 141 0
130 148 0
129 147 0
136 154 0
135 154 0
129 144 0
134 150 0
140 158 0
138 158 0
137 156 0
145 164 0
137 154 0
135 154 0
143 161 0
143 162 0
135 153 0
145 164 0
139 158 0
147 167 0
138 156 0
144 163 0
141 158 0
144 162 0
144 162 0
145 165 0
146 164 0
139 156 0
147 166 0
145 163 0
141 159 0
143 161 0
148 168 0
142 159 0
135 152 0
146 165 0
150 170 0
150 169 0
147 167 0
154 172 0
147 165 0
145 160 0
156 174 0
149 167 0
148 167 0
145 165 0
154 173 0
156 175 0
154 173 0
154 174 0
143 160 0
155 174 0
152 170 0
156 175 0
154 172 0
143 162 0
154 171 0
152 169 0
149 168 0
151 170 0
157 177 0
152 170 0
157 176 0
149 168 0
154 173 0
155 171 0
156 173 0
156 174 0
152 172 0
156 175 0
157 174 0
148 165 0
157 176 0
159 178 0
158 175 0
158 176 0
159 177 0
151 171 0
152 170 0
154 174 0
157 175 0
150 167 0
158 176 0
160 180 0
161 179 0
158 178 0
164 181 0
160 180 0
156 174 0
156 177 0
157 177 0
158 177 0
160 178 0
155 175 0
153 173 0
164 184 0
162 182 0
160 178 0
162 181 0
160 178 0
159 176 0
160 181 0
159 177 0
165 185 0
159 177 0
155 174 0
158 176 0
157 176 0
161 180 0
164 184 0
163 183 0
163 182 0
165 184 0
163 182 0
160 179 0
166 187 0
165 185 0
159 179 0
166 188 0
163 182 0
163 183 0
165 185 0
166 185 0
163 184 0
160 178 0
160 180 0
166 185 0
166 187 0
163 184 0
170 190 0
160 180 0
160 180 0
167 188 0
162 182 0
163 183 0
169 190 0
165 184 0
167 188 0
166 186 0
168 192 72
171 195 80
170 194 76
169 194 76
172 197 95
174 197 84
174 198 84
172 196 84
171 194 72
174 196 84
173 195 108
168 191 84
170 194 95
167 191 88
170 194 84
171 195 88
172 196 99
169 192 102
168 192 80
169 192 95
170 193 92
173 196 111
174 198 105
170 195 108
167 191 102
167 191 84
166 189 72
165 189 99
168 191 88
167 191 120
172 195 92
169 193 105
173 196 102
167 190 95
175 198 108
172 196 120
169 193 102
169 192 84
168 192 114
173 196 105
167 189 111
166 189 99
167 191 84
165 189 88
166 189 88
170 193 92
170 194 99
164 187 114
167 190 114
161 184 80
169 192 95
163 186 76
170 193 120
165 189 107
160 184 111
161 184 88
164 187 92
166 190 105
164 188 99
162 185 92
166 189 102
167 189 126
161 184 111
158 180 94
160 182 107
159 181 105
160 182 105
159 182 95
156 179 92
156 179 92
159 181 92
161 183 111
151 173 84
161 184 102
150 173 99
158 180 111
153 176 84
156 178 105
154 175 95
157 179 117
156 178 92
152 173 92
157 179 102
166 187 117
148 170 92
146 167 80
151 172 102
151 172 102
143 164 57
138 158 84
138 158 84
136 156 67
142 162 80
144 165 72
138 158 88
142 161 99
138 158 84
147 165 92
146 166 84
144 163 92
137 155 62
126 144 57
137 155 80
122 141 67
129 147 72
113 132 102
85 110 100
86 112 92
87 113 102
91 116 105
91 116 120
108 130 122
90 113 111
96 118 115
99 124 115
107 130 126
74 102 113
80 107 113
102 126 126
102 126 126
86 112 103
112 135 143
101 124 122
94 119 105
108 131 121
98 122 120
88 114 113
90 115 111
91 118 124
105 127 105
171 189 57
159 173 65
153 164 36
109 120 72
69 99 126
67 98 117
74 105 124
78 108 120
75 105 113
76 105 130
63 94 115
66 95 107
78 106 118
80 107 118
69 98 111
71 99 114
57 91 103
64 94 103
61 92 108
55 87 100
98 120 76
92 117 86
70 98 86
56 89 102
54 87 88
55 88 97
55 88 95
55 87 95
54 87 82
56 88 102
55 88 102
55 88 101
56 90 117
55 87 100
55 87 100
56 89 95
56 88 88
55 86 107
58 92 114
57 90 102
56 88 103
56 89 108
54 86 97
56 88 97
56 89 113
54 87 97
54 86 100
55 87 108
55 88 100
55 87 97
57 90 112
56 89 94
54 86 92
55 87 103
56 89 103
55 87 105
55 88 94
57 90 97
55 87 99
54 86 94
53 85 90
54 87 102
56 89 99
54 86 100
58 91 114
54 86 105
54 86 80
54 86 84
57 89 102
56 89 113
55 87 95
54 85 86
53 84 88
54 86 88
56 89 99
54 86 97
54 86 99
54 86 90
53 84 74
50 80 74
52 82 84
72 95 74
89 106 31
91 104 0
99 113 0
107 124 0
97 111 0
98 111 0
94 108 0
90 106 0
97 111 0
93 107 0
107 124 0
106 122 0
107 123 0
97 113 0
105 121 0
105 121 0
120 135 0
115 131 0
122 139 0
112 127 0
108 124 0
120 138 0
115 132 0
115 132 0
116 133 0
103 121 0
108 125 0
127 146 0
116 132 0
112 129 0
116 134 0
115 132 0
112 128 0
124 141 0
135 153 0
112 129 0
125 143 0
122 138 0
133 150 0
131 149 0
135 153 0
132 151 0
133 151 0
138 157 0
133 151 0
124 142 0
138 157 0
140 158 0
127 144 0
136 155 0
140 158 0
140 158 0
137 154 0
142 160 0
140 158 0
130 147 0
134 151 0
135 151 0
135 153 0
138 156 0
139 159 0
143 163 0
143 161 0
140 156 0
137 155 0
142 161 0
143 160 0
141 159 0
141 157 0
141 159 0
130 147 0
145 162 0
143 163 0
138 157 0
151 169 0
137 155 0
146 166 0
148 166 0
146 165 0
149 169 0
147 167 0
143 160 0
149 167 0
151 169 0
153 171 0
149 169 0
153 172 0
144 162 0
154 173 0
140 157 0
145 163 0
147 165 0
143 161 0
152 171 0
149 169 0
154 171 0
147 167 0
149 167 0
152 170 0
150 168 0
150 168 0
149 167 0
147 168 0
149 167 0
147 166 0
151 169 0
160 180 0
149 169 0
145 163 0
151 168 0
159 177 0
145 162 0
154 172 0
150 167 0
152 171 0
153 173 0
153 171 0
151 170 0
155 172 0
150 169 0
160 180 0
149 166 0
151 171 0
153 171 0
155 175 0
158 178 0
154 174 0
153 171 0
153 171 0
152 170 0
155 173 0
155 174 0
162 181 0
158 176 0
157 178 0
159 179 0
163 180 0
155 172 0
157 175 0
160 180 0
157 178 0
154 173 0
163 182 0
163 183 0
158 177 0
160 179 0
156 176 0
158 177 0
156 175 0
160 179 0
161 179 0
160 178 0
163 181 0
160 180 0
157 178 0
161 180 0
159 179 0
160 180 0
166 187 0
163 183 0
159 180 0
166 186 0
167 186 0
160 180 0
161 180 0
161 182 0
163 184 0
161 182 0
164 185 0
164 184 0
158 177 0
164 184 0
164 185 0
162 182 0
168 189 0
161 181 0
160 178 0
166 188 0
168 188 0
165 186 0
165 185 0
165 186 0
171 192 0
167 188 0
162 184 0
164 184 0
164 186 0
165 185 0
169 192 44
173 197 72
170 194 84
174 198 72
169 193 67
170 194 62
173 196 76
168 191 84
174 198 92
168 191 62
173 196 84
168 191 80
169 192 76
175 199 76
171 194 88
173 196 111
167 191 76
170 194 102
169 193 108
169 194 105
170 192 105
168 191 84
174 197 95
171 194 92
172 195 95
175 198 88
171 195 99
173 197 114
170 193 127
168 191 76
174 197 102
167 191 95
169 190 95
173 196 99
163 186 76
168 192 114
169 193 95
168 192 88
171 193 92
167 190 108
167 190 99
168 192 114
169 192 80
168 192 88
169 192 105
171 194 111
168 191 80
169 192 95
166 188 105
162 185 88
162 184 72
163 186 120
164 187 76
167 190 122
167 190 113
169 191 117
162 185 84
160 183 94
159 182 107
162 185 94
167 189 110
166 189 102
157 179 80
165 189 102
162 184 110
162 185 88
162 185 111
168 191 99
159 182 125
155 179 95
151 173 84
161 183 105
157 179 80
156 177 95
159 181 84
160 182 92
156 178 80
154 176 88
159 181 102
155 176 102
165 187 117
153 175 102
156 177 111
152 174 114
142 163 88
150 171 99
146 166 92
144 164 99
150 171 102
151 171 105
146 166 88
150 170 92
149 169 84
143 163 102
150 170 95
132 152 80
146 165 88
149 169 80
138 159 76
141 161 88
129 148 72
124 143 76
129 148 57
126 144 57
126 144 62
125 143 92
104 123 80
79 104 97
91 115 94
85 111 108
91 115 105
94 119 111
100 124 115
99 123 117
91 115 108
101 124 117
100 125 118
104 127 121
93 116 116
96 120 120
96 120 122
94 117 115
90 116 110
103 127 109
94 120 124
92 118 110
100 124 121
86 112 111
105 129 117
103 126 129
162 183 44
165 180 65
144 153 25
142 147 25
101 120 99
74 104 110
70 101 113
74 104 125
81 110 130
66 97 114
76 104 103
78 106 108
74 104 115
80 104 94
78 103 97
73 96 76
68 97 92
59 91 111
59 91 110
54 86 94
97 120 76
92 117 80
74 102 92
53 84 88
55 87 100
53 84 86
53 84 94
55 87 94
55 87 99
54 85 87
56 89 92
55 87 88
55 87 92
54 87 90
57 90 100
53 85 88
54 86 87
54 86 96
56 88 99
55 88 90
54 86 84
54 87 95
55 87 92
54 86 88
55 87 97
55 88 103
55 87 94
55 88 86
54 85 84
53 85 97
53 85 78
55 88 102
56 89 94
55 87 88
55 87 92
57 89 103
56 89 103
56 88 95
53 85 86
55 87 95
55 87 100
53 85 98
55 88 103
54 86 88
55 87 92
54 86 99
55 87 84
54 87 92
54 86 92
54 86 110
53 85 88
55 87 95
56 88 107
56 88 105
53 84 94
53 84 95
52 82 90
51 82 78
54 81 67
90 107 36
100 115 18
96 111 0
106 122 0
81 96 0
87 102 0
107 122 0
98 112 0
103 120 0
100 115 0
98 114 0
104 118 0
109 123 0
93 109 0
102 117 0
106 121 0
105 122 0
102 118 0
111 127 0
122 138 0
116 133 0
116 131 0
107 124 0
104 119 0
115 133 0
115 133 0
125 142 0
118 135 0
122 138 0
123 139 0
117 134 0
112 128 0
128 146 0
120 139 0
130 147 0
130 148 0
116 133 0
125 142 0
125 144 0
125 142 0
139 158 0
135 154 0
130 148 0
128 147 0
130 147 0
137 155 0
138 156 0
130 148 0
134 152 0
133 151 0
138 156 0
129 146 0
135 154 0
139 157 0
135 153 0
139 157 0
134 151 0
132 153 0
140 158 0
138 158 0
136 156 0
141 158 0
143 161 0
150 168 0
140 157 0
144 163 0
135 153 0
142 160 0
141 161 0
139 158 0
142 159 0
144 162 0
144 162 0
143 163 0
147 167 0
145 164 0
148 170 0
149 168 0
152 171 0
149 170 0
150 169 0
142 161 0
145 163 0
142 161 0
146 164 0
136 154 0
145 165 0
142 158 0
155 175 0
147 164 0
146 165 0
147 166 0
148 167 0
157 178 0
153 172 0
156 174 0
147 165 0
139 157 0
154 174 0
156 176 0
149 168 0
145 164 0
152 171 0
150 168 0
152 171 0
156 177 0
147 166 0
157 177 0
152 170 0
150 168 0
155 173 0
158 179 0
152 171 0
147 166 0
154 176 0
157 175 0
146 167 0
151 169 0
154 173 0
156 175 0
160 179 0
152 170 0
156 176 0
161 181 0
152 170 0
158 177 0
161 180 0
156 175 0
152 174 0
155 173 0
158 177 0
161 180 0
158 176 0
160 180 0
160 178 0
160 180 0
157 177 0
158 177 0
160 180 0
157 175 0
158 178 0
154 173 0
157 176 0
158 178 0
159 178 0
159 179 0
162 182 0
167 188 0
163 181 0
159 176 0
164 181 0
164 183 0
164 184 0
164 184 0
165 185 0
166 186 0
160 179 0
165 185 0
161 180 0
164 184 0
167 187 0
163 183 0
161 182 0
157 177 0
159 178 0
158 179 0
157 177 0
162 184 0
165 187 0
164 183 0
158 180 0
162 183 0
166 186 0
162 182 0
163 184 0
159 177 0
160 181 0
159 178 0
162 182 0
160 181 0
162 182 0
167 189 0
164 185 0
164 185 0
165 184 0
161 182 0
162 183 0
164 186 0
167 188 0
168 188 0
169 191 0
171 195 67
170 195 92
167 192 67
167 190 67
173 196 51
172 196 76
171 194 62
171 195 102
174 197 92
173 196 92
172 196 72
168 191 76
172 195 99
171 195 111
173 197 95
171 194 88
170 194 92
170 192 95
174 196 105
177 199 105
174 198 105
172 195 99
169 191 92
168 191 105
171 195 117
167 191 84
169 193 88
173 195 102
161 186 72
172 195 99
171 195 95
172 196 105
168 193 99
169 193 92
171 193 111
167 189 99
164 187 95
169 193 95
170 194 108
164 187 72
169 192 95
161 185 88
167 190 99
162 185 76
166 189 92
169 193 108
169 193 102
169 192 95
164 186 99
169 192 102
165 188 105
165 189 108
164 187 92
162 186 95
161 185 86
165 188 114
159 183 107
163 187 92
169 193 99
166 189 117
160 183 90
165 187 105
166 188 102
156 178 92
159 182 88
169 192 117
163 186 99
158 180 92
165 187 99
161 184 95
156 178 114
163 185 102
161 183 95
161 183 108
158 180 102
159 181 80
163 185 105
153 175 102
160 181 114
154 175 108
159 180 114
160 180 105
160 181 92
147 167 95
150 171 92
148 170 99
152 173 95
150 172 92
152 172 88
143 164 92
149 169 88
150 170 102
161 180 111
149 169 92
143 162 84
154 175 102
140 159 88
127 147 84
139 159 80
133 153 84
141 159 84
121 140 57
132 150 76
119 137 62
137 156 88
127 145 88
135 153 88
115 133 86
92 114 107
94 117 111
88 111 90
89 114 105
90 115 110
93 117 124
78 105 85
83 110 108
101 124 121
95 120 124
105 128 126
99 124 129
99 122 131
109 131 136
97 122 123
99 123 105
104 129 114
101 126 110
103 127 114
101 124 120
98 123 110
103 126 121
149 167 74
163 179 74
153 165 0
139 146 0
142 151 25
82 108 103
69 100 114
73 104 114
84 112 103
70 101 108
90 117 111
74 103 108
79 105 102
82 107 94
89 114 107
74 100 88
74 101 110
59 91 107
56 89 103
55 87 105
89 112 78
101 122 51
84 111 94
54 85 91
56 88 99
52 83 88
54 85 94
54 87 97
52 83 93
54 86 92
53 84 95
52 83 82
52 83 92
53 85 80
55 87 99
55 88 99
54 87 99
55 87 102
53 84 86
55 88 102
53 85 90
53 85 93
55 87 92
54 87 90
53 85 70
54 86 90
55 87 102
55 87 95
53 85 88
53 85 82
56 88 92
56 89 103
54 86 72
57 90 102
54 86 95
54 85 95
52 84 86
55 88 99
52 83 88
53 85 86
53 84 86
54 86 95
55 87 97
54 85 92
53 84 84
55 88 102
55 87 99
53 85 78
52 82 80
52 83 80
52 83 90
51 82 78
53 84 92
52 83 86
51 82 78
54 84 82
62 86 60
90 105 40
87 104 18
92 107 0
87 102 0
99 112 0
82 96 0
97 112 0
99 115 0
99 115 0
100 114 0
99 115 0
97 112 0
94 109 0
109 125 0
102 116 0
113 129 0
118 133 0
120 136 0
113 128 0
109 125 0
110 125 0
115 131 0
116 133 0
118 136 0
117 135 0
112 129 0
114 129 0
124 141 0
121 139 0
108 123 0
114 133 0
121 139 0
123 142 0
117 136 0
130 147 0
133 151 0
129 146 0
127 145 0
124 142 0
130 148 0
132 150 0
127 144 0
129 147 0
137 156 0
141 160 0
129 148 0
127 145 0
131 150 0
126 143 0
134 151 0
135 153 0
130 148 0
138 156 0
125 142 0
127 145 0
138 155 0
129 146 0
138 158 0
140 159 0
128 147 0
137 156 0
137 157 0
134 151 0
140 158 0
141 159 0
147 166 0
136 155 0
133 153 0
145 163 0
137 155 0
142 161 0
142 161 0
140 159 0
147 165 0
137 156 0
144 163 0
151 170 0
144 163 0
140 160 0
144 163 0
151 172 0
139 157 0
155 175 0
149 169 0
145 164 0
151 170 0
145 164 0
151 170 0
149 169 0
149 169 0
142 162 0
143 162 0
146 163 0
147 167 0
149 169 0
143 162 0
153 170 0
144 165 0
150 169 0
144 162 0
145 162 0
155 176 0
159 179 0
154 172 0
152 171 0
147 166 0
154 172 0
158 177 0
147 165 0
157 176 0
151 173 0
151 168 0
150 167 0
157 175 0
155 173 0
152 171 0
152 170 0
154 173 0
153 173 0
148 165 0
153 172 0
155 175 0
154 173 0
152 171 0
157 176 0
153 172 0
158 177 0
152 172 0
160 179 0
161 180 0
152 170 0
158 176 0
154 174 0
155 172 0
155 175 0
154 173 0
159 180 0
155 173 0
158 177 0
165 185 0
155 176 0
156 176 0
156 176 0
156 174 0
158 178 0
160 178 0
161 180 0
155 175 0
160 179 0
156 175 0
159 181 0
163 182 0
158 179 0
158 177 0
154 172 0
160 179 0
164 184 0
161 180 0
160 181 0
168 189 0
166 183 0
162 181 0
164 184 0
156 177 0
165 185 0
166 187 0
164 185 0
162 181 0
164 185 0
158 178 0
159 179 0
166 187 0
163 185 0
164 185 0
165 185 0
165 185 0
161 182 0
166 188 0
159 179 0
160 180 0
164 185 0
165 185 0
164 184 0
160 180 0
165 185 0
166 187 0
166 186 0
164 185 0
167 188 0
167 187 0
167 188 0
165 186 0
165 187 0
167 192 67
165 188 57
173 198 105
172 196 95
171 195 84
169 193 80
174 197 92
170 194 80
171 195 84
173 196 92
171 195 80
172 195 72
172 195 95
173 197 125
170 194 92
176 199 92
175 199 102
171 195 108
174 197 105
175 198 99
172 195 102
169 191 80
172 195 105
165 188 105
178 201 114
167 190 99
169 192 108
169 192 99
163 186 80
166 190 80
168 191 99
168 193 92
173 195 102
174 196 105
167 190 102
170 193 84
165 188 95
169 192 99
165 188 84
168 191 105
169 193 105
163 186 72
165 188 102
170 193 111
169 193 114
170 193 120
167 190 95
166 189 105
165 188 76
164 188 108
160 184 99
168 191 114
168 191 111
167 190 95
160 184 88
163 185 100
163 186 97
158 180 76
165 187 108
158 182 88
164 187 115
159 182 95
158 181 97
166 188 92
160 182 100
161 184 103
149 172 72
162 184 107
157 180 82
164 187 99
162 185 84
158 179 92
159 182 95
161 183 92
164 186 102
160 183 72
156 178 102
152 174 99
151 174 80
153 174 102
151 172 88
158 179 108
161 183 88
146 167 88
159 179 111
154 174 95
147 168 92
150 170 102
157 177 108
153 173 108
149 168 111
149 169 80
149 169 99
144 164 99
146 165 84
145 165 99
153 174 99
140 159 95
131 151 80
141 160 84
145 163 76
130 148 72
130 148 72
131 149 84
132 150 84
134 152 76
119 136 76
122 139 76
114 131 80
108 129 117
99 121 105
95 118 107
106 128 122
98 120 117
87 111 97
80 105 94
86 112 103
116 138 131
104 128 125
88 113 105
87 112 126
98 122 114
101 125 110
106 129 135
94 120 113
95 120 118
105 129 120
109 132 107
109 133 122
104 126 122
142 161 80
158 172 65
154 166 0
134 144 44
138 146 25
127 141 47
73 100 103
77 107 120
60 92 113
72 102 102
67 97 103
64 94 97
79 106 97
73 99 107
71 98 111
72 97 100
73 100 78
62 92 87
62 92 100
63 93 94
83 106 88
109 132 84
84 109 84
52 83 78
53 84 88
52 84 75
54 86 86
53 84 84
55 87 92
53 85 78
55 87 86
55 87 92
56 88 86
53 85 77
54 86 92
55 86 92
54 86 95
57 89 110
53 84 90
54 86 92
57 90 100
55 87 94
54 86 94
55 86 102
54 85 82
57 90 104
53 84 92
55 87 97
55 87 80
56 88 107
54 86 92
55 87 105
53 85 90
52 84 94
55 87 105
53 85 94
53 84 97
56 88 103
54 86 90
55 87 97
53 85 92
55 87 99
55 87 105
53 84 86
54 87 95
54 86 86
53 84 92
52 82 78
53 83 90
54 86 80
53 84 82
48 78 76
51 82 90
62 88 70
82 102 62
80 98 40
92 106 0
94 108 0
90 104 0
98 114 0
90 105 0
97 111 0
101 116 0
96 111 0
103 117 0
95 111 0
101 118 0
102 117 0
110 126 0
110 126 0
103 120 0
113 127 0
104 121 0
111 126 0
103 118 0
115 132 0
104 119 0
114 129 0
104 121 0
123 140 0
113 131 0
106 123 0
104 119 0
110 126 0
114 131 0
117 135 0
122 140 0
127 146 0
120 137 0
119 135 0
126 143 0
118 136 0
129 147 0
120 137 0
121 140 0
127 146 0
137 154 0
125 143 0
131 149 0
135 153 0
127 145 0
136 154 0
126 144 0
126 146 0
138 155 0
132 148 0
139 156 0
132 150 0
143 161 0
136 155 0
137 155 0
131 150 0
142 160 0
140 158 0
143 162 0
135 155 0
137 156 0
138 156 0
151 169 0
141 159 0
145 163 0
141 159 0
148 167 0
134 153 0
138 157 0
138 157 0
143 160 0
137 156 0
141 160 0
136 154 0
146 165 0
135 154 0
144 163 0
142 161 0
144 164 0
143 162 0
150 170 0
148 168 0
149 169 0
152 171 0
143 162 0
136 152 0
146 165 0
141 161 0
145 163 0
155 173 0
149 169 0
149 168 0
152 172 0
150 169 0
146 164 0
147 165 0
148 167 0
149 170 0
146 165 0
151 170 0
155 174 0
152 170 0
146 165 0
150 168 0
154 173 0
155 175 0
159 178 0
152 169 0
149 170 0
151 170 0
147 166 0
151 171 0
151 169 0
150 170 0
161 180 0
153 173 0
154 175 0
153 172 0
153 171 0
158 176 0
158 177 0
155 175 0
160 179 0
160 178 0
158 178 0
155 172 0
163 182 0
151 168 0
155 175 0
151 170 0
159 179 0
156 174 0
153 172 0
153 174 0
160 179 0
162 182 0
157 177 0
154 172 0
157 179 0
157 177 0
160 180 0
158 177 0
163 184 0
156 175 0
161 181 0
163 184 0
163 185 0
161 182 0
159 177 0
158 178 0
160 179 0
165 184 0
163 182 0
154 175 0
162 183 0
161 181 0
164 184 0
167 187 0
157 177 0
162 182 0
165 183 0
162 183 0
162 181 0
162 182 0
161 181 0
166 188 0
157 177 0
163 182 0
158 177 0
163 184 0
166 188 0
160 181 0
163 183 0
161 181 0
162 183 0
162 183 0
164 182 0
162 182 0
165 185 0
165 185 0
163 184 0
163 183 0
164 184 0
164 183 0
161 182 0
166 186 0
161 181 0
163 184 0
167 188 0
168 188 0
163 184 0
165 186 0
165 186 0
167 187 0
168 193 62
169 193 80
163 186 57
173 197 88
173 197 80
174 197 76
167 191 84
171 194 80
170 193 76
174 197 92
173 196 92
172 195 92
170 193 102
170 194 76
172 195 102
173 197 95
172 196 108
173 197 92
169 192 88
177 199 125
173 195 105
172 196 92
167 190 84
166 189 62
166 189 92
163 185 76
165 190 88
175 198 67
168 192 99
166 190 67
171 194 95
169 192 92
167 191 84
168 191 88
171 194 120
169 193 95
173 196 117
173 196 111
163 186 88
167 191 117
164 187 99
170 194 108
172 194 114
167 190 99
173 196 102
170 193 111
166 190 117
168 191 108
170 193 120
165 187 102
161 185 99
163 186 97
160 183 95
159 181 95
158 181 103
168 190 103
166 190 84
159 181 86
159 182 95
169 192 92
160 182 95
164 186 113
155 177 102
156 178 100
161 184 97
156 179 99
159 182 92
164 186 99
157 179 86
157 180 111
157 179 88
152 174 74
156 178 102
149 171 92
160 181 99
153 175 99
161 183 88
157 179 84
151 173 92
162 185 99
149 171 67
146 167 72
160 181 117
154 175 88
149 170 84
153 174 108
151 171 92
155 177 102
146 167 88
148 169 114
157 178 105
151 171 102
146 166 99
141 161 102
156 175 108
137 156 99
151 171 80
139 158 72
138 158 92
138 157 105
139 157 88
141 160 76
145 163 99
138 158 92
125 144 67
136 155 57
139 157 95
120 137 92
124 142 84
126 142 97
98 120 90
88 112 99
104 126 105
92 116 103
91 114 105
87 111 100
84 110 108
84 109 111
95 120 110
95 120 117
92 117 118
106 129 136
93 119 109
97 122 103
86 112 87
96 122 110
106 130 110
104 127 103
83 110 107
100 125 125
121 140 92
160 177 51
152 165 18
145 156 36
146 158 18
139 147 0
122 137 60
59 91 92
72 104 120
68 98 107
74 103 105
63 95 114
66 97 107
73 100 97
79 105 92
67 94 90
76 103 88
70 96 82
56 87 94
56 88 90
82 103 57
104 126 72
93 118 86
53 85 74
50 79 86
53 84 92
53 85 74
51 82 78
52 84 76
52 83 80
51 82 78
53 85 84
53 85 95
52 83 86
54 85 94
56 88 94
54 86 97
51 82 86
56 88 103
53 85 78
54 86 99
55 87 86
54 85 97
53 85 94
56 89 86
54 86 95
56 89 99
54 85 88
54 86 90
54 86 100
54 85 86
54 87 103
53 85 85
54 85 88
54 85 90
53 85 90
52 84 90
52 83 92
54 85 97
54 86 82
54 86 97
53 85 94
56 89 97
52 83 82
51 81 76
51 81 88
51 82 94
52 83 90
54 86 86
51 82 80
56 82 67
75 93 47
85 101 18
97 111 0
101 115 0
88 103 0
99 113 0
99 115 0
90 104 0
87 103 0
100 116 0
96 112 0
101 117 0
101 116 0
107 123 0
106 121 0
99 115 0
100 114 0
113 128 0
105 119 0
113 129 0
116 133 0
112 130 0
102 118 0
111 126 0
110 126 0
121 138 0
118 135 0
100 116 0
104 120 0
121 138 0
113 129 0
108 125 0
122 139 0
118 135 0
116 134 0
119 137 0
125 143 0
115 132 0
128 145 0
130 148 0
121 139 0
122 141 0
125 143 0
127 143 0
129 146 0
130 148 0
120 138 0
122 142 0
132 149 0
132 151 0
132 147 0
132 148 0
130 145 0
135 153 0
137 155 0
123 140 0
134 152 0
132 150 0
122 141 0
131 150 0
140 160 0
134 152 0
134 153 0
136 153 0
137 157 0
150 169 0
140 158 0
142 163 0
141 159 0
139 158 0
141 160 0
142 161 0
146 165 0
140 160 0
139 156 0
136 155 0
143 162 0
152 172 0
139 157 0
151 170 0
138 157 0
146 166 0
148 166 0
137 157 0
149 169 0
145 166 0
152 173 0
143 162 0
152 173 0
142 162 0
143 161 0
150 171 0
152 172 0
144 160 0
141 161 0
137 156 0
150 170 0
149 169 0
159 179 0
152 171 0
148 168 0
149 168 0
149 169 0
153 171 0
157 176 0
153 173 0
149 170 0
149 169 0
148 167 0
150 168 0
150 170 0
146 162 0
151 169 0
152 171 0
154 173 0
150 167 0
150 169 0
153 170 0
152 172 0
150 168 0
151 170 0
156 174 0
156 175 0
151 169 0
157 177 0
153 172 0
158 179 0
154 172 0
158 176 0
159 176 0
148 166 0
152 170 0
150 168 0
154 173 0
158 176 0
160 178 0
155 174 0
154 174 0
156 173 0
156 175 0
154 173 0
159 177 0
155 174 0
157 175 0
161 180 0
160 180 0
156 177 0
156 175 0
160 179 0
155 173 0
162 181 0
161 180 0
156 176 0
155 173 0
159 181 0
160 180 0
160 180 0
157 177 0
158 178 0
161 182 0
159 178 0
165 185 0
161 183 0
157 178 0
166 187 0
160 180 0
150 167 0
160 180 0
161 179 0
162 183 0
155 175 0
163 184 0
161 184 0
161 180 0
164 184 0
162 182 0
162 182 0
159 179 0
164 184 0
164 183 0
157 176 0
163 184 0
157 179 0
160 180 0
158 178 0
162 183 0
167 187 0
164 185 0
169 187 0
172 193 0
163 184 0
164 186 0
165 187 0
165 187 0
165 186 0
167 190 0
169 188 0
164 187 0
165 186 0
169 193 80
173 196 72
167 190 80
170 193 80
174 197 88
172 195 72
175 198 99
171 195 80
172 194 99
177 200 92
174 198 108
171 194 88
172 195 99
171 195 105
179 201 105
171 195 102
174 196 122
171 195 108
170 193 99
166 190 88
173 197 99
171 194 99
172 195 102
168 191 84
166 190 72
168 193 88
172 194 99
169 192 99
173 196 108
166 190 99
168 191 95
167 191 111
165 188 114
172 196 105
171 193 88
164 188 108
167 191 92
166 190 88
170 193 114
167 189 76
165 187 76
166 189 111
167 190 102
163 186 92
168 191 84
167 191 105
166 189 95
164 186 88
168 192 108
168 191 99
161 184 88
169 193 124
159 182 74
164 187 111
164 187 72
166 189 88
166 189 133
161 184 86
161 184 88
163 186 105
164 187 95
160 183 82
167 189 102
160 183 111
162 186 117
158 181 88
154 176 80
154 177 114
168 190 95
158 181 92
161 183 99
149 171 88
149 171 92
164 186 114
166 188 108
155 178 84
156 178 80
149 171 67
154 176 108
156 178 99
157 179 88
150 171 92
154 175 111
149 169 92
145 166 84
145 166 84
153 174 117
148 169 80
146 166 80
149 169 92
156 177 95
150 171 88
143 163 92
141 160 99
144 163 102
136 156 95
157 176 99
141 160 80
146 166 102
138 157 80
139 157 92
136 154 84
136 155 76
132 149 95
126 145 51
133 151 80
123 141 62
117 134 76
122 141 57
129 146 76
137 154 95
95 115 95
87 109 102
87 112 100
87 110 108
95 119 110
102 123 108
95 118 108
92 116 111
99 121 107
95 118 115
98 122 120
96 120 99
96 120 113
103 126 99
94 118 110
104 127 114
92 118 95
97 121 115
97 122 111
111 130 88
163 178 47
158 171 25
146 161 18
148 159 18
134 147 25
128 140 18
103 122 80
71 101 107
72 101 100
72 101 115
72 100 99
71 100 108
79 106 95
85 109 97
73 97 76
79 105 86
81 106 76
73 100 74
52 83 84
79 97 44
103 124 51
92 115 65
63 91 80
50 80 76
50 80 76
52 83 70
53 85 76
53 84 87
51 82 74
51 81 74
51 81 72
52 83 86
53 84 88
52 83 84
52 83 80
50 80 76
54 86 99
53 84 84
54 86 90
54 86 97
53 85 88
52 83 78
54 85 100
55 87 97
55 87 82
53 84 92
55 87 95
53 85 84
52 83 90
52 83 88
53 84 95
51 81 88
50 80 84
53 84 102
51 81 82
54 86 80
52 83 84
52 83 72
52 83 84
52 83 84
51 81 78
54 85 88
52 83 94
52 83 78
50 80 86
53 82 74
63 85 62
81 99 54
94 110 36
77 92 0
75 91 0
97 111 0
97 111 0
84 99 0
98 112 0
91 107 0
87 102 0
103 119 0
98 113 0
88 105 0
110 126 0
105 120 0
113 130 0
107 123 0
101 116 0
113 130 0
109 125 0
109 124 0
111 126 0
112 130 0
109 126 0
117 132 0
104 119 0
122 137 0
102 118 0
112 128 0
111 128 0
110 128 0
108 125 0
126 144 0
117 135 0
105 121 0
107 124 0
125 144 0
125 141 0
120 138 0
114 132 0
125 143 0
120 139 0
122 141 0
122 140 0
127 144 0
129 148 0
137 155 0
116 133 0
130 149 0
121 140 0
121 140 0
124 142 0
120 140 0
131 148 0
135 155 0
129 148 0
141 161 0
136 154 0
145 165 0
136 156 0
127 148 0
130 148 0
143 161 0
144 163 0
136 153 0
147 166 0
142 160 0
139 158 0
133 152 0
142 160 0
143 162 0
136 156 0
143 163 0
142 162 0
148 169 0
150 170 0
148 167 0
148 167 0
143 164 0
130 150 0
147 166 0
138 157 0
137 157 0
142 163 0
152 171 0
141 158 0
144 162 0
141 161 0
145 164 0
147 165 0
152 172 0
148 166 0
158 178 0
139 157 0
151 169 0
148 167 0
147 166 0
144 162 0
146 167 0
149 168 0
151 171 0
155 175 0
156 174 0
154 173 0
155 175 0
150 168 0
152 170 0
147 165 0
160 180 0
150 169 0
154 174 0
149 170 0
153 173 0
152 169 0
151 172 0
149 168 0
148 167 0
148 169 0
154 173 0
150 169 0
151 168 0
157 175 0
151 172 0
157 176 0
150 170 0
155 175 0
156 174 0
154 173 0
150 168 0
158 177 0
159 179 0
157 179 0
161 179 0
156 175 0
153 171 0
158 178 0
153 172 0
156 177 0
160 179 0
158 178 0
154 173 0
160 181 0
154 173 0
154 172 0
156 175 0
158 177 0
157 178 0
158 178 0
158 177 0
162 182 0
158 178 0
162 182 0
160 181 0
157 178 0
156 174 0
167 188 0
161 179 0
163 184 0
163 184 0
161 179 0
155 175 0
155 176 0
159 179 0
165 186 0
164 185 0
166 185 0
160 180 0
159 178 0
160 182 0
164 183 0
162 182 0
165 185 0
166 188 0
166 187 0
165 187 0
160 179 0
165 187 0
160 179 0
161 182 0
162 185 0
157 178 0
165 186 0
164 186 0
162 183 0
159 180 0
161 182 0
161 181 0
163 183 0
165 184 0
164 184 0
160 181 0
165 186 0
163 183 0
166 187 0
162 181 0
162 180 0
163 184 0
164 185 0
163 184 0
167 186 0
163 183 0
167 188 0
170 194 72
170 194 76
172 195 84
173 197 80
173 197 99
168 192 76
172 195 99
174 197 114
170 193 95
172 195 95
173 197 102
173 196 105
172 196 102
168 192 105
166 189 67
171 194 84
171 194 76
175 199 111
168 192 102
169 192 92
172 195 95
174 197 99
170 194 95
165 188 95
171 194 84
170 194 102
167 190 99
165 188 88
168 191 84
170 193 95
167 190 108
170 193 84
172 195 92
168 192 105
165 188 88
168 191 114
159 183 67
166 190 99
169 193 92
168 191 99
165 188 92
169 192 99
166 189 105
164 187 80
165 188 92
165 189 102
163 186 95
165 188 105
165 188 95
167 190 108
164 187 105
167 190 94
163 186 115
163 186 103
165 188 99
159 182 80
165 188 114
155 178 78
158 180 99
163 186 84
162 185 122
158 181 92
162 185 94
168 190 110
164 187 105
155 178 80
163 186 105
158 182 121
152 175 80
164 186 111
157 180 103
161 183 120
156 177 105
162 184 125
157 179 105
156 178 95
166 188 102
159 180 102
161 182 88
161 182 114
152 173 80
153 174 84
159 181 108
148 169 105
151 173 95
151 172 102
156 177 105
144 165 95
146 167 72
147 168 92
149 171 88
145 165 92
143 162 108
145 165 88
147 167 102
152 171 108
146 165 105
145 165 99
139 157 105
144 162 88
132 151 88
141 160 80
142 161 62
135 153 108
133 150 76
127 144 76
125 142 84
132 150 72
131 149 62
118 133 67
123 140 80
118 135 67
106 123 111
99 122 113
86 110 95
91 114 94
109 131 121
91 114 99
88 112 95
101 124 120
96 120 110
89 114 107
88 114 88
97 121 113
99 123 108
89 115 102
109 131 100
106 129 115
112 135 100
80 107 92
105 126 95
158 176 44
149 162 36
149 162 40
147 160 18
140 154 25
135 149 25
138 154 0
113 132 70
75 104 105
70 98 95
77 104 92
69 97 90
78 104 102
65 95 90
84 108 84
79 104 103
84 109 92
81 106 78
76 101 84
95 113 57
101 122 76
99 121 57
73 93 57
74 95 57
68 89 62
54 81 67
48 77 70
51 81 80
48 78 65
51 82 80
50 80 60
50 80 90
52 82 78
51 82 84
52 82 88
55 87 84
55 87 90
54 86 90
51 82 74
52 82 84
52 82 88
50 80 83
53 84 88
53 84 86
54 86 92
54 86 82
50 80 87
52 83 88
52 83 92
51 82 88
51 82 70
50 81 60
51 81 76
52 83 76
52 82 80
52 84 74
51 81 80
51 82 74
51 81 82
51 82 80
51 81 80
55 82 51
67 87 74
80 98 44
88 104 25
81 95 0
93 107 0
82 97 0
96 110 0
95 109 0
94 107 0
100 114 0
98 114 0
104 120 0
93 106 0
104 120 0
81 95 0
107 122 0
89 104 0
107 124 0
102 118 0
106 122 0
97 112 0
110 126 0
110 125 0
115 131 0
108 125 0
96 112 0
114 129 0
104 121 0
114 131 0
118 136 0
115 130 0
102 120 0
109 127 0
130 148 0
124 143 0
115 132 0
113 131 0
120 138 0
117 134 0
118 135 0
108 126 0
125 142 0
117 134 0
129 146 0
118 137 0
133 151 0
117 135 0
126 145 0
123 141 0
131 150 0
127 145 0
129 147 0
136 154 0
129 147 0
130 149 0
133 152 0
132 149 0
126 144 0
133 150 0
130 151 0
129 148 0
133 152 0
134 151 0
136 156 0
135 155 0
135 154 0
134 152 0
137 155 0
141 159 0
126 143 0
131 151 0
130 149 0
139 157 0
141 161 0
149 170 0
142 161 0
139 158 0
136 155 0
133 154 0
139 159 0
148 168 0
143 162 0
141 159 0
147 167 0
136 155 0
135 152 0
142 161 0
138 157 0
149 169 0
138 154 0
142 161 0
139 157 0
144 162 0
147 166 0
150 170 0
147 166 0
145 162 0
150 168 0
145 165 0
151 170 0
146 165 0
143 163 0
153 173 0
146 166 0
155 175 0
150 169 0
144 162 0
145 163 0
150 168 0
149 168 0
156 176 0
155 176 0
156 176 0
156 175 0
148 167 0
146 164 0
149 169 0
144 164 0
153 173 0
158 177 0
154 174 0
146 167 0
156 174 0
147 167 0
155 174 0
158 177 0
158 175 0
146 165 0
148 166 0
153 173 0
151 171 0
156 173 0
159 179 0
156 177 0
153 172 0
158 178 0
161 182 0
149 167 0
153 172 0
155 173 0
158 177 0
157 175 0
161 180 0
160 180 0
156 175 0
156 175 0
156 175 0
162 181 0
157 177 0
159 178 0
154 174 0
157 176 0
154 174 0
157 178 0
158 178 0
159 177 0
160 179 0
161 181 0
160 178 0
156 174 0
162 184 0
160 180 0
155 175 0
161 182 0
157 175 0
158 178 0
159 179 0
164 185 0
156 174 0
158 177 0
161 181 0
160 178 0
163 183 0
159 181 0
166 186 0
157 176 0
163 184 0
162 184 0
163 181 0
163 184 0
162 182 0
167 187 0
161 181 0
165 184 0
168 189 0
161 182 0
166 187 0
163 181 0
164 184 0
162 182 0
160 180 0
162 183 0
164 184 0
167 189 0
164 182 0
166 187 0
165 185 0
162 182 0
171 192 0
165 184 0
165 188 0
165 186 0
166 187 0
163 182 0
170 191 0
163 183 0
169 189 0
179 202 105
174 197 99
173 197 80
169 193 88
169 192 88
172 195 99
173 196 92
175 198 125
171 194 84
176 198 84
175 199 102
172 196 84
174 197 99
173 195 84
166 190 76
171 195 95
168 192 84
171 194 95
169 192 95
175 198 88
171 194 105
173 196 95
172 196 108
168 191 102
167 191 80
170 194 120
171 195 88
176 200 92
171 195 102
172 195 76
169 193 102
173 197 105
173 196 88
170 193 105
172 196 108
166 190 92
169 192 84
174 196 102
169 193 102
161 185 72
171 194 117
170 193 92
168 192 105
165 188 105
164 187 76
165 188 99
166 189 95
169 192 108
164 187 76
158 181 99
167 190 127
162 185 84
160 183 95
163 186 108
161 185 92
168 191 99
170 192 102
160 184 70
165 188 108
164 188 107
159 181 88
167 190 97
165 189 120
162 185 92
160 182 97
163 186 117
158 182 84
166 188 117
156 179 88
163 187 99
156 178 111
166 188 114
163 184 95
162 183 108
157 179 84
159 181 108
156 178 92
165 187 99
165 186 108
153 174 95
161 183 72
159 180 120
160 181 114
147 168 67
150 172 80
152 173 95
157 178 114
150 170 88
147 167 102
155 175 99
159 179 125
150 171 95
155 175 99
144 164 99
142 162 92
152 171 111
144 164 80
138 158 84
134 153 84
144 164 99
142 162 92
130 148 76
136 154 80
147 165 108
132 149 95
134 151 102
133 151 76
136 154 76
128 147 76
133 150 95
120 137 76
118 133 62
121 138 62
119 135 84
94 117 92
91 115 114
98 121 111
103 125 114
92 115 97
88 112 107
80 105 99
84 109 86
81 109 92
95 120 97
91 117 107
100 124 102
95 119 108
94 117 94
99 124 100
98 121 99
107 128 97
147 165 51
157 173 0
150 163 31
149 163 0
144 158 25
144 159 25
142 158 18
135 153 0
96 118 74
69 97 74
67 97 90
79 104 97
64 93 100
68 96 88
75 103 103
76 100 75
78 104 88
80 104 67
70 93 54
79 99 60
102 124 61
103 125 54
84 103 54
93 109 0
101 116 0
85 101 0
90 105 0
71 89 25
87 106 47
71 91 65
56 81 54
59 85 57
52 83 82
49 78 65
52 83 84
51 82 72
52 83 84
53 84 67
50 80 84
52 83 72
50 80 74
51 81 80
55 87 78
49 80 60
50 80 78
49 79 70
52 84 78
53 84 72
53 85 88
51 81 76
51 80 82
52 83 82
53 83 88
49 79 76
51 81 82
61 88 62
63 87 57
71 92 47
79 98 51
84 100 36
87 101 18
77 92 0
77 91 0
93 107 0
93 107 0
96 109 0
94 109 0
91 105 0
101 116 0
96 112 0
102 116 0
89 102 0
97 111 0
96 110 0
114 131 0
103 119 0
79 95 0
101 117 0
99 114 0
102 117 0
108 124 0
101 118 0
116 132 0
109 125 0
107 124 0
116 131 0
100 117 0
109 127 0
104 121 0
99 116 0
116 133 0
104 123 0
103 119 0
108 125 0
105 122 0
111 128 0
110 127 0
122 139 0
108 125 0
113 128 0
127 145 0
126 145 0
122 140 0
123 140 0
127 146 0
127 143 0
125 144 0
117 133 0
130 148 0
129 148 0
122 140 0
131 150 0
119 137 0
135 153 0
132 149 0
121 141 0
131 150 0
133 153 0
135 155 0
134 152 0
134 152 0
134 153 0
138 156 0
138 154 0
129 149 0
138 156 0
140 159 0
136 156 0
139 159 0
133 153 0
134 151 0
141 159 0
138 156 0
143 162 0
134 154 0
137 156 0
146 165 0
137 157 0
143 161 0
133 151 0
145 165 0
136 154 0
139 157 0
148 168 0
138 157 0
138 156 0
146 164 0
146 164 0
145 166 0
147 167 0
149 169 0
140 159 0
145 167 0
139 158 0
150 171 0
147 167 0
141 158 0
145 166 0
147 166 0
146 165 0
151 169 0
147 165 0
152 171 0
146 166 0
153 172 0
145 163 0
148 167 0
148 165 0
143 162 0
148 169 0
148 167 0
150 170 0
148 168 0
150 170 0
149 171 0
145 164 0
156 176 0
149 168 0
151 171 0
149 169 0
154 172 0
151 172 0
151 172 0
152 173 0
149 170 0
159 178 0
153 172 0
162 183 0
153 172 0
156 177 0
154 173 0
158 178 0
153 174 0
155 173 0
160 180 0
161 180 0
147 165 0
154 174 0
163 183 0
152 172 0
157 177 0
154 174 0
159 179 0
152 170 0
157 177 0
164 183 0
156 174 0
152 171 0
155 176 0
157 176 0
160 180 0
158 179 0
158 177 0
162 182 0
161 181 0
160 180 0
159 180 0
160 181 0
157 176 0
156 176 0
159 179 0
158 176 0
162 183 0
159 180 0
161 181 0
157 177 0
160 180 0
159 180 0
161 181 0
158 176 0
160 181 0
165 185 0
158 178 0
158 180 0
163 184 0
163 183 0
159 180 0
167 187 0
163 184 0
157 177 0
164 186 0
155 173 0
166 185 0
164 185 0
166 187 0
162 183 0
162 183 0
161 182 0
160 180 0
164 183 0
166 184 0
163 183 0
161 182 0
165 185 0
167 188 0
162 184 0
166 186 0
166 186 0
168 187 0
166 186 0
165 187 0
163 184 0
163 185 0
160 182 0
165 186 0
166 189 0
165 185 0
166 188 0
168 190 0
171 195 84
171 194 80
169 193 67
177 200 111
176 199 108
169 192 84
176 199 120
172 195 95
175 197 95
170 194 88
170 194 88
170 192 72
169 193 105
171 193 99
169 192 92
172 195 99
170 194 105
174 198 84
170 193 88
176 199 102
167 190 99
173 196 111
170 193 95
173 197 99
163 186 95
169 193 80
167 190 102
169 192 84
171 195 108
170 193 88
168 192 76
176 199 102
161 185 95
165 188 84
167 191 99
171 193 105
169 192 92
166 190 92
169 192 76
170 193 108
165 189 88
162 185 80
164 188 114
167 191 95
167 190 95
166 189 117
167 191 108
166 189 102
164 187 80
165 188 92
165 189 102
164 187 111
169 192 114
160 184 92
163 186 76
167 190 107
167 191 88
169 192 95
164 188 99
163 186 95
159 182 105
156 178 92
163 186 94
164 187 100
165 188 108
159 182 102
165 187 100
158 181 95
161 183 92
161 184 76
152 175 80
166 189 110
160 181 99
165 188 127
161 183 114
155 177 92
151 173 102
163 185 111
149 171 92
155 176 80
157 178 84
143 164 84
160 181 114
154 176 92
158 179 108
158 178 102
161 182 120
145 166 99
144 165 76
138 159 76
153 174 111
158 179 105
136 157 95
151 171 99
144 164 84
141 161 92
134 154 84
148 167 95
147 166 99
132 150 88
137 154 88
144 163 102
140 159 92
142 160 102
139 158 92
132 149 92
114 131 72
139 158 67
118 135 84
113 130 51
122 139 44
127 143 88
107 124 51
115 129 76
101 116 67
91 110 90
86 109 94
92 116 90
90 114 84
101 123 120
94 117 94
94 118 101
75 101 94
101 125 99
91 116 111
92 117 95
98 121 94
101 124 114
100 123 105
105 128 110
102 125 100
141 157 60
155 171 0
146 160 18
148 162 25
138 153 18
142 160 0
132 148 18
134 150 18
132 148 0
95 117 76
72 100 82
64 93 99
73 101 96
66 94 76
75 103 94
83 107 94
80 104 75
76 100 88
87 106 51
96 114 36
98 119 60
93 115 47
93 113 47
96 112 0
93 109 0
82 97 0
86 100 0
91 108 0
86 101 0
79 93 0
95 109 0
84 98 0
90 105 0
77 92 31
84 99 25
71 88 40
74 92 40
72 90 47
51 74 40
72 93 65
66 88 60
66 89 47
57 80 47
72 92 47
66 88 67
66 88 60
65 87 67
76 97 40
77 95 51
71 93 57
70 89 40
77 93 31
87 102 31
83 98 31
83 95 0
94 109 0
70 83 0
91 107 0
89 102 0
83 98 0
69 83 0
88 102 0
83 97 0
96 109 0
89 103 0
96 111 0
81 96 0
95 109 0
88 103 0
88 102 0
96 112 0
88 103 0
90 106 0
102 118 0
104 121 0
103 120 0
100 116 0
102 116 0
107 122 0
92 108 0
108 125 0
111 128 0
110 128 0
104 120 0
97 114 0
110 126 0
108 126 0
126 144 0
113 131 0
118 135 0
109 127 0
127 144 0
122 141 0
131 149 0
114 132 0
113 131 0
130 147 0
125 143 0
117 134 0
122 139 0
123 141 0
122 141 0
124 143 0
120 138 0
132 150 0
122 139 0
124 144 0
126 144 0
124 144 0
122 138 0
123 142 0
129 146 0
121 139 0
129 148 0
124 144 0
130 149 0
130 150 0
130 149 0
134 153 0
134 152 0
135 153 0
136 155 0
128 147 0
128 148 0
135 154 0
132 150 0
138 158 0
136 155 0
131 150 0
142 163 0
139 158 0
141 161 0
138 156 0
137 156 0
147 167 0
138 157 0
140 160 0
137 157 0
142 161 0
140 159 0
132 152 0
148 168 0
143 162 0
137 157 0
151 169 0
144 164 0
133 154 0
137 155 0
140 159 0
143 163 0
145 163 0
136 155 0
147 167 0
145 165 0
145 163 0
143 162 0
149 169 0
144 165 0
144 164 0
149 169 0
136 155 0
152 172 0
144 163 0
147 166 0
159 180 0
151 170 0
140 158 0
148 168 0
151 168 0
146 165 0
154 175 0
144 165 0
155 171 0
150 169 0
151 168 0
156 175 0
150 170 0
156 176 0
149 169 0
149 167 0
142 161 0
152 170 0
154 175 0
149 168 0
152 171 0
156 177 0
150 168 0
151 171 0
158 178 0
160 182 0
153 172 0
156 175 0
159 181 0
160 181 0
156 176 0
155 175 0
153 175 0
158 179 0
155 173 0
164 184 0
160 180 0
157 175 0
158 177 0
152 171 0
160 179 0
162 182 0
159 179 0
157 176 0
159 178 0
159 177 0
158 178 0
161 182 0
159 178 0
159 178 0
154 173 0
160 180 0
158 178 0
160 179 0
155 175 0
163 183 0
163 182 0
158 176 0
154 175 0
159 178 0
162 182 0
162 183 0
163 181 0
159 179 0
159 180 0
162 183 0
161 180 0
155 177 0
159 181 0
161 180 0
167 189 0
166 185 0
162 183 0
153 173 0
160 181 0
165 186 0
162 182 0
164 185 0
163 182 0
158 177 0
165 186 0
161 181 0
168 190 0
162 182 0
167 188 0
162 181 0
163 183 0
168 190 0
162 183 0
166 187 0
166 187 0
168 188 0
168 189 0
171 190 0
165 186 0
163 184 0
161 183 0
167 188 0
165 186 0
167 189 0
168 190 0
169 190 0
163 184 0
167 188 0
161 181 0
169 192 72
175 199 102
176 199 102
177 199 120
177 200 120
172 196 80
171 194 92
172 194 95
169 192 80
176 198 120
169 191 114
172 195 99
176 198 108
169 192 99
174 198 88
168 192 76
172 196 92
164 188 84
171 194 84
176 199 105
169 193 99
171 195 122
173 197 111
169 193 84
169 193 80
167 191 108
172 196 105
173 197 114
166 189 108
168 191 99
168 192 105
166 190 99
169 192 88
170 194 111
164 188 88
163 187 92
170 194 105
172 195 102
175 198 102
167 190 99
163 187 92
163 186 88
164 188 72
161 185 95
168 191 102
166 191 99
165 189 92
162 186 88
174 197 114
165 188 92
163 186 95
164 188 88
160 183 62
163 186 90
171 195 117
168 191 114
160 183 97
164 186 113
165 187 76
162 186 105
161 184 97
160 182 102
161 183 80
165 188 95
164 186 86
153 176 90
152 175 94
161 184 118
163 186 99
156 178 111
155 178 80
164 187 99
161 184 105
157 179 102
155 177 99
160 182 105
152 174 95
153 174 99
150 172 88
154 176 80
164 186 111
152 174 102
158 179 111
154 176 92
157 178 95
146 166 88
154 175 105
144 166 67
157 179 88
156 177 111
147 167 88
143 163 92
158 178 95
144 164 95
142 163 84
141 160 84
143 163 92
147 167 111
147 166 110
129 147 80
139 157 117
142 162 88
134 152 80
126 145 51
133 152 62
136 154 92
130 149 76
128 146 76
127 146 76
137 154 76
117 133 67
100 116 57
123 140 72
111 127 76
108 123 76
116 131 80
93 110 60
94 115 97
89 110 100
93 115 105
90 112 95
99 121 107
82 106 94
93 118 103
92 117 111
107 130 99
100 121 110
101 124 92
97 121 97
106 127 105
103 125 92
136 154 36
157 171 18
144 158 18
147 162 0
140 152 25
143 157 18
131 146 25
132 149 25
123 141 0
124 143 18
98 120 84
65 93 92
70 96 92
73 99 82
75 100 95
76 99 70
81 105 51
74 97 74
86 101 25
94 112 25
92 112 67
108 129 47
90 109 36
88 103 0
89 104 0
88 104 0
96 111 0
85 100 0
96 110 0
95 109 0
83 98 0
86 100 0
84 98 0
78 93 0
97 111 0
98 112 0
78 91 0
98 112 0
74 87 0
81 95 0
90 104 0
70 84 0
59 74 0
81 96 0
88 102 0
75 89 0
81 94 0
78 92 0
101 116 0
80 94 0
73 88 0
84 99 0
87 102 0
86 101 0
97 112 0
83 100 0
87 100 0
104 119 0
92 109 0
93 108 0
92 107 0
97 111 0
87 102 0
89 102 0
102 116 0
97 113 0
97 113 0
87 101 0
99 113 0
97 113 0
92 108 0
100 116 0
106 122 0
104 120 0
111 127 0
109 124 0
102 118 0
111 127 0
116 132 0
102 119 0
124 141 0
94 111 0
106 121 0
124 141 0
108 124 0
99 115 0
118 135 0
107 123 0
131 148 0
107 124 0
124 140 0
110 128 0
102 121 0
120 139 0
121 138 0
110 127 0
112 130 0
127 145 0
120 138 0
122 139 0
126 143 0
123 141 0
111 131 0
124 141 0
128 145 0
114 130 0
122 142 0
135 153 0
135 155 0
122 139 0
133 152 0
125 144 0
126 143 0
130 149 0
130 149 0
138 159 0
138 156 0
132 151 0
133 152 0
146 165 0
133 152 0
131 148 0
132 150 0
125 144 0
130 146 0
129 148 0
129 148 0
134 154 0
140 161 0
138 157 0
133 152 0
136 155 0
140 159 0
125 144 0
140 160 0
138 156 0
146 164 0
142 161 0
139 157 0
148 169 0
150 169 0
150 168 0
140 160 0
142 161 0
140 159 0
146 166 0
139 158 0
151 170 0
143 163 0
137 158 0
141 158 0
144 163 0
155 174 0
149 169 0
145 163 0
146 167 0
145 165 0
149 169 0
149 170 0
158 178 0
144 163 0
156 176 0
151 171 0
151 170 0
149 168 0
148 168 0
147 163 0
150 169 0
147 166 0
147 166 0
149 169 0
156 177 0
156 177 0
157 177 0
145 166 0
156 177 0
155 173 0
144 161 0
148 166 0
153 172 0
155 176 0
154 173 0
151 172 0
159 180 0
153 175 0
154 174 0
151 170 0
156 178 0
161 180 0
153 173 0
155 174 0
157 178 0
159 179 0
157 177 0
166 187 0
155 174 0
160 181 0
148 166 0
159 180 0
166 187 0
154 174 0
158 176 0
153 173 0
154 174 0
152 172 0
157 177 0
158 177 0
152 172 0
158 178 0
161 182 0
157 175 0
158 178 0
163 183 0
155 175 0
157 176 0
160 181 0
158 179 0
159 179 0
161 182 0
159 176 0
157 176 0
158 177 0
157 178 0
160 180 0
158 177 0
165 186 0
159 179 0
166 186 0
163 182 0
161 181 0
158 177 0
164 185 0
161 181 0
163 184 0
161 180 0
161 182 0
166 187 0
162 180 0
160 180 0
162 185 0
163 184 0
166 188 0
165 187 0
166 188 0
167 187 0
166 188 0
161 180 0
166 186 0
157 178 0
162 183 0
168 190 0
161 181 0
162 182 0
168 190 0
166 187 0
161 181 0
163 183 0
167 188 0
161 181 0
166 188 0
165 187 0
164 184 0
165 187 0
165 185 0
162 184 0
168 190 0
166 187 0
166 187 0
167 189 0
170 194 92
168 191 72
178 201 95
170 193 92
174 196 102
174 197 99
177 199 105
168 191 72
173 195 122
178 202 117
178 200 114
173 196 92
175 198 117
173 196 99
172 196 92
171 194 105
175 199 102
168 192 80
176 199 117
170 193 105
169 193 102
168 191 92
174 197 99
169 192 99
168 192 84
168 191 88
168 191 108
168 192 84
172 195 92
167 190 99
162 186 92
167 191 88
166 190 105
169 192 108
168 192 80
164 188 84
165 189 102
171 195 99
171 195 102
165 188 88
170 193 105
171 195 99
164 188 92
171 194 84
164 187 105
161 185 84
163 186 76
164 187 108
161 185 102
169 192 102
162 185 99
159 183 82
170 193 102
164 187 105
163 187 102
162 185 80
166 189 88
165 187 99
167 190 105
160 182 88
160 182 95
160 182 95
164 188 107
164 187 92
156 179 88
164 187 95
163 186 102
161 185 92
152 174 103
161 183 108
161 184 95
165 188 108
158 181 103
156 179 84
161 183 105
163 184 102
160 182 95
153 174 80
155 177 76
160 181 102
152 175 62
147 169 92
154 175 99
154 174 102
156 177 102
149 170 72
157 179 111
146 166 92
157 178 92
153 174 88
154 175 88
145 165 95
139 159 80
148 169 76
153 173 120
152 172 95
142 161 95
144 164 92
146 165 102
134 153 88
143 162 99
143 162 80
144 163 102
131 150 62
138 156 76
144 163 80
139 156 92
128 147 67
127 144 76
141 159 88
121 139 51
105 122 57
121 137 80
122 137 84
113 129 57
104 117 62
127 142 95
109 124 74
80 102 88
76 97 74
76 100 88
96 118 92
94 116 92
105 129 95
95 116 95
94 118 103
95 119 105
105 126 110
98 122 97
103 125 99
116 138 57
124 144 51
157 173 18
145 160 0
146 162 0
149 167 25
146 163 0
140 156 18
133 150 18
134 152 0
131 148 0
115 132 0
96 117 70
77 101 76
75 100 76
70 96 82
74 100 76
79 104 76
96 117 60
104 120 0
114 130 0
109 128 40
99 120 40
94 112 25
99 115 0
93 109 0
103 118 0
75 91 0
91 104 0
86 101 0
92 106 0
97 111 0
99 114 0
86 99 0
99 113 0
91 105 0
85 99 0
101 116 0
86 102 0
84 99 0
82 96 0
97 112 0
91 107 0
68 82 0
97 113 0
92 107 0
96 110 0
91 105 0
93 108 0
88 103 0
100 114 0
78 93 0
84 98 0
86 99 0
100 115 0
84 98 0
90 105 0
91 105 0
100 115 0
90 104 0
101 115 0
97 113 0
98 112 0
98 114 0
97 111 0
93 109 0
99 113 0
96 111 0
93 107 0
101 117 0
99 115 0
110 127 0
96 114 0
100 117 0
103 120 0
104 119 0
113 128 0
103 120 0
111 127 0
107 123 0
92 109 0
101 117 0
111 128 0
119 138 0
108 124 0
113 130 0
121 138 0
113 130 0
113 131 0
110 128 0
103 120 0
120 137 0
117 136 0
114 132 0
114 130 0
121 138 0
110 127 0
113 129 0
123 141 0
125 143 0
118 136 0
117 136 0
121 139 0
124 141 0
139 158 0
117 136 0
122 141 0
128 148 0
129 147 0
121 141 0
132 150 0
125 144 0
134 153 0
125 144 0
123 141 0
126 146 0
124 143 0
132 150 0
135 155 0
138 158 0
135 153 0
129 146 0
124 142 0
133 152 0
134 154 0
137 157 0
145 163 0
141 160 0
143 163 0
145 165 0
134 154 0
135 154 0
139 157 0
140 161 0
128 147 0
146 167 0
143 162 0
142 162 0
141 159 0
145 166 0
144 163 0
137 156 0
145 166 0
144 164 0
148 168 0
142 162 0
146 167 0
145 164 0
147 166 0
144 164 0
138 157 0
152 170 0
144 164 0
146 165 0
146 165 0
145 163 0
140 160 0
147 168 0
153 171 0
149 170 0
144 164 0
153 174 0
145 165 0
154 174 0
149 169 0
150 170 0
154 174 0
154 174 0
146 167 0
153 174 0
150 169 0
156 177 0
154 174 0
151 171 0
141 159 0
154 174 0
153 173 0
151 170 0
154 174 0
148 168 0
156 176 0
155 176 0
156 177 0
151 172 0
159 178 0
152 173 0
154 174 0
145 164 0
153 174 0
156 175 0
153 173 0
158 178 0
158 177 0
158 177 0
159 180 0
163 184 0
153 174 0
158 179 0
161 182 0
160 180 0
157 178 0
160 180 0
156 178 0
161 180 0
160 180 0
158 178 0
158 178 0
157 174 0
161 181 0
160 179 0
156 175 0
156 175 0
160 180 0
160 180 0
159 179 0
163 183 0
156 175 0
155 175 0
158 179 0
165 185 0
162 184 0
161 182 0
159 177 0
162 184 0
165 186 0
164 183 0
159 180 0
160 181 0
165 184 0
158 178 0
162 181 0
163 183 0
159 180 0
161 181 0
156 176 0
163 183 0
165 186 0
160 180 0
161 182 0
159 180 0
155 175 0
164 184 0
162 181 0
161 183 0
165 184 0
163 184 0
162 183 0
162 182 0
160 181 0
162 184 0
168 190 0
165 185 0
163 185 0
165 187 0
164 184 0
163 183 0
168 189 0
162 180 0
166 185 0
164 185 0
169 190 0
162 182 0
168 188 0
168 190 0
160 182 0
165 187 0
166 187 0
165 185 0
165 187 0
164 185 0
174 198 84
169 191 92
173 196 99
171 194 105
176 199 105
170 194 99
176 198 120
173 197 102
171 195 95
172 196 88
175 199 80
171 194 99
171 195 84
174 197 114
169 193 76
175 198 92
175 198 117
167 191 67
172 196 114
173 197 92
171 193 95
174 197 92
176 200 122
167 190 84
169 192 105
169 192 108
173 196 114
169 192 80
170 194 111
167 191 92
170 193 99
172 196 122
166 189 84
162 186 95
166 190 95
169 192 88
167 189 92
169 193 102
165 188 88
170 193 80
166 189 102
163 186 95
163 186 76
164 186 80
167 191 95
165 189 105
165 189 99
166 190 92
165 188 102
165 188 67
165 188 84
166 189 105
168 192 99
165 188 105
163 187 95
162 185 92
160 183 99
160 184 114
165 189 102
160 183 95
156 179 111
164 188 99
166 188 105
163 186 107
165 187 92
167 190 105
158 182 84
148 171 80
163 186 99
165 187 88
166 189 103
158 181 97
160 183 88
167 189 105
158 182 92
149 171 57
153 175 102
160 183 102
155 177 95
155 176 92
154 177 84
155 176 95
156 178 80
156 177 99
158 179 88
161 183 105
157 177 99
148 169 99
149 170 92
159 180 108
156 176 108
149 169 88
152 172 95
159 179 114
139 159 92
153 173 95
140 160 84
143 163 99
141 160 99
152 172 102
136 155 84
139 159 92
135 152 76
140 159 84
140 159 88
145 163 102
124 142 76
133 151 80
125 142 62
131 149 72
132 148 88
129 146 88
129 146 76
126 142 80
108 124 67
119 135 72
102 116 67
113 127 62
122 136 84
125 143 99
95 117 84
83 105 80
95 117 100
98 121 99
104 125 113
104 127 90
101 124 99
95 119 94
99 122 99
101 122 80
121 140 51
122 142 62
156 172 0
155 173 0
145 160 18
142 156 25
137 152 31
143 161 31
122 140 0
135 151 0
128 145 0
131 150 0
115 130 0
96 114 31
80 102 80
64 91 76
74 97 57
85 109 78
98 114 0
99 114 0
114 131 0
118 136 0
113 133 36
110 127 36
91 107 0
95 112 0
95 112 0
99 115 0
101 117 0
96 113 0
103 119 0
100 115 0
90 105 0
96 110 0
95 109 0
97 112 0
91 105 0
82 96 0
92 108 0
100 116 0
89 103 0
87 101 0
86 101 0
96 110 0
85 100 0
77 91 0
83 98 0
88 103 0
82 98 0
94 108 0
66 82 0
87 102 0
77 93 0
90 103 0
89 105 0
95 109 0
87 102 0
93 107 0
103 119 0
88 104 0
90 105 0
83 97 0
100 116 0
93 109 0
90 105 0
96 111 0
96 112 0
94 111 0
103 119 0
97 113 0
96 112 0
96 113 0
103 119 0
106 121 0
107 124 0
110 127 0
106 122 0
109 126 0
99 115 0
110 127 0
100 118 0
102 118 0
107 123 0
104 120 0
116 133 0
110 127 0
111 129 0
115 132 0
121 138 0
123 139 0
114 131 0
105 122 0
115 134 0
123 141 0
116 131 0
122 139 0
122 139 0
123 141 0
123 141 0
116 133 0
116 134 0
118 137 0
125 144 0
115 133 0
129 148 0
127 146 0
122 140 0
131 150 0
120 139 0
132 152 0
126 144 0
132 151 0
119 138 0
130 149 0
125 144 0
129 147 0
135 155 0
118 136 0
138 157 0
127 146 0
137 155 0
138 157 0
139 158 0
137 155 0
147 165 0
140 159 0
147 167 0
141 160 0
133 151 0
137 156 0
133 151 0
141 161 0
137 157 0
138 156 0
131 151 0
146 166 0
137 156 0
148 170 0
145 165 0
129 149 0
146 164 0
134 151 0
138 157 0
142 163 0
140 160 0
139 159 0
145 165 0
140 161 0
136 154 0
144 161 0
149 169 0
155 176 0
148 168 0
154 174 0
149 168 0
145 165 0
140 162 0
154 175 0
146 166 0
147 167 0
153 174 0
147 167 0
150 169 0
154 174 0
146 164 0
145 165 0
145 166 0
142 161 0
148 169 0
151 171 0
146 166 0
148 167 0
153 175 0
145 164 0
152 174 0
148 169 0
156 175 0
153 174 0
154 174 0
154 174 0
157 178 0
146 167 0
156 176 0
153 173 0
158 176 0
154 175 0
154 173 0
153 174 0
160 178 0
149 168 0
157 177 0
160 179 0
154 174 0
160 179 0
153 173 0
158 178 0
161 181 0
155 175 0
158 176 0
160 181 0
147 164 0
156 178 0
153 173 0
152 172 0
153 172 0
157 177 0
154 172 0
156 175 0
156 177 0
162 184 0
158 177 0
153 174 0
160 180 0
161 182 0
159 178 0
161 180 0
160 180 0
161 179 0
163 182 0
161 181 0
162 182 0
162 184 0
157 177 0
158 178 0
167 187 0
162 184 0
164 185 0
156 174 0
160 181 0
160 180 0
165 186 0
160 181 0
160 180 0
162 183 0
167 188 0
163 185 0
162 182 0
166 188 0
163 184 0
164 185 0
165 186 0
161 182 0
158 178 0
162 182 0
162 182 0
167 188 0
167 189 0
161 182 0
160 181 0
165 186 0
163 184 0
164 185 0
165 185 0
163 183 0
168 189 0
165 186 0
165 185 0
164 186 0
159 180 0
164 185 0
167 188 0
163 184 0
161 182 0
167 187 0
160 181 0
170 191 0
167 188 0
169 192 0
168 190 0
165 186 0
174 198 92
175 198 99
175 198 80
168 192 95
172 196 92
174 197 117
170 193 105
173 197 92
177 201 108
173 196 88
168 192 84
172 194 84
172 195 95
173 195 102
172 195 117
170 194 72
173 196 92
170 193 95
175 198 95
165 188 76
169 192 92
170 194 76
170 193 111
171 194 99
174 197 102
167 190 92
172 195 88
162 185 95
166 190 88
163 186 95
169 194 92
167 191 99
167 191 84
171 195 108
168 192 99
174 196 99
164 187 99
165 188 99
166 189 105
164 187 92
168 192 102
163 187 99
165 188 95
165 188 76
169 192 95
162 186 99
165 188 99
165 189 108
165 188 72
154 178 76
160 183 99
169 192 102
166 190 111
154 176 86
166 188 117
162 185 105
157 181 94
158 181 84
159 182 88
160 183 105
164 187 102
165 187 102
167 190 102
163 186 102
165 188 80
161 185 114
161 183 92
164 186 92
157 180 114
158 181 99
157 180 92
158 181 95
168 190 102
155 178 95
161 183 88
155 178 72
153 174 88
154 176 105
156 177 105
153 176 72
155 177 95
153 175 80
156 176 102
153 174 84
147 169 88
160 181 102
145 166 72
151 173 92
153 173 102
156 177 92
155 176 88
151 172 99
150 170 95
147 167 95
157 177 111
148 168 80
150 170 88
150 169 99
149 168 111
145 164 102
156 174 127
148 167 102
127 145 84
138 156 99
136 154 88
140 159 80
138 157 92
130 148 95
133 150 95
139 158 88
136 154 95
123 139 67
121 138 57
105 120 44
99 115 62
129 145 84
117 132 92
125 140 76
101 116 67
99 113 62
109 124 78
92 111 76
83 107 82
89 113 84
91 114 90
106 129 94
96 119 100
96 120 94
89 114 84
104 126 74
112 131 18
126 144 36
158 176 18
153 169 0
150 167 18
144 164 0
147 166 18
137 155 18
141 159 0
127 142 0
124 141 0
115 131 0
124 141 0
113 129 0
98 114 0
102 120 18
84 101 18
95 109 25
101 116 0
110 126 0
107 124 0
118 136 0
117 135 0
109 127 0
95 111 0
103 119 0
92 107 0
97 114 0
104 121 0
107 122 0
102 119 0
99 114 0
100 116 0
96 112 0
82 97 0
84 99 0
85 100 0
101 118 0
92 107 0
71 86 0
102 118 0
95 110 0
86 101 0
75 90 0
85 98 0
92 107 0
105 120 0
86 101 0
91 106 0
91 106 0
94 109 0
84 100 0
102 117 0
90 105 0
105 121 0
98 113 0
96 111 0
89 105 0
88 104 0
100 116 0
98 114 0
103 120 0
108 123 0
102 118 0
98 113 0
93 109 0
102 118 0
97 112 0
89 106 0
111 128 0
110 127 0
103 120 0
104 121 0
106 123 0
106 123 0
110 127 0
114 132 0
105 122 0
114 131 0
112 130 0
118 135 0
102 119 0
111 126 0
118 136 0
118 133 0
120 136 0
112 131 0
112 127 0
123 141 0
124 141 0
122 139 0
116 135 0
120 137 0
115 133 0
130 149 0
105 122 0
120 139 0
107 125 0
125 144 0
121 139 0
123 142 0
127 145 0
124 142 0
128 145 0
123 140 0
131 150 0
131 149 0
123 140 0
126 144 0
120 138 0
130 148 0
117 137 0
134 154 0
128 146 0
132 152 0
134 154 0
137 156 0
130 149 0
139 158 0
134 152 0
141 160 0
131 150 0
131 150 0
131 150 0
143 162 0
127 144 0
135 154 0
132 152 0
139 159 0
146 165 0
149 169 0
146 165 0
138 158 0
137 155 0
149 169 0
147 168 0
150 169 0
137 156 0
141 160 0
148 168 0
141 162 0
141 160 0
155 175 0
137 157 0
141 162 0
142 161 0
137 157 0
145 164 0
146 166 0
146 166 0
140 159 0
155 173 0
135 154 0
152 173 0
144 163 0
147 167 0
150 171 0
144 164 0
154 175 0
143 163 0
151 171 0
151 170 0
141 160 0
147 168 0
145 164 0
149 169 0
157 177 0
151 169 0
158 179 0
151 173 0
151 171 0
145 166 0
149 168 0
150 172 0
147 168 0
151 170 0
146 165 0
152 173 0
146 165 0
152 172 0
151 172 0
149 169 0
152 168 0
162 183 0
154 174 0
154 173 0
154 173 0
157 176 0
161 182 0
158 176 0
149 169 0
157 177 0
151 170 0
147 166 0
157 178 0
162 182 0
153 175 0
157 178 0
153 174 0
163 185 0
156 177 0
160 181 0
159 179 0
156 177 0
165 186 0
157 177 0
158 179 0
158 180 0
161 183 0
158 178 0
157 176 0
160 182 0
157 176 0
162 183 0
159 180 0
159 180 0
162 183 0
162 184 0
162 182 0
158 179 0
159 180 0
160 181 0
163 184 0
161 181 0
166 184 0
161 181 0
158 177 0
159 180 0
159 180 0
162 182 0
161 183 0
164 187 0
163 181 0
165 185 0
164 181 0
161 180 0
159 178 0
163 186 0
165 186 0
165 184 0
164 184 0
166 186 0
162 183 0
159 178 0
170 192 0
161 183 0
162 182 0
159 181 0
167 187 0
165 186 0
166 186 0
164 185 0
166 187 0
164 185 0
169 190 0
168 188 0
166 185 0
162 183 0
165 185 0
169 192 0
164 186 0
164 185 0
168 190 0
164 184 0
168 189 0
164 184 0
170 192 0
162 182 0
168 189 0
163 183 0
172 195 84
172 194 76
173 196 117
173 196 84
175 198 95
178 201 108
174 197 99
175 198 117
174 198 105
171 194 84
166 189 57
170 192 88
167 189 84
174 196 108
168 192 80
170 193 92
170 194 95
171 194 108
174 197 122
175 197 105
174 198 105
170 192 108
166 189 57
170 193 95
171 194 105
170 193 99
172 194 108
173 197 102
171 194 88
169 192 76
164 187 84
170 194 88
167 190 114
162 186 80
167 191 92
169 192 105
171 195 105
167 190 114
165 188 102
170 193 76
167 190 95
162 185 92
164 187 99
167 190 105
166 189 92
174 197 102
160 183 67
165 189 117
161 184 84
167 190 92
158 181 105
160 184 99
163 186 95
167 191 114
166 189 108
165 187 111
161 184 92
165 188 95
163 186 103
160 183 94
167 190 99
164 187 95
165 189 99
160 183 115
159 183 80
160 183 111
157 179 100
158 180 90
165 188 105
160 181 76
152 175 84
160 182 105
172 193 125
158 181 88
159 181 108
157 179 95
156 178 117
147 169 84
159 181 114
149 172 88
153 175 72
159 181 105
147 169 80
156 178 114
155 176 92
158 180 99
153 174 95
153 175 95
151 171 95
142 162 84
158 179 117
152 172 88
148 168 99
150 170 80
155 176 102
146 165 80
145 165 80
143 163 102
148 168 102
144 164 92
145 164 105
139 159 84
147 166 105
135 154 80
146 166 88
138 156 95
135 153 80
130 148 84
126 144 84
132 151 88
148 165 95
128 146 80
123 140 72
121 137 67
116 134 67
129 145 88
127 143 72
117 132 57
117 131 76
110 125 44
106 121 67
108 123 51
107 123 60
107 127 70
84 107 67
98 120 110
90 114 102
105 127 100
101 122 100
113 131 51
129 146 25
127 147 44
158 177 0
153 171 0
149 168 0
149 168 0
144 163 0
144 163 0
131 147 0
130 147 0
134 152 0
124 139 0
105 121 0
123 138 0
108 124 0
96 112 0
101 116 0
106 120 0
103 117 0
104 121 0
108 124 0
122 140 0
118 136 0
105 123 0
97 113 0
100 118 0
104 120 0
105 123 0
108 124 0
94 110 0
97 112 0
97 113 0
92 108 0
94 110 0
103 117 0
106 123 0
91 107 0
105 120 0
100 115 0
92 106 0
100 116 0
96 111 0
94 109 0
94 109 0
96 112 0
102 117 0
100 115 0
102 117 0
100 115 0
90 106 0
95 110 0
92 108 0
89 104 0
95 111 0
101 116 0
104 119 0
108 123 0
97 113 0
90 105 0
104 120 0
91 107 0
103 118 0
96 111 0
98 114 0
94 110 0
108 126 0
92 109 0
98 113 0
103 120 0
106 123 0
100 117 0
96 111 0
105 121 0
98 114 0
119 137 0
106 123 0
95 113 0
104 120 0
113 130 0
106 123 0
101 118 0
110 127 0
111 127 0
118 135 0
114 131 0
106 123 0
128 147 0
111 130 0
121 138 0
117 133 0
120 139 0
111 127 0
112 131 0
104 121 0
122 140 0
122 141 0
127 147 0
131 150 0
129 148 0
115 133 0
126 145 0
127 146 0
123 142 0
125 145 0
128 146 0
123 141 0
125 143 0
129 147 0
137 154 0
132 150 0
143 162 0
119 139 0
136 156 0
127 147 0
140 159 0
138 158 0
139 159 0
144 163 0
139 158 0
137 158 0
136 155 0
140 161 0
137 157 0
142 161 0
127 145 0
149 169 0
128 147 0
142 162 0
135 157 0
139 159 0
136 156 0
138 157 0
136 157 0
136 155 0
140 158 0
147 167 0
147 167 0
151 173 0
147 167 0
141 161 0
141 164 0
144 164 0
152 172 0
150 169 0
145 165 0
150 170 0
150 170 0
154 174 0
139 158 0
138 155 0
154 175 0
141 161 0
146 165 0
158 177 0
147 166 0
144 165 0
142 162 0
145 164 0
141 161 0
148 169 0
143 163 0
149 168 0
150 172 0
145 165 0
148 170 0
146 165 0
147 168 0
148 169 0
145 165 0
153 173 0
149 170 0
150 171 0
152 172 0
150 171 0
148 167 0
153 173 0
147 168 0
154 176 0
155 175 0
154 174 0
149 169 0
151 170 0
153 173 0
156 176 0
160 179 0
156 175 0
151 171 0
155 174 0
158 179 0
161 181 0
155 175 0
154 174 0
158 179 0
159 179 0
154 175 0
153 175 0
161 180 0
164 184 0
153 173 0
164 185 0
160 180 0
153 172 0
157 177 0
160 181 0
158 178 0
156 176 0
160 180 0
161 182 0
150 170 0
157 176 0
160 182 0
157 177 0
160 180 0
157 177 0
161 182 0
161 181 0
160 180 0
161 182 0
164 185 0
163 183 0
163 182 0
161 181 0
163 183 0
161 180 0
165 185 0
162 182 0
159 178 0
156 176 0
162 185 0
159 179 0
162 183 0
156 178 0
160 180 0
165 185 0
161 182 0
159 180 0
167 188 0
167 189 0
160 180 0
161 181 0
170 191 0
162 182 0
163 185 0
161 181 0
164 184 0
166 186 0
163 184 0
159 179 0
165 185 0
167 188 0
164 185 0
161 183 0
166 187 0
164 186 0
170 192 0
166 186 0
163 183 0
167 188 0
167 188 0
164 183 0
164 185 0
164 184 0
164 185 0
164 184 0
165 186 0
169 190 0
168 187 0
162 181 0
162 182 0
167 189 0
174 197 105
171 193 80
174 197 95
174 197 105
173 197 102
176 199 117
176 199 92
175 197 99
166 190 99
170 194 95
174 197 92
174 198 88
173 195 105
175 197 105
170 194 92
168 191 105
167 190 80
172 196 108
171 194 102
169 193 111
170 194 102
168 191 80
174 197 125
171 194 105
171 195 111
172 195 88
170 193 99
171 194 99
169 192 99
172 195 95
169 192 102
169 192 99
165 188 92
166 189 99
172 195 92
163 186 95
161 185 72
170 193 105
170 193 99
164 187 99
162 185 95
167 191 108
156 179 62
164 187 108
165 189 72
166 189 92
160 183 95
162 186 102
165 188 108
166 189 88
164 187 84
161 184 88
159 182 97
166 189 102
159 182 92
164 186 102
165 188 94
167 190 107
165 187 84
164 187 99
170 192 102
160 183 92
150 172 77
164 187 92
161 183 102
156 179 90
161 184 88
149 171 76
166 188 108
160 182 72
163 185 111
162 184 125
155 177 95
154 176 95
159 182 84
162 183 111
162 183 111
156 179 95
163 184 105
158 179 111
157 179 108
159 181 102
156 178 102
155 176 92
153 174 88
157 178 102
155 177 102
152 172 108
158 179 84
153 175 84
160 180 120
141 162 72
144 163 72
154 175 111
150 171 80
152 173 105
147 168 84
139 160 76
152 172 111
147 166 111
151 170 105
137 157 92
145 164 99
148 167 114
140 159 102
134 153 92
150 170 99
143 162 95
128 147 76
136 155 84
130 148 76
137 156 67
131 149 57
122 138 76
116 134 72
111 128 67
129 146 80
114 130 57
110 126 76
123 139 72
116 133 57
104 118 67
116 132 76
105 120 57
110 124 80
103 118 67
104 122 67
120 139 84
129 146 54
126 144 0
127 143 25
126 143 0
152 170 0
157 177 0
156 174 0
145 162 0
148 167 0
143 160 0
134 153 0
136 154 0
130 149 0
122 139 0
122 140 0
111 128 0
110 128 0
107 124 0
102 116 0
102 118 0
114 130 0
116 134 0
100 117 0
110 127 0
117 135 0
118 135 0
95 112 0
99 114 0
110 126 0
105 122 0
103 120 0
95 109 0
87 103 0
98 114 0
110 127 0
106 121 0
86 101 0
114 130 0
120 136 0
104 120 0
106 121 0
97 113 0
102 119 0
105 121 0
104 120 0
109 125 0
87 103 0
91 106 0
96 111 0
109 125 0
109 125 0
96 111 0
90 106 0
98 114 0
98 114 0
97 113 0
109 125 0
102 118 0
94 110 0
97 112 0
94 109 0
110 126 0
104 122 0
101 118 0
97 113 0
101 118 0
100 116 0
114 131 0
105 122 0
105 122 0
109 125 0
97 115 0
112 129 0
111 129 0
117 134 0
116 134 0
113 130 0
104 121 0
115 132 0
106 123 0
110 126 0
110 126 0
101 118 0
110 127 0
119 137 0
106 122 0
114 132 0
118 135 0
117 135 0
108 125 0
120 138 0
118 136 0
115 134 0
118 137 0
121 139 0
120 138 0
108 127 0
133 152 0
128 147 0
121 139 0
127 147 0
129 147 0
117 136 0
120 139 0
117 136 0
139 158 0
134 152 0
125 143 0
130 151 0
131 150 0
128 144 0
128 145 0
127 146 0
130 149 0
140 159 0
134 155 0
133 151 0
134 153 0
140 159 0
131 151 0
133 151 0
143 162 0
140 159 0
131 150 0
137 156 0
131 148 0
137 158 0
135 155 0
137 157 0
135 154 0
147 169 0
133 152 0
142 162 0
136 156 0
137 156 0
136 155 0
141 161 0
138 156 0
147 167 0
146 166 0
143 163 0
141 161 0
147 168 0
139 158 0
136 154 0
144 164 0
148 169 0
141 161 0
146 169 0
141 161 0
144 163 0
155 176 0
142 162 0
141 160 0
149 170 0
150 170 0
146 166 0
148 168 0
142 162 0
155 176 0
156 177 0
150 171 0
148 167 0
151 171 0
149 171 0
150 170 0
154 175 0
147 167 0
150 170 0
152 173 0
152 171 0
152 172 0
153 172 0
144 166 0
154 175 0
157 176 0
151 171 0
161 182 0
157 178 0
154 173 0
152 172 0
153 174 0
154 174 0
157 176 0
151 172 0
155 173 0
159 179 0
154 176 0
157 178 0
155 172 0
155 175 0
159 180 0
157 178 0
159 179 0
160 180 0
156 176 0
151 169 0
154 175 0
153 172 0
155 175 0
157 177 0
150 170 0
161 182 0
156 176 0
159 179 0
151 169 0
158 179 0
158 178 0
161 182 0
160 180 0
155 173 0
160 182 0
159 180 0
156 175 0
157 179 0
157 177 0
163 183 0
154 174 0
158 179 0
161 182 0
162 185 0
162 182 0
162 182 0
159 181 0
158 178 0
164 184 0
159 179 0
158 179 0
159 179 0
164 186 0
155 175 0
164 187 0
155 175 0
163 184 0
158 179 0
163 184 0
163 185 0
163 185 0
162 182 0
152 174 0
164 185 0
163 186 0
159 177 0
163 183 0
162 183 0
163 185 0
166 187 0
162 183 0
167 188 0
166 187 0
162 184 0
166 185 0
169 190 0
162 182 0
165 185 0
167 189 0
162 183 0
167 188 0
163 184 0
162 184 0
171 192 0
166 189 0
170 192 0
166 187 0
172 194 0
165 187 0
163 184 0
163 186 0
166 188 0
166 188 0
165 186 0
161 181 0
169 192 114
176 199 111
176 199 114
177 199 120
173 196 88
177 200 105
167 190 102
174 196 88
174 197 88
171 194 92
167 191 92
170 193 102
176 199 102
170 194 92
165 189 95
168 191 95
172 195 95
171 195 84
176 200 117
174 197 102
174 197 117
167 191 88
170 193 95
169 191 88
165 190 114
171 194 95
170 193 88
167 190 88
161 184 72
166 190 88
168 191 80
168 192 99
161 184 80
174 197 88
164 188 95
172 195 102
164 187 80
166 189 84
170 193 102
163 186 95
167 191 102
168 192 99
168 191 108
164 188 84
172 195 105
165 189 92
166 189 102
167 190 95
171 195 108
167 190 88
162 186 102
168 191 99
160 183 88
168 191 110
162 185 84
161 184 97
163 186 84
156 179 88
159 182 88
165 187 103
160 183 100
160 184 99
156 179 76
165 188 125
159 181 110
165 188 117
164 187 99
151 174 84
160 183 97
157 180 95
160 182 105
155 178 67
152 174 67
159 181 80
164 186 117
152 174 72
155 178 84
151 173 84
157 180 95
161 183 105
157 179 92
162 184 108
165 186 99
153 174 102
158 180 95
156 178 88
161 182 114
154 175 105
154 175 99
162 182 105
159 179 114
150 171 108
147 168 76
142 163 80
159 179 99
154 173 102
155 174 117
144 164 102
146 166 88
146 166 102
136 155 80
151 170 95
152 171 117
138 156 84
146 164 99
139 157 88
142 160 99
131 149 76
141 159 92
145 162 99
135 153 84
134 153 62
140 158 80
125 143 80
116 133 84
124 141 72
129 145 84
126 142 51
120 136 72
127 143 76
113 130 67
121 138 67
110 126 51
106 122 51
110 125 62
114 130 67
126 141 67
114 130 51
128 145 25
127 146 0
129 147 0
123 141 0
146 165 0
154 175 0
145 164 0
147 163 0
145 162 0
143 162 0
145 164 0
136 154 0
126 144 0
125 143 0
133 150 0
125 142 0
123 139 0
109 125 0
99 114 0
94 111 0
112 129 0
108 125 0
109 127 0
113 132 0
121 139 0
122 138 0
111 128 0
95 111 0
92 109 0
112 128 0
102 118 0
100 117 0
102 119 0
114 130 0
103 119 0
113 129 0
99 115 0
104 120 0
105 121 0
99 116 0
95 110 0
103 119 0
101 117 0
110 127 0
125 143 0
99 116 0
110 127 0
105 121 0
102 119 0
87 103 0
99 114 0
99 115 0
96 112 0
111 127 0
106 122 0
94 111 0
90 106 0
90 107 0
105 123 0
105 122 0
105 122 0
104 120 0
100 116 0
102 119 0
95 111 0
95 110 0
108 126 0
106 122 0
95 112 0
91 108 0
114 131 0
103 120 0
107 124 0
112 129 0
99 115 0
108 125 0
113 129 0
97 114 0
106 123 0
104 121 0
124 141 0
117 134 0
115 131 0
107 124 0
124 141 0
116 134 0
113 132 0
105 125 0
122 140 0
125 143 0
118 136 0
121 140 0
129 148 0
126 145 0
121 140 0
128 146 0
118 137 0
123 140 0
119 136 0
117 135 0
131 150 0
130 148 0
124 143 0
118 137 0
129 147 0
122 140 0
136 157 0
127 149 0
113 131 0
129 147 0
131 148 0
136 156 0
137 156 0
128 146 0
141 162 0
132 152 0
139 158 0
138 157 0
137 157 0
140 161 0
136 156 0
131 150 0
147 166 0
148 167 0
134 152 0
144 163 0
134 152 0
139 159 0
142 162 0
143 163 0
134 153 0
132 152 0
138 159 0
146 168 0
145 164 0
142 162 0
139 159 0
142 163 0
138 157 0
145 163 0
142 161 0
146 164 0
144 162 0
142 163 0
148 167 0
146 166 0
141 161 0
140 161 0
152 172 0
148 167 0
144 163 0
146 167 0
143 160 0
134 152 0
145 166 0
147 167 0
151 170 0
145 166 0
147 167 0
143 164 0
151 170 0
144 165 0
151 172 0
154 174 0
155 175 0
152 171 0
152 173 0
149 168 0
152 172 0
158 179 0
155 177 0
156 175 0
157 179 0
159 180 0
155 176 0
154 176 0
152 173 0
155 175 0
158 179 0
159 178 0
157 176 0
153 172 0
162 183 0
157 178 0
153 173 0
149 170 0
151 172 0
158 178 0
155 174 0
158 180 0
158 179 0
156 176 0
152 171 0
156 175 0
160 182 0
163 184 0
151 171 0
159 180 0
159 179 0
155 174 0
156 176 0
151 171 0
161 182 0
155 176 0
157 178 0
156 176 0
158 178 0
157 177 0
158 177 0
155 174 0
158 179 0
158 179 0
160 181 0
160 183 0
159 179 0
159 179 0
163 183 0
158 179 0
153 173 0
155 177 0
158 178 0
162 183 0
159 178 0
157 176 0
158 179 0
167 189 0
158 180 0
163 184 0
166 187 0
161 182 0
164 185 0
165 188 0
169 190 0
158 178 0
165 186 0
165 185 0
162 183 0
161 182 0
157 178 0
159 181 0
165 186 0
164 184 0
161 180 0
160 181 0
164 185 0
163 185 0
169 191 0
160 183 0
160 181 0
161 181 0
162 182 0
165 188 0
167 189 0
165 186 0
167 189 0
168 190 0
162 182 0
162 183 0
163 184 0
165 186 0
164 185 0
164 186 0
163 186 0
166 187 0
168 189 0
169 189 0
166 185 0
167 189 0
165 187 0
168 189 0
170 191 0
167 187 0
177 199 95
173 195 84
174 197 108
168 191 105
172 195 84
171 194 88
173 196 92
173 196 99
175 198 108
171 194 92
172 195 88
169 192 105
174 198 95
172 195 102
173 196 99
170 194 95
168 191 99
171 194 72
171 195 108
170 194 105
166 189 80
168 191 92
169 193 88
168 191 92
171 194 108
171 193 102
172 195 99
170 194 114
164 187 88
168 192 99
172 195 102
165 189 95
163 186 76
165 189 88
164 188 88
167 190 92
158 181 76
168 192 95
159 182 102
163 186 99
170 193 99
169 193 84
169 193 105
167 191 102
162 185 92
165 188 95
166 189 102
162 186 92
160 184 88
162 186 84
169 192 95
163 187 84
160 182 92
162 185 88
159 182 102
165 188 95
164 188 108
164 187 99
160 184 88
165 189 95
165 187 92
155 179 99
154 176 76
157 180 100
169 192 111
158 180 95
154 176 78
171 193 122
162 185 111
153 176 57
165 188 105
160 182 76
161 183 92
164 187 105
155 178 105
160 183 105
148 170 88
158 180 102
156 178 99
158 179 99
147 169 84
149 171 95
154 175 88
160 182 102
155 177 99
155 177 99
159 180 105
151 172 99
157 177 108
154 175 99
154 175 84
147 168 95
154 174 120
160 180 99
135 156 57
149 169 84
148 167 84
145 165 80
150 170 95
139 158 111
148 167 99
147 166 102
156 177 99
138 156 84
140 158 108
141 160 102
132 151 80
137 156 72
140 159 95
113 131 51
138 156 92
127 144 80
129 147 76
119 136 51
135 152 88
127 145 67
124 141 80
122 138 62
114 131 44
121 137 62
132 149 67
110 126 44
113 128 57
104 118 57
104 119 57
123 140 62
118 133 51
126 143 62
117 134 36
126 145 36
135 154 0
137 156 36
147 165 25
159 181 0
150 167 0
147 166 0
156 177 0
145 163 0
140 159 0
132 152 0
127 147 0
121 137 0
132 149 0
126 144 0
119 135 0
109 126 0
107 124 0
112 128 0
114 131 0
105 122 0
112 130 0
117 134 0
115 133 0
119 137 0
114 130 0
104 120 0
109 126 0
113 131 0
106 121 0
101 119 0
103 119 0
100 118 0
101 118 0
106 122 0
103 119 0
110 126 0
109 125 0
114 131 0
103 120 0
109 125 0
104 120 0
108 125 0
101 118 0
92 108 0
94 110 0
97 114 0
96 112 0
95 112 0
103 120 0
104 121 0
109 125 0
89 103 0
108 124 0
106 123 0
109 126 0
100 118 0
104 121 0
105 122 0
100 116 0
106 124 0
99 115 0
100 116 0
106 123 0
116 133 0
109 126 0
105 121 0
99 117 0
108 125 0
116 133 0
108 126 0
112 130 0
117 135 0
118 135 0
121 139 0
113 131 0
108 125 0
109 126 0
110 128 0
98 115 0
109 127 0
124 141 0
110 128 0
108 127 0
109 124 0
121 138 0
119 136 0
116 132 0
116 136 0
124 144 0
128 148 0
120 138 0
125 144 0
116 134 0
123 140 0
120 137 0
117 134 0
118 137 0
118 138 0
134 153 0
123 143 0
128 147 0
124 142 0
125 144 0
140 160 0
122 141 0
124 143 0
138 158 0
135 154 0
128 147 0
134 152 0
130 150 0
126 146 0
136 154 0
133 151 0
134 155 0
129 149 0
127 147 0
126 145 0
139 160 0
136 155 0
145 165 0
144 164 0
134 154 0
137 157 0
134 156 0
137 158 0
141 161 0
136 157 0
142 160 0
147 168 0
142 163 0
144 164 0
136 152 0
144 164 0
150 171 0
142 161 0
135 156 0
143 162 0
148 168 0
146 165 0
139 159 0
140 160 0
146 165 0
140 160 0
154 175 0
137 156 0
150 169 0
152 170 0
151 171 0
152 172 0
150 172 0
151 173 0
146 167 0
149 169 0
150 171 0
151 172 0
153 174 0
147 168 0
158 180 0
153 173 0
147 168 0
151 173 0
142 164 0
144 165 0
148 167 0
149 170 0
158 179 0
153 173 0
157 177 0
152 173 0
147 168 0
155 177 0
157 178 0
154 174 0
152 173 0
155 174 0
156 176 0
153 174 0
151 171 0
156 176 0
157 179 0
150 170 0
155 175 0
150 170 0
156 178 0
160 181 0
155 176 0
156 177 0
157 178 0
157 176 0
154 173 0
157 177 0
158 179 0
156 176 0
155 175 0
157 178 0
159 179 0
155 176 0
158 179 0
154 174 0
160 181 0
156 177 0
158 179 0
156 177 0
155 177 0
158 177 0
159 180 0
165 186 0
155 173 0
164 185 0
153 176 0
157 179 0
157 178 0
156 175 0
162 184 0
159 181 0
158 179 0
162 182 0
162 184 0
160 181 0
163 182 0
161 183 0
165 186 0
168 189 0
165 186 0
162 183 0
161 183 0
165 187 0
160 182 0
164 187 0
158 180 0
155 175 0
164 184 0
159 181 0
160 180 0
165 188 0
154 174 0
162 181 0
160 179 0
162 183 0
160 182 0
167 188 0
162 182 0
161 179 0
162 182 0
160 182 0
164 186 0
166 187 0
165 187 0
165 186 0
171 193 0
161 181 0
161 182 0
161 181 0
167 189 0
166 188 0
162 182 0
163 183 0
165 187 0
164 185 0
163 183 0
167 188 0
164 185 0
165 185 0
162 184 0
169 190 0
164 185 0
167 189 0
165 186 0
165 186 0
178 201 120
175 197 108
172 195 105
169 192 76
169 192 84
175 198 111
177 201 111
171 194 88
177 199 117
171 195 99
173 197 95
176 199 127
174 197 67
174 198 125
170 194 95
170 194 92
170 194 99
172 195 105
169 193 92
174 197 99
167 191 95
169 193 111
171 194 99
170 193 92
172 195 92
169 192 88
170 194 99
169 192 105
168 191 84
164 188 76
167 190 88
165 189 80
165 189 117
168 192 95
164 188 92
167 191 88
168 192 105
169 193 99
161 184 102
165 188 95
167 190 88
170 193 88
165 189 88
171 194 102
168 191 102
162 184 62
163 186 105
165 188 99
169 192 114
156 179 76
159 182 95
169 192 120
168 192 99
166 190 88
162 185 108
166 188 82
161 184 80
158 181 88
159 182 72
161 184 105
163 186 99
163 187 105
158 181 76
155 178 62
167 190 95
160 183 102
155 178 80
156 179 105
164 186 80
155 179 105
166 189 99
156 179 72
162 184 105
159 182 108
162 184 88
161 184 102
158 180 102
153 175 92
151 173 80
160 182 102
159 181 102
151 172 88
163 185 108
148 169 88
158 181 95
158 179 92
150 172 99
148 169 92
159 181 99
150 170 99
156 177 102
157 177 92
150 170 99
153 172 84
141 161 108
151 172 95
155 175 95
149 168 108
149 169 95
159 179 102
154 173 95
145 164 84
148 167 92
146 165 95
142 162 84
138 157 92
142 161 92
135 154 72
136 155 92
129 146 88
134 152 80
120 138 62
135 154 88
129 148 67
131 148 102
131 148 84
133 149 76
121 139 44
128 145 72
109 127 36
105 122 44
125 141 62
110 127 62
132 148 72
111 127 62
126 142 67
121 137 72
111 128 25
122 139 0
135 155 0
134 154 0
135 154 0
152 172 25
159 180 0
154 172 0
147 167 0
141 158 0
141 159 0
144 162 0
142 161 0
138 157 0
121 139 0
123 141 0
123 140 0
120 138 0
109 127 0
120 138 0
112 130 0
126 143 0
107 125 0
116 135 0
113 132 0
114 133 0
118 135 0
116 134 0
114 133 0
93 110 0
102 120 0
109 126 0
108 126 0
109 126 0
127 145 0
106 123 0
98 115 0
110 126 0
98 116 0
120 138 0
103 121 0
117 135 0
109 125 0
108 124 0
105 122 0
93 110 0
101 117 0
100 116 0
102 119 0
104 121 0
112 128 0
100 117 0
120 136 0
103 120 0
109 126 0
108 125 0
113 130 0
96 113 0
103 121 0
106 123 0
114 131 0
111 128 0
94 111 0
96 112 0
107 124 0
101 118 0
103 120 0
97 114 0
107 124 0
98 114 0
96 114 0
115 131 0
100 116 0
102 120 0
111 128 0
118 134 0
112 130 0
115 132 0
120 139 0
110 130 0
114 130 0
114 132 0
118 136 0
129 147 0
120 138 0
116 135 0
121 141 0
118 136 0
123 140 0
121 139 0
115 135 0
113 131 0
121 140 0
121 140 0
120 139 0
123 141 0
122 141 0
129 148 0
133 152 0
116 136 0
119 138 0
133 152 0
111 130 0
125 142 0
139 158 0
132 150 0
128 149 0
130 150 0
132 151 0
125 145 0
133 153 0
132 151 0
129 147 0
141 160 0
136 155 0
128 149 0
121 141 0
133 153 0
134 153 0
136 154 0
132 150 0
131 149 0
137 156 0
144 162 0
138 158 0
136 157 0
135 156 0
140 160 0
134 154 0
143 162 0
144 163 0
134 154 0
144 164 0
147 168 0
141 160 0
143 165 0
143 165 0
139 161 0
135 153 0
140 159 0
143 161 0
144 163 0
146 165 0
139 159 0
141 160 0
143 163 0
150 170 0
142 163 0
150 171 0
149 167 0
155 174 0
153 173 0
142 162 0
150 170 0
152 173 0
147 168 0
154 175 0
157 177 0
148 168 0
146 166 0
142 161 0
155 175 0
149 169 0
150 171 0
144 161 0
154 174 0
154 174 0
156 176 0
148 169 0
159 179 0
153 172 0
146 162 0
155 176 0
143 162 0
145 167 0
148 169 0
154 174 0
150 170 0
155 177 0
150 169 0
150 169 0
154 174 0
156 177 0
158 180 0
150 171 0
152 173 0
153 174 0
158 177 0
159 180 0
162 184 0
149 169 0
155 176 0
155 177 0
153 175 0
157 179 0
161 181 0
155 175 0
157 180 0
156 178 0
155 176 0
155 176 0
158 179 0
164 184 0
164 185 0
155 176 0
160 177 0
162 181 0
165 186 0
158 178 0
159 178 0
147 165 0
160 181 0
162 183 0
161 183 0
159 180 0
166 187 0
158 179 0
159 182 0
164 185 0
161 182 0
162 183 0
159 179 0
161 182 0
162 184 0
163 183 0
157 177 0
155 174 0
163 184 0
163 184 0
162 182 0
161 181 0
163 184 0
158 180 0
161 182 0
157 179 0
164 185 0
157 177 0
165 186 0
164 186 0
161 182 0
161 181 0
164 185 0
166 186 0
164 183 0
161 182 0
165 187 0
163 184 0
163 183 0
161 182 0
159 181 0
161 183 0
167 187 0
165 188 0
167 188 0
164 185 0
168 189 0
165 185 0
161 183 0
163 186 0
162 181 0
166 187 0
169 190 0
164 186 0
165 188 0
163 182 0
168 190 0
169 191 0
164 185 0
164 185 0
167 187 0
169 191 0
164 186 0
167 188 0
170 194 92
175 198 95
177 199 108
172 196 76
173 196 102
173 196 84
173 196 84
177 201 120
176 199 88
176 199 111
171 195 105
170 193 95
174 197 102
170 193 117
169 192 76
171 194 84
174 197 95
170 194 95
167 190 99
171 194 84
173 196 105
169 193 99
169 192 95
167 191 76
167 191 67
171 194 105
169 193 99
170 194 95
169 192 95
172 195 108
165 189 92
173 195 88
167 190 88
170 194 102
167 191 95
170 193 108
166 190 95
170 195 117
164 187 88
163 186 99
169 191 95
163 186 108
170 194 92
163 186 92
171 193 95
168 191 84
164 188 99
163 186 102
162 185 92
160 183 92
166 189 80
168 191 114
160 183 88
163 187 80
165 188 111
165 189 111
161 185 102
161 184 92
168 192 108
163 186 100
156 180 84
163 186 88
154 176 76
166 188 95
158 181 105
160 183 99
162 184 102
156 178 65
163 185 88
160 182 102
157 180 108
150 174 92
161 183 102
154 177 102
152 174 99
156 179 95
156 178 80
160 182 92
161 183 105
158 181 95
147 169 95
167 188 111
161 182 95
154 176 84
145 165 76
159 181 92
152 174 105
157 177 102
146 166 88
147 167 105
159 179 111
156 176 95
152 173 84
151 172 92
145 165 105
154 173 95
146 166 105
151 171 102
149 169 125
134 154 76
149 169 84
148 166 92
139 158 88
145 164 88
135 154 95
148 166 105
129 148 80
136 154 95
134 154 67
131 149 80
143 161 80
137 156 84
134 151 92
125 142 80
127 145 67
132 149 62
132 150 62
125 143 57
123 141 44
125 141 67
125 141 72
117 134 51
124 142 67
121 139 62
126 144 62
110 127 36
132 151 44
116 133 0
129 148 0
123 141 25
124 142 25
135 153 25
150 166 25
155 175 0
158 178 0
154 175 0
149 169 0
151 172 0
144 165 0
128 146 0
147 166 0
126 144 0
126 144 0
132 149 0
120 139 0
118 134 0
108 125 0
114 132 0
129 147 0
118 137 0
111 129 0
109 126 0
122 141 0
119 137 0
119 136 0
106 123 0
111 129 0
118 135 0
107 123 0
107 124 0
109 126 0
108 126 0
103 120 0
109 126 0
104 121 0
114 131 0
111 128 0
108 125 0
110 127 0
96 113 0
113 131 0
111 128 0
105 123 0
105 121 0
100 116 0
100 118 0
106 123 0
94 111 0
104 120 0
107 123 0
112 129 0
113 131 0
101 117 0
98 115 0
105 122 0
109 126 0
118 135 0
121 139 0
103 121 0
107 124 0
119 135 0
117 135 0
108 125 0
105 122 0
95 112 0
119 137 0
112 131 0
115 132 0
117 134 0
105 122 0
117 135 0
109 127 0
125 143 0
101 118 0
118 135 0
119 137 0
120 139 0
110 128 0
115 132 0
113 133 0
124 141 0
123 141 0
118 137 0
118 137 0
129 148 0
119 138 0
111 132 0
126 144 0
135 155 0
126 144 0
111 129 0
117 136 0
119 138 0
121 140 0
121 139 0
126 144 0
133 153 0
126 144 0
125 145 0
134 153 0
140 159 0
124 142 0
128 148 0
138 157 0
138 157 0
119 138 0
129 147 0
133 152 0
134 153 0
130 151 0
124 143 0
141 160 0
130 150 0
115 135 0
136 157 0
140 159 0
129 147 0
137 157 0
145 164 0
140 158 0
138 158 0
135 153 0
136 156 0
132 152 0
148 169 0
145 166 0
136 155 0
144 165 0
134 155 0
140 160 0
141 161 0
136 156 0
139 158 0
135 155 0
146 167 0
145 165 0
138 159 0
144 161 0
140 159 0
143 164 0
146 167 0
136 155 0
148 168 0
146 167 0
149 169 0
147 168 0
149 170 0
152 173 0
140 160 0
149 169 0
154 175 0
145 165 0
149 169 0
143 165 0
152 173 0
150 170 0
149 169 0
150 170 0
154 175 0
146 167 0
150 171 0
153 174 0
142 161 0
152 174 0
153 174 0
146 167 0
153 174 0
142 162 0
149 168 0
153 174 0
151 172 0
150 169 0
155 175 0
153 174 0
154 174 0
152 174 0
151 172 0
153 173 0
159 180 0
154 176 0
152 172 0
154 175 0
155 174 0
155 175 0
154 175 0
153 174 0
153 173 0
150 171 0
162 184 0
158 178 0
156 177 0
160 180 0
154 175 0
162 184 0
160 182 0
157 178 0
156 177 0
158 179 0
157 178 0
160 181 0
154 173 0
157 178 0
160 181 0
162 183 0
157 176 0
163 185 0
164 186 0
158 179 0
160 182 0
156 177 0
163 184 0
163 182 0
159 179 0
155 176 0
163 184 0
160 181 0
162 185 0
163 184 0
159 182 0
154 174 0
161 181 0
163 185 0
166 186 0
162 185 0
158 177 0
161 182 0
157 178 0
164 185 0
157 178 0
155 176 0
167 189 0
165 186 0
163 183 0
161 183 0
164 186 0
166 188 0
162 184 0
160 181 0
165 187 0
165 186 0
160 179 0
163 184 0
165 188 0
167 187 0
162 183 0
161 183 0
167 188 0
159 179 0
167 187 0
167 188 0
160 181 0
168 191 0
164 184 0
166 188 0
173 195 0
166 188 0
168 190 0
159 180 0
167 189 0
165 186 0
167 188 0
167 189 0
166 188 0
167 189 0
168 187 0
165 186 0
162 183 0
166 188 0
163 185 0
167 190 0
175 197 92
174 195 99
174 197 99
170 193 84
172 195 80
172 195 102
175 197 99
174 197 92
167 191 84
174 197 99
176 200 117
175 198 111
173 197 99
175 198 114
174 196 95
170 194 88
173 196 99
174 198 102
168 192 88
176 199 80
169 192 99
169 193 108
170 193 88
168 192 99
170 193 80
165 188 84
170 193 111
175 198 111
169 192 84
168 191 102
168 191 99
169 192 95
168 191 88
170 193 95
168 191 80
167 191 102
166 189 88
169 192 111
168 192 95
168 191 111
165 189 92
163 187 102
163 186 95
168 190 105
166 189 88
169 192 105
167 190 84
168 192 99
166 190 105
164 187 92
165 188 99
161 184 102
162 185 84
164 187 95
164 187 105
164 187 102
167 191 111
153 175 76
159 181 92
162 185 105
157 181 99
160 183 99
164 188 117
164 186 108
158 180 72
161 184 92
158 181 102
163 185 117
159 181 102
159 181 99
155 178 76
160 183 95
165 188 88
158 180 92
169 192 130
154 176 102
161 182 108
165 187 102
159 181 95
165 186 99
150 173 84
156 178 102
156 177 88
162 184 111
149 171 88
156 176 95
155 176 80
158 180 102
151 171 99
151 172 99
149 170 102
157 177 111
159 179 95
150 172 92
148 168 80
161 180 102
150 170 102
145 164 84
157 178 111
147 166 88
139 159 92
148 167 92
137 156 88
148 168 95
147 164 108
147 166 92
147 165 92
146 163 108
126 144 51
147 166 95
139 159 84
138 156 76
149 167 105
137 155 76
139 156 76
133 150 67
144 162 76
134 152 76
132 151 62
134 151 67
123 141 51
125 142 25
126 143 57
124 142 57
111 128 36
119 136 67
122 139 44
129 148 36
120 139 0
121 139 0
121 140 0
133 153 0
141 160 0
153 173 0
159 180 0
146 166 0
150 170 0
138 158 0
140 161 0
125 144 0
135 154 0
138 157 0
128 146 0
119 136 0
128 147 0
109 126 0
114 132 0
116 134 0
111 129 0
128 146 0
114 132 0
115 133 0
114 133 0
139 159 0
117 135 0
113 131 0
108 125 0
108 126 0
105 123 0
112 131 0
112 129 0
112 129 0
103 120 0
111 129 0
111 129 0
125 142 0
109 125 0
102 119 0
99 115 0
119 138 0
120 136 0
106 123 0
111 129 0
112 129 0
114 132 0
106 124 0
103 120 0
117 134 0
104 121 0
99 117 0
93 110 0
89 106 0
103 120 0
102 120 0
109 126 0
100 117 0
108 125 0
121 138 0
122 141 0
106 124 0
111 129 0
119 136 0
114 133 0
109 126 0
110 127 0
117 135 0
107 125 0
117 135 0
113 130 0
112 129 0
121 139 0
124 142 0
121 139 0
109 126 0
107 124 0
120 140 0
111 128 0
120 138 0
118 137 0
126 145 0
129 148 0
112 128 0
113 131 0
112 131 0
116 134 0
117 135 0
124 142 0
125 144 0
123 140 0
126 146 0
116 134 0
125 143 0
124 143 0
127 146 0
129 148 0
130 150 0
126 144 0
131 151 0
124 143 0
136 155 0
131 151 0
139 159 0
123 141 0
119 138 0
130 148 0
136 155 0
130 149 0
132 148 0
129 148 0
133 152 0
135 155 0
137 157 0
149 169 0
139 159 0
133 152 0
132 153 0
138 158 0
137 158 0
128 146 0
142 162 0
142 161 0
137 156 0
136 156 0
138 158 0
139 158 0
138 158 0
146 168 0
139 160 0
135 156 0
133 154 0
133 154 0
148 169 0
147 166 0
142 163 0
145 165 0
146 168 0
141 160 0
145 165 0
142 162 0
143 165 0
145 165 0
143 163 0
154 176 0
151 172 0
150 172 0
152 173 0
152 173 0
152 174 0
150 171 0
144 165 0
147 169 0
146 167 0
143 163 0
143 162 0
142 162 0
145 165 0
151 172 0
145 165 0
154 175 0
153 172 0
147 169 0
150 172 0
152 172 0
148 169 0
145 166 0
148 169 0
150 171 0
153 174 0
155 175 0
151 172 0
149 169 0
152 173 0
148 167 0
143 162 0
154 174 0
158 180 0
151 172 0
154 174 0
153 173 0
155 176 0
154 175 0
155 176 0
152 173 0
160 180 0
152 173 0
151 173 0
158 180 0
146 168 0
161 182 0
166 186 0
157 179 0
160 180 0
155 174 0
158 180 0
158 177 0
156 178 0
159 180 0
162 184 0
157 178 0
165 187 0
155 176 0
156 177 0
157 178 0
164 185 0
161 182 0
155 177 0
154 176 0
161 182 0
157 179 0
161 181 0
162 185 0
162 183 0
149 169 0
161 181 0
158 178 0
159 181 0
156 175 0
160 183 0
167 188 0
162 184 0
161 184 0
167 187 0
163 183 0
162 182 0
163 184 0
155 176 0
159 178 0
159 182 0
162 183 0
163 184 0
165 187 0
161 182 0
163 185 0
161 182 0
164 183 0
164 186 0
163 183 0
164 186 0
164 185 0
163 181 0
163 184 0
164 185 0
157 177 0
166 187 0
160 183 0
164 185 0
166 189 0
159 181 0
166 187 0
166 188 0
164 186 0
164 183 0
164 184 0
163 185 0
163 185 0
160 182 0
167 188 0
159 180 0
168 190 0
167 189 0
162 183 0
168 189 0
166 187 0
164 186 0
166 188 0
169 189 0
166 189 0
168 190 0
169 191 0
164 185 0
173 196 102
174 197 80
176 199 88
170 194 76
166 191 72
169 193 72
175 198 108
172 196 99
170 193 72
171 195 105
172 197 114
173 197 102
172 195 92
165 188 88
172 196 84
170 193 95
171 195 111
171 194 95
173 196 105
172 196 108
171 195 92
173 196 117
168 193 95
172 195 108
164 187 102
172 196 95
173 196 102
169 194 92
163 186 80
172 196 99
170 193 92
167 190 95
166 189 76
169 193 84
167 190 84
168 191 88
167 191 80
170 194 95
165 188 84
166 190 88
165 189 92
165 187 111
159 183 84
161 184 95
161 185 76
168 191 120
166 189 99
166 190 108
163 185 88
165 188 111
166 188 80
160 184 80
164 187 80
163 186 92
163 186 76
159 182 95
161 185 105
157 180 80
165 188 99
162 185 95
161 183 88
162 184 57
163 186 117
156 178 67
160 183 92
152 175 72
161 184 95
148 170 84
169 191 114
156 179 84
168 190 95
161 184 102
169 191 117
160 182 114
156 179 95
162 184 108
155 177 105
158 179 80
155 178 76
159 181 108
167 189 102
154 176 88
151 172 92
157 178 99
161 181 120
154 176 99
159 180 102
158 179 105
152 173 95
155 175 105
156 177 76
154 174 105
159 179 102
157 178 99
148 168 95
140 159 80
146 166 95
153 173 99
148 167 88
144 163 76
149 168 102
136 157 76
151 170 108
154 173 111
144 164 80
145 163 95
145 163 92
148 166 102
148 167 95
137 155 67
148 167 88
147 164 88
138 156 72
143 161 92
133 150 72
136 155 67
136 155 51
138 156 67
123 140 67
136 155 57
110 128 44
120 138 44
125 143 57
125 143 36
117 135 51
123 140 57
127 146 44
127 147 0
137 157 36
123 141 25
128 147 0
131 149 0
148 167 0
151 171 0
155 176 0
155 174 0
153 174 0
145 165 0
139 160 0
142 161 0
136 154 0
129 150 0
130 149 0
118 137 0
127 145 0
113 131 0
128 147 0
107 126 0
118 135 0
119 137 0
113 130 0
118 136 0
121 139 0
120 140 0
112 130 0
119 138 0
113 130 0
124 143 0
112 130 0
109 129 0
110 128 0
115 132 0
103 121 0
114 131 0
112 129 0
101 119 0
116 134 0
109 127 0
101 119 0
108 125 0
112 129 0
105 123 0
110 126 0
106 124 0
112 130 0
104 122 0
109 125 0
111 127 0
106 124 0
112 130 0
104 121 0
110 128 0
114 131 0
110 127 0
109 127 0
104 121 0
112 130 0
104 122 0
113 131 0
97 115 0
123 141 0
109 128 0
106 125 0
108 126 0
112 128 0
127 145 0
109 128 0
122 140 0
117 134 0
118 135 0
113 132 0
110 128 0
116 135 0
120 138 0
119 137 0
122 141 0
113 131 0
113 132 0
115 133 0
120 139 0
124 142 0
119 137 0
119 138 0
126 145 0
111 130 0
119 135 0
125 143 0
116 134 0
137 156 0
132 151 0
131 149 0
120 138 0
125 145 0
125 145 0
141 161 0
122 142 0
126 144 0
129 147 0
122 142 0
131 151 0
125 143 0
128 146 0
137 154 0
133 153 0
140 158 0
130 149 0
126 145 0
133 153 0
131 148 0
135 153 0
140 160 0
141 163 0
132 153 0
132 152 0
135 154 0
135 155 0
138 157 0
145 166 0
145 166 0
139 158 0
131 150 0
146 167 0
140 159 0
129 149 0
141 160 0
146 166 0
144 163 0
138 159 0
143 165 0
152 174 0
142 164 0
143 163 0
141 161 0
139 159 0
143 164 0
141 161 0
145 165 0
152 173 0
141 161 0
149 168 0
140 160 0
141 161 0
141 161 0
149 170 0
152 173 0
154 174 0
150 170 0
144 164 0
149 170 0
150 171 0
150 172 0
142 162 0
148 168 0
149 169 0
147 167 0
149 169 0
153 173 0
154 175 0
151 172 0
147 167 0
151 173 0
148 169 0
161 182 0
150 168 0
150 171 0
159 182 0
158 179 0
152 174 0
153 174 0
158 180 0
154 174 0
158 176 0
152 172 0
152 173 0
158 180 0
161 183 0
150 170 0
158 179 0
157 178 0
156 177 0
159 182 0
152 174 0
157 178 0
152 172 0
158 177 0
156 177 0
158 180 0
157 179 0
159 180 0
153 173 0
151 172 0
157 178 0
155 176 0
162 184 0
158 179 0
160 181 0
149 169 0
158 179 0
155 177 0
158 178 0
162 184 0
162 183 0
160 182 0
162 183 0
160 180 0
159 181 0
160 183 0
164 185 0
162 185 0
154 174 0
162 183 0
156 175 0
157 176 0
160 181 0
161 183 0
161 182 0
160 181 0
162 183 0
160 181 0
164 184 0
158 179 0
155 176 0
157 178 0
163 184 0
159 178 0
164 186 0
165 185 0
160 180 0
163 184 0
162 184 0
159 181 0
163 184 0
164 185 0
160 180 0
164 186 0
164 186 0
165 186 0
161 183 0
164 186 0
162 184 0
160 181 0
162 182 0
163 183 0
163 184 0
169 190 0
164 186 0
158 179 0
163 186 0
164 185 0
168 191 0
165 189 0
165 186 0
163 184 0
167 189 0
168 190 0
163 183 0
163 184 0
170 193 0
163 185 0
165 187 0
168 190 0
163 185 0
168 189 0
166 188 0
165 187 0
167 188 0
168 190 0
167 189 0
163 183 0
165 187 0
173 196 84
172 194 80
174 197 92
171 194 111
173 196 99
168 192 92
174 198 99
170 193 111
174 197 120
170 194 99
167 190 88
172 196 99
177 200 117
170 194 84
170 193 95
173 196 99
172 195 105
173 196 108
172 196 105
169 192 111
177 200 95
172 195 120
167 190 76
173 195 102
169 192 117
172 195 102
168 192 105
170 194 108
167 190 88
167 190 67
169 193 84
171 194 99
170 193 111
166 190 102
170 193 108
167 190 88
164 187 80
160 183 99
170 193 105
160 182 80
168 192 88
164 189 92
163 186 102
161 184 88
159 182 92
160 184 92
160 184 88
164 187 99
162 186 99
169 192 99
171 194 102
165 189 95
167 189 99
165 189 102
164 187 88
156 180 72
162 184 99
167 190 99
164 187 99
160 183 92
162 184 108
162 185 95
158 181 102
169 191 105
165 189 108
164 187 102
154 177 102
162 185 95
152 173 67
163 185 120
156 178 92
158 181 88
152 175 95
161 183 84
158 181 114
166 188 102
161 183 88
159 181 114
160 181 92
157 179 95
161 183 92
160 182 105
153 175 92
153 173 92
156 177 114
159 180 108
154 176 117
159 181 102
155 176 102
155 176 108
153 173 99
157 179 102
160 180 122
156 176 99
148 169 95
149 169 99
152 172 117
146 167 88
156 177 99
151 171 80
150 169 117
158 177 120
149 169 95
153 173 80
156 175 95
154 173 105
138 156 92
148 166 95
151 169 102
130 148 72
141 160 72
140 159 80
139 157 84
145 163 92
136 155 67
124 143 51
138 156 62
133 152 62
117 135 44
138 157 62
131 148 76
133 150 67
121 138 67
132 151 76
132 149 57
121 139 25
124 144 0
134 154 0
132 151 36
132 151 0
139 159 25
136 156 25
149 169 0
157 177 0
154 173 0
149 168 0
146 167 0
148 168 0
138 159 0
144 164 0
143 162 0
133 152 0
139 159 0
136 155 0
134 152 0
121 138 0
124 143 0
122 141 0
108 125 0
113 132 0
122 139 0
125 143 0
132 151 0
118 137 0
112 130 0
116 135 0
114 132 0
109 127 0
104 123 0
119 136 0
108 127 0
110 128 0
122 141 0
120 138 0
119 137 0
109 127 0
113 131 0
118 135 0
106 123 0
111 129 0
119 137 0
109 127 0
107 124 0
112 129 0
114 131 0
107 124 0
111 129 0
108 126 0
109 126 0
105 122 0
126 142 0
111 129 0
108 124 0
123 141 0
110 128 0
115 134 0
116 135 0
122 139 0
109 128 0
120 138 0
110 127 0
103 121 0
111 129 0
109 127 0
119 137 0
112 130 0
115 133 0
127 145 0
118 136 0
115 134 0
124 142 0
118 137 0
118 136 0
115 133 0
120 139 0
121 141 0
127 146 0
124 142 0
128 147 0
128 147 0
127 144 0
132 152 0
126 144 0
128 145 0
115 132 0
120 139 0
116 134 0
124 143 0
116 136 0
125 144 0
122 141 0
127 147 0
130 150 0
133 153 0
118 136 0
127 146 0
138 157 0
127 145 0
133 152 0
126 144 0
138 157 0
124 143 0
138 156 0
137 156 0
141 162 0
133 151 0
123 143 0
132 152 0
140 160 0
131 152 0
131 151 0
136 156 0
133 152 0
142 162 0
136 156 0
134 153 0
141 162 0
145 166 0
137 156 0
136 155 0
138 158 0
139 158 0
145 165 0
142 162 0
147 167 0
147 166 0
147 169 0
148 168 0
145 166 0
151 173 0
140 160 0
139 159 0
145 166 0
152 171 0
142 163 0
142 163 0
148 168 0
148 168 0
158 179 0
147 167 0
151 172 0
147 167 0
146 166 0
144 165 0
138 158 0
144 165 0
146 168 0
149 169 0
149 168 0
144 164 0
144 164 0
144 165 0
151 172 0
144 164 0
151 172 0
148 168 0
150 170 0
144 165 0
144 165 0
139 159 0
151 175 0
151 171 0
155 177 0
148 167 0
144 162 0
147 166 0
153 175 0
159 181 0
150 170 0
152 173 0
151 169 0
153 174 0
152 173 0
155 177 0
153 174 0
161 182 0
158 176 0
153 172 0
155 176 0
155 176 0
156 178 0
154 176 0
158 179 0
157 177 0
155 173 0
157 177 0
159 180 0
151 171 0
152 173 0
150 171 0
157 177 0
158 180 0
158 179 0
163 184 0
155 176 0
159 180 0
154 173 0
158 178 0
160 181 0
152 171 0
151 173 0
164 185 0
158 177 0
156 176 0
165 186 0
161 181 0
162 182 0
154 173 0
160 182 0
162 185 0
158 178 0
153 172 0
164 184 0
161 181 0
163 186 0
162 183 0
159 181 0
160 181 0
163 184 0
162 185 0
161 182 0
158 178 0
157 177 0
168 190 0
167 187 0
167 188 0
164 186 0
159 181 0
162 184 0
159 180 0
161 182 0
160 180 0
162 184 0
160 181 0
161 183 0
168 189 0
163 184 0
168 191 0
166 186 0
161 183 0
167 189 0
166 188 0
164 184 0
164 185 0
164 186 0
169 187 0
163 184 0
163 185 0
161 182 0
168 189 0
160 182 0
160 182 0
164 186 0
166 188 0
163 184 0
169 191 0
168 189 0
165 188 0
160 182 0
162 184 0
163 183 0
161 182 0
163 185 0
168 191 0
167 188 0
165 187 0
165 184 0
162 183 0
167 189 0
165 187 0
176 199 108
171 193 88
174 198 92
173 197 95
173 195 80
175 198 105
167 189 84
173 196 111
173 196 102
172 195 76
172 195 76
173 196 84
175 198 120
176 199 102
169 192 102
167 190 72
171 194 88
168 192 80
161 185 80
168 191 92
172 195 95
174 198 108
169 193 84
166 189 92
167 191 99
176 200 117
171 195 92
166 189 84
169 193 105
167 191 92
173 197 99
172 195 108
167 191 111
170 193 99
167 191 99
172 195 108
171 195 88
166 190 105
163 187 80
164 187 72
167 190 84
161 184 92
172 195 111
168 192 114
172 195 108
166 190 88
164 188 111
166 189 102
170 194 95
163 186 105
163 186 80
159 183 99
165 189 88
163 187 102
166 189 99
158 182 80
162 184 102
169 192 111
162 184 62
162 186 95
162 185 102
169 192 111
164 187 102
163 185 102
165 188 95
158 180 84
152 174 80
158 180 99
164 187 102
162 184 108
161 184 102
158 180 99
159 181 80
159 181 105
158 180 95
154 176 92
157 180 84
162 184 105
159 180 88
163 185 84
160 181 111
164 186 111
157 178 76
160 181 111
162 184 111
158 180 102
151 172 105
151 172 95
151 171 105
152 172 92
150 171 88
154 175 99
161 182 105
158 178 108
157 177 102
161 181 108
152 172 99
152 173 88
151 170 102
144 164 88
164 185 108
149 169 102
153 172 102
152 171 92
145 165 105
155 175 102
151 169 111
142 161 99
142 160 88
147 166 105
136 154 76
155 173 102
139 156 88
138 156 92
132 151 57
138 158 36
135 155 44
138 158 62
136 155 80
127 145 57
136 155 51
119 138 51
136 154 80
124 142 51
136 155 67
130 150 36
121 140 25
124 143 0
125 146 36
133 152 25
141 160 36
137 157 0
146 165 25
163 184 0
146 167 0
158 180 0
141 161 0
153 173 0
144 165 0
137 156 0
137 155 0
137 156 0
122 140 0
122 141 0
122 139 0
114 133 0
116 136 0
111 129 0
112 130 0
123 141 0
121 139 0
122 140 0
126 145 0
126 145 0
127 145 0
117 134 0
114 133 0
125 144 0
122 140 0
115 133 0
116 135 0
113 131 0
119 137 0
111 129 0
102 120 0
123 142 0
113 130 0
115 132 0
107 125 0
103 123 0
109 126 0
105 123 0
118 136 0
123 140 0
121 139 0
102 120 0
111 129 0
127 146 0
116 136 0
117 136 0
111 129 0
110 129 0
115 133 0
109 126 0
114 132 0
112 131 0
115 132 0
117 136 0
115 132 0
112 131 0
118 136 0
122 140 0
108 127 0
115 134 0
108 126 0
123 142 0
116 135 0
123 143 0
113 132 0
118 136 0
120 138 0
116 133 0
119 138 0
127 147 0
122 142 0
117 136 0
113 131 0
127 146 0
132 150 0
131 150 0
132 150 0
125 145 0
115 135 0
117 135 0
131 150 0
126 146 0
141 161 0
115 135 0
129 148 0
126 147 0
133 153 0
131 149 0
127 146 0
138 158 0
119 137 0
123 144 0
136 156 0
128 147 0
126 146 0
134 152 0
131 150 0
139 158 0
133 153 0
119 137 0
132 152 0
134 155 0
133 154 0
132 153 0
144 165 0
136 156 0
132 151 0
138 159 0
136 156 0
128 146 0
142 163 0
142 161 0
138 158 0
147 167 0
136 155 0
144 165 0
134 152 0
143 163 0
144 164 0
152 173 0
139 160 0
143 163 0
143 163 0
149 170 0
141 162 0
136 156 0
145 167 0
146 166 0
137 156 0
148 168 0
151 172 0
145 164 0
152 174 0
147 169 0
144 166 0
142 162 0
150 173 0
148 167 0
145 166 0
147 168 0
148 169 0
155 175 0
150 170 0
155 176 0
149 170 0
144 164 0
155 175 0
150 170 0
148 168 0
150 172 0
149 169 0
147 168 0
154 175 0
153 174 0
150 170 0
147 168 0
147 167 0
148 169 0
151 171 0
149 170 0
156 177 0
148 168 0
150 171 0
153 175 0
160 183 0
152 173 0
156 176 0
148 168 0
157 179 0
160 182 0
161 183 0
152 173 0
148 169 0
151 171 0
158 178 0
153 172 0
153 172 0
153 175 0
153 173 0
150 172 0
156 176 0
162 183 0
158 180 0
161 181 0
164 185 0
155 174 0
159 181 0
156 177 0
156 177 0
153 173 0
158 178 0
157 177 0
164 185 0
158 179 0
158 179 0
159 178 0
156 176 0
161 183 0
159 181 0
162 180 0
165 185 0
157 179 0
165 186 0
162 183 0
159 180 0
166 188 0
156 178 0
161 181 0
159 179 0
158 180 0
160 180 0
161 182 0
161 183 0
166 187 0
159 179 0
163 183 0
162 184 0
157 177 0
160 183 0
164 185 0
163 183 0
155 176 0
161 183 0
157 177 0
161 182 0
164 186 0
162 185 0
161 182 0
167 188 0
162 183 0
166 187 0
166 187 0
161 183 0
161 182 0
160 180 0
166 187 0
164 185 0
163 185 0
162 181 0
160 180 0
167 188 0
161 183 0
162 181 0
163 185 0
166 187 0
160 182 0
165 185 0
167 190 0
163 185 0
165 187 0
170 192 0
168 187 0
166 188 0
170 192 0
169 191 0
165 187 0
162 183 0
163 184 0
161 182 0
168 190 0
165 187 0
166 188 0
167 190 0
167 190 0
166 189 0
167 189 0
176 200 105
174 197 105
170 194 102
176 198 105
177 200 105
176 199 111
174 197 95
172 195 84
165 188 76
171 194 99
169 192 80
169 191 76
168 191 99
174 197 105
169 192 105
169 192 105
171 194 105
170 193 88
172 195 125
170 193 88
170 193 88
171 195 105
170 194 95
168 191 95
173 196 99
171 194 114
170 193 108
165 187 84
166 189 84
171 194 84
171 195 95
172 196 114
164 187 102
170 193 105
169 192 99
168 192 117
165 189 102
163 186 102
167 190 76
168 192 92
163 187 102
169 192 105
164 188 84
167 191 95
161 184 76
168 192 105
159 183 105
163 186 80
164 188 92
165 189 92
164 187 95
164 188 108
163 187 99
162 186 108
161 183 80
163 187 102
163 186 117
166 189 92
162 184 84
158 181 92
161 185 99
166 188 105
159 182 102
166 189 117
161 184 95
157 180 84
164 186 84
157 179 92
159 182 111
162 185 99
161 184 105
154 176 72
158 181 99
156 178 102
162 184 105
154 177 92
161 184 99
152 174 84
163 185 102
157 178 84
145 166 92
157 178 92
150 172 88
157 179 111
161 183 99
161 182 102
162 183 80
158 180 80
152 174 102
164 185 102
158 179 108
152 172 84
149 170 92
161 181 114
151 171 92
158 179 99
140 160 76
149 169 95
158 178 111
153 173 95
157 177 102
149 169 105
151 171 88
157 177 111
149 168 95
152 170 102
145 165 99
153 173 84
145 163 99
146 165 84
132 151 67
140 159 88
143 161 84
141 159 76
151 171 76
143 162 62
132 152 36
133 152 62
136 154 76
131 149 51
132 150 62
124 143 44
141 159 62
128 146 36
125 143 44
119 139 25
126 145 36
134 152 44
132 151 36
130 149 0
148 168 36
131 151 0
154 174 44
156 177 0
153 174 0
151 172 0
150 171 0
150 172 0
143 164 0
152 172 0
136 156 0
130 148 0
125 144 0
128 146 0
120 140 0
124 142 0
121 140 0
116 134 0
129 147 0
126 144 0
118 135 0
129 149 0
121 140 0
125 144 0
120 140 0
118 137 0
121 140 0
118 137 0
109 127 0
124 144 0
114 132 0
122 140 0
118 137 0
119 136 0
116 135 0
113 131 0
117 135 0
118 136 0
126 144 0
122 139 0
110 128 0
123 142 0
113 132 0
118 136 0
110 128 0
112 131 0
116 134 0
120 137 0
111 129 0
124 142 0
114 132 0
113 130 0
107 125 0
107 124 0
120 139 0
109 128 0
124 143 0
115 132 0
124 142 0
116 133 0
125 143 0
116 135 0
113 131 0
119 137 0
117 135 0
107 125 0
122 141 0
115 134 0
105 123 0
124 142 0
130 150 0
133 151 0
127 145 0
125 144 0
124 142 0
131 150 0
117 136 0
122 141 0
125 145 0
124 144 0
129 148 0
118 139 0
132 151 0
135 155 0
128 147 0
129 147 0
119 136 0
132 153 0
136 157 0
131 150 0
127 145 0
125 142 0
124 144 0
132 152 0
131 150 0
143 163 0
121 138 0
128 149 0
121 140 0
130 147 0
139 158 0
138 158 0
142 161 0
140 158 0
140 161 0
129 148 0
144 164 0
131 150 0
137 157 0
133 153 0
144 164 0
133 155 0
145 166 0
135 154 0
141 161 0
142 163 0
140 160 0
137 158 0
139 160 0
141 162 0
140 159 0
132 153 0
143 164 0
137 157 0
135 154 0
142 163 0
144 166 0
142 162 0
143 163 0
145 163 0
142 163 0
144 164 0
141 161 0
140 160 0
137 156 0
150 170 0
146 168 0
141 162 0
147 167 0
145 167 0
149 169 0
145 167 0
149 170 0
156 175 0
150 171 0
152 172 0
151 172 0
149 170 0
149 170 0
148 169 0
153 173 0
150 171 0
152 174 0
144 162 0
149 168 0
153 174 0
146 167 0
150 171 0
150 172 0
150 169 0
147 168 0
147 165 0
147 168 0
149 170 0
158 180 0
152 173 0
151 172 0
154 176 0
160 180 0
155 174 0
154 174 0
159 180 0
156 178 0
161 182 0
158 179 0
159 181 0
148 169 0
148 171 0
153 172 0
152 174 0
158 177 0
161 182 0
156 176 0
157 177 0
159 180 0
156 175 0
157 178 0
151 171 0
158 176 0
155 175 0
162 182 0
162 183 0
154 175 0
159 179 0
160 182 0
163 184 0
158 180 0
155 177 0
157 176 0
159 180 0
155 177 0
160 181 0
168 189 0
165 186 0
159 180 0
156 177 0
159 180 0
166 187 0
157 177 0
162 183 0
156 178 0
159 180 0
163 183 0
157 178 0
164 187 0
162 184 0
159 180 0
162 182 0
163 184 0
162 182 0
160 181 0
163 184 0
162 182 0
158 181 0
165 188 0
161 183 0
159 180 0
161 184 0
162 183 0
166 188 0
162 184 0
169 190 0
160 181 0
165 187 0
164 185 0
165 186 0
163 184 0
160 182 0
164 187 0
162 181 0
166 187 0
163 185 0
165 187 0
161 183 0
163 185 0
157 178 0
163 185 0
167 190 0
163 186 0
167 187 0
169 191 0
165 187 0
161 183 0
163 185 0
162 183 0
169 190 0
163 185 0
167 187 0
164 186 0
169 191 0
167 190 0
165 186 0
170 191 0
168 190 0
167 190 0
163 186 0
163 184 0
165 186 0
165 187 0
166 185 0
170 194 92
175 198 95
172 195 108
172 196 95
178 200 127
171 194 102
174 196 92
166 189 80
174 198 95
172 195 95
169 193 95
168 190 92
176 199 102
174 197 102
174 198 102
171 195 92
173 196 99
171 194 95
171 194 102
164 187 72
168 191 95
170 193 102
167 191 84
171 194 102
162 185 72
169 193 108
172 195 95
170 194 80
170 194 95
168 191 92
168 192 72
172 195 102
170 194 105
168 191 99
171 195 108
167 191 95
165 188 95
163 187 84
164 187 84
165 188 76
164 187 84
163 186 99
169 193 99
171 193 95
164 187 95
170 194 105
171 195 111
163 187 99
165 188 105
162 185 95
165 188 88
159 183 95
163 186 62
162 185 92
161 184 76
167 191 102
163 185 95
165 188 92
163 186 105
165 187 76
160 183 111
158 180 102
165 188 95
154 176 72
164 187 95
159 182 88
157 179 88
166 189 102
168 191 95
163 185 102
165 188 108
152 175 80
162 184 111
163 185 92
162 184 95
162 184 99
160 182 102
164 186 92
163 185 95
155 178 92
159 181 111
156 178 102
166 188 122
150 173 95
167 189 102
159 181 108
163 184 114
152 173 88
160 182 99
150 171 84
147 168 84
155 176 67
158 179 99
156 177 102
152 173 88
155 176 92
157 177 102
160 179 111
151 170 80
156 177 88
160 180 105
147 166 88
154 173 92
152 173 88
153 173 105
157 175 108
149 169 99
154 174 84
143 162 99
156 174 127
147 166 99
148 167 92
149 167 84
145 163 84
134 154 67
133 152 67
124 143 25
133 153 62
124 143 51
132 152 51
132 152 67
127 146 57
137 155 51
131 149 36
130 148 25
137 157 44
124 143 0
124 144 25
136 157 36
129 148 25
124 145 25
143 164 0
154 175 0
154 172 0
158 181 0
153 173 0
147 168 0
145 166 0
145 166 0
150 169 0
142 162 0
133 153 0
129 150 0
127 145 0
132 152 0
127 147 0
114 134 0
131 151 0
126 145 0
118 137 0
126 145 0
118 137 0
129 148 0
116 135 0
114 133 0
113 132 0
128 147 0
122 139 0
123 141 0
118 137 0
120 140 0
125 144 0
123 141 0
110 129 0
112 129 0
121 140 0
122 141 0
122 140 0
117 135 0
119 138 0
120 139 0
122 140 0
107 125 0
123 142 0
121 140 0
117 136 0
111 129 0
123 142 0
108 126 0
118 137 0
121 139 0
118 135 0
125 144 0
111 130 0
113 132 0
123 141 0
107 125 0
117 135 0
119 138 0
123 144 0
120 139 0
111 129 0
114 132 0
124 143 0
123 141 0
120 140 0
115 133 0
124 143 0
125 143 0
124 142 0
129 148 0
119 138 0
121 139 0
129 149 0
124 144 0
123 141 0
119 137 0
133 152 0
127 147 0
128 147 0
128 147 0
120 139 0
130 149 0
126 146 0
127 146 0
124 143 0
129 149 0
117 136 0
135 154 0
123 143 0
135 154 0
127 148 0
128 149 0
131 151 0
130 150 0
138 158 0
131 151 0
134 156 0
126 147 0
133 151 0
135 156 0
132 151 0
132 152 0
131 151 0
129 150 0
135 155 0
136 156 0
134 153 0
128 147 0
146 167 0
134 154 0
135 155 0
140 162 0
136 157 0
129 150 0
143 165 0
136 155 0
135 155 0
143 164 0
143 164 0
143 163 0
131 152 0
140 159 0
139 159 0
142 162 0
151 170 0
147 166 0
138 158 0
147 168 0
146 168 0
142 163 0
139 160 0
140 160 0
149 170 0
144 164 0
150 170 0
150 170 0
144 165 0
148 170 0
142 162 0
142 163 0
155 176 0
146 168 0
155 175 0
152 172 0
158 180 0
148 168 0
149 170 0
156 178 0
155 175 0
146 166 0
147 168 0
137 157 0
142 163 0
150 172 0
143 165 0
147 169 0
148 169 0
160 181 0
144 164 0
154 174 0
157 178 0
154 174 0
156 176 0
153 172 0
161 183 0
147 168 0
151 173 0
152 173 0
151 170 0
153 174 0
153 174 0
153 174 0
151 173 0
151 172 0
159 180 0
156 178 0
150 170 0
152 174 0
157 177 0
159 181 0
157 178 0
150 170 0
155 176 0
150 173 0
157 180 0
155 177 0
158 180 0
154 175 0
161 181 0
155 177 0
160 181 0
157 178 0
161 183 0
157 177 0
158 180 0
156 177 0
159 179 0
162 185 0
157 179 0
157 177 0
156 176 0
153 174 0
156 177 0
160 183 0
158 180 0
155 176 0
161 183 0
164 185 0
162 182 0
159 179 0
166 188 0
162 182 0
157 179 0
159 181 0
160 181 0
159 180 0
160 181 0
157 179 0
160 180 0
159 179 0
159 178 0
164 187 0
159 181 0
164 186 0
164 185 0
161 183 0
163 186 0
166 189 0
162 181 0
167 190 0
162 183 0
163 185 0
166 188 0
161 182 0
164 185 0
164 186 0
163 184 0
164 184 0
166 186 0
159 181 0
166 187 0
163 185 0
166 187 0
165 186 0
163 183 0
166 188 0
164 186 0
160 182 0
164 186 0
159 180 0
162 185 0
165 186 0
168 189 0
161 183 0
166 187 0
160 182 0
164 185 0
167 189 0
166 187 0
165 188 0
163 185 0
167 189 0
172 193 0
164 187 0
164 185 0
169 190 0
165 189 0
164 186 0
161 184 0
179 201 111
173 196 95
175 198 88
172 195 95
173 196 84
177 199 92
169 192 95
168 191 88
172 195 105
176 200 92
165 189 80
175 198 108
172 195 95
172 196 84
166 190 88
172 195 105
168 191 95
174 198 111
165 189 84
167 191 99
170 193 84
172 195 120
174 198 122
168 191 102
164 188 117
173 196 95
171 193 84
168 192 92
169 193 111
169 192 88
169 193 105
169 192 108
175 198 111
166 189 99
171 194 84
168 191 105
167 190 105
167 190 84
165 188 95
167 191 108
162 184 92
166 189 102
171 195 120
168 192 111
164 187 88
165 189 92
169 192 80
164 187 102
162 185 92
169 193 88
160 183 80
173 195 105
153 177 84
164 188 88
167 190 102
162 184 88
166 190 88
164 187 99
157 179 99
165 189 102
168 191 88
158 180 80
166 190 99
160 183 76
166 188 99
153 176 67
161 183 99
158 181 111
167 189 99
161 183 102
163 185 84
163 186 80
162 184 84
166 188 99
167 189 117
159 181 95
161 184 92
163 185 105
162 184 102
160 181 105
158 180 99
158 180 84
156 177 108
161 182 95
155 177 102
154 175 84
161 183 95
157 178 99
155 177 108
155 177 102
159 181 95
150 171 108
157 178 88
155 176 102
154 174 120
157 178 105
154 174 84
156 176 99
154 174 108
166 186 114
153 173 88
161 181 111
152 172 95
158 177 99
147 166 84
150 168 105
153 172 102
148 167 88
142 162 84
143 163 84
150 169 102
141 159 95
147 166 76
148 166 72
144 164 57
125 144 57
152 172 72
139 158 51
138 158 57
131 150 57
134 152 62
140 159 57
139 158 76
137 157 36
135 155 25
128 147 25
125 146 25
131 150 25
141 161 36
136 155 25
138 157 0
137 158 44
149 169 0
157 179 0
156 177 0
162 183 0
148 169 0
150 172 0
145 164 0
136 157 0
136 156 0
134 154 0
131 151 0
128 147 0
128 148 0
129 149 0
121 140 0
117 135 0
127 147 0
124 143 0
121 140 0
125 145 0
122 142 0
119 139 0
124 142 0
125 144 0
117 137 0
124 143 0
116 135 0
116 136 0
114 133 0
124 144 0
127 147 0
132 150 0
122 142 0
104 122 0
115 133 0
118 136 0
122 141 0
128 146 0
110 127 0
119 139 0
122 140 0
116 136 0
117 136 0
116 135 0
121 141 0
112 131 0
119 138 0
129 148 0
117 135 0
116 134 0
107 125 0
108 125 0
133 152 0
118 136 0
113 131 0
117 134 0
128 147 0
130 149 0
121 141 0
108 127 0
130 149 0
123 141 0
108 126 0
124 143 0
119 137 0
110 129 0
127 146 0
129 148 0
137 156 0
118 136 0
120 139 0
124 144 0
128 146 0
118 137 0
122 139 0
121 140 0
137 157 0
129 149 0
126 144 0
121 141 0
131 151 0
124 142 0
139 160 0
136 156 0
130 149 0
121 140 0
131 151 0
135 152 0
127 148 0
124 144 0
131 150 0
132 151 0
132 150 0
126 146 0
135 153 0
135 154 0
122 140 0
132 151 0
136 156 0
127 147 0
136 156 0
123 143 0
139 158 0
133 153 0
138 157 0
143 165 0
134 155 0
122 141 0
147 168 0
142 163 0
143 163 0
133 154 0
136 156 0
149 170 0
140 161 0
124 146 0
147 168 0
141 161 0
138 158 0
136 155 0
144 166 0
146 166 0
134 154 0
124 144 0
142 163 0
146 166 0
146 166 0
146 167 0
150 171 0
143 163 0
143 162 0
147 168 0
145 166 0
152 174 0
151 173 0
148 168 0
144 163 0
146 167 0
152 172 0
142 161 0
151 171 0
142 164 0
146 166 0
140 161 0
149 171 0
144 166 0
148 170 0
150 172 0
152 174 0
151 171 0
146 167 0
149 170 0
150 170 0
155 176 0
153 174 0
155 177 0
148 170 0
147 168 0
155 177 0
148 169 0
151 171 0
152 172 0
144 162 0
153 173 0
156 176 0
157 179 0
147 169 0
158 179 0
158 180 0
158 179 0
147 167 0
149 169 0
151 170 0
157 179 0
155 177 0
153 175 0
157 180 0
158 177 0
159 181 0
157 178 0
155 177 0
160 180 0
156 175 0
156 177 0
157 178 0
154 174 0
157 178 0
160 181 0
160 182 0
156 178 0
162 185 0
158 179 0
164 185 0
158 180 0
160 179 0
160 182 0
156 178 0
160 182 0
154 175 0
157 179 0
165 187 0
157 178 0
160 181 0
160 182 0
157 178 0
159 181 0
163 185 0
157 178 0
166 187 0
160 179 0
162 182 0
161 182 0
158 180 0
161 180 0
162 183 0
164 185 0
161 183 0
156 177 0
161 184 0
162 184 0
162 184 0
166 189 0
166 186 0
169 190 0
161 183 0
165 187 0
165 188 0
166 186 0
159 181 0
166 187 0
162 182 0
164 185 0
164 186 0
165 186 0
165 187 0
162 183 0
159 178 0
165 186 0
167 189 0
166 186 0
159 180 0
162 185 0
164 186 0
164 185 0
164 183 0
165 186 0
165 187 0
159 180 0
166 188 0
166 187 0
163 186 0
160 182 0
165 186 0
164 185 0
164 186 0
166 187 0
163 187 0
164 184 0
165 186 0
167 187 0
167 188 0
162 183 0
170 191 0
168 190 0
166 188 0
164 185 0
164 185 0
167 187 0
174 195 88
176 198 99
168 190 88
176 199 84
173 196 105
170 194 95
174 197 111
172 195 111
172 195 95
174 197 111
175 198 108
167 190 80
178 201 114
171 194 102
169 192 95
172 194 102
171 194 76
170 192 99
172 195 120
168 191 88
171 195 99
171 194 105
169 193 111
171 195 84
169 193 95
166 190 80
168 191 80
169 192 76
166 190 84
167 191 99
166 189 95
165 188 102
166 189 102
167 189 92
164 188 108
165 188 102
170 193 117
172 195 95
172 196 120
167 190 95
160 183 62
165 189 105
163 186 92
162 185 95
166 189 95
168 192 102
163 186 92
165 188 99
165 188 92
162 184 84
161 183 72
169 192 95
163 186 95
166 188 84
162 184 99
166 189 92
167 190 80
161 184 99
160 183 92
160 183 76
160 183 84
160 182 88
151 174 67
167 190 111
158 180 76
159 181 88
159 181 95
160 183 92
157 180 99
155 178 92
160 183 92
167 190 120
158 181 95
162 185 88
156 179 99
160 183 72
168 190 125
157 179 84
162 184 105
157 180 80
148 170 80
159 180 111
158 180 120
161 183 76
160 182 92
162 183 99
164 186 105
151 173 62
152 174 76
161 181 105
155 176 108
159 179 117
155 175 92
159 179 72
154 174 95
151 172 95
149 169 92
159 179 108
153 174 102
147 168 76
155 174 102
161 181 108
150 170 99
151 170 95
150 169 105
148 167 92
147 166 92
151 170 102
141 159 84
149 169 80
155 175 88
146 165 102
145 165 92
137 157 67
135 154 67
148 167 76
127 146 51
144 164 72
139 158 57
135 155 44
143 161 57
141 160 51
137 156 51
132 151 44
134 154 44
134 154 0
130 149 25
133 153 0
133 152 25
135 156 0
149 169 0
137 158 0
143 163 0
160 179 0
157 177 0
154 177 0
151 172 0
149 169 0
153 174 0
144 163 0
137 157 0
139 160 0
134 155 0
127 148 0
137 157 0
132 151 0
134 153 0
121 141 0
112 131 0
140 161 0
128 147 0
127 146 0
127 146 0
138 158 0
121 140 0
123 142 0
122 141 0
128 149 0
114 132 0
117 135 0
115 134 0
110 129 0
124 142 0
131 150 0
130 149 0
123 142 0
108 127 0
123 143 0
124 144 0
126 146 0
125 144 0
115 135 0
122 140 0
123 141 0
130 149 0
118 137 0
108 127 0
121 140 0
120 139 0
123 141 0
114 133 0
106 124 0
123 141 0
116 135 0
120 139 0
136 155 0
124 143 0
116 134 0
128 148 0
122 142 0
110 129 0
117 136 0
112 131 0
120 138 0
123 142 0
130 149 0
118 138 0
133 152 0
122 140 0
124 145 0
129 149 0
132 151 0
122 142 0
114 134 0
128 147 0
118 138 0
128 147 0
126 146 0
120 141 0
122 142 0
119 139 0
123 142 0
127 146 0
127 146 0
127 147 0
136 155 0
132 152 0
129 150 0
133 152 0
134 152 0
135 155 0
134 154 0
132 151 0
136 156 0
127 147 0
128 147 0
134 155 0
141 159 0
133 153 0
136 157 0
135 155 0
134 154 0
131 151 0
133 153 0
135 156 0
134 154 0
133 152 0
135 155 0
132 151 0
138 160 0
135 156 0
138 159 0
126 145 0
153 175 0
138 157 0
136 155 0
143 163 0
140 160 0
136 155 0
145 168 0
138 158 0
142 161 0
146 167 0
148 169 0
148 167 0
148 169 0
147 168 0
140 161 0
136 156 0
137 157 0
146 167 0
147 169 0
141 160 0
149 168 0
152 172 0
149 171 0
141 162 0
152 174 0
148 169 0
149 169 0
149 170 0
151 174 0
149 171 0
147 167 0
155 176 0
150 172 0
149 171 0
152 173 0
152 173 0
152 172 0
147 168 0
146 167 0
156 175 0
147 168 0
153 174 0
153 174 0
151 172 0
152 173 0
146 168 0
163 184 0
146 165 0
159 181 0
155 176 0
155 176 0
151 172 0
156 177 0
152 172 0
159 180 0
160 183 0
154 177 0
148 167 0
156 178 0
156 177 0
151 172 0
154 176 0
150 170 0
151 171 0
158 180 0
153 174 0
152 174 0
155 176 0
158 180 0
156 177 0
153 174 0
153 174 0
157 177 0
160 184 0
160 180 0
158 179 0
162 182 0
156 176 0
162 184 0
159 180 0
158 179 0
160 180 0
158 179 0
153 173 0
157 180 0
152 174 0
157 178 0
161 184 0
156 178 0
157 176 0
156 177 0
161 182 0
157 179 0
163 185 0
158 178 0
166 188 0
155 175 0
154 173 0
161 183 0
159 182 0
164 187 0
163 184 0
155 178 0
157 179 0
161 182 0
168 190 0
166 187 0
155 177 0
164 185 0
158 179 0
160 180 0
159 179 0
161 181 0
166 188 0
161 182 0
157 178 0
163 185 0
167 187 0
165 186 0
164 185 0
160 181 0
161 185 0
158 179 0
162 184 0
162 183 0
167 189 0
163 183 0
164 186 0
161 183 0
167 188 0
159 180 0
168 190 0
168 190 0
164 186 0
165 186 0
163 184 0
167 189 0
166 187 0
163 186 0
168 190 0
164 185 0
161 182 0
160 181 0
161 183 0
160 182 0
167 189 0
165 187 0
169 191 0
167 188 0
166 189 0
170 191 0
162 182 0
163 186 0
164 186 0
163 185 0
165 186 0
164 185 0
167 190 84
173 196 114
172 196 88
173 196 102
172 195 95
174 198 92
170 194 99
171 195 111
176 198 99
173 196 92
175 198 111
172 196 120
172 195 102
167 190 80
177 200 105
167 190 88
163 186 67
173 197 102
174 197 111
166 189 95
171 194 95
169 193 102
173 196 120
171 194 105
164 188 88
169 192 84
166 188 72
166 190 102
171 195 108
169 192 92
165 188 88
169 193 95
167 190 92
167 190 99
168 191 99
170 194 88
172 196 111
164 188 95
160 183 62
169 192 95
168 191 108
166 189 88
168 190 92
168 191 108
162 186 99
166 189 84
167 190 92
162 186 80
167 191 102
165 188 80
169 192 108
161 184 88
162 186 102
167 190 95
167 190 99
161 183 95
157 180 92
161 185 99
162 184 84
163 186 99
166 188 120
161 183 67
159 182 102
159 181 67
163 187 99
172 194 102
155 178 92
166 188 108
168 191 76
163 185 92
159 180 92
156 179 84
154 176 95
160 183 76
158 181 62
155 178 76
149 172 84
156 178 92
158 180 102
164 186 111
151 173 76
161 183 92
164 185 95
158 179 80
160 181 95
156 177 105
157 178 99
156 177 88
161 181 105
160 182 111
160 181 114
152 174 84
157 178 99
150 171 99
155 176 84
164 185 102
160 181 105
158 178 84
147 168 84
149 170 72
156 176 108
152 171 92
150 169 105
160 180 99
154 173 84
151 170 80
158 177 108
154 173 95
150 168 102
144 163 88
148 167 84
151 170 84
140 160 44
142 161 76
142 161 76
143 163 80
150 169 84
135 155 57
143 162 57
139 160 36
141 160 67
146 166 57
142 161 51
136 157 44
142 162 36
141 161 0
134 154 0
137 157 25
128 149 0
137 157 25
135 156 25
144 163 0
149 170 0
157 178 0
153 174 0
156 177 0
147 167 0
150 170 0
157 179 0
148 169 0
146 167 0
132 152 0
138 158 0
131 153 0
133 152 0
124 144 0
140 161 0
128 148 0
118 137 0
119 138 0
136 155 0
131 151 0
128 149 0
129 150 0
133 152 0
127 146 0
120 140 0
131 150 0
127 147 0
109 129 0
123 142 0
129 149 0
118 136 0
113 132 0
123 142 0
124 142 0
127 147 0
112 130 0
111 129 0
123 143 0
128 147 0
125 143 0
112 131 0
125 145 0
118 137 0
135 154 0
118 136 0
120 140 0
129 146 0
116 135 0
124 143 0
128 148 0
126 145 0
126 145 0
126 145 0
112 132 0
120 139 0
129 149 0
122 141 0
129 148 0
127 148 0
133 153 0
123 142 0
132 152 0
122 142 0
127 145 0
125 145 0
127 145 0
119 138 0
125 144 0
132 153 0
128 147 0
118 136 0
131 150 0
134 154 0
129 149 0
115 134 0
133 152 0
125 146 0
132 153 0
132 151 0
124 144 0
120 139 0
140 161 0
122 142 0
128 147 0
127 146 0
135 154 0
138 158 0
130 151 0
137 158 0
135 155 0
138 158 0
134 154 0
134 154 0
137 157 0
133 153 0
132 152 0
134 154 0
133 152 0
133 152 0
142 163 0
145 165 0
130 151 0
135 155 0
137 158 0
139 158 0
133 154 0
142 163 0
134 155 0
148 170 0
139 159 0
136 156 0
137 156 0
138 159 0
145 166 0
135 155 0
141 162 0
144 166 0
141 160 0
138 158 0
145 166 0
135 154 0
139 161 0
135 155 0
138 159 0
147 168 0
146 167 0
143 163 0
141 162 0
150 172 0
153 173 0
150 171 0
142 163 0
153 175 0
147 168 0
151 172 0
155 176 0
148 169 0
153 174 0
141 164 0
150 171 0
147 169 0
148 169 0
146 164 0
153 176 0
149 169 0
159 179 0
147 168 0
150 171 0
158 178 0
143 164 0
155 177 0
147 169 0
144 164 0
152 174 0
148 169 0
152 175 0
157 179 0
160 181 0
159 181 0
150 172 0
152 173 0
150 169 0
156 177 0
143 163 0
158 180 0
153 173 0
155 176 0
151 171 0
156 177 0
160 181 0
152 173 0
154 176 0
156 178 0
159 181 0
157 179 0
159 180 0
158 179 0
159 181 0
160 181 0
150 170 0
158 181 0
154 175 0
159 180 0
159 179 0
160 181 0
163 185 0
159 180 0
157 177 0
159 180 0
159 180 0
155 176 0
160 182 0
162 184 0
164 185 0
157 179 0
157 177 0
163 185 0
166 187 0
162 183 0
164 185 0
162 183 0
163 185 0
162 183 0
159 180 0
165 187 0
162 183 0
156 176 0
159 178 0
161 180 0
157 179 0
160 180 0
163 184 0
162 183 0
159 181 0
156 176 0
159 179 0
162 184 0
159 181 0
165 186 0
164 185 0
167 189 0
163 185 0
160 180 0
164 185 0
168 190 0
164 187 0
159 180 0
167 188 0
160 181 0
161 184 0
164 187 0
164 186 0
163 185 0
162 183 0
163 184 0
164 186 0
162 185 0
166 189 0
166 187 0
164 184 0
159 180 0
163 185 0
163 184 0
163 185 0
169 191 0
167 187 0
163 183 0
166 188 0
164 186 0
172 193 0
158 180 0
164 186 0
168 190 0
165 186 0
164 186 0
164 186 0
166 187 0
168 190 0
164 186 0
166 187 0
164 186 0
163 184 0
164 187 0
166 189 0
168 190 0
166 189 0
168 189 0
163 185 0
177 198 108
172 195 95
175 197 120
172 196 88
173 195 99
173 196 102
173 196 108
177 199 120
175 198 95
174 197 105
170 193 102
173 197 92
170 193 92
176 199 99
173 196 114
170 193 111
175 198 108
171 195 102
169 192 88
170 193 95
168 191 95
170 193 95
165 187 88
171 195 111
167 190 76
168 191 95
175 197 102
164 187 88
167 190 105
165 189 84
166 190 80
166 189 80
165 188 95
170 194 117
166 190 108
169 192 108
168 192 95
166 189 92
176 200 117
165 189 88
165 188 105
163 187 95
161 184 95
163 187 95
165 189 95
170 193 99
169 191 120
160 183 108
165 188 92
163 186 95
161 184 72
168 190 114
168 191 105
157 179 84
160 183 88
154 177 99
163 185 99
162 185 99
171 194 108
165 189 114
161 184 95
163 185 80
164 188 102
163 186 102
157 179 72
162 185 99
167 189 88
162 183 111
162 185 88
159 181 114
156 178 84
164 186 111
164 186 114
157 178 92
162 185 92
161 183 84
157 179 80
163 184 105
156 178 92
158 179 88
160 180 84
159 181 108
158 179 92
156 178 95
157 177 102
162 184 99
157 178 108
158 179 99
165 186 114
158 179 92
161 182 114
161 181 108
162 183 114
157 177 108
146 167 88
150 170 92
155 175 99
151 172 92
150 171 80
149 169 95
164 184 95
153 173 99
153 173 102
160 179 111
155 174 99
153 172 102
153 172 92
157 176 99
154 173 102
152 171 102
152 171 84
139 159 57
148 169 92
146 165 80
151 170 72
145 165 44
144 164 51
140 160 51
142 161 44
137 157 44
146 167 67
135 154 36
134 154 25
141 162 25
128 147 25
140 159 0
145 166 25
144 165 25
133 154 0
140 161 0
143 164 0
136 157 25
154 176 0
160 181 0
159 181 0
157 178 0
149 171 0
155 177 0
152 174 0
138 157 0
145 164 0
140 161 0
137 158 0
142 162 0
135 154 0
132 151 0
137 155 0
135 156 0
132 151 0
129 150 0
108 128 0
141 161 0
135 155 0
133 153 0
129 148 0
127 146 0
127 146 0
130 149 0
124 144 0
132 151 0
128 148 0
112 131 0
121 141 0
120 140 0
123 141 0
132 152 0
126 145 0
123 143 0
129 149 0
130 148 0
130 149 0
116 135 0
114 133 0
126 146 0
121 139 0
124 143 0
125 143 0
121 140 0
123 143 0
116 135 0
127 146 0
126 145 0
119 138 0
124 144 0
121 140 0
126 144 0
121 141 0
137 156 0
126 145 0
127 145 0
120 138 0
124 143 0
125 145 0
132 151 0
117 135 0
131 149 0
128 147 0
122 141 0
132 151 0
133 152 0
130 150 0
124 143 0
130 149 0
128 148 0
129 149 0
133 153 0
127 147 0
118 137 0
130 150 0
123 143 0
127 147 0
134 153 0
129 149 0
126 144 0
121 140 0
132 152 0
128 148 0
136 155 0
133 153 0
142 163 0
137 157 0
136 157 0
131 151 0
135 154 0
139 160 0
134 154 0
127 146 0
130 149 0
128 150 0
135 156 0
134 152 0
132 152 0
141 162 0
145 164 0
141 161 0
135 155 0
144 163 0
135 157 0
136 155 0
140 161 0
144 164 0
146 166 0
134 155 0
146 166 0
144 163 0
147 168 0
136 158 0
153 173 0
143 165 0
142 162 0
142 163 0
143 163 0
144 164 0
142 161 0
129 150 0
153 174 0
136 157 0
140 161 0
150 173 0
153 174 0
152 175 0
143 163 0
142 162 0
154 175 0
151 172 0
146 168 0
152 172 0
138 159 0
148 169 0
145 165 0
153 175 0
140 161 0
149 171 0
153 172 0
150 172 0
158 180 0
146 167 0
154 175 0
149 170 0
148 168 0
152 173 0
153 174 0
161 182 0
152 172 0
156 176 0
150 171 0
149 171 0
152 172 0
161 183 0
153 174 0
156 178 0
149 171 0
159 180 0
150 172 0
153 175 0
156 177 0
152 174 0
157 179 0
149 169 0
150 172 0
157 178 0
154 176 0
153 175 0
153 174 0
149 171 0
159 181 0
161 182 0
159 180 0
159 179 0
159 182 0
159 179 0
154 175 0
158 180 0
160 180 0
152 172 0
159 179 0
153 175 0
160 181 0
160 180 0
159 180 0
157 180 0
157 178 0
159 181 0
162 183 0
159 180 0
157 178 0
153 174 0
158 180 0
164 186 0
163 185 0
160 182 0
158 180 0
159 180 0
160 181 0
156 178 0
160 183 0
160 180 0
159 179 0
157 178 0
164 186 0
162 183 0
161 184 0
159 179 0
166 187 0
159 181 0
169 190 0
157 178 0
163 184 0
163 184 0
168 189 0
161 183 0
160 182 0
159 181 0
155 174 0
164 186 0
164 184 0
163 184 0
161 182 0
161 183 0
159 179 0
163 182 0
164 186 0
162 184 0
173 194 0
161 183 0
162 182 0
167 189 0
163 185 0
168 190 0
163 183 0
165 188 0
161 183 0
164 186 0
158 180 0
160 182 0
163 185 0
161 182 0
166 187 0
162 184 0
161 182 0
164 185 0
169 191 0
167 189 0
163 185 0
164 187 0
164 186 0
166 188 0
167 190 0
166 187 0
161 182 0
165 187 0
171 194 0
166 188 0
166 189 0
165 186 0
162 186 0
166 188 0
165 187 0
166 188 0
171 193 0
177 201 111
171 195 84
173 196 95
173 196 99
177 200 120
176 200 95
170 193 111
169 192 67
173 196 120
171 194 105
171 194 88
177 199 117
173 196 114
171 194 105
169 192 72
174 197 80
166 190 76
171 194 84
167 191 95
171 195 102
172 196 84
168 191 92
170 194 102
169 193 114
168 191 84
170 194 99
166 189 84
168 191 99
169 192 92
165 188 84
165 188 95
168 192 95
170 193 102
165 189 76
168 192 92
169 193 102
169 193 92
168 191 105
165 189 99
163 185 57
166 190 105
165 188 88
162 185 76
169 192 95
164 186 88
164 187 102
169 192 92
165 189 95
170 193 105
170 193 99
166 188 72
162 185 84
165 189 76
165 188 108
163 185 105
163 186 102
165 188 108
161 183 102
157 181 72
165 188 102
165 188 95
166 189 127
172 194 99
160 183 95
161 185 125
164 187 105
159 182 76
165 187 102
169 192 117
164 186 84
157 179 95
166 188 95
162 185 95
166 188 105
157 179 80
162 183 99
159 181 92
160 183 92
165 187 108
159 181 88
159 180 84
157 179 105
162 183 102
162 183 105
160 181 108
165 187 111
151 174 102
163 185 88
148 169 80
158 179 92
161 182 105
159 180 92
155 176 92
161 182 88
155 177 88
150 170 95
150 170 99
146 166 95
161 181 105
163 184 102
149 169 80
146 167 80
147 167 95
162 182 102
160 178 122
160 179 122
160 179 114
151 170 99
145 164 88
157 177 92
150 169 99
144 164 62
155 175 92
148 169 62
153 171 84
148 168 76
153 174 44
141 161 62
148 168 62
140 160 51
133 152 44
139 160 36
139 159 25
131 151 0
135 156 0
149 170 0
131 151 0
144 165 57
135 155 25
138 160 0
144 165 25
138 158 36
144 164 0
147 169 0
151 174 0
153 175 0
148 168 0
151 172 0
150 171 0
149 170 0
152 173 0
138 160 0
143 164 0
142 162 0
127 147 0
129 149 0
128 148 0
123 142 0
125 144 0
126 146 0
137 157 0
128 147 0
128 148 0
134 153 0
129 149 0
133 153 0
126 144 0
127 147 0
130 148 0
127 147 0
129 149 0
127 147 0
124 143 0
125 145 0
119 139 0
119 139 0
132 151 0
119 139 0
121 141 0
124 144 0
132 150 0
125 144 0
119 140 0
134 153 0
126 146 0
119 138 0
119 139 0
122 141 0
132 152 0
128 146 0
128 147 0
126 146 0
127 147 0
124 143 0
128 147 0
130 150 0
122 142 0
117 135 0
136 156 0
129 149 0
115 135 0
123 144 0
116 134 0
120 139 0
122 141 0
129 150 0
130 150 0
123 141 0
135 155 0
119 138 0
125 144 0
131 151 0
126 145 0
119 138 0
142 163 0
130 151 0
132 152 0
124 143 0
131 151 0
136 157 0
132 152 0
136 156 0
129 149 0
129 148 0
137 157 0
130 149 0
130 150 0
129 148 0
129 150 0
131 151 0
133 153 0
143 164 0
138 159 0
140 160 0
140 160 0
140 160 0
136 156 0
137 157 0
141 161 0
137 158 0
141 162 0
135 154 0
143 164 0
138 159 0
135 156 0
146 167 0
141 162 0
139 159 0
141 162 0
134 153 0
143 163 0
134 154 0
129 149 0
149 169 0
140 160 0
137 158 0
149 171 0
143 163 0
146 167 0
146 166 0
139 160 0
152 172 0
148 168 0
141 163 0
141 161 0
145 165 0
145 164 0
149 170 0
149 170 0
138 157 0
141 161 0
152 172 0
148 169 0
143 165 0
144 164 0
156 176 0
147 167 0
144 166 0
138 159 0
143 164 0
146 167 0
155 177 0
156 177 0
143 165 0
148 169 0
146 167 0
141 163 0
144 165 0
151 173 0
151 171 0
149 170 0
140 161 0
148 169 0
151 171 0
153 174 0
149 169 0
144 164 0
149 170 0
154 174 0
155 176 0
153 175 0
153 174 0
150 171 0
155 176 0
154 175 0
148 170 0
151 172 0
158 180 0
159 179 0
162 183 0
159 180 0
154 175 0
154 176 0
157 179 0
154 173 0
157 178 0
158 179 0
157 179 0
159 180 0
157 179 0
158 179 0
162 184 0
158 180 0
153 174 0
161 183 0
165 187 0
156 177 0
150 172 0
160 182 0
151 172 0
159 181 0
158 179 0
161 182 0
155 176 0
159 180 0
160 181 0
159 180 0
162 184 0
157 178 0
158 179 0
157 179 0
162 184 0
157 178 0
161 182 0
163 184 0
161 183 0
163 184 0
161 181 0
161 182 0
158 180 0
164 185 0
161 183 0
160 182 0
159 180 0
158 180 0
163 185 0
164 186 0
166 187 0
163 185 0
166 188 0
162 183 0
163 186 0
163 185 0
166 188 0
162 182 0
167 190 0
158 180 0
163 183 0
163 184 0
165 187 0
164 187 0
163 185 0
167 189 0
163 185 0
167 188 0
160 181 0
167 188 0
165 188 0
163 183 0
166 186 0
164 185 0
164 186 0
167 188 0
162 182 0
169 191 0
162 183 0
170 193 0
167 189 0
163 183 0
167 189 0
166 189 0
161 182 0
165 188 0
158 181 0
167 190 0
165 186 0
167 188 0
169 190 0
168 191 0
164 186 0
167 189 0
164 185 0
166 190 0
167 188 0
165 185 0
172 192 0
167 190 0
163 185 0
164 185 0
166 190 0
175 198 111
171 194 80
174 197 84
172 195 72
179 201 114
175 197 99
168 191 88
172 196 88
168 191 99
174 196 102
172 196 76
175 199 102
172 195 95
173 197 84
168 192 84
173 197 95
171 194 80
170 194 92
171 194 111
174 198 114
166 189 88
170 193 111
174 196 92
170 193 95
172 195 88
169 192 99
167 190 117
171 194 92
171 194 114
167 190 84
165 189 72
163 187 84
168 191 105
171 194 102
170 192 105
165 189 105
167 189 84
167 190 95
170 193 108
164 186 84
164 187 92
169 191 95
163 186 88
166 189 92
164 187 105
171 193 99
167 190 108
169 192 92
163 186 99
171 195 114
158 181 84
168 190 80
165 187 92
157 180 88
169 192 108
163 186 88
160 183 95
168 190 88
156 179 88
168 190 99
163 185 72
172 195 117
167 189 111
161 184 102
166 188 102
160 181 80
160 181 99
167 190 99
167 190 117
157 179 88
156 178 72
157 178 114
155 177 80
163 186 99
156 178 99
163 185 92
161 183 80
161 184 114
159 180 92
150 171 76
166 187 108
162 184 114
160 181 80
153 174 72
157 178 95
152 174 84
158 178 102
158 179 95
155 177 92
159 180 92
160 181 105
154 175 92
154 176 108
170 191 105
151 172 76
151 171 95
151 170 95
156 177 108
155 176 88
162 182 99
148 168 84
157 177 102
156 175 108
151 171 92
154 174 99
157 177 111
158 176 108
152 171 108
147 166 88
154 173 99
158 179 80
146 166 84
144 164 51
144 164 57
156 175 76
154 174 72
139 159 57
138 157 57
146 165 62
136 156 44
134 156 25
145 166 44
136 156 36
141 161 25
136 155 25
130 149 44
139 159 0
139 160 25
144 164 36
137 158 36
150 171 36
135 156 25
160 183 0
158 181 0
156 178 0
152 175 0
153 174 0
151 173 0
155 177 0
134 155 0
142 163 0
149 171 0
151 173 0
141 163 0
134 155 0
147 168 0
140 161 0
127 147 0
127 146 0
133 153 0
133 153 0
134 154 0
126 146 0
132 152 0
127 147 0
137 156 0
122 142 0
133 153 0
126 145 0
127 147 0
125 144 0
129 149 0
135 154 0
134 153 0
111 131 0
117 136 0
122 141 0
127 147 0
123 142 0
138 158 0
127 147 0
120 140 0
118 138 0
114 133 0
128 147 0
112 131 0
124 144 0
128 148 0
121 141 0
126 146 0
113 134 0
121 141 0
124 144 0
127 145 0
128 148 0
134 154 0
122 143 0
130 150 0
132 152 0
119 136 0
119 138 0
126 146 0
127 146 0
125 144 0
128 147 0
130 150 0
131 151 0
132 152 0
130 151 0
137 157 0
127 148 0
119 141 0
124 144 0
133 154 0
132 152 0
131 151 0
126 145 0
132 151 0
130 150 0
129 149 0
135 156 0
135 154 0
117 135 0
141 163 0
130 150 0
142 163 0
128 149 0
135 155 0
133 154 0
138 158 0
138 159 0
133 152 0
129 149 0
136 156 0
129 149 0
140 161 0
131 152 0
132 153 0
131 151 0
139 159 0
133 154 0
142 163 0
131 153 0
128 148 0
141 163 0
138 157 0
127 148 0
147 167 0
132 152 0
136 157 0
136 156 0
140 160 0
142 162 0
150 171 0
144 166 0
150 172 0
145 164 0
154 175 0
142 162 0
142 162 0
140 160 0
150 172 0
143 165 0
148 169 0
142 164 0
139 162 0
150 170 0
144 165 0
143 164 0
146 167 0
140 161 0
137 158 0
140 161 0
142 163 0
142 162 0
146 166 0
151 173 0
149 170 0
143 164 0
154 175 0
146 167 0
136 158 0
152 173 0
150 171 0
151 174 0
152 173 0
151 171 0
151 173 0
146 168 0
153 174 0
154 176 0
148 169 0
152 173 0
150 170 0
151 172 0
156 177 0
160 181 0
155 176 0
155 177 0
151 172 0
153 175 0
158 179 0
154 176 0
156 178 0
159 180 0
159 179 0
155 176 0
160 181 0
154 175 0
151 173 0
145 166 0
160 183 0
158 180 0
156 178 0
157 177 0
153 173 0
153 174 0
160 180 0
159 179 0
155 176 0
158 180 0
163 185 0
161 183 0
158 180 0
154 175 0
156 178 0
159 182 0
155 178 0
158 180 0
157 178 0
151 173 0
163 184 0
158 179 0
156 177 0
164 186 0
159 180 0
158 179 0
159 181 0
157 177 0
162 184 0
162 184 0
163 184 0
159 181 0
165 187 0
167 187 0
156 177 0
155 176 0
163 184 0
161 183 0
163 184 0
161 183 0
163 186 0
161 180 0
163 184 0
161 183 0
158 180 0
164 186 0
159 180 0
163 186 0
158 180 0
159 183 0
155 176 0
164 186 0
168 188 0
159 181 0
160 181 0
163 184 0
165 186 0
160 183 0
166 188 0
161 183 0
163 184 0
168 190 0
161 182 0
167 189 0
163 185 0
160 182 0
164 186 0
165 187 0
162 185 0
165 187 0
162 184 0
164 186 0
163 184 0
164 186 0
165 186 0
166 189 0
165 187 0
167 189 0
159 181 0
166 188 0
165 189 0
162 184 0
168 191 0
167 190 0
167 188 0
167 189 0
168 188 0
164 187 0
171 193 0
167 188 0
162 183 0
171 193 0
165 187 0
166 188 0
166 188 0
160 181 0
167 189 0
163 184 0
167 189 0
170 194 92
171 195 80
170 193 72
178 200 92
173 196 95
169 191 84
170 193 95
174 197 92
168 191 99
170 194 84
170 193 80
171 193 88
176 199 108
169 193 92
171 194 88
171 195 108
171 194 84
168 190 88
175 198 108
170 193 84
175 198 105
168 191 108
170 195 105
163 185 62
169 192 105
170 193 84
170 193 105
165 188 80
172 194 108
166 189 95
175 198 111
169 193 108
171 194 99
161 184 99
168 192 88
167 191 99
169 192 92
172 195 92
163 186 80
162 186 92
166 189 84
168 191 84
161 185 92
165 188 92
169 192 102
168 192 111
166 189 111
167 189 102
161 184 105
152 175 84
169 192 92
173 196 92
164 187 80
161 184 80
156 179 99
164 187 92
161 184 84
160 183 88
162 184 88
163 186 92
164 187 84
159 181 99
159 180 57
163 185 84
164 186 105
160 183 92
163 185 105
163 186 92
164 187 114
156 177 95
166 190 105
161 183 99
161 183 92
158 180 84
164 186 120
164 187 99
162 185 108
165 187 105
164 186 111
155 176 95
155 177 105
151 173 111
164 185 108
166 188 125
166 187 114
167 189 125
164 186 105
167 188 95
161 183 105
162 183 117
152 172 95
147 167 102
150 170 92
168 188 111
152 172 88
157 178 95
158 178 99
155 176 92
154 174 72
159 179 99
158 178 108
155 176 99
150 170 72
157 177 108
152 172 108
138 159 62
159 178 99
148 167 102
152 172 80
149 170 76
153 173 80
154 174 84
153 173 62
141 162 62
154 175 67
154 174 67
145 165 51
146 166 57
141 162 25
143 163 44
140 161 0
144 165 25
139 160 25
130 150 36
150 172 25
135 155 44
140 161 44
145 166 36
138 159 25
145 167 25
136 157 36
143 163 36
155 177 0
153 175 0
158 179 0
153 173 0
146 167 0
144 166 0
153 173 0
148 169 0
143 165 0
146 167 0
128 148 0
136 157 0
136 157 0
143 164 0
126 147 0
129 148 0
140 160 0
130 150 0
128 148 0
128 149 0
135 155 0
136 157 0
140 161 0
120 139 0
127 145 0
127 147 0
117 137 0
133 154 0
114 134 0
133 153 0
122 141 0
112 132 0
139 159 0
119 139 0
125 145 0
122 141 0
125 145 0
128 147 0
130 149 0
129 149 0
132 152 0
121 141 0
123 143 0
135 154 0
126 145 0
128 148 0
129 149 0
122 142 0
132 151 0
126 145 0
124 143 0
131 150 0
130 150 0
126 147 0
126 145 0
130 150 0
134 154 0
125 146 0
132 152 0
112 132 0
121 140 0
124 143 0
139 158 0
130 149 0
128 148 0
135 155 0
128 147 0
135 154 0
135 155 0
127 147 0
129 148 0
125 145 0
134 154 0
132 152 0
133 152 0
141 161 0
141 162 0
124 145 0
134 154 0
131 151 0
129 150 0
137 156 0
141 161 0
132 153 0
132 152 0
132 153 0
139 160 0
142 163 0
132 153 0
134 155 0
130 151 0
144 164 0
141 161 0
135 155 0
147 169 0
139 159 0
139 160 0
136 156 0
140 161 0
143 164 0
140 162 0
144 166 0
138 160 0
143 164 0
136 157 0
135 155 0
139 158 0
157 177 0
149 170 0
142 164 0
138 159 0
146 167 0
146 166 0
136 157 0
149 169 0
136 157 0
151 173 0
144 165 0
150 171 0
149 168 0
150 171 0
142 163 0
133 152 0
154 174 0
141 163 0
145 168 0
143 164 0
149 171 0
144 165 0
149 170 0
145 166 0
147 169 0
150 173 0
149 170 0
151 172 0
150 173 0
147 168 0
151 172 0
148 170 0
149 171 0
153 172 0
147 168 0
152 173 0
144 164 0
157 179 0
147 168 0
154 177 0
155 176 0
154 176 0
147 168 0
148 168 0
156 176 0
147 167 0
157 178 0
159 182 0
150 171 0
156 178 0
153 175 0
154 176 0
161 184 0
159 182 0
153 176 0
154 176 0
146 167 0
155 176 0
160 183 0
154 176 0
160 181 0
157 178 0
158 179 0
152 172 0
157 177 0
159 181 0
157 179 0
159 181 0
155 178 0
149 172 0
155 178 0
161 183 0
159 181 0
158 180 0
154 176 0
160 180 0
160 180 0
154 174 0
162 182 0
153 175 0
158 179 0
161 182 0
159 181 0
160 182 0
155 177 0
157 178 0
155 176 0
160 181 0
160 184 0
162 184 0
161 183 0
166 188 0
160 182 0
157 179 0
160 181 0
156 177 0
163 184 0
160 181 0
163 185 0
159 179 0
161 184 0
160 182 0
164 186 0
159 181 0
165 185 0
162 185 0
158 179 0
163 183 0
164 187 0
164 187 0
161 183 0
164 185 0
163 185 0
158 177 0
163 185 0
162 183 0
161 182 0
161 183 0
160 183 0
159 180 0
162 183 0
167 189 0
163 184 0
159 182 0
166 189 0
168 191 0
164 186 0
165 187 0
167 189 0
162 185 0
163 183 0
163 186 0
164 186 0
166 188 0
166 189 0
166 187 0
168 190 0
170 192 0
166 188 0
164 185 0
164 184 0
169 189 0
162 184 0
167 189 0
166 188 0
165 187 0
163 184 0
164 187 0
169 190 0
162 183 0
168 190 0
168 191 0
165 188 0
168 190 0
167 188 0
163 186 0
167 189 0
169 192 0
168 190 0
164 186 0
161 182 0
172 196 80
173 196 76
176 199 84
174 197 84
176 199 92
171 194 80
174 196 102
176 199 105
170 193 92
172 195 99
167 190 99
169 192 102
177 199 108
168 191 102
169 192 102
172 196 111
173 196 84
172 195 95
170 194 111
168 192 105
172 196 120
171 195 88
172 195 92
169 192 95
162 186 88
167 190 99
171 194 102
172 194 92
169 192 122
163 186 95
168 192 99
169 192 84
172 195 105
165 188 67
170 193 80
169 192 111
163 188 76
170 193 102
172 195 108
163 186 80
168 190 102
168 191 95
163 186 102
168 191 102
167 190 99
165 188 99
169 192 99
161 184 84
171 193 105
162 185 80
163 185 105
166 188 92
162 185 105
159 182 95
170 194 105
163 186 117
160 183 92
166 189 102
158 181 88
164 187 108
159 181 99
157 180 102
160 182 99
171 195 108
163 185 99
159 182 108
167 189 95
165 186 105
160 183 88
164 187 108
162 184 105
169 192 111
170 192 111
151 173 88
163 184 99
159 182 105
160 182 92
163 185 108
161 182 99
159 180 105
159 181 105
158 179 102
165 185 99
159 180 84
155 177 99
155 176 95
158 180 99
162 183 108
161 182 95
159 180 88
153 175 67
161 182 95
148 169 88
157 178 95
157 178 114
152 172 105
152 172 92
157 176 120
140 160 80
167 187 102
159 180 95
156 175 111
159 180 80
153 173 105
148 168 99
162 182 92
148 168 99
154 173 84
153 173 84
158 178 102
147 168 67
147 166 76
151 171 76
154 174 92
151 171 76
146 167 57
151 171 62
152 172 72
145 166 44
141 163 36
146 168 44
133 155 0
137 157 0
139 159 36
134 154 44
144 165 25
141 162 44
149 170 36
137 157 25
146 166 44
148 169 36
148 169 0
152 173 0
158 181 0
156 177 0
155 177 0
152 174 0
148 170 0
149 172 0
151 173 0
144 166 0
147 169 0
146 167 0
127 147 0
131 151 0
140 160 0
141 160 0
131 152 0
137 158 0
124 145 0
135 155 0
140 161 0
133 153 0
125 145 0
125 146 0
133 153 0
129 149 0
138 159 0
135 154 0
137 156 0
134 154 0
128 148 0
134 155 0
119 139 0
125 144 0
126 146 0
132 151 0
135 156 0
126 145 0
129 148 0
138 159 0
122 142 0
130 149 0
119 139 0
133 152 0
111 130 0
126 147 0
118 136 0
126 145 0
123 143 0
128 148 0
121 141 0
133 153 0
122 141 0
135 155 0
134 153 0
122 143 0
129 150 0
125 145 0
130 149 0
127 146 0
133 153 0
136 156 0
131 151 0
130 150 0
124 145 0
124 143 0
146 166 0
141 161 0
126 145 0
121 141 0
129 150 0
133 153 0
128 148 0
138 157 0
127 147 0
139 160 0
138 160 0
140 160 0
137 156 0
134 154 0
137 157 0
141 161 0
130 151 0
139 160 0
123 144 0
135 154 0
142 163 0
129 150 0
131 152 0
137 158 0
141 159 0
136 157 0
132 153 0
140 160 0
141 162 0
134 153 0
142 163 0
145 164 0
134 155 0
137 158 0
134 155 0
146 167 0
138 159 0
144 165 0
139 161 0
136 156 0
145 165 0
149 169 0
138 158 0
142 163 0
138 159 0
144 165 0
145 166 0
145 166 0
145 165 0
137 158 0
141 161 0
148 169 0
144 166 0
142 163 0
137 156 0
140 160 0
153 173 0
149 171 0
143 163 0
145 165 0
143 165 0
149 170 0
152 174 0
156 178 0
153 175 0
143 165 0
144 163 0
147 169 0
148 170 0
152 173 0
153 174 0
149 169 0
146 166 0
157 177 0
151 172 0
151 172 0
160 181 0
152 173 0
147 169 0
145 166 0
147 169 0
159 181 0
152 174 0
153 174 0
147 167 0
156 178 0
145 166 0
155 176 0
152 173 0
153 175 0
158 180 0
157 180 0
158 179 0
157 179 0
154 175 0
159 181 0
151 172 0
155 178 0
155 178 0
155 176 0
160 180 0
162 185 0
152 172 0
156 178 0
158 179 0
158 180 0
159 181 0
159 182 0
160 183 0
151 174 0
155 175 0
155 176 0
160 181 0
154 175 0
159 179 0
159 178 0
154 175 0
150 170 0
158 178 0
152 174 0
163 184 0
156 177 0
156 177 0
157 180 0
153 175 0
158 179 0
161 182 0
163 185 0
160 181 0
161 182 0
163 186 0
161 183 0
161 183 0
160 180 0
160 181 0
155 177 0
159 180 0
166 187 0
161 183 0
165 187 0
160 182 0
166 188 0
157 179 0
165 186 0
163 184 0
157 179 0
159 179 0
165 187 0
166 188 0
160 183 0
164 185 0
161 181 0
158 178 0
160 182 0
167 188 0
160 182 0
166 188 0
166 188 0
159 181 0
161 183 0
160 183 0
159 179 0
160 182 0
163 185 0
157 177 0
169 191 0
164 185 0
162 185 0
162 184 0
160 182 0
162 182 0
160 180 0
163 186 0
164 186 0
167 188 0
166 187 0
160 181 0
167 190 0
167 189 0
165 187 0
165 188 0
167 188 0
165 187 0
165 187 0
161 182 0
164 186 0
164 185 0
162 183 0
160 183 0
166 187 0
162 182 0
163 185 0
171 192 0
167 189 0
169 191 0
170 192 0
165 186 0
166 189 0
166 188 0
163 186 0
167 188 0
169 191 0
166 188 0
176 200 108
172 195 102
176 198 92
169 192 95
176 199 105
174 198 114
174 196 92
171 194 108
170 193 88
171 194 92
172 195 99
166 189 84
175 198 122
170 193 76
171 194 88
166 190 88
171 194 99
172 196 110
169 193 99
166 189 62
165 189 102
169 192 99
175 198 114
166 188 80
166 190 76
165 188 88
169 192 76
162 185 84
168 191 114
167 190 99
168 191 102
160 183 102
168 191 105
163 186 99
169 192 117
171 194 99
167 190 92
168 190 99
163 186 92
169 192 99
166 189 92
166 189 99
167 190 102
165 188 105
170 193 111
165 188 95
167 190 102
164 187 95
161 184 92
170 194 108
161 184 88
162 184 92
166 189 92
166 189 111
160 183 88
166 189 102
166 188 92
168 190 108
165 187 80
165 188 102
160 182 95
160 183 84
163 185 111
167 189 108
159 181 76
159 181 84
164 187 88
169 191 108
163 186 108
163 186 99
167 189 95
164 186 88
149 172 76
168 191 108
168 190 105
155 177 80
160 182 72
159 180 84
159 180 111
156 179 105
163 184 111
150 172 72
161 182 102
163 183 102
154 175 99
160 181 88
165 186 99
154 176 88
160 181 92
159 180 114
156 177 92
155 176 84
158 179 99
164 184 99
164 184 99
151 171 84
163 184 105
149 170 95
160 180 108
156 176 92
151 171 99
155 175 114
158 178 95
147 167 92
150 170 95
155 174 92
154 173 72
156 177 80
144 164 76
147 168 80
149 168 92
153 173 88
148 168 76
135 155 62
152 172 76
139 160 57
149 169 57
146 166 36
150 171 44
136 156 25
138 160 0
137 157 36
142 163 0
143 165 57
137 159 0
138 158 0
141 162 44
134 154 0
148 170 25
141 161 25
149 171 25
143 163 0
160 182 0
155 178 0
154 177 0
156 178 0
150 172 0
145 166 0
147 168 0
145 167 0
143 161 0
142 163 0
146 167 0
134 156 0
134 155 0
139 159 0
141 163 0
133 152 0
139 159 0
134 155 0
139 161 0
142 163 0
143 163 0
133 154 0
133 153 0
133 152 0
123 144 0
127 147 0
127 147 0
139 160 0
131 151 0
127 146 0
127 145 0
127 145 0
127 147 0
126 147 0
132 151 0
132 152 0
141 161 0
120 140 0
129 149 0
144 164 0
133 154 0
138 159 0
126 146 0
130 149 0
129 150 0
135 155 0
129 149 0
129 149 0
139 158 0
127 148 0
131 152 0
130 150 0
125 145 0
140 160 0
118 138 0
130 151 0
133 154 0
139 160 0
137 157 0
138 157 0
130 150 0
127 147 0
134 154 0
135 155 0
138 159 0
130 151 0
141 162 0
132 151 0
132 151 0
124 145 0
128 148 0
127 148 0
136 156 0
133 152 0
134 154 0
128 148 0
142 162 0
131 151 0
134 155 0
134 153 0
140 161 0
130 150 0
139 160 0
138 158 0
136 157 0
144 165 0
145 166 0
127 147 0
127 148 0
136 156 0
145 166 0
131 152 0
136 156 0
142 161 0
143 164 0
142 162 0
137 159 0
140 163 0
131 151 0
143 163 0
140 161 0
134 155 0
148 168 0
139 160 0
142 164 0
146 167 0
142 162 0
144 166 0
157 179 0
147 168 0
140 160 0
146 167 0
142 163 0
151 172 0
132 152 0
151 172 0
136 158 0
146 167 0
135 156 0
148 169 0
147 169 0
146 168 0
149 171 0
151 173 0
142 163 0
147 168 0
147 169 0
144 165 0
149 172 0
153 174 0
153 174 0
146 167 0
149 171 0
141 163 0
138 159 0
142 163 0
145 166 0
147 169 0
144 166 0
154 177 0
144 165 0
143 163 0
152 174 0
149 171 0
151 171 0
156 177 0
149 170 0
161 183 0
149 170 0
159 180 0
155 178 0
149 169 0
146 167 0
149 171 0
152 173 0
151 174 0
157 178 0
161 182 0
154 176 0
151 174 0
156 178 0
158 180 0
158 180 0
150 170 0
150 171 0
152 173 0
155 177 0
152 173 0
156 179 0
153 174 0
154 175 0
158 180 0
158 180 0
158 182 0
153 174 0
163 184 0
151 171 0
158 181 0
160 182 0
160 182 0
156 177 0
162 184 0
154 175 0
161 184 0
160 181 0
160 182 0
157 179 0
154 175 0
159 181 0
164 184 0
155 176 0
162 185 0
156 178 0
160 182 0
157 178 0
159 182 0
164 184 0
155 178 0
158 178 0
165 186 0
161 183 0
157 179 0
163 185 0
159 181 0
164 187 0
159 180 0
166 187 0
161 183 0
162 182 0
163 184 0
161 183 0
161 182 0
160 181 0
164 186 0
160 180 0
165 188 0
161 183 0
164 186 0
163 185 0
163 184 0
163 183 0
159 183 0
168 190 0
166 188 0
165 186 0
161 183 0
162 185 0
160 182 0
167 189 0
162 183 0
164 185 0
165 187 0
162 183 0
162 183 0
165 187 0
165 187 0
165 188 0
164 186 0
162 183 0
169 191 0
160 182 0
165 187 0
162 181 0
166 188 0
167 189 0
166 189 0
165 185 0
167 187 0
165 185 0
160 181 0
168 189 0
167 189 0
166 188 0
164 186 0
159 180 0
165 187 0
165 186 0
166 189 0
169 191 0
165 187 0
170 193 0
169 192 0
171 193 0
164 184 0
168 190 0
167 188 0
170 193 0
164 186 0
173 196 105
176 199 105
170 193 80
174 197 102
175 198 95
177 200 122
171 194 95
177 200 111
173 196 111
171 193 76
173 196 114
175 198 88
170 193 92
170 194 88
173 196 111
166 189 84
172 194 99
170 193 88
164 188 105
171 194 88
174 197 105
169 192 105
170 193 67
173 196 111
171 194 117
175 198 117
175 198 111
167 190 99
173 197 114
167 190 92
167 190 80
166 189 105
175 198 125
163 185 88
171 194 105
171 195 99
167 190 102
163 187 92
169 191 99
165 187 88
169 192 92
165 187 92
168 191 111
167 190 88
172 196 127
168 190 76
165 188 88
165 188 80
163 187 105
167 190 114
161 184 95
164 187 105
170 192 80
166 189 99
165 187 95
156 178 92
160 184 80
165 187 108
168 191 114
157 180 105
161 183 72
164 187 92
170 193 99
152 174 99
159 181 80
155 177 88
166 188 105
163 185 117
170 193 125
165 188 114
159 181 80
164 186 117
154 175 76
156 178 92
167 189 105
168 190 111
163 185 95
154 175 95
168 189 105
156 178 72
168 191 114
162 184 111
158 180 108
160 182 84
160 182 92
164 185 92
159 181 92
163 184 92
158 179 105
159 181 95
160 180 114
155 176 76
156 176 76
153 173 84
155 176 88
147 167 80
160 181 108
155 175 102
161 181 105
161 181 122
151 170 88
156 176 84
159 179 111
157 177 92
168 187 111
152 171 95
154 175 80
160 180 88
156 177 88
157 177 84
155 175 99
156 177 72
152 172 62
151 172 80
143 164 72
156 176 84
148 168 80
138 160 25
142 162 25
144 165 25
145 166 0
136 157 0
148 169 36
143 165 25
137 158 25
143 165 0
140 160 0
147 169 0
142 161 44
146 167 25
144 166 25
146 168 25
153 175 0
158 180 0
150 171 0
158 180 0
152 173 0
143 165 0
152 174 0
142 164 0
145 166 0
144 164 0
146 167 0
141 161 0
146 168 0
145 166 0
141 161 0
137 157 0
128 149 0
133 154 0
133 154 0
140 160 0
134 154 0
131 151 0
136 156 0
135 157 0
125 145 0
135 156 0
133 154 0
127 147 0
126 145 0
127 147 0
121 139 0
132 151 0
123 143 0
147 167 0
125 144 0
134 154 0
131 151 0
136 157 0
126 146 0
131 151 0
129 150 0
131 151 0
122 142 0
121 140 0
128 148 0
120 140 0
144 163 0
124 143 0
129 150 0
125 144 0
133 153 0
137 156 0
131 152 0
134 155 0
141 162 0
125 145 0
132 154 0
131 151 0
124 144 0
128 148 0
132 154 0
133 152 0
129 148 0
132 153 0
130 152 0
128 148 0
134 153 0
140 161 0
125 146 0
140 160 0
123 143 0
126 147 0
129 150 0
127 147 0
142 163 0
134 155 0
122 143 0
137 157 0
136 157 0
137 158 0
130 151 0
123 145 0
142 162 0
142 163 0
132 152 0
133 154 0
134 155 0
135 157 0
143 162 0
135 155 0
140 159 0
135 155 0
141 161 0
133 153 0
145 166 0
140 163 0
143 163 0
137 159 0
143 164 0
147 167 0
144 164 0
144 164 0
143 164 0
144 165 0
149 170 0
138 159 0
139 160 0
157 178 0
132 152 0
148 169 0
144 164 0
147 168 0
145 167 0
143 165 0
145 165 0
153 174 0
142 164 0
143 165 0
147 168 0
149 171 0
150 171 0
147 167 0
153 174 0
146 167 0
144 166 0
149 171 0
150 171 0
145 166 0
150 173 0
157 178 0
141 163 0
150 170 0
157 177 0
149 170 0
143 163 0
146 167 0
150 172 0
141 162 0
151 171 0
154 177 0
156 178 0
147 168 0
157 179 0
160 182 0
153 174 0
156 179 0
146 168 0
150 173 0
157 179 0
152 173 0
155 176 0
154 176 0
154 175 0
154 176 0
153 175 0
155 177 0
154 176 0
161 182 0
155 177 0
162 184 0
156 178 0
154 175 0
156 177 0
154 176 0
153 175 0
150 173 0
150 170 0
159 181 0
159 179 0
155 176 0
154 175 0
155 178 0
156 177 0
155 176 0
156 176 0
159 181 0
160 182 0
152 174 0
159 182 0
157 179 0
160 181 0
159 179 0
159 181 0
159 181 0
155 177 0
153 174 0
152 172 0
151 172 0
157 180 0
158 180 0
160 181 0
158 180 0
165 187 0
160 182 0
162 184 0
160 183 0
160 180 0
155 177 0
159 181 0
163 185 0
161 183 0
157 179 0
156 177 0
158 181 0
164 186 0
161 182 0
160 181 0
155 177 0
160 184 0
160 182 0
167 189 0
165 187 0
163 184 0
159 181 0
164 185 0
160 182 0
159 179 0
160 181 0
165 187 0
161 181 0
165 186 0
161 183 0
159 180 0
168 191 0
163 185 0
160 183 0
161 183 0
162 184 0
163 185 0
165 187 0
161 182 0
165 187 0
166 189 0
159 179 0
165 186 0
163 184 0
162 185 0
160 183 0
161 182 0
158 180 0
164 186 0
163 185 0
165 185 0
165 188 0
166 187 0
165 189 0
166 189 0
167 190 0
167 190 0
165 186 0
166 188 0
166 188 0
167 190 0
164 186 0
167 189 0
164 186 0
164 185 0
166 188 0
165 186 0
165 187 0
165 187 0
169 192 0
165 187 0
168 190 0
159 181 0
167 189 0
165 187 0
170 191 0
176 199 122
176 199 95
171 194 80
168 192 88
174 197 117
172 194 80
172 195 88
174 197 125
174 196 62
172 194 102
172 195 95
174 198 99
170 193 84
170 193 76
173 196 84
172 196 108
169 192 88
170 193 99
167 190 99
172 195 99
166 190 80
167 190 92
165 188 99
166 190 92
169 192 84
172 194 102
170 193 99
171 194 95
171 195 102
169 192 84
173 196 108
175 199 117
168 191 92
174 197 127
169 192 67
170 194 76
165 189 80
165 189 92
168 191 105
170 193 95
169 191 95
163 186 92
167 190 95
165 188 95
166 188 80
167 189 84
166 189 102
163 185 72
164 187 105
170 194 102
162 186 80
158 181 88
170 193 95
169 192 99
161 183 88
162 183 88
163 187 95
165 187 99
163 186 99
160 182 80
161 185 92
158 180 84
164 186 92
168 191 108
154 177 80
163 184 92
160 181 84
156 178 111
161 183 102
156 178 88
155 177 84
157 179 95
163 185 102
155 176 92
154 176 67
161 183 95
154 175 44
163 185 114
168 190 114
163 185 108
151 172 88
157 179 99
155 177 88
160 182 99
162 182 88
165 186 105
160 180 102
163 184 99
160 182 108
161 182 95
155 176 76
157 178 92
160 182 92
156 176 111
156 176 114
169 190 125
153 174 72
148 168 92
162 183 111
162 182 117
166 185 111
158 178 111
160 179 122
162 181 114
159 180 92
156 177 80
148 167 88
160 179 92
155 175 84
154 174 92
140 160 80
156 176 92
136 156 25
154 174 62
163 182 88
154 174 76
140 161 51
154 175 0
142 164 25
145 166 25
143 164 25
141 162 25
142 163 25
150 169 36
144 166 36
151 172 36
140 161 25
148 169 36
146 168 25
150 170 25
150 171 0
156 177 25
152 174 0
161 182 0
154 176 0
157 179 0
158 179 0
147 169 0
141 164 0
147 169 0
147 169 0
148 169 0
144 165 0
142 162 0
139 161 0
131 152 0
139 161 0
136 157 0
145 165 0
132 153 0
137 158 0
140 160 0
134 154 0
134 155 0
139 159 0
137 156 0
133 154 0
137 158 0
141 160 0
121 141 0
134 154 0
136 155 0
139 159 0
129 150 0
130 151 0
143 163 0
140 162 0
131 151 0
129 149 0
126 146 0
136 155 0
128 147 0
132 151 0
125 144 0
133 152 0
130 151 0
128 148 0
138 158 0
124 145 0
131 152 0
132 153 0
127 148 0
132 151 0
127 148 0
128 149 0
130 151 0
132 152 0
123 143 0
129 148 0
134 154 0
132 153 0
129 150 0
135 157 0
119 139 0
131 151 0
126 145 0
136 156 0
125 146 0
137 158 0
136 158 0
132 151 0
139 159 0
139 160 0
134 154 0
138 158 0
130 151 0
130 151 0
141 161 0
141 163 0
144 164 0
144 164 0
134 155 0
137 158 0
131 151 0
134 155 0
134 154 0
143 165 0
140 161 0
144 165 0
143 164 0
137 158 0
132 152 0
137 158 0
142 163 0
137 159 0
146 167 0
139 159 0
141 162 0
137 158 0
143 163 0
143 164 0
136 156 0
144 165 0
139 159 0
139 159 0
134 155 0
148 170 0
148 171 0
141 161 0
148 170 0
143 163 0
146 167 0
142 162 0
151 172 0
144 165 0
144 164 0
141 162 0
140 159 0
144 164 0
136 157 0
136 158 0
154 174 0
140 160 0
155 176 0
145 166 0
147 168 0
146 167 0
143 163 0
142 163 0
151 172 0
156 177 0
142 163 0
148 169 0
153 175 0
153 175 0
150 172 0
153 175 0
149 170 0
153 174 0
153 174 0
147 168 0
151 171 0
149 170 0
148 171 0
149 170 0
150 172 0
151 173 0
147 167 0
152 172 0
151 171 0
155 177 0
155 177 0
154 175 0
151 172 0
157 178 0
156 178 0
155 175 0
145 167 0
157 178 0
152 174 0
154 177 0
152 174 0
150 172 0
163 185 0
163 184 0
145 167 0
152 172 0
156 176 0
153 175 0
154 175 0
155 177 0
153 176 0
155 178 0
159 181 0
161 182 0
166 188 0
156 178 0
160 182 0
155 177 0
156 177 0
160 183 0
159 182 0
160 179 0
163 185 0
162 185 0
161 183 0
161 182 0
157 179 0
158 179 0
158 180 0
161 183 0
160 181 0
164 186 0
162 184 0
162 185 0
153 173 0
165 186 0
154 176 0
165 186 0
160 183 0
157 179 0
161 183 0
161 183 0
156 176 0
155 178 0
163 184 0
160 182 0
160 182 0
164 185 0
157 178 0
162 183 0
162 183 0
162 184 0
159 182 0
161 182 0
159 181 0
168 190 0
167 188 0
164 185 0
167 189 0
159 181 0
163 184 0
163 186 0
164 187 0
161 183 0
161 182 0
161 183 0
167 189 0
161 183 0
166 188 0
164 186 0
166 188 0
163 185 0
164 185 0
165 188 0
160 181 0
163 184 0
160 183 0
168 190 0
167 189 0
168 191 0
168 189 0
165 187 0
165 187 0
166 186 0
167 188 0
162 185 0
167 188 0
164 186 0
169 191 0
163 185 0
163 185 0
167 190 0
167 189 0
164 185 0
167 189 0
165 189 0
162 184 0
167 188 0
161 181 0
165 186 0
169 191 0
168 190 0
163 186 0
161 182 0
166 187 0
165 187 0
160 181 0
165 186 0
164 186 0
172 195 99
172 195 92
175 197 99
176 198 105
173 196 76
173 195 92
169 192 84
172 195 99
169 192 80
177 199 120
171 194 105
168 191 95
172 195 99
169 192 72
170 193 80
172 195 99
169 193 105
167 190 92
172 195 95
170 193 95
172 195 102
169 192 105
172 196 105
163 186 62
172 195 88
169 192 105
166 189 92
170 192 88
168 191 111
170 193 117
170 192 84
168 192 67
167 190 108
164 187 102
168 191 102
169 192 105
167 190 84
169 192 84
171 193 92
166 189 92
164 186 80
171 194 120
167 189 95
169 192 102
162 185 99
165 187 84
163 186 76
158 182 102
170 193 114
162 185 95
167 189 84
171 194 88
165 188 95
166 189 99
159 181 76
165 188 102
166 189 95
164 187 102
170 192 117
160 183 99
158 180 88
166 188 102
168 190 92
166 188 88
164 187 95
166 188 108
166 189 72
151 172 72
164 186 99
166 189 105
162 184 105
154 176 80
160 182 95
164 186 92
165 186 84
160 182 84
159 181 76
158 180 102
168 189 95
160 181 99
163 184 92
157 179 99
163 185 92
156 177 105
152 173 95
151 172 88
164 184 102
154 175 92
158 178 80
159 180 95
162 182 108
161 182 105
162 183 95
152 173 99
158 179 92
157 179 84
146 166 72
161 181 111
161 183 84
165 184 99
168 188 114
152 172 92
157 177 108
156 176 99
159 180 95
150 172 51
161 181 95
157 177 80
152 171 88
153 174 80
152 172 76
152 172 92
141 161 62
161 182 76
162 181 80
157 177 44
149 170 25
141 163 36
146 167 0
151 172 25
143 165 0
148 168 0
149 170 36
147 168 51
149 169 62
150 172 36
146 167 25
142 163 0
153 174 0
140 161 0
147 170 0
155 177 0
159 181 0
154 177 0
161 183 0
159 180 0
149 172 0
150 173 0
149 172 0
151 173 0
149 170 0
135 157 0
150 172 0
149 171 0
146 167 0
143 163 0
141 162 0
149 171 0
143 164 0
132 152 0
151 171 0
142 162 0
126 147 0
131 152 0
141 160 0
144 165 0
136 156 0
137 159 0
129 150 0
137 158 0
138 158 0
140 161 0
142 164 0
140 159 0
136 157 0
131 151 0
133 154 0
140 160 0
135 157 0
131 153 0
132 152 0
130 149 0
123 143 0
129 149 0
127 147 0
130 150 0
136 156 0
129 147 0
135 155 0
134 155 0
147 168 0
124 144 0
132 152 0
127 147 0
137 157 0
146 166 0
130 151 0
141 161 0
129 149 0
131 152 0
133 153 0
135 156 0
132 153 0
136 157 0
128 149 0
145 166 0
134 155 0
129 150 0
141 161 0
141 163 0
140 161 0
139 161 0
134 155 0
138 157 0
134 152 0
146 167 0
128 149 0
141 161 0
128 148 0
129 149 0
135 155 0
136 158 0
140 160 0
138 158 0
138 158 0
134 153 0
139 159 0
146 168 0
134 155 0
149 170 0
146 167 0
148 170 0
144 164 0
140 160 0
140 160 0
135 156 0
138 159 0
135 157 0
141 161 0
139 160 0
143 164 0
143 165 0
149 169 0
149 171 0
141 163 0
149 171 0
141 163 0
154 177 0
142 162 0
135 157 0
139 159 0
153 172 0
155 177 0
150 172 0
149 171 0
153 173 0
142 163 0
141 164 0
145 166 0
152 173 0
145 165 0
152 174 0
143 164 0
151 171 0
144 166 0
143 163 0
150 173 0
145 167 0
149 171 0
151 172 0
141 161 0
151 173 0
149 171 0
146 167 0
148 170 0
150 171 0
146 167 0
158 178 0
148 169 0
150 171 0
151 173 0
150 171 0
148 169 0
151 173 0
153 174 0
153 175 0
156 178 0
152 173 0
149 170 0
150 171 0
152 173 0
151 174 0
150 170 0
159 180 0
153 175 0
148 170 0
158 179 0
155 177 0
154 175 0
155 177 0
159 181 0
154 177 0
151 173 0
157 177 0
156 177 0
157 179 0
150 172 0
158 179 0
156 177 0
158 180 0
158 180 0
160 183 0
155 177 0
152 175 0
151 173 0
158 179 0
154 175 0
157 179 0
159 181 0
158 180 0
162 184 0
160 182 0
156 178 0
157 178 0
162 183 0
158 178 0
163 184 0
161 182 0
154 175 0
158 179 0
153 175 0
161 183 0
161 182 0
159 181 0
159 179 0
156 177 0
160 183 0
162 183 0
162 184 0
162 184 0
161 183 0
158 179 0
158 180 0
160 182 0
157 178 0
162 184 0
165 187 0
159 181 0
161 183 0
162 183 0
163 185 0
162 183 0
166 188 0
161 184 0
162 184 0
166 190 0
163 185 0
163 184 0
166 188 0
161 181 0
161 181 0
162 184 0
161 183 0
163 185 0
166 188 0
161 183 0
165 188 0
169 191 0
161 182 0
162 184 0
161 183 0
165 187 0
166 186 0
159 179 0
161 182 0
158 180 0
166 187 0
164 187 0
163 187 0
162 183 0
162 184 0
159 181 0
163 185 0
166 188 0
165 188 0
160 180 0
160 181 0
162 184 0
165 189 0
166 188 0
163 185 0
161 182 0
169 192 0
163 184 0
161 181 0
164 187 0
165 187 0
164 186 0
166 189 0
163 184 0
162 185 0
168 192 0
161 182 0
167 190 0
165 187 0
164 186 0
163 186 0
167 188 0
169 191 0
165 186 0
167 190 76
176 198 105
171 193 99
170 193 95
176 199 99
174 197 108
173 196 88
171 194 117
172 196 102
179 201 111
166 189 92
171 194 95
169 192 88
170 193 108
173 196 99
166 189 80
169 192 72
167 190 92
171 194 99
164 187 88
162 185 88
174 196 108
172 195 102
170 193 72
171 194 92
173 195 111
171 194 102
173 196 108
167 190 72
172 195 108
169 192 92
171 193 84
165 188 76
171 194 105
168 192 80
164 188 99
163 184 84
169 191 76
176 200 122
168 192 111
168 191 88
169 192 95
164 188 99
165 188 99
166 190 88
167 190 92
167 190 80
166 188 84
163 185 99
164 187 102
166 189 102
164 187 88
167 189 102
162 185 108
165 188 88
163 186 105
163 186 99
173 196 108
171 194 99
161 184 111
166 188 102
155 177 76
159 182 95
166 188 84
170 192 125
160 183 102
161 183 102
159 182 105
161 183 95
159 181 88
158 180 84
166 188 95
167 189 88
162 184 95
157 179 88
169 192 108
157 179 88
160 182 88
162 184 111
162 183 108
164 185 92
155 177 76
159 181 95
172 193 111
159 180 92
153 174 95
163 184 88
153 173 92
158 180 84
153 174 84
162 183 111
159 179 105
157 177 88
163 184 105
167 187 105
162 182 99
160 180 102
155 177 84
152 172 84
159 179 105
164 184 120
165 185 111
155 174 95
153 173 84
159 178 99
161 181 120
153 173 76
159 179 72
154 174 80
154 174 84
152 172 76
156 175 92
155 175 84
159 179 84
154 173 80
145 167 25
139 160 25
145 167 0
146 167 44
145 166 36
153 175 57
139 159 36
145 167 25
144 165 25
144 165 0
145 167 25
143 165 0
150 172 0
143 165 25
146 168 25
151 172 0
157 179 0
150 171 0
157 179 0
151 173 0
146 168 0
158 179 0
152 175 0
153 175 0
157 179 0
147 169 0
152 174 0
145 165 0
149 171 0
147 168 0
131 152 0
142 163 0
136 158 0
145 166 0
140 161 0
135 154 25
146 168 0
145 167 0
133 153 0
142 162 0
135 155 0
138 158 0
135 155 0
141 162 0
134 155 0
133 153 0
136 157 0
132 151 0
142 163 0
143 164 0
137 158 0
122 141 0
133 153 0
140 159 0
133 152 0
131 151 0
139 160 0
142 163 0
142 163 0
138 159 0
122 142 0
136 156 0
141 162 0
117 137 0
130 150 0
127 147 0
131 150 0
132 153 0
138 159 0
131 152 0
141 162 0
129 149 0
141 162 0
141 161 0
130 151 0
134 154 0
140 162 0
137 158 0
131 151 0
131 152 0
129 149 0
145 166 0
133 154 0
131 152 0
140 159 0
132 153 0
139 161 0
130 151 0
144 165 0
137 158 0
138 158 0
147 167 0
139 161 0
141 162 0
138 158 0
138 159 0
141 161 0
141 162 0
140 160 0
141 161 0
138 160 0
142 163 0
136 156 0
143 164 0
134 154 0
142 163 0
140 160 0
146 167 0
138 158 0
134 155 0
137 158 0
142 163 0
145 167 0
134 155 0
144 165 0
146 167 0
147 169 0
139 160 0
139 160 0
140 161 0
148 169 0
138 159 0
144 166 0
146 167 0
142 163 0
135 155 0
144 164 0
146 166 0
143 163 0
148 170 0
147 169 0
140 160 0
146 168 0
144 163 0
152 174 0
152 173 0
143 164 0
152 174 0
153 175 0
150 172 0
145 166 0
155 177 0
154 177 0
150 172 0
146 168 0
152 173 0
141 163 0
151 172 0
153 175 0
159 179 0
151 172 0
152 172 0
152 174 0
150 171 0
152 173 0
152 173 0
155 176 0
144 167 0
147 168 0
146 168 0
148 169 0
152 174 0
160 181 0
156 177 0
153 173 0
150 171 0
145 165 0
155 177 0
152 173 0
155 177 0
160 181 0
149 170 0
164 186 0
148 169 0
153 174 0
157 180 0
157 179 0
150 170 0
154 176 0
159 181 0
152 174 0
158 180 0
154 174 0
155 176 0
154 175 0
161 183 0
152 175 0
159 181 0
158 179 0
153 174 0
161 183 0
159 181 0
150 170 0
159 179 0
159 179 0
159 181 0
158 180 0
159 180 0
159 181 0
158 180 0
153 174 0
155 177 0
157 179 0
167 190 0
165 187 0
155 176 0
158 178 0
155 176 0
156 178 0
156 177 0
156 179 0
161 182 0
161 182 0
161 182 0
163 184 0
162 183 0
156 177 0
161 182 0
160 181 0
156 178 0
160 183 0
159 181 0
165 188 0
158 180 0
161 183 0
161 182 0
167 187 0
165 187 0
163 184 0
164 186 0
164 184 0
161 182 0
166 189 0
162 184 0
164 186 0
161 183 0
164 186 0
168 190 0
163 185 0
160 181 0
167 190 0
163 186 0
166 188 0
161 183 0
165 186 0
156 177 0
163 183 0
158 180 0
166 187 0
163 185 0
166 189 0
167 188 0
162 185 0
166 188 0
168 190 0
165 187 0
169 191 0
165 187 0
163 184 0
170 192 0
163 186 0
166 188 0
163 186 0
168 190 0
169 191 0
162 184 0
164 185 0
166 189 0
166 189 0
165 187 0
171 194 0
168 190 0
166 188 0
166 189 0
167 188 0
168 190 0
166 187 0
169 192 0
163 186 0
167 190 0
168 192 0
168 190 0
166 186 0
168 188 0
168 191 0
172 195 76
175 198 88
176 199 102
172 195 105
171 194 95
172 196 88
171 194 95
171 193 95
175 199 92
173 196 95
171 193 99
171 194 99
172 195 92
171 194 76
168 191 92
171 194 95
173 196 111
168 192 92
171 195 111
170 193 80
174 197 108
169 192 80
167 191 88
168 192 99
170 193 99
172 196 95
169 193 99
173 195 99
170 192 95
164 186 80
165 187 102
173 196 99
173 197 105
170 194 105
173 196 117
162 185 95
165 189 92
170 194 88
166 189 80
167 190 92
162 185 84
169 191 99
171 193 99
163 185 84
170 193 88
161 184 92
167 190 92
167 190 99
164 187 72
167 190 92
162 184 80
166 188 105
169 192 117
166 189 102
161 183 84
163 185 88
166 188 84
163 186 122
156 178 84
161 183 111
166 188 88
163 186 95
164 186 111
161 183 99
161 183 92
171 195 108
158 181 92
161 184 95
162 184 102
158 180 88
160 182 92
161 183 84
155 177 88
163 185 80
164 185 105
159 180 105
166 188 99
167 189 92
158 179 99
166 186 108
167 189 105
158 179 92
162 184 105
167 188 102
151 171 72
162 182 84
170 191 111
162 184 114
153 175 80
160 181 99
158 178 88
163 183 111
168 188 108
164 185 99
161 180 88
158 179 102
162 183 105
154 174 84
164 184 99
158 178 88
161 181 88
157 177 102
151 171 76
161 181 84
151 171 95
157 176 95
153 173 84
152 173 88
151 172 72
165 184 111
162 181 99
154 174 76
155 175 84
149 170 62
153 174 62
150 172 44
148 169 25
152 174 25
143 163 25
143 165 25
150 172 0
138 158 0
144 165 36
150 172 0
156 177 36
150 173 25
155 176 36
150 171 44
154 176 0
150 170 36
148 172 0
154 177 0
155 177 0
154 177 0
162 184 0
159 180 0
157 181 0
155 176 0
147 167 0
147 170 0
150 172 0
141 163 0
147 168 0
148 169 0
140 162 0
136 157 0
140 160 0
135 157 0
145 167 25
142 163 0
136 156 0
142 162 0
141 162 0
131 151 0
131 152 0
134 155 0
139 159 0
134 155 0
131 152 0
136 156 0
131 151 0
142 162 0
141 161 0
131 152 0
133 152 0
141 162 0
139 161 0
121 141 0
138 159 0
130 151 0
136 156 0
144 165 0
131 151 0
140 160 0
122 142 0
132 152 0
138 160 0
131 151 0
145 166 0
135 157 0
136 157 0
141 161 0
129 151 0
133 153 0
135 156 0
130 150 0
138 159 0
133 153 0
131 151 0
141 161 0
133 155 0
137 158 0
145 165 0
139 161 0
138 158 0
137 158 0
137 158 0
138 158 0
143 165 0
127 147 0
139 161 0
139 161 0
126 147 0
136 158 0
137 157 0
137 158 0
136 158 0
133 153 0
136 156 0
142 164 0
141 163 0
129 150 0
139 160 0
139 161 0
141 161 0
130 149 0
140 161 0
140 161 0
134 154 0
141 161 0
130 152 0
144 166 0
138 160 0
141 162 0
146 169 0
146 167 0
131 151 0
142 163 0
134 156 0
141 163 0
137 159 0
149 170 0
140 162 0
150 170 0
141 163 0
145 167 0
140 161 0
144 167 0
142 163 0
135 157 0
149 170 0
149 170 0
142 165 0
153 175 0
153 174 0
150 173 0
137 157 0
145 166 0
151 171 0
148 170 0
152 174 0
150 172 0
154 177 0
144 165 0
150 170 0
152 174 0
153 174 0
149 170 0
154 176 0
155 177 0
149 170 0
147 168 0
152 173 0
150 171 0
149 171 0
152 173 0
147 167 0
152 174 0
149 170 0
152 174 0
153 173 0
152 175 0
152 175 0
152 173 0
153 174 0
160 183 0
152 174 0
156 179 0
152 173 0
153 175 0
157 179 0
149 171 0
155 176 0
149 170 0
154 176 0
150 171 0
151 172 0
154 176 0
157 179 0
146 167 0
155 177 0
147 167 0
150 173 0
164 186 0
154 175 0
155 176 0
158 179 0
158 180 0
159 181 0
154 176 0
151 171 0
157 179 0
164 186 0
160 180 0
162 184 0
162 184 0
160 180 0
159 180 0
156 178 0
159 181 0
156 179 0
156 177 0
163 184 0
157 180 0
155 177 0
163 185 0
157 179 0
157 178 0
156 179 0
161 182 0
159 181 0
161 183 0
160 182 0
156 178 0
160 183 0
162 185 0
159 181 0
162 183 0
161 182 0
158 181 0
162 184 0
161 183 0
164 184 0
160 181 0
161 183 0
161 183 0
163 185 0
162 184 0
164 185 0
167 190 0
160 181 0
157 178 0
165 188 0
160 183 0
167 189 0
161 183 0
159 181 0
163 185 0
163 183 0
161 181 0
160 183 0
166 187 0
163 185 0
159 180 0
165 188 0
167 189 0
165 188 0
160 182 0
166 189 0
166 186 0
166 189 0
164 186 0
167 188 0
159 181 0
167 189 0
163 185 0
163 187 0
164 187 0
169 192 0
162 184 0
165 186 0
166 188 0
160 181 0
163 186 0
165 187 0
167 189 0
159 180 0
169 191 0
169 190 0
163 185 0
168 190 0
165 188 0
166 188 0
166 188 0
170 192 0
164 186 0
168 190 0
161 182 0
167 189 0
167 189 0
166 189 0
164 188 0
169 191 0
166 187 0
168 191 0
168 191 0
168 191 0
167 189 0
170 192 0
168 190 0
174 197 108
176 198 114
171 194 62
173 195 99
176 198 105
170 193 99
176 199 111
172 194 95
169 193 88
171 194 84
172 195 80
172 195 95
171 194 102
167 190 88
172 194 80
169 192 95
171 194 76
173 196 105
173 196 95
168 190 92
173 196 95
175 198 95
173 196 95
164 186 82
172 195 102
169 193 99
160 182 80
173 196 99
171 193 99
170 193 95
168 192 80
172 194 102
172 194 99
167 190 80
165 188 80
168 191 102
166 189 92
168 190 95
172 196 105
168 191 102
164 187 99
166 189 88
164 187 95
167 189 84
164 188 99
169 191 99
169 190 102
163 185 84
174 196 95
168 191 114
166 189 95
171 194 122
159 180 72
164 186 72
163 186 92
160 183 92
165 188 88
170 192 92
165 187 105
169 191 111
161 183 80
166 188 80
159 182 108
163 186 88
159 180 99
160 181 95
161 184 99
161 182 99
168 191 102
166 189 95
149 172 80
163 185 105
165 187 102
163 185 84
160 182 84
167 189 95
166 188 114
160 181 88
162 184 108
151 172 92
159 182 114
159 181 102
163 185 117
161 182 95
165 186 105
154 176 88
163 185 88
151 172 84
159 179 84
169 189 114
157 178 88
168 189 105
161 181 99
149 169 84
155 175 88
164 184 102
163 184 92
162 183 92
156 176 120
167 187 117
166 186 105
165 185 92
160 181 72
153 173 92
157 178 76
161 182 88
155 175 88
166 187 88
158 179 76
154 174 92
155 174 95
155 175 80
148 170 62
144 165 44
160 180 57
156 178 57
148 170 25
140 162 25
141 162 25
148 169 0
144 165 44
141 164 44
148 169 0
148 169 44
150 172 25
146 169 25
151 173 0
145 167 0
144 166 44
151 173 36
152 173 0
161 183 0
158 181 0
160 183 0
156 178 0
162 184 0
154 177 0
157 179 0
153 175 0
145 168 0
148 169 0
151 172 0
144 165 0
131 152 0
138 160 0
145 167 0
144 165 0
139 161 0
141 162 0
148 170 0
146 168 0
135 157 0
134 155 0
134 155 0
138 160 0
136 157 0
134 154 0
140 160 0
137 158 0
137 159 0
138 159 0
135 155 0
131 151 0
142 163 0
133 154 0
136 156 0
145 165 0
133 155 0
139 161 0
131 152 0
140 161 0
150 171 0
124 144 0
134 154 0
139 160 0
130 150 0
143 164 0
144 164 0
137 158 0
147 167 0
141 161 0
140 161 0
138 159 0
139 158 0
140 161 0
138 159 0
130 151 0
129 150 0
131 152 0
133 152 0
136 157 0
140 162 0
134 155 0
140 160 0
138 159 0
134 155 0
145 165 0
137 158 0
136 157 0
136 158 0
139 159 0
149 170 0
144 164 0
143 164 0
137 159 0
133 155 0
129 149 0
139 160 0
147 169 0
139 159 0
137 159 0
136 158 0
136 157 0
143 164 0
142 163 0
145 167 0
148 170 0
131 153 0
131 152 0
139 159 0
134 155 0
134 156 0
138 159 0
145 166 0
153 175 0
149 171 0
146 168 0
144 166 0
148 169 0
142 162 0
132 154 0
140 161 0
137 159 0
143 163 0
148 170 0
143 165 0
144 165 0
154 175 0
151 172 0
144 164 0
145 166 0
144 167 0
146 166 0
140 160 0
140 162 0
146 168 0
149 170 0
143 164 0
146 165 0
142 165 0
146 166 0
146 167 0
145 164 0
153 174 0
149 172 0
155 176 0
144 166 0
153 174 0
147 169 0
149 173 0
155 176 0
151 172 0
157 179 0
151 174 0
156 178 0
153 175 0
152 174 0
152 172 0
150 170 0
148 169 0
143 165 0
161 183 0
146 166 0
151 173 0
157 180 0
155 176 0
153 174 0
152 174 0
150 171 0
153 174 0
156 177 0
157 179 0
156 179 0
156 178 0
151 173 0
158 180 0
154 174 0
152 174 0
158 178 0
156 177 0
162 183 0
160 181 0
150 172 0
160 182 0
156 178 0
154 175 0
161 182 0
157 179 0
156 179 0
156 179 0
159 180 0
158 179 0
154 176 0
155 178 0
161 182 0
164 186 0
158 179 0
159 181 0
160 181 0
162 184 0
156 177 0
155 177 0
163 185 0
155 176 0
161 183 0
158 181 0
162 181 0
160 181 0
163 187 0
160 182 0
157 177 0
155 176 0
160 182 0
163 186 0
158 180 0
161 184 0
164 185 0
162 186 0
153 176 0
162 183 0
161 182 0
161 184 0
165 186 0
162 185 0
161 181 0
161 182 0
162 184 0
165 187 0
165 186 0
162 184 0
160 181 0
166 187 0
164 186 0
167 191 0
159 180 0
166 188 0
161 182 0
161 183 0
165 187 0
162 184 0
163 183 0
168 188 0
161 183 0
162 184 0
163 185 0
163 184 0
163 184 0
161 183 0
163 185 0
167 189 0
167 188 0
165 185 0
162 185 0
166 187 0
166 188 0
167 188 0
165 189 0
164 185 0
167 189 0
163 184 0
165 186 0
166 188 0
168 190 0
170 194 0
170 194 0
168 190 0
160 181 0
164 186 0
166 187 0
164 186 0
158 177 0
168 190 0
170 192 0
169 190 0
168 190 0
165 186 0
166 188 0
169 191 0
172 194 0
165 187 0
163 185 0
169 190 0
170 192 0
169 191 0
164 186 0
164 186 0
168 190 0
165 187 0
164 186 0
167 190 0
170 193 80
177 200 105
171 193 67
174 197 108
172 195 92
174 197 88
172 195 92
177 199 117
172 195 99
176 198 92
175 198 105
172 194 102
173 195 99
173 196 92
172 195 88
172 195 99
169 192 84
168 191 102
169 193 105
172 196 95
174 197 95
166 189 102
162 184 67
174 197 111
166 189 84
168 191 76
172 195 99
170 192 92
173 197 102
165 188 84
169 193 99
175 198 111
166 189 88
173 196 92
171 193 88
165 187 105
168 191 99
167 190 92
173 196 108
173 196 114
164 186 99
164 186 84
169 191 88
169 191 108
167 190 99
164 186 95
171 193 105
165 187 84
165 187 88
167 190 84
163 186 95
164 186 80
163 185 88
167 189 105
164 187 102
167 189 108
163 186 102
167 190 105
160 184 102
157 179 80
164 186 92
164 186 84
163 186 95
163 186 72
167 189 95
165 188 105
162 184 88
167 189 120
162 184 92
166 187 84
163 185 99
165 187 80
157 179 76
166 188 105
158 179 72
168 188 114
169 190 105
158 179 88
163 183 122
157 178 117
164 185 92
167 188 105
151 173 88
160 182 84
167 188 88
161 182 111
165 186 88
162 183 92
156 176 102
161 183 99
157 178 92
160 181 92
161 181 105
160 181 92
161 181 102
159 180 92
159 179 92
164 185 88
157 178 80
161 180 95
150 170 67
157 178 99
155 176 84
153 173 76
154 175 76
150 169 76
153 175 57
161 181 99
159 178 88
158 177 88
165 185 105
157 178 80
151 172 51
145 166 51
152 173 57
159 180 76
147 169 0
151 173 0
152 174 25
152 173 25
142 164 36
157 178 25
154 175 44
139 162 44
142 163 25
156 178 25
141 162 0
147 169 25
150 171 0
143 165 0
152 174 36
160 182 0
161 184 0
151 173 0
155 178 0
147 169 0
154 176 0
155 178 0
148 170 0
152 175 0
148 169 0
140 161 0
147 169 0
139 160 0
142 163 0
142 164 0
144 165 0
137 158 0
141 161 0
144 164 0
144 166 0
139 160 0
145 166 0
147 168 0
136 157 0
136 157 0
136 157 0
143 163 0
143 163 0
132 153 0
138 158 0
138 159 0
143 163 0
131 151 0
139 160 0
136 156 0
137 158 0
137 157 0
139 161 0
142 162 0
136 157 0
143 164 0
132 152 0
118 138 0
135 156 0
145 165 0
141 162 0
140 160 0
139 160 0
141 163 0
142 163 0
134 154 0
139 160 0
127 148 0
145 167 0
137 158 0
138 158 0
136 157 0
124 145 0
138 159 0
136 157 0
134 154 0
141 161 0
139 160 0
140 161 0
140 162 0
146 166 0
143 164 0
141 162 0
144 164 0
140 161 0
136 156 0
143 164 0
146 166 0
146 167 0
136 157 0
147 168 0
144 164 0
140 162 0
139 161 0
133 155 0
149 169 0
143 165 0
143 164 0
133 155 0
143 164 0
142 163 0
137 157 0
145 167 0
135 156 0
143 164 0
143 165 0
143 165 0
132 154 0
147 170 0
142 163 0
135 157 0
143 165 0
145 165 0
147 169 0
141 163 0
150 170 0
147 168 0
149 170 0
153 174 0
144 165 0
149 171 0
149 170 0
144 165 0
148 170 0
138 160 0
142 163 0
139 158 0
155 177 0
142 163 0
143 164 0
152 174 0
149 171 0
146 167 0
156 177 0
153 176 0
154 175 0
147 170 0
146 168 0
146 168 0
138 160 0
153 175 0
155 177 0
152 174 0
155 176 0
148 169 0
154 174 0
149 171 0
147 170 0
154 175 0
153 175 0
153 175 0
154 175 0
157 178 0
155 177 0
153 176 0
155 177 0
150 172 0
154 177 0
152 175 0
153 176 0
156 179 0
160 183 0
163 185 0
154 175 0
150 170 0
156 177 0
160 182 0
147 170 0
153 175 0
157 179 0
159 179 0
155 177 0
160 181 0
154 176 0
151 173 0
158 180 0
151 172 0
164 185 0
158 178 0
153 175 0
155 176 0
159 181 0
152 173 0
158 180 0
158 180 0
157 178 0
156 178 0
156 178 0
155 177 0
156 179 0
155 177 0
158 179 0
163 185 0
158 179 0
159 181 0
161 183 0
159 181 0
165 188 0
158 179 0
157 177 0
157 179 0
161 184 0
159 181 0
162 184 0
163 184 0
162 182 0
160 182 0
159 180 0
164 186 0
164 186 0
158 180 0
167 189 0
165 187 0
163 185 0
163 186 0
165 187 0
157 179 0
168 192 0
160 182 0
163 184 0
164 186 0
162 186 0
163 186 0
162 185 0
163 185 0
158 180 0
162 185 0
163 185 0
162 184 0
165 187 0
160 181 0
162 184 0
163 186 0
165 187 0
164 186 0
168 190 0
167 188 0
170 192 0
163 185 0
167 189 0
162 184 0
168 191 0
163 185 0
168 190 0
166 189 0
160 183 0
168 191 0
165 187 0
166 188 0
165 187 0
164 186 0
164 184 0
163 185 0
164 186 0
165 188 0
164 186 0
165 187 0
162 184 0
164 186 0
164 185 0
167 189 0
161 182 0
167 188 0
166 190 0
164 186 0
166 189 0
164 185 0
167 189 0
167 188 0
170 192 0
168 189 0
163 186 0
168 187 0
165 188 0
167 187 0
170 192 0
165 186 0
168 190 0
167 190 0
168 190 0
163 186 0
168 190 0
166 185 0
170 192 0
172 195 95
174 197 88
176 199 102
177 200 108
169 192 88
178 201 117
179 201 120
168 192 72
171 194 88
173 196 99
169 192 105
174 196 105
173 196 84
172 195 92
172 195 95
168 190 99
171 194 95
174 195 95
171 194 92
174 197 105
173 196 105
171 194 92
173 196 111
174 196 105
169 192 76
167 190 76
173 196 102
167 190 95
171 194 114
168 192 97
173 195 111
169 191 102
169 192 84
171 194 111
169 191 102
170 192 117
164 187 80
166 189 88
169 191 88
168 191 95
166 190 92
163 185 67
172 195 114
165 188 108
166 188 120
168 192 102
163 187 105
168 192 88
162 185 92
169 191 80
167 191 99
170 192 72
162 185 102
162 185 80
171 194 88
162 185 99
166 187 76
166 187 84
164 186 88
160 182 102
167 189 108
173 195 127
167 191 114
162 185 84
172 194 108
167 190 80
170 192 95
157 179 88
158 180 76
163 186 99
164 186 102
165 187 76
160 182 92
157 179 88
161 183 95
168 191 105
158 180 99
162 184 95
165 187 88
161 182 92
154 175 92
164 185 95
151 172 95
163 184 111
160 181 108
162 184 111
157 179 84
155 175 76
166 186 108
160 180 114
161 182 76
159 179 102
163 185 88
161 182 105
159 180 95
163 184 99
158 179 84
155 176 111
160 180 92
158 179 76
159 180 72
164 184 92
155 174 84
162 182 88
162 182 95
159 180 72
161 181 102
163 184 88
150 171 67
163 184 80
161 181 72
157 177 57
151 172 44
155 177 44
153 174 36
154 176 36
156 177 44
153 175 44
152 174 0
146 166 0
152 174 36
144 165 51
153 175 51
150 172 44
157 179 36
148 170 36
146 169 0
152 173 0
142 162 0
147 168 0
152 174 36
164 186 0
161 184 0
158 181 0
157 180 0
153 176 0
151 173 0
152 174 0
148 170 0
152 173 0
148 169 0
143 165 0
148 170 0
142 163 0
140 161 0
144 166 0
152 173 0
137 159 0
141 163 0
147 168 0
146 166 0
140 160 0
133 155 0
136 156 0
147 169 0
137 158 0
145 166 0
142 163 0
141 162 0
142 164 0
131 151 0
142 163 0
140 162 0
136 157 0
127 147 0
137 158 0
142 163 0
144 165 0
129 150 0
140 161 0
138 159 0
135 156 0
138 159 0
138 159 0
141 161 0
139 159 0
140 161 0
133 155 0
136 157 0
130 152 0
150 169 0
134 154 0
143 164 0
139 160 0
138 160 0
137 157 0
144 166 0
133 153 0
134 155 0
140 160 0
129 149 0
136 157 0
139 160 0
145 168 0
140 159 0
142 162 0
148 169 0
138 160 0
142 163 0
132 153 0
137 157 0
139 161 0
130 151 0
140 161 0
150 171 0
137 158 0
140 159 0
142 163 0
141 162 0
141 162 0
144 164 0
142 162 0
135 156 0
141 161 0
139 161 0
135 157 0
138 160 0
149 171 0
145 166 0
143 165 0
142 163 0
142 162 0
140 161 0
139 161 0
145 167 0
139 159 0
130 151 0
151 173 0
153 174 0
146 167 0
155 177 0
146 167 0
153 174 0
138 160 0
146 167 0
148 170 0
146 167 0
137 159 0
139 161 0
149 173 0
144 166 0
148 170 0
151 173 0
139 161 0
146 167 0
154 175 0
153 174 0
148 170 0
153 174 0
149 170 0
148 170 0
160 183 0
152 174 0
154 177 0
151 173 0
152 174 0
151 172 0
149 172 0
139 160 0
152 174 0
147 168 0
156 177 0
149 171 0
148 169 0
151 171 0
156 178 0
155 176 0
146 166 0
154 176 0
155 177 0
154 177 0
158 180 0
158 180 0
143 164 0
157 180 0
150 173 0
155 176 0
147 168 0
152 173 0
161 184 0
151 173 0
157 180 0
161 183 0
156 177 0
155 175 0
160 183 0
153 174 0
156 179 0
165 188 0
159 181 0
152 175 0
158 178 0
152 175 0
159 181 0
158 179 0
160 181 0
152 174 0
155 177 0
152 173 0
160 182 0
156 177 0
154 176 0
161 182 0
161 184 0
159 183 0
161 183 0
153 174 0
160 181 0
165 185 0
164 186 0
159 180 0
160 181 0
158 180 0
160 180 0
153 177 0
165 187 0
163 185 0
162 185 0
157 180 0
157 178 0
156 178 0
165 187 0
162 185 0
166 189 0
168 192 0
160 182 0
163 186 0
159 180 0
164 186 0
164 186 0
167 190 0
164 185 0
160 181 0
161 182 0
164 186 0
163 185 0
164 186 0
164 186 0
160 182 0
163 185 0
162 184 0
157 178 0
162 184 0
166 187 0
163 185 0
164 187 0
169 190 0
162 184 0
162 184 0
162 183 0
164 186 0
162 183 0
164 186 0
158 180 0
163 185 0
166 188 0
163 185 0
163 185 0
168 191 0
168 191 0
160 181 0
165 188 0
161 183 0
165 186 0
164 184 0
164 186 0
170 192 0
160 183 0
168 191 0
167 189 0
164 186 0
168 190 0
159 180 0
166 188 0
164 184 0
163 185 0
162 183 0
160 183 0
168 189 0
167 189 0
166 188 0
167 191 0
164 185 0
165 186 0
163 184 0
171 194 0
162 185 0
169 192 0
168 190 0
169 192 0
167 189 0
166 188 0
166 189 0
168 190 0
166 187 0
165 185 0
164 186 0
170 193 0
170 192 0
168 191 0
174 196 99
174 196 80
175 197 105
171 194 92
175 198 111
172 195 105
171 193 76
175 197 105
171 193 111
170 193 88
173 197 120
170 192 84
171 194 84
172 194 102
173 196 108
169 192 102
172 195 102
176 199 99
169 192 111
167 190 92
172 194 95
172 195 102
169 192 88
170 192 88
172 196 99
169 193 95
171 194 108
168 190 84
169 192 105
172 196 105
170 192 99
174 197 102
170 194 88
164 186 99
170 193 95
167 190 84
170 192 88
164 187 105
170 192 105
170 194 102
170 193 95
169 191 102
165 189 92
169 191 102
170 193 108
166 188 92
167 190 117
162 184 88
166 188 99
161 184 76
164 186 102
168 189 105
161 184 105
169 191 105
161 184 105
173 195 105
168 190 92
165 187 99
170 193 105
164 187 102
164 185 88
172 194 111
167 189 99
168 190 99
163 185 92
162 184 92
162 183 108
163 184 88
160 182 95
165 186 108
165 187 122
161 182 80
171 193 105
163 185 114
162 184 76
165 186 108
166 188 102
155 177 88
163 185 105
160 181 92
157 178 108
168 189 95
164 185 108
160 181 102
163 183 102
163 184 88
173 194 99
160 180 102
163 184 95
158 179 95
158 179 88
156 176 95
169 190 102
159 180 88
162 183 108
153 173 111
160 180 92
171 191 114
155 176 84
160 181 72
162 183 92
161 182 92
154 175 57
165 186 102
157 177 88
156 176 95
155 175 92
155 176 92
159 180 99
159 180 72
156 177 84
154 174 51
151 172 44
149 170 44
156 177 67
153 174 62
149 171 36
150 171 0
147 170 0
150 171 25
150 172 25
157 177 25
154 177 25
151 172 25
150 171 36
153 175 51
154 176 0
154 176 25
154 175 36
155 178 36
156 178 0
165 188 0
161 184 0
157 179 0
159 181 0
158 180 0
155 177 0
157 180 0
152 174 0
150 174 0
154 176 0
150 171 0
144 165 0
146 168 0
153 174 0
147 168 0
143 165 0
138 159 0
135 157 0
141 162 0
144 165 0
135 156 0
143 164 0
145 167 0
141 163 0
138 160 0
139 159 0
143 164 0
142 163 0
141 162 0
146 166 0
144 165 0
142 163 0
138 159 0
130 152 0
144 165 0
137 158 0
141 162 0
141 162 0
134 154 0
130 151 0
128 149 0
137 157 0
138 159 0
132 153 0
145 166 0
142 164 0
137 157 0
133 154 0
134 155 0
134 155 0
150 171 0
137 158 0
136 157 0
142 164 0
135 156 0
137 157 0
148 169 0
132 153 0
136 157 0
141 162 0
125 147 0
139 160 0
140 161 0
142 164 0
141 162 0
139 161 0
140 160 0
142 164 0
148 170 0
146 168 0
145 166 0
140 161 0
150 171 0
145 166 0
136 158 0
149 171 0
134 154 0
136 156 0
141 163 0
145 167 0
141 161 0
149 172 0
148 169 0
141 163 0
132 155 0
138 159 0
138 160 0
141 163 0
135 154 0
142 163 0
145 166 0
134 155 0
147 169 0
144 165 0
148 170 0
142 163 0
149 169 0
141 163 0
135 156 0
150 170 0
144 167 0
143 165 0
140 160 0
149 170 0
146 168 0
153 174 0
145 168 0
143 165 0
152 174 0
156 179 0
149 171 0
145 167 0
154 176 0
146 166 0
141 163 0
146 167 0
147 169 0
151 173 0
147 168 0
145 168 0
153 175 0
153 175 0
154 175 0
151 174 0
151 174 0
154 176 0
146 169 0
156 178 0
156 177 0
140 161 0
156 179 0
157 179 0
148 170 0
150 172 0
154 176 0
153 174 0
159 180 0
147 169 0
152 173 0
152 174 0
152 175 0
156 178 0
157 179 0
150 171 0
153 174 0
155 177 0
158 180 0
153 176 0
152 174 0
152 174 0
155 177 0
154 177 0
156 179 0
148 169 0
151 173 0
151 172 0
151 173 0
156 178 0
159 181 0
156 179 0
159 181 0
155 177 0
151 172 0
161 183 0
157 178 0
159 181 0
160 182 0
158 180 0
161 182 0
158 180 0
159 180 0
152 174 0
150 172 0
154 176 0
155 177 0
154 175 0
156 177 0
163 184 0
161 184 0
160 183 0
156 179 0
158 180 0
159 179 0
160 182 0
156 179 0
157 179 0
159 181 0
153 174 0
152 173 0
160 182 0
161 183 0
163 184 0
161 183 0
160 182 0
160 183 0
159 182 0
164 186 0
163 186 0
160 182 0
160 182 0
163 185 0
162 185 0
162 184 0
157 179 0
161 184 0
168 190 0
157 180 0
164 186 0
163 186 0
159 181 0
160 183 0
157 178 0
160 181 0
163 185 0
165 187 0
162 186 0
159 180 0
168 192 0
162 184 0
168 190 0
161 184 0
162 184 0
160 182 0
163 185 0
164 185 0
157 179 0
166 188 0
160 183 0
169 191 0
167 191 0
166 187 0
168 192 0
160 181 0
161 182 0
166 188 0
164 185 0
162 184 0
165 187 0
164 187 0
164 187 0
163 184 0
164 186 0
163 184 0
166 188 0
165 188 0
169 192 0
164 184 0
168 189 0
165 188 0
165 187 0
164 186 0
165 187 0
163 185 0
165 185 0
165 186 0
167 189 0
165 186 0
167 190 0
163 186 0
166 189 0
168 190 0
168 190 0
168 191 0
171 193 0
166 187 0
169 191 0
165 186 0
167 189 0
167 190 0
176 199 102
173 195 102
172 195 88
179 201 92
174 196 102
173 196 92
173 197 92
167 190 95
174 197 99
168 192 105
170 193 92
177 199 92
178 201 111
168 191 88
171 195 80
170 193 95
176 199 111
172 194 99
172 195 108
169 192 102
172 195 120
169 193 100
170 193 80
169 192 99
167 190 84
169 192 88
172 195 130
171 194 88
172 195 88
170 193 88
165 188 92
166 188 95
174 197 120
167 190 88
170 194 102
167 190 95
167 190 99
163 185 92
168 191 111
169 191 99
164 187 80
169 191 88
168 192 114
170 192 111
166 188 99
171 193 99
166 188 92
172 195 108
169 191 92
167 189 88
168 191 102
171 194 114
163 185 84
168 190 108
164 186 84
161 183 95
167 190 102
165 188 99
164 186 92
166 188 80
165 187 95
163 185 102
171 192 99
163 185 80
166 188 102
157 179 72
166 188 108
171 193 111
158 181 80
161 182 84
156 178 95
158 179 80
161 182 95
164 186 102
175 198 127
159 179 95
159 180 92
162 183 111
165 187 95
162 184 111
162 183 80
158 180 72
151 172 92
162 183 111
160 181 102
163 184 95
162 184 95
163 184 105
171 191 120
157 177 111
162 183 84
161 181 99
166 187 92
159 178 111
167 188 99
158 178 95
158 179 80
160 182 92
156 177 84
154 175 88
151 172 80
160 181 88
158 179 72
154 174 84
155 176 72
162 182 72
167 188 99
157 178 76
161 180 102
157 178 62
162 181 80
158 179 84
152 174 36
157 178 44
150 171 44
156 178 44
153 175 25
149 170 0
146 168 36
149 171 36
153 174 36
147 167 0
146 168 25
148 170 25
151 172 36
151 172 36
148 171 25
154 176 0
156 177 25
153 174 36
166 188 0
159 183 0
155 178 0
158 180 0
154 176 0
150 173 0
151 174 0
156 179 0
149 170 0
152 173 0
145 166 0
154 175 0
147 170 0
143 166 0
150 172 0
139 160 0
140 161 0
141 164 0
143 164 0
151 173 0
142 164 0
151 173 0
147 168 0
138 159 0
138 159 0
141 162 0
134 156 0
135 157 0
130 152 0
146 167 0
144 165 0
136 157 0
142 163 0
134 155 0
149 169 0
140 161 0
138 158 0
147 169 0
137 156 0
148 169 0
138 158 0
140 160 0
144 166 0
137 157 0
140 160 0
141 162 0
133 154 0
131 152 0
143 164 0
138 159 0
135 155 0
137 159 0
138 159 0
138 158 0
140 161 0
150 170 0
152 173 0
145 166 0
144 165 0
137 158 0
150 171 0
146 168 0
140 162 0
138 159 0
144 165 0
147 168 0
142 164 0
139 161 0
136 157 0
137 157 0
137 158 0
144 164 0
145 165 0
140 160 0
139 160 0
137 159 0
144 165 0
138 158 0
136 157 0
147 168 0
140 160 0
137 158 0
149 171 0
136 158 0
145 166 0
135 158 0
141 162 0
142 164 0
141 163 0
142 163 0
146 168 0
138 158 0
135 155 0
147 169 0
136 157 0
143 165 0
137 158 0
138 160 0
142 163 0
141 162 0
145 166 0
146 168 0
145 165 0
140 161 0
143 164 0
148 170 0
148 170 0
139 162 0
149 171 0
150 169 0
155 177 0
142 163 0
146 168 0
151 173 0
155 178 0
146 169 0
145 167 0
152 174 0
145 166 0
152 175 0
148 170 0
148 170 0
155 176 0
154 177 0
144 166 0
146 168 0
154 176 0
156 178 0
147 168 0
145 166 0
150 173 0
147 167 0
144 166 0
161 183 0
154 176 0
152 174 0
150 172 0
148 170 0
159 181 0
151 173 0
146 169 0
156 179 0
157 178 0
149 171 0
148 169 0
158 178 0
151 172 0
155 177 0
152 173 0
157 180 0
147 169 0
156 177 0
157 180 0
151 173 0
157 179 0
156 177 0
157 179 0
151 172 0
159 181 0
158 180 0
153 174 0
152 174 0
159 181 0
152 172 0
155 177 0
159 182 0
158 180 0
158 181 0
162 184 0
159 181 0
160 183 0
161 183 0
163 184 0
160 182 0
162 184 0
156 179 0
160 183 0
161 182 0
164 185 0
161 183 0
162 183 0
160 182 0
156 178 0
163 185 0
161 183 0
159 181 0
163 186 0
164 187 0
163 185 0
159 181 0
162 185 0
160 181 0
166 188 0
162 183 0
163 186 0
158 180 0
164 186 0
163 186 0
164 186 0
160 181 0
167 188 0
161 182 0
165 187 0
163 185 0
162 183 0
161 182 0
159 181 0
155 177 0
159 180 0
165 186 0
161 184 0
159 180 0
162 184 0
163 185 0
166 188 0
166 188 0
165 186 0
165 188 0
163 185 0
162 184 0
162 184 0
161 183 0
162 183 0
166 188 0
168 190 0
166 189 0
167 189 0
163 185 0
164 186 0
167 189 0
168 191 0
162 183 0
164 187 0
164 185 0
167 190 0
161 182 0
163 186 0
162 183 0
167 189 0
168 189 0
165 187 0
166 188 0
165 186 0
164 185 0
167 190 0
166 187 0
165 188 0
167 191 0
165 186 0
161 183 0
164 188 0
168 191 0
166 188 0
165 187 0
167 187 0
162 185 0
165 187 0
167 188 0
166 189 0
166 188 0
166 188 0
170 193 0
168 189 0
167 189 0
171 193 0
168 190 0
167 190 0
167 189 0
169 191 0
167 189 0
171 194 111
178 200 111
174 198 102
175 197 114
174 196 99
172 195 95
177 199 105
175 198 84
172 195 95
173 195 114
172 195 105
171 194 95
168 190 80
168 191 88
175 198 102
165 187 95
173 195 102
171 194 88
168 191 84
170 193 80
167 190 72
170 193 105
172 196 108
171 193 95
172 196 95
172 194 84
169 192 92
174 197 122
171 194 92
172 195 84
171 194 99
169 192 105
169 192 102
174 196 92
167 190 84
166 188 80
171 194 105
169 192 72
166 189 76
171 193 76
159 182 76
165 188 84
158 181 76
163 185 92
159 183 99
168 190 95
170 193 105
160 183 84
167 190 99
165 188 105
167 189 114
169 192 92
166 188 95
161 183 84
166 187 84
157 179 76
169 191 111
169 191 130
166 187 102
163 185 88
162 184 99
171 193 95
167 190 99
170 191 135
166 188 95
161 183 84
158 180 111
165 187 88
167 188 99
163 185 84
165 187 111
166 188 108
162 185 84
155 177 88
171 192 122
168 190 120
162 182 84
158 179 99
163 184 84
164 185 105
166 188 105
168 190 120
162 183 111
157 178 105
166 187 92
161 182 105
157 178 88
158 179 92
165 186 80
165 186 88
160 180 67
167 188 111
162 182 88
160 180 105
170 191 99
164 184 102
159 180 76
160 180 88
153 174 76
161 182 80
162 182 72
150 170 76
150 171 67
157 178 92
162 182 92
161 182 76
160 180 99
158 178 84
160 181 84
152 172 57
154 174 67
146 167 25
145 167 36
155 177 25
149 171 62
156 178 62
157 179 44
155 177 36
154 176 25
151 172 51
150 172 25
155 176 51
152 174 36
158 179 0
155 176 36
153 175 44
162 184 36
155 176 36
150 171 25
157 179 25
164 186 0
161 183 0
159 182 0
159 182 0
158 180 0
154 177 0
153 174 0
155 178 0
151 174 0
156 178 0
143 164 0
142 163 0
149 172 0
152 174 0
146 169 0
147 168 0
146 168 0
152 173 0
145 166 0
148 169 0
145 166 0
149 172 0
135 156 0
151 173 0
135 156 0
138 159 0
136 157 0
136 158 0
138 159 0
136 157 0
150 171 0
138 159 0
149 170 0
140 160 0
142 164 0
131 152 0
130 151 0
139 161 0
146 169 0
137 158 0
139 161 0
133 153 0
149 171 0
137 158 0
141 163 0
135 157 0
144 166 0
150 170 0
131 153 0
136 156 0
140 161 0
142 162 0
148 170 0
145 166 0
148 170 0
142 164 0
137 158 0
136 157 0
143 165 0
139 160 0
136 157 0
138 159 0
139 161 0
141 162 0
133 154 0
147 168 0
142 163 0
141 162 0
143 164 0
140 162 0
141 162 0
138 159 0
139 160 0
132 154 0
143 164 0
137 159 0
142 162 0
141 161 0
133 155 0
143 164 0
141 162 0
133 154 0
146 168 0
142 162 0
145 166 0
141 161 0
142 163 0
141 163 0
149 170 0
149 171 0
152 173 0
144 166 0
151 172 0
144 166 0
146 168 0
147 169 0
140 163 0
141 163 0
146 168 0
146 167 0
155 175 0
151 173 0
142 164 0
144 166 0
151 172 0
142 164 0
142 165 0
149 168 0
152 173 0
152 173 0
154 175 0
148 169 0
141 162 0
146 168 0
151 173 0
147 168 0
148 169 0
150 172 0
149 171 0
149 171 0
156 177 0
149 170 0
149 171 0
155 177 0
156 177 0
150 172 0
150 171 0
150 170 0
152 175 0
150 172 0
155 176 0
142 163 0
156 177 0
149 171 0
155 177 0
161 183 0
157 181 0
149 173 0
157 178 0
147 169 0
155 176 0
153 176 0
142 164 0
155 178 0
156 178 0
158 180 0
159 181 0
157 179 0
155 176 0
153 176 0
152 174 0
160 182 0
158 179 0
165 187 0
157 179 0
159 180 0
153 175 0
163 184 0
157 178 0
151 173 0
158 180 0
156 178 0
154 175 0
163 186 0
155 178 0
154 176 0
157 178 0
161 183 0
162 184 0
157 181 0
161 184 0
164 187 0
157 179 0
161 183 0
156 178 0
161 183 0
156 178 0
154 175 0
162 185 0
158 180 0
157 179 0
157 179 0
160 182 0
161 184 0
154 177 0
155 177 0
160 182 0
161 183 0
163 186 0
162 185 0
162 185 0
162 182 0
165 188 0
160 183 0
157 180 0
162 183 0
163 185 0
161 183 0
166 188 0
158 180 0
163 185 0
158 179 0
163 184 0
163 186 0
166 188 0
161 183 0
163 185 0
159 178 0
163 186 0
164 187 0
165 187 0
160 182 0
166 189 0
165 186 0
162 185 0
158 180 0
166 188 0
167 190 0
169 190 0
160 182 0
164 186 0
164 186 0
161 183 0
165 186 0
165 189 0
163 186 0
164 186 0
168 191 0
161 184 0
167 189 0
163 186 0
166 190 0
163 185 0
168 190 0
164 187 0
169 192 0
168 189 0
168 190 0
162 183 0
166 189 0
162 185 0
166 188 0
168 190 0
163 184 0
167 189 0
165 186 0
162 183 0
166 188 0
171 194 0
171 193 0
163 186 0
170 192 0
165 186 0
165 188 0
161 181 0
164 187 0
166 187 0
170 193 0
164 187 0
167 189 0
168 191 0
165 187 0
173 196 0
164 186 0
166 188 0
165 188 0
168 191 0
166 187 0
171 193 0
167 189 0
173 196 92
175 196 102
172 194 105
172 195 105
172 195 95
170 192 88
172 195 95
166 188 88
178 200 102
171 194 99
175 197 92
171 193 92
171 194 102
174 196 99
169 191 80
172 195 99
172 195 114
171 194 92
178 201 108
171 194 108
173 195 99
172 195 108
173 195 102
166 190 99
167 189 92
166 189 95
173 195 99
170 192 76
169 192 114
173 196 99
165 188 92
166 189 84
170 192 80
172 195 99
165 188 92
166 188 80
171 195 105
164 187 80
167 189 95
173 195 102
168 192 99
173 196 108
170 192 99
164 188 120
163 185 95
170 194 99
171 193 114
167 189 99
169 193 102
162 184 80
169 191 80
168 191 102
157 180 95
170 192 92
165 188 88
169 192 99
159 181 80
169 191 84
162 184 105
166 188 92
165 186 92
165 187 95
161 183 76
163 184 95
164 186 88
167 188 95
154 175 88
168 191 114
170 191 111
160 181 88
162 183 92
166 188 117
167 188 102
169 190 114
162 183 105
164 186 92
156 176 99
161 183 105
161 183 88
166 188 114
164 185 108
159 181 88
160 182 99
161 181 99
158 179 99
162 184 108
163 185 105
162 183 92
164 185 111
162 183 111
154 174 88
162 183 95
162 182 111
158 180 114
151 173 72
161 183 88
161 182 57
166 186 80
161 181 76
158 179 72
163 184 99
156 177 92
162 182 99
159 181 99
159 179 99
158 178 102
166 186 102
157 178 76
158 179 76
159 180 72
157 178 84
148 168 57
154 176 57
158 180 36
156 177 51
150 171 36
148 169 25
152 173 25
150 172 44
153 176 36
156 178 36
149 170 25
149 171 44
142 165 0
155 177 44
150 172 25
158 180 25
150 171 36
147 169 0
152 174 0
164 187 0
159 182 0
167 190 0
156 179 0
153 176 0
155 178 0
154 177 0
146 169 0
155 178 0
160 182 0
148 170 0
145 168 0
152 173 0
149 171 0
142 164 0
147 169 0
147 169 0
143 165 0
150 172 0
145 166 0
141 164 0
148 169 0
139 160 0
145 166 0
136 157 0
143 164 0
141 161 0
137 158 0
145 166 0
137 159 0
141 163 0
144 165 0
145 165 0
137 158 0
136 157 0
143 164 0
142 163 0
141 162 0
145 166 0
148 169 0
149 171 0
150 171 0
138 159 0
145 166 0
140 162 0
129 150 0
149 170 0
138 158 0
143 164 0
137 159 0
146 168 0
137 158 0
139 161 0
131 152 0
134 154 0
137 158 0
134 157 0
142 164 0
139 160 0
144 166 0
144 164 0
136 158 0
139 160 0
138 159 0
148 170 0
145 165 0
147 168 0
137 159 0
137 159 0
139 161 0
146 167 0
144 166 0
146 168 0
143 164 0
143 164 0
146 167 0
148 169 0
146 167 0
147 170 0
148 169 0
138 160 0
133 155 0
142 163 0
146 168 0
147 169 0
142 165 0
138 159 0
141 162 0
141 163 0
148 170 0
144 166 0
148 168 0
148 169 0
144 166 0
140 162 0
151 172 0
145 166 0
146 168 0
136 156 0
150 171 0
145 168 0
149 170 0
152 172 0
146 168 0
149 171 0
149 171 0
138 159 0
152 174 0
145 166 0
142 164 0
147 169 0
145 168 0
150 172 0
144 166 0
156 177 0
149 171 0
147 168 0
149 171 0
151 173 0
157 179 0
147 170 0
148 168 0
157 179 0
147 170 0
152 172 0
152 175 0
148 170 0
148 171 0
155 176 0
154 175 0
149 170 0
149 169 0
151 172 0
159 181 0
154 175 0
154 176 0
153 174 0
146 166 0
150 172 0
149 172 0
155 177 0
157 180 0
153 175 0
158 178 0
153 175 0
152 175 0
153 176 0
158 180 0
147 167 0
160 182 0
158 180 0
160 183 0
159 182 0
158 180 0
159 181 0
157 179 0
160 183 0
161 182 0
161 182 0
158 182 0
161 184 0
153 175 0
160 182 0
156 179 0
157 179 0
153 176 0
161 182 0
157 179 0
157 181 0
158 179 0
164 186 0
160 182 0
164 187 0
158 180 0
162 183 0
156 178 0
153 174 0
161 183 0
159 182 0
154 175 0
156 177 0
162 184 0
160 182 0
159 182 0
161 184 0
158 180 0
160 182 0
158 179 0
161 183 0
157 180 0
166 187 0
164 187 0
159 181 0
158 181 0
160 183 0
159 183 0
161 184 0
160 182 0
162 184 0
161 184 0
159 181 0
156 177 0
161 182 0
160 181 0
162 185 0
157 178 0
164 187 0
157 179 0
159 180 0
160 183 0
164 185 0
162 184 0
167 189 0
166 189 0
164 187 0
163 184 0
165 188 0
165 187 0
161 183 0
158 180 0
156 178 0
162 183 0
160 183 0
165 188 0
164 186 0
165 187 0
163 185 0
167 189 0
167 190 0
170 191 0
168 190 0
163 185 0
160 182 0
168 189 0
162 185 0
164 186 0
168 190 0
164 185 0
166 188 0
163 186 0
166 187 0
167 189 0
166 188 0
168 190 0
165 188 0
169 192 0
167 189 0
169 192 0
163 184 0
164 187 0
166 187 0
167 189 0
167 190 0
164 186 0
166 189 0
165 187 0
169 191 0
168 188 0
166 189 0
166 187 0
166 188 0
165 187 0
164 187 0
166 190 0
168 190 0
169 190 0
161 184 0
169 192 0
167 189 0
165 188 0
