P3
400 225
255
182 195 194
205 216 226
204 213 221
201 211 221
190 201 202
100 128 77
98 126 76
97 124 73
96 124 74
97 124 74
95 123 74
99 127 76
97 124 74
98 126 75
97 125 75
93 120 72
99 127 77
101 128 77
98 126 76
99 127 76
97 125 76
96 124 74
95 123 74
98 126 76
100 128 77
98 125 75
100 127 77
98 125 75
99 127 77
96 124 74
96 123 74
95 123 73
147 164 149
197 208 214
205 214 223
206 215 222
208 218 228
212 221 231
200 211 220
203 213 222
204 214 222
206 216 226
209 218 228
209 218 227
206 216 224
175 188 185
129 149 120
93 119 71
98 126 75
94 121 73
97 124 74
97 124 75
97 125 75
95 122 73
97 124 74
99 126 76
97 124 74
97 125 76
98 126 76
92 119 71
97 125 75
162 178 171
208 218 227
205 215 224
202 212 221
208 217 226
207 217 227
207 217 225
209 218 227
201 211 219
202 213 222
213 222 231
213 222 231
205 215 223
208 217 226
211 220 230
215 224 236
214 223 232
212 221 230
200 210 217
205 214 221
203 213 222
209 218 227
210 219 228
204 213 221
207 216 225
205 215 225
213 222 232
210 219 229
203 214 222
206 215 223
109 133 95
102 129 78
97 125 75
93 120 71
96 123 73
98 125 75
95 121 72
94 121 72
98 125 75
96 123 74
97 124 75
99 127 76
96 124 75
98 125 76
93 120 71
121 143 114
148 164 151
184 196 198
205 215 222
204 214 223
209 219 229
203 214 224
209 218 228
209 219 229
208 217 226
199 210 218
202 213 223
205 215 225
208 219 230
208 217 227
104 130 85
96 124 74
97 124 75
93 120 72
97 125 75
96 124 75
100 128 77
94 121 73
94 122 73
96 124 75
96 123 74
101 129 77
99 127 76
97 124 74
97 124 75
97 125 75
99 126 76
99 126 76
95 122 72
97 125 75
98 125 74
97 125 75
96 124 74
98 125 75
94 121 71
98 126 77
97 125 76
97 125 75
96 124 75
96 123 73
185 197 199
207 217 227
204 214 223
209 219 230
192 204 211
202 212 219
203 213 221
203 214 225
201 211 220
203 214 223
206 216 225
207 217 227
205 215 223
206 215 223
212 220 229
209 218 226
207 216 223
207 217 226
202 212 221
204 214 224
213 222 231
207 217 226
200 211 222
196 207 215
210 219 230
207 217 226
204 213 221
215 224 233
213 221 230
205 214 224
153 169 154
96 124 75
95 122 73
97 125 75
99 127 76
97 125 75
97 124 74
99 127 76
97 125 75
96 123 73
97 124 75
95 123 74
99 127 76
97 125 75
94 121 73
94 121 73
96 124 75
102 130 78
96 123 73
97 124 74
106 131 86
129 149 124
147 165 148
162 177 170
188 200 203
207 217 227
209 218 229
207 216 226
194 205 211
199 209 217
133 152 131
95 122 73
94 122 73
96 124 75
97 124 75
96 124 74
99 127 77
97 125 75
99 127 77
98 125 75
99 127 76
96 123 74
98 125 75
97 124 74
98 126 76
99 126 76
96 124 74
99 127 76
98 126 75
97 124 75
95 122 72
95 123 74
98 126 76
99 127 77
98 126 75
97 124 75
95 123 74
95 122 73
97 125 75
136 155 131
209 219 231
206 215 223
200 210 218
202 212 218
211 219 228
213 221 230
203 213 221
206 216 226
210 219 228
206 216 226
207 216 226
202 213 222
200 210 217
205 215 224
209 218 227
209 218 226
212 220 229
213 222 232
207 216 226
192 203 210
203 213 220
209 218 228
209 218 227
201 211 218
209 219 228
204 214 224
202 212 219
212 221 231
173 187 185
99 126 76
97 124 74
99 126 76
94 121 72
98 126 76
95 122 72
96 124 75
96 123 74
97 124 74
97 124 74
95 122 72
98 126 76
97 124 74
100 127 77
97 124 75
95 122 73
97 125 75
97 124 74
97 125 75
97 125 75
95 123 74
101 128 76
95 122 73
97 124 75
96 123 74
99 126 75
100 128 77
131 151 128
209 218 226
211 221 231
199 210 219
212 221 229
204 213 221
204 215 227
208 217 225
202 212 220
206 215 226
209 218 226
206 216 226
206 216 225
207 216 226
201 212 221
209 218 229
205 215 223
205 215 224
203 213 222
204 214 222
205 215 224
204 214 221
207 216 226
201 211 219
206 216 225
203 214 223
207 216 225
205 215 222
101 128 82
100 128 77
97 124 75
97 124 74
95 122 73
99 126 76
97 124 74
98 125 76
99 126 76
96 124 74
98 126 75
99 127 77
96 124 74
97 124 75
94 121 73
91 119 72
93 120 71
100 128 77
98 126 76
97 124 74
96 124 74
98 126 76
97 124 75
95 122 73
97 125 75
107 133 91
205 215 221
209 218 228
205 216 226
205 215 224
208 218 227
211 220 228
211 219 229
209 218 228
203 214 224
203 213 221
212 221 232
205 215 224
200 211 220
206 215 223
210 219 229
197 208 215
207 217 226
208 217 226
210 219 227
202 211 219
198 209 218
204 214 221
209 219 228
209 218 227
188 200 204
93 120 72
97 125 75
98 126 76
96 123 74
96 123 74
94 121 72
95 123 74
98 126 75
96 123 73
93 121 73
94 121 72
99 127 76
96 124 75
100 127 77
97 125 75
93 120 72
98 126 75
96 123 73
99 126 76
98 126 75
92 119 71
96 124 75
95 123 74
182 195 196
100 128 77
114 137 104
170 184 180
200 211 218
189 200 204
97 124 74
96 123 74
96 123 74
97 125 75
96 124 74
101 128 77
99 126 75
97 124 75
97 125 76
98 125 75
95 123 74
101 129 78
99 127 76
96 123 74
98 126 75
94 122 73
98 126 76
97 125 75
97 124 75
97 125 75
96 124 75
96 123 73
100 127 76
94 121 72
95 122 73
96 124 75
95 122 74
136 155 135
205 214 222
209 219 228
199 209 217
202 211 219
202 213 222
209 218 227
205 216 225
206 215 225
202 213 222
203 212 219
203 213 221
215 224 234
200 210 218
210 219 229
199 209 216
162 177 168
118 141 109
97 124 75
96 124 75
96 124 74
95 123 74
99 126 76
96 124 74
98 125 75
95 123 74
95 122 73
97 125 75
99 126 76
158 174 164
206 215 224
207 217 228
206 215 224
206 216 225
202 212 221
209 218 227
212 221 229
210 219 228
202 212 221
209 218 226
206 216 224
202 211 218
212 221 231
209 218 227
202 213 223
205 215 225
212 221 231
208 218 229
207 216 225
207 217 227
202 212 219
207 217 226
197 207 215
206 216 226
209 219 228
205 215 226
204 214 221
210 219 229
205 215 224
95 122 73
96 123 73
96 123 74
100 128 77
99 127 76
96 123 73
95 122 74
93 119 70
94 121 72
96 124 74
94 121 72
95 122 73
96 124 74
97 125 74
97 124 74
96 124 75
96 123 74
98 125 75
105 131 90
145 163 148
173 186 182
206 215 222
205 215 226
207 215 222
202 212 221
199 209 216
204 214 222
209 219 230
202 212 221
205 215 223
95 123 74
98 125 74
99 127 77
96 124 75
97 124 75
93 120 71
96 123 74
95 122 74
96 123 74
98 125 75
97 125 74
96 123 74
98 126 76
96 123 74
98 125 76
93 120 71
98 126 75
98 127 77
95 122 73
94 121 72
95 122 73
97 125 75
98 125 75
96 123 74
97 124 75
99 127 77
97 125 76
96 124 75
97 123 73
104 131 83
212 220 230
207 216 224
208 217 227
201 212 221
206 215 225
202 212 220
206 216 224
210 219 230
210 219 229
213 222 230
207 217 227
209 218 228
206 216 227
196 207 215
204 214 225
211 220 230
207 217 228
203 214 223
204 214 222
202 213 223
212 221 231
201 211 219
202 212 221
209 218 227
207 216 226
206 215 224
214 223 234
207 216 226
212 221 231
202 212 220
109 133 96
96 123 74
96 124 74
99 127 76
99 126 75
97 124 74
96 124 74
96 123 74
96 123 74
97 125 75
98 126 76
98 126 75
100 128 77
99 126 76
96 124 75
94 121 72
93 121 72
95 122 73
100 127 77
96 123 74
93 120 72
97 125 75
98 126 76
98 126 76
95 122 73
100 126 78
137 155 136
140 158 139
168 181 173
184 195 195
118 141 106
98 126 76
95 123 73
98 126 76
97 125 74
100 128 77
99 127 76
99 127 76
97 124 74
97 123 73
95 122 73
99 126 76
97 124 74
100 127 75
95 122 73
94 121 73
97 125 74
97 125 76
99 126 76
99 126 76
98 125 75
97 125 76
91 118 71
93 120 72
96 123 74
94 121 72
94 122 74
95 123 74
95 122 74
169 183 178
206 215 222
207 216 225
207 216 225
206 216 225
202 212 221
201 211 221
205 216 227
207 218 229
209 218 226
205 215 224
202 212 217
216 225 235
210 219 229
198 209 217
204 214 222
205 215 225
202 212 223
195 206 213
206 215 223
208 217 226
203 214 223
195 206 214
210 220 230
209 218 228
198 209 216
204 212 219
208 218 228
210 219 228
129 150 129
98 125 75
95 122 73
94 121 72
99 126 76
97 125 75
96 123 74
95 122 73
94 121 72
96 123 74
98 126 76
95 122 73
94 121 72
95 122 73
96 123 73
96 123 73
93 120 71
98 126 76
98 125 76
97 125 75
94 121 72
96 124 75
94 122 73
96 124 74
95 122 73
96 123 74
96 123 74
94 121 73
183 195 193
203 213 221
207 217 228
209 219 229
203 213 222
207 217 226
203 213 222
201 211 219
207 216 225
212 221 230
206 216 225
209 218 226
210 220 229
210 219 229
203 213 222
211 221 231
207 216 223
203 214 222
205 216 226
205 214 223
214 223 234
198 209 217
206 217 227
199 209 216
208 218 226
204 214 224
206 216 227
148 165 151
97 124 74
98 126 75
96 123 74
98 125 75
100 127 76
97 124 74
99 126 76
99 127 77
97 124 74
94 121 73
101 129 78
94 121 73
93 120 72
94 122 73
96 123 74
96 124 74
96 123 74
97 124 75
96 123 73
94 120 71
98 125 74
98 126 76
95 122 72
96 123 74
97 124 74
168 182 177
203 214 224
208 217 226
213 221 231
207 216 224
206 216 225
211 219 229
205 215 224
213 222 233
206 215 224
207 216 226
203 213 222
203 214 224
206 215 225
206 216 225
209 219 230
204 214 223
201 211 218
206 215 222
203 213 221
205 215 225
197 208 216
203 213 223
198 209 216
202 213 223
116 138 107
92 120 72
95 122 73
98 126 76
97 125 75
100 128 77
99 126 76
99 127 77
98 125 75
97 124 75
96 123 74
96 123 73
96 123 73
100 127 77
97 125 75
100 127 77
92 119 72
97 125 75
97 124 74
97 124 74
100 127 76
96 124 74
98 125 75
147 163 147
210 219 227
97 125 75
97 125 76
96 123 74
103 128 86
145 163 150
126 148 120
94 121 73
95 122 74
100 127 76
97 124 74
89 116 69
97 124 74
96 123 74
101 128 77
96 124 75
94 122 73
95 123 74
100 128 77
97 125 76
99 127 76
96 123 74
97 124 75
94 121 72
95 123 74
96 124 75
99 127 76
95 123 74
100 127 76
97 125 75
98 126 76
99 127 76
98 126 76
126 147 123
209 218 226
209 218 227
204 215 225
211 220 229
207 216 225
202 212 220
204 214 224
198 209 217
208 217 225
203 213 221
207 217 226
201 211 218
207 217 225
204 213 220
204 214 223
205 215 224
211 220 229
184 196 195
145 163 149
98 124 79
98 126 76
96 123 73
97 125 74
98 125 75
95 123 74
98 125 75
98 126 77
97 125 75
148 165 151
210 220 230
211 220 231
206 216 225
208 217 225
206 216 224
209 218 228
202 212 222
212 222 234
190 202 210
205 215 225
211 220 229
202 213 221
204 214 222
210 219 228
207 217 229
209 219 229
206 215 223
204 214 224
206 215 222
201 212 222
202 211 219
203 214 222
204 214 223
202 213 220
206 215 224
203 212 222
209 219 230
211 220 228
201 210 216
95 122 73
96 124 74
100 128 77
96 123 74
95 123 74
96 123 74
98 125 75
98 126 76
101 128 77
99 127 76
98 125 75
97 125 75
97 125 75
99 127 76
94 121 72
96 123 74
95 123 74
101 128 77
96 124 74
98 126 76
96 124 75
94 121 75
126 147 118
158 174 162
196 206 210
200 211 219
202 213 223
201 212 222
208 217 226
185 198 198
98 126 75
96 123 74
100 128 77
96 123 74
99 127 76
96 124 75
97 124 74
98 126 76
99 127 76
96 124 74
101 128 76
97 124 75
97 124 74
95 122 73
97 124 75
98 125 75
100 128 77
98 125 75
95 122 73
94 120 71
97 124 75
100 127 77
96 123 74
97 125 75
97 125 76
98 125 75
97 125 75
95 122 73
97 124 74
128 148 124
203 214 223
200 210 217
202 212 220
207 217 226
196 206 214
208 216 222
209 218 227
210 219 229
209 218 227
202 213 222
205 216 226
205 215 224
203 213 222
200 210 219
207 217 226
203 213 222
201 211 220
203 213 222
203 213 220
205 214 223
206 216 225
203 212 220
208 218 229
201 211 219
210 219 230
202 212 218
212 221 232
202 212 219
208 217 226
188 200 202
98 126 76
98 126 75
95 123 74
95 123 74
97 125 76
99 127 76
99 127 77
94 121 72
96 123 73
99 127 76
97 124 74
98 125 75
95 122 73
98 125 75
94 122 73
99 127 76
93 120 73
96 124 75
98 125 75
93 120 72
102 129 78
97 125 75
97 125 74
95 122 73
97 124 75
92 119 71
98 126 76
97 125 76
96 124 75
141 158 139
207 216 225
210 219 227
191 203 207
170 185 180
151 169 156
128 148 121
118 141 107
95 123 74
95 122 73
97 124 74
96 123 73
98 125 76
97 124 74
93 121 72
95 123 74
97 124 75
96 123 73
96 124 74
98 125 75
99 126 76
94 121 72
96 124 75
99 127 76
93 120 71
97 124 74
99 126 76
98 125 75
94 121 73
107 132 89
195 206 210
207 217 227
202 212 220
210 218 225
209 219 228
203 213 222
207 217 227
209 218 228
199 210 219
203 213 222
200 210 217
201 212 220
206 216 224
207 216 224
208 217 227
203 213 221
213 221 231
211 220 230
204 213 222
209 218 227
203 213 223
206 215 223
213 221 231
206 215 225
211 220 229
206 216 226
205 215 226
209 218 228
187 199 201
99 126 79
97 124 74
95 123 74
96 124 75
96 124 74
98 125 76
97 125 75
99 127 76
98 125 75
100 129 78
96 123 74
99 127 77
96 124 74
96 124 74
98 126 75
95 122 73
98 125 75
95 122 73
94 121 72
95 123 75
96 124 74
97 124 75
97 124 75
95 122 73
97 125 75
95 123 74
99 127 76
118 141 109
206 216 225
199 209 214
207 217 227
202 212 222
205 215 223
203 213 223
201 211 220
205 215 225
207 217 226
205 215 224
206 215 224
206 216 225
208 218 229
211 220 230
201 212 222
208 216 224
198 209 217
207 217 228
210 219 229
209 219 229
210 220 229
205 215 224
216 224 233
207 216 225
200 211 220
208 217 225
197 208 214
98 125 78
95 123 73
99 126 76
96 123 74
98 125 75
99 126 76
97 125 75
98 125 75
99 127 76
98 125 75
97 125 75
97 125 75
98 126 75
97 125 75
99 126 76
98 125 75
94 122 73
96 123 74
95 123 75
93 120 72
96 123 74
99 127 77
98 126 76
97 125 76
94 120 72
127 147 120
207 216 225
207 217 227
199 210 218
208 218 227
204 212 219
205 215 224
210 220 229
205 215 225
214 223 233
209 218 228
203 212 219
204 214 223
202 212 222
209 219 228
204 213 221
206 216 226
209 218 227
209 218 226
212 221 230
208 218 227
204 214 222
204 215 223
204 214 223
206 216 227
166 181 175
98 125 76
95 122 73
95 123 73
100 128 77
98 125 75
99 126 76
97 125 75
95 122 73
96 124 75
99 126 76
98 125 75
97 124 74
99 127 77
99 126 76
97 124 74
97 125 75
97 124 74
98 125 75
97 124 74
98 125 75
99 127 76
99 126 76
122 144 114
205 215 223
197 208 215
100 128 76
95 123 75
96 123 74
95 123 74
95 123 74
205 214 220
175 188 184
133 151 132
99 126 78
94 122 73
97 124 75
98 125 75
97 124 75
99 126 76
99 126 76
98 126 75
98 126 75
99 127 76
97 125 75
101 129 77
97 125 75
97 124 74
97 124 73
96 124 74
99 127 76
98 126 75
97 125 75
95 123 73
96 123 73
96 124 75
98 126 76
98 126 75
113 136 99
211 220 230
213 222 233
204 214 222
209 219 228
212 221 229
206 216 226
207 217 226
210 220 231
208 218 228
203 214 222
209 218 226
203 214 223
203 213 221
199 210 217
206 216 228
209 219 228
205 215 223
208 218 226
200 210 219
197 208 215
170 184 179
132 151 128
94 122 73
99 126 76
96 123 74
92 120 72
100 127 76
95 122 73
153 169 155
206 216 226
205 215 223
204 214 223
201 211 219
211 221 231
207 216 226
206 216 225
207 217 227
206 216 225
208 217 225
210 220 231
205 215 224
207 217 227
206 215 223
205 215 224
199 210 217
209 218 227
209 218 227
213 222 230
203 213 222
209 218 228
206 215 223
203 214 224
209 219 227
206 216 226
206 216 225
205 215 223
204 214 222
206 216 223
97 124 75
97 125 75
99 127 76
94 122 73
96 123 73
98 126 76
98 125 75
98 126 76
96 123 73
94 121 73
93 119 71
96 123 74
94 121 72
96 123 74
98 125 75
96 124 74
94 121 72
100 128 77
99 127 76
95 123 74
94 121 73
95 122 74
95 122 73
95 122 74
94 121 72
125 146 118
161 176 166
192 204 208
204 214 223
174 187 185
98 125 75
97 125 75
99 126 75
95 123 74
96 124 74
97 124 75
95 122 73
99 126 76
95 123 74
97 125 75
95 123 74
97 125 75
99 127 76
100 128 77
100 128 78
94 122 73
97 124 75
93 121 72
96 124 75
99 127 76
97 124 75
97 125 75
97 124 74
96 123 74
95 122 73
97 124 74
96 123 73
94 122 73
93 120 72
158 174 165
207 217 227
203 213 222
204 213 220
203 213 222
201 211 218
210 220 230
198 208 216
203 214 224
199 209 215
200 211 220
206 216 226
205 215 224
204 213 221
208 217 225
207 216 224
210 218 226
205 216 228
210 220 230
204 215 224
206 216 226
208 218 227
202 212 220
208 218 229
207 216 223
206 216 226
213 221 230
204 213 221
201 211 218
200 211 220
176 189 187
98 125 76
96 124 74
96 124 74
96 124 74
96 124 75
97 124 75
96 124 75
99 127 76
98 126 75
95 123 74
94 121 72
96 123 74
96 123 74
96 124 74
98 126 75
100 127 76
96 123 74
97 123 73
94 121 72
98 126 75
97 124 74
98 125 75
98 125 75
95 122 73
99 126 75
97 125 75
94 122 73
97 125 75
98 126 76
175 188 186
205 214 223
207 217 226
201 211 219
209 218 227
206 216 226
199 209 218
198 208 214
198 208 214
184 197 198
165 180 175
156 170 157
141 159 140
113 137 101
98 125 77
93 120 72
99 127 76
100 127 76
94 121 72
96 124 74
97 124 75
97 124 75
96 123 73
94 121 72
95 123 73
92 119 71
99 126 75
96 123 74
96 124 74
137 155 137
209 218 229
206 216 227
203 213 221
205 215 225
213 222 232
212 222 233
205 214 221
208 217 228
211 219 228
201 211 219
207 216 225
208 217 226
201 213 223
205 215 224
202 212 219
204 213 222
211 219 228
205 214 220
205 215 223
206 215 224
199 210 216
204 214 224
205 216 226
200 210 218
207 215 222
214 223 234
208 218 227
202 213 223
159 174 162
96 124 74
96 124 74
95 123 74
97 124 74
98 125 75
98 125 75
98 125 75
97 125 75
97 125 75
100 128 77
96 124 74
99 127 77
93 121 73
96 124 74
97 125 75
94 121 72
98 125 75
96 123 74
94 122 72
94 122 73
96 123 74
97 125 75
98 126 76
98 125 75
98 125 75
97 124 74
98 125 75
176 189 184
206 215 224
204 214 224
212 221 231
210 219 229
206 216 225
206 216 224
206 217 227
206 215 224
205 215 226
207 217 229
206 216 226
208 217 226
205 215 224
209 218 227
202 213 224
205 215 226
209 218 229
210 219 229
208 217 226
208 217 226
198 209 218
200 211 219
197 207 213
207 217 226
202 212 220
213 222 232
141 159 142
94 121 72
98 126 76
93 120 71
97 125 76
92 119 72
95 123 74
95 122 73
99 126 76
99 126 76
94 121 72
96 123 74
95 122 73
98 126 75
99 127 77
102 130 79
96 124 74
96 123 73
95 122 73
99 126 76
96 123 74
96 123 73
96 123 73
95 123 74
95 122 73
99 126 77
192 204 209
208 217 224
206 215 224
208 217 226
205 215 223
203 214 224
203 213 222
209 218 226
210 219 229
202 212 221
213 222 233
212 221 231
208 217 228
202 211 219
207 216 225
206 216 227
205 215 225
206 216 224
207 218 228
207 218 230
203 213 221
206 216 225
202 213 223
209 219 229
192 204 210
100 127 79
98 126 76
96 123 74
98 126 76
98 126 76
98 125 75
99 126 76
99 127 76
95 123 74
98 126 75
97 124 74
96 123 74
98 126 75
96 123 74
94 122 73
95 123 74
95 121 72
95 121 72
98 125 75
99 127 76
99 126 76
96 123 74
97 124 74
180 192 193
210 219 228
209 218 227
94 122 73
96 124 74
100 128 77
99 126 75
94 121 72
183 195 195
211 220 228
203 214 227
197 207 212
155 171 154
97 123 75
98 125 75
98 125 75
97 124 74
97 125 75
95 123 73
97 125 75
95 122 74
94 121 72
97 125 75
98 126 76
94 122 73
96 124 74
96 124 74
98 126 76
97 124 75
99 127 76
98 125 75
97 124 74
96 123 74
96 124 74
99 126 76
101 127 81
203 213 222
209 219 230
203 213 220
205 215 223
203 213 222
203 213 221
199 210 218
208 218 228
209 218 228
203 213 223
206 215 223
214 222 232
209 218 226
205 214 221
212 221 230
203 212 218
207 217 226
202 212 221
203 213 221
206 216 226
202 212 220
214 223 234
193 204 208
152 168 157
122 143 113
96 124 75
95 122 73
100 128 77
148 166 153
206 216 224
213 222 231
206 217 228
212 220 230
203 213 222
194 205 213
211 220 230
203 213 222
205 215 225
205 214 223
204 214 222
201 210 218
203 213 221
212 221 231
204 214 223
208 216 223
205 215 223
212 221 231
210 219 229
203 213 222
208 217 225
199 209 216
199 210 219
207 216 225
207 216 226
209 218 226
209 219 229
207 217 226
190 202 206
98 126 76
97 125 75
95 122 74
96 123 74
96 124 75
95 123 74
96 124 74
96 123 74
96 123 74
98 125 74
98 125 75
92 119 70
98 125 75
95 123 74
95 121 72
95 122 73
98 125 75
98 125 75
96 124 74
97 124 75
96 123 74
94 121 73
95 123 74
97 124 74
98 126 76
96 123 74
99 127 76
97 124 75
103 128 86
145 162 147
162 176 166
108 133 97
97 125 75
97 124 74
99 127 76
97 124 74
96 123 74
98 125 75
96 123 73
93 121 73
94 122 73
96 124 75
97 125 75
97 124 75
96 124 74
97 124 75
97 124 74
96 124 74
94 122 73
97 125 75
97 125 75
100 128 77
96 124 74
97 124 74
96 124 74
97 125 74
97 124 75
94 122 73
96 124 75
151 167 155
205 214 221
205 215 223
210 219 229
205 215 224
209 218 228
206 216 225
200 210 218
208 217 225
200 210 218
202 212 220
202 211 220
203 213 221
212 220 229
212 221 232
210 220 230
201 211 219
208 218 229
201 212 221
195 205 212
211 221 231
203 212 219
205 216 226
206 217 228
204 214 221
204 214 224
202 212 221
197 208 217
207 216 227
211 220 230
159 174 164
93 121 72
97 125 75
97 124 74
99 127 76
95 123 74
96 124 74
93 120 71
97 125 75
98 126 76
97 124 74
94 122 74
97 125 75
97 125 76
94 121 73
94 122 73
95 123 74
98 125 75
96 123 74
96 123 74
99 127 76
97 125 75
96 124 74
96 124 75
98 125 76
99 126 76
97 124 75
95 123 75
98 126 76
100 127 82
198 210 218
206 216 225
200 210 220
205 215 225
205 215 226
208 217 227
205 215 223
208 217 224
211 220 228
196 208 215
211 219 228
205 214 224
209 218 226
200 211 220
200 210 216
200 211 216
178 191 190
156 172 162
134 153 129
123 146 122
105 130 87
95 122 73
95 123 75
98 125 75
98 126 75
98 125 76
97 124 74
95 122 73
96 124 75
170 184 180
208 218 227
203 213 223
200 210 218
208 216 223
208 217 225
211 221 230
206 215 224
201 211 220
208 218 228
205 215 223
204 214 225
209 219 229
211 219 227
207 217 226
209 218 227
209 219 230
205 215 224
208 218 228
205 214 220
202 212 220
207 217 228
202 213 222
208 217 225
201 210 217
205 215 223
202 212 221
204 215 226
198 209 218
112 135 101
97 124 75
100 128 77
96 124 74
94 121 73
94 122 72
95 123 74
93 121 73
96 124 74
95 123 74
98 125 75
98 125 75
96 123 74
96 123 74
97 124 74
96 124 74
94 121 72
95 123 74
98 125 75
96 124 74
95 122 73
100 128 77
96 124 75
95 123 74
96 124 75
96 124 74
99 126 76
116 139 104
198 208 216
207 217 227
197 208 216
212 221 230
197 208 215
208 217 227
206 215 226
215 224 234
200 210 218
207 217 228
200 211 218
206 216 226
206 216 227
205 215 224
203 212 220
209 218 229
201 211 218
208 217 227
209 218 226
201 210 216
200 210 217
203 214 223
208 218 229
199 210 219
203 214 222
211 220 231
187 199 202
95 122 73
96 123 74
98 126 75
94 121 72
96 124 75
101 129 78
98 126 75
97 124 74
98 126 76
98 126 76
97 124 75
99 127 76
97 125 76
98 126 76
98 126 76
95 122 73
98 126 76
97 125 75
97 125 75
95 121 72
96 124 74
97 124 74
97 125 75
93 120 72
95 122 73
134 153 128
209 218 227
211 220 229
202 212 218
210 220 229
200 211 220
204 213 221
217 225 234
197 207 215
192 203 208
204 213 222
203 213 221
206 216 225
201 211 219
207 218 228
203 213 221
204 214 221
213 222 232
203 212 219
210 219 229
208 219 230
203 213 222
201 213 223
206 215 223
203 213 221
124 145 119
97 125 75
97 124 74
99 127 77
99 126 76
96 123 74
97 125 74
98 125 75
97 124 75
99 127 76
96 124 75
97 125 76
94 121 72
98 125 75
97 124 74
99 126 76
100 127 76
97 124 74
98 125 76
96 123 74
97 125 75
93 120 72
99 127 77
156 172 162
206 216 225
209 218 227
204 214 223
94 121 72
98 126 76
100 127 76
99 127 77
97 125 75
161 177 168
206 217 226
205 215 223
205 215 225
206 216 226
203 214 224
161 177 168
127 148 124
95 122 73
99 127 76
98 126 75
97 124 74
95 122 73
96 124 75
100 128 77
95 123 73
96 124 74
99 126 76
92 119 72
97 125 76
96 124 74
95 122 74
94 122 73
97 124 75
97 125 75
98 126 76
96 123 73
96 124 74
194 205 213
210 219 229
204 213 221
204 213 223
202 212 220
201 211 219
207 216 225
203 213 220
211 220 230
203 214 223
202 213 222
199 210 219
211 219 226
203 213 222
209 218 228
218 226 236
202 212 220
208 218 226
206 216 227
206 215 225
202 213 222
205 215 224
202 211 218
205 215 225
208 217 227
191 203 206
148 164 152
112 136 95
150 166 155
204 214 222
203 213 222
204 214 224
204 214 222
204 214 223
203 213 224
202 211 218
204 214 222
209 218 227
212 220 229
202 212 222
207 216 225
209 218 228
208 218 229
210 219 228
205 215 223
200 211 219
201 213 223
203 213 222
211 220 230
211 220 231
198 208 216
208 217 227
208 217 227
207 216 225
200 210 219
200 210 217
203 212 219
180 193 191
97 124 74
97 124 75
97 124 75
98 126 76
97 124 74
94 122 73
98 125 75
94 121 73
95 122 73
95 122 73
95 122 73
95 123 74
92 119 72
98 126 76
97 124 75
94 122 73
98 125 75
94 122 73
96 124 74
99 126 75
96 123 74
97 125 75
96 123 73
95 123 74
96 123 73
92 120 72
95 122 73
98 126 76
96 124 74
168 182 177
207 217 226
208 218 227
186 199 204
170 183 177
128 149 121
100 127 79
94 120 72
97 125 76
96 123 74
99 126 75
95 122 73
97 125 75
97 125 75
95 123 73
97 125 75
98 125 75
95 123 73
100 128 77
97 124 75
97 125 75
94 121 72
95 123 74
97 125 75
94 122 72
97 124 74
98 126 76
96 123 74
98 126 76
93 119 71
185 197 198
205 214 222
207 215 223
205 215 223
207 216 223
204 214 225
209 218 228
210 220 231
204 214 224
203 214 223
200 211 219
199 209 219
204 214 222
203 213 222
205 216 226
209 218 228
208 217 226
208 218 228
203 213 221
206 215 226
203 213 222
210 219 227
197 208 215
197 207 214
211 220 229
207 217 228
205 214 222
208 217 225
201 212 220
208 217 224
101 128 84
91 119 71
94 121 72
100 127 77
96 123 74
96 124 74
94 122 73
95 122 74
99 126 76
98 126 76
100 127 77
96 124 75
96 124 74
98 125 75
96 123 74
97 124 74
96 122 72
96 123 74
99 126 76
96 123 74
99 127 76
97 125 75
96 123 73
97 125 75
98 126 76
100 127 76
99 126 75
95 122 73
95 122 73
138 157 137
210 219 229
207 217 227
199 209 217
207 217 225
204 214 222
203 214 223
210 218 226
209 219 229
202 213 222
202 211 218
205 215 225
199 209 216
209 218 226
202 212 220
200 211 219
209 217 226
203 212 220
201 212 220
207 216 223
207 217 228
211 220 230
197 208 215
184 196 196
173 186 183
156 172 161
156 172 161
126 146 122
109 135 92
110 134 94
208 217 226
206 216 226
207 217 226
212 221 232
211 220 230
200 209 214
199 209 216
210 219 228
197 207 214
204 214 222
200 211 220
206 216 225
203 214 224
207 217 226
208 218 227
207 216 225
213 222 232
199 209 215
211 221 232
205 215 225
210 220 230
205 215 225
205 214 221
206 216 227
201 211 217
205 215 224
202 213 221
207 217 228
170 183 181
97 125 75
98 126 76
96 123 73
100 128 77
99 126 76
97 125 74
94 122 73
98 126 75
98 126 76
93 120 71
100 127 77
98 126 76
95 123 73
98 126 75
94 121 72
95 122 73
100 127 76
97 124 74
99 126 76
96 123 74
99 126 75
97 124 74
96 124 74
97 125 74
96 123 74
95 122 73
96 123 73
179 191 190
206 216 225
206 216 224
205 215 225
205 214 223
207 217 226
207 217 226
208 217 224
207 217 226
202 213 222
211 220 230
204 214 221
208 217 226
210 219 229
213 221 230
197 206 212
201 211 219
202 213 222
202 213 223
203 213 221
198 209 217
210 218 226
207 217 228
203 213 223
209 219 229
210 219 230
203 212 220
134 153 131
97 125 74
95 123 74
95 122 73
95 122 73
97 124 75
96 124 74
99 127 76
97 124 74
93 120 71
98 125 75
92 120 72
97 124 74
92 119 70
99 126 75
97 124 73
100 128 78
99 126 76
98 125 75
97 124 74
96 123 74
95 123 73
100 128 77
92 119 72
93 119 71
104 129 88
192 204 209
200 211 220
206 215 223
214 223 234
197 208 216
203 214 224
207 217 227
205 215 224
201 212 220
210 219 229
205 215 224
205 215 224
207 217 228
203 213 223
197 208 217
208 217 226
202 211 219
209 218 225
203 213 223
196 208 218
203 214 223
210 219 228
197 209 218
208 216 224
177 190 188
95 122 73
94 122 73
94 122 74
92 120 72
97 125 75
96 124 74
95 123 73
98 126 76
97 125 76
97 124 74
99 127 76
97 124 74
94 121 73
95 123 74
97 124 75
98 125 75
94 122 73
97 124 74
97 126 76
96 124 75
97 125 75
94 122 73
120 140 115
211 221 231
201 212 220
201 211 217
205 215 223
99 126 76
98 126 75
97 124 75
98 125 76
96 123 74
146 163 149
205 214 222
211 220 231
206 215 222
211 220 230
204 214 225
210 219 228
210 219 228
188 199 201
141 160 140
100 127 81
95 122 73
95 123 73
97 124 74
95 123 74
98 125 75
94 122 73
96 123 73
95 122 73
94 122 73
94 122 73
98 125 76
100 128 77
97 124 73
97 125 75
96 124 74
97 125 75
97 124 75
194 204 209
210 219 229
201 211 219
207 215 223
206 216 225
207 217 225
212 221 230
210 219 229
207 217 227
206 216 225
205 215 223
201 211 218
210 220 232
197 207 215
202 211 218
203 214 224
201 211 221
208 218 227
202 213 220
208 217 225
207 217 226
208 218 229
203 214 223
204 215 226
208 217 227
205 215 224
205 215 224
205 214 222
183 195 195
173 186 181
205 215 224
207 216 224
206 217 228
212 222 232
202 212 221
204 215 225
207 216 225
209 219 230
198 209 214
202 213 223
203 213 221
208 218 227
204 214 223
209 218 227
202 212 219
209 218 227
211 220 230
207 216 224
207 217 225
204 214 224
203 212 221
211 220 229
199 210 219
211 220 229
210 220 231
206 216 226
202 212 220
182 194 193
92 120 72
100 127 76
98 125 75
98 125 75
99 127 77
98 125 75
95 121 72
92 119 71
99 126 75
101 129 78
99 127 76
95 123 73
99 126 76
94 121 72
95 122 73
98 126 75
92 118 70
97 124 74
96 124 74
97 124 74
100 127 76
93 120 72
99 127 76
96 124 75
96 124 75
97 125 75
94 122 73
98 126 76
94 122 73
178 192 193
206 216 225
204 214 223
204 214 221
206 216 224
204 214 224
199 210 216
189 200 202
135 154 134
100 127 81
95 123 74
96 124 74
97 124 74
96 123 74
98 126 76
98 126 77
95 122 72
95 122 73
96 123 73
97 125 75
96 123 74
97 124 74
98 126 76
95 122 73
97 125 75
94 121 72
95 122 73
99 127 76
101 129 78
95 123 73
194 206 211
204 214 224
209 218 228
207 216 226
204 214 222
201 210 217
203 212 219
204 213 221
211 221 231
208 217 228
208 218 227
206 216 224
202 212 221
206 216 224
205 214 222
203 213 222
205 215 225
212 221 232
207 216 224
207 216 225
204 215 226
207 216 225
213 222 232
204 213 221
205 215 225
208 218 227
205 215 227
208 218 228
207 218 229
200 210 217
95 122 73
95 122 73
94 121 73
98 126 77
96 123 73
97 125 76
99 126 76
98 125 75
97 125 75
94 122 73
97 125 75
93 120 72
95 123 74
96 123 74
95 123 74
98 126 75
96 123 74
96 124 75
96 124 75
98 125 75
98 125 75
93 120 71
99 127 77
96 124 74
97 125 76
95 122 74
97 125 75
96 123 74
97 124 75
168 182 177
200 210 216
210 219 230
209 220 231
204 214 221
200 211 221
202 212 220
209 218 229
208 217 227
204 214 222
197 207 214
210 220 229
209 219 229
200 211 220
201 211 221
201 211 218
202 213 222
205 215 225
209 218 228
208 218 228
201 212 223
198 208 217
194 205 212
210 219 228
205 215 225
203 213 222
206 215 223
202 212 221
209 217 224
168 183 178
126 147 122
138 156 139
152 168 159
169 183 180
177 190 191
192 203 209
201 211 218
200 211 219
205 215 223
205 215 224
209 218 227
216 224 235
202 213 222
210 219 230
205 215 225
200 210 219
205 214 222
204 215 225
207 217 226
207 216 225
199 210 217
202 212 220
205 213 220
200 211 220
209 218 228
206 216 225
206 216 227
211 220 231
130 150 125
97 125 75
98 125 75
93 120 72
97 125 75
99 126 76
96 124 74
97 125 75
93 120 71
95 122 73
96 123 74
96 123 74
98 125 76
99 126 75
96 124 74
98 126 76
96 124 74
98 125 75
98 125 75
98 125 74
99 126 76
98 125 75
97 124 74
98 126 76
94 121 73
100 128 77
93 120 71
122 144 114
201 210 216
204 214 221
209 218 228
206 216 226
208 218 228
198 209 217
207 217 227
215 223 232
202 212 221
210 219 230
208 217 225
203 213 222
211 220 230
209 218 226
202 212 221
201 211 219
200 210 219
210 220 229
206 216 225
210 219 230
204 214 224
202 212 218
199 209 216
203 213 220
204 214 222
203 213 222
185 197 198
98 125 75
92 119 71
97 125 75
96 124 75
100 127 76
98 125 75
98 125 76
98 125 75
93 120 72
92 119 71
92 119 71
97 124 74
93 120 72
97 125 75
97 125 75
96 124 74
97 124 75
98 125 75
94 121 72
95 122 73
98 125 75
97 124 75
97 124 74
96 124 75
95 123 74
164 178 172
203 213 224
202 213 223
199 210 218
202 212 221
202 212 220
198 209 216
212 221 232
208 218 227
210 218 225
198 208 215
205 215 222
211 221 231
207 216 224
207 216 225
205 214 223
209 218 228
203 213 222
212 221 230
210 220 231
204 214 223
209 218 228
200 211 220
200 210 218
194 206 212
110 135 96
96 124 74
94 121 72
98 126 76
99 126 76
97 125 75
95 123 73
95 123 74
95 122 73
95 123 74
96 124 75
97 124 74
99 127 76
101 129 77
97 125 76
98 126 76
92 119 71
100 127 76
94 121 72
99 127 76
97 124 75
108 132 94
122 145 112
164 179 170
164 179 170
141 159 142
127 148 120
111 135 97
96 124 75
96 124 74
97 125 75
95 122 74
96 123 74
141 160 142
203 214 222
202 212 222
203 214 224
201 211 220
204 215 225
203 212 220
205 215 223
205 215 221
202 212 219
197 208 214
145 163 149
110 134 96
96 123 73
96 124 75
97 125 76
98 126 75
97 124 74
97 124 74
97 124 74
95 122 74
96 123 74
98 126 76
95 122 73
99 126 75
92 119 71
95 123 74
92 119 71
182 195 197
211 222 233
196 206 212
207 217 227
207 217 225
201 211 220
208 218 228
209 219 230
206 214 222
200 210 219
201 212 221
212 222 232
204 215 224
210 220 229
198 208 217
207 217 226
200 210 218
210 219 229
203 212 218
199 209 217
201 211 218
207 217 227
210 219 227
206 216 226
206 215 223
199 209 215
210 219 229
201 211 219
170 185 181
95 123 74
113 138 102
142 161 151
181 194 195
206 216 226
202 212 220
205 216 227
207 216 223
210 220 233
208 217 227
206 216 224
198 208 215
208 217 226
202 212 220
203 214 222
207 217 229
200 210 218
202 212 221
203 213 222
211 221 234
203 214 225
204 214 222
207 217 227
205 215 222
207 216 225
209 219 228
198 209 218
215 224 234
179 191 189
93 121 73
99 127 76
97 125 75
96 123 73
97 125 74
97 125 76
96 123 74
96 123 75
98 126 76
97 125 75
99 127 76
97 124 74
96 124 74
92 120 72
94 121 73
94 121 73
95 122 73
98 126 76
95 122 73
95 123 74
97 125 75
99 126 75
97 125 75
97 124 74
98 125 75
93 120 71
96 123 73
97 124 75
99 127 76
181 193 193
210 219 228
211 220 230
209 219 228
212 222 233
210 219 228
206 216 227
213 222 232
210 220 231
201 211 219
182 195 197
155 171 162
138 156 138
99 126 76
98 125 75
97 124 75
96 124 74
97 124 74
96 124 75
97 124 75
96 124 74
97 125 75
97 125 75
93 121 72
96 124 75
96 123 73
96 123 74
96 123 74
94 122 72
107 132 93
201 211 220
203 213 221
202 213 223
204 214 223
208 217 225
205 215 224
207 216 225
201 211 220
203 214 225
202 212 221
204 213 220
201 211 220
209 219 229
213 221 232
209 218 228
201 211 218
210 220 231
208 217 226
212 220 230
204 214 224
203 213 220
199 210 218
202 212 220
201 211 218
214 223 231
207 217 227
209 219 230
205 215 226
206 214 221
177 191 188
98 126 75
95 122 73
97 125 75
95 122 72
97 124 74
98 126 76
98 125 75
97 125 75
97 124 75
98 126 75
96 124 75
98 125 75
96 123 73
97 125 74
95 123 74
97 124 75
100 128 78
97 124 74
96 124 74
99 127 76
98 125 75
101 129 78
98 126 76
95 123 74
98 126 76
95 123 74
96 124 75
98 125 75
97 124 74
201 211 219
207 217 228
207 216 227
199 208 216
208 218 228
211 221 233
203 213 222
206 215 225
201 211 219
201 211 219
208 217 226
202 213 222
203 213 221
211 220 232
207 216 224
208 217 227
207 216 224
212 221 230
202 212 220
209 218 227
202 212 220
202 213 222
205 214 224
205 215 224
209 218 226
209 219 229
207 216 224
203 213 222
201 212 221
133 152 130
97 124 74
97 125 75
95 123 74
97 124 74
96 124 75
92 119 71
94 120 72
110 134 95
117 140 111
150 167 151
144 162 143
163 177 172
167 181 176
198 208 214
193 204 207
200 211 220
202 213 223
208 219 229
204 214 222
202 212 220
210 219 228
211 221 233
205 214 221
207 217 227
196 207 214
205 215 224
205 215 225
177 190 191
93 120 72
96 124 74
96 124 75
96 123 74
96 124 74
97 124 74
94 121 73
98 125 75
96 123 74
98 126 75
97 125 75
95 123 74
94 122 73
96 124 74
99 126 76
94 121 72
98 126 75
100 128 77
99 126 76
95 122 73
93 120 71
97 125 75
98 125 75
96 124 74
96 123 74
97 125 75
99 126 75
163 178 171
202 212 221
207 217 226
207 217 226
210 218 227
206 216 225
201 211 219
207 217 227
199 208 216
205 215 223
206 215 224
201 211 220
201 212 220
201 211 222
200 210 218
208 216 223
205 214 223
201 211 220
208 217 226
198 209 218
209 218 228
201 212 221
203 213 221
208 217 227
203 214 224
207 217 227
205 215 224
135 154 131
98 125 75
96 123 74
98 126 75
96 124 75
96 123 74
99 127 77
100 127 76
94 121 73
97 124 74
98 126 76
93 120 71
94 121 72
95 122 73
96 124 74
101 129 77
99 126 76
98 126 76
98 125 75
96 124 75
96 123 73
96 124 75
98 125 75
96 123 74
98 126 76
120 142 111
214 222 232
208 217 227
209 218 227
200 210 217
211 220 228
195 206 214
208 218 229
209 219 230
206 217 229
204 214 223
201 212 221
201 210 217
210 219 229
199 210 217
213 221 230
204 215 225
204 214 222
204 214 223
207 216 226
207 217 227
202 212 221
205 215 225
200 211 219
203 213 221
148 165 152
93 121 72
96 123 74
94 122 73
96 123 74
99 126 76
100 128 77
100 128 77
95 122 72
96 123 74
96 123 74
96 123 73
98 126 76
94 121 72
123 144 116
134 153 132
153 169 154
167 181 176
162 177 171
183 194 193
187 199 201
208 218 226
210 219 230
155 171 159
95 123 73
95 122 72
97 125 75
94 121 72
98 125 75
97 125 75
99 127 76
99 127 77
96 124 75
101 128 77
111 135 98
198 209 216
197 209 218
199 210 218
205 214 222
207 216 224
204 214 223
204 215 225
206 215 223
205 215 223
201 210 218
210 220 230
206 216 224
166 181 176
141 159 140
95 122 73
99 126 76
94 121 72
96 124 74
95 123 74
96 124 74
96 123 74
98 126 76
96 123 74
97 125 75
96 124 75
93 120 71
96 123 73
178 191 187
204 214 223
205 215 225
208 217 226
200 210 217
206 217 228
210 220 230
195 206 213
209 219 230
207 216 223
206 216 225
210 219 228
200 211 221
200 210 219
209 218 227
208 217 225
205 215 224
201 211 218
211 220 229
208 218 227
204 215 225
199 211 221
204 213 220
207 216 225
208 218 227
205 214 222
207 216 225
210 219 230
173 187 184
97 124 75
101 129 78
92 120 72
96 123 73
114 138 104
159 174 166
191 201 202
208 218 227
207 217 229
211 220 230
209 218 226
209 218 227
207 217 227
204 214 221
203 212 220
205 215 225
201 211 219
208 218 229
203 212 219
202 212 221
195 207 216
204 214 223
203 213 221
200 211 220
200 212 222
206 215 224
204 214 223
204 214 223
178 191 190
96 124 74
100 127 76
96 123 73
94 122 72
98 126 76
96 123 73
97 124 74
98 126 76
94 122 74
98 126 76
95 122 73
101 128 77
95 123 73
97 124 75
98 125 75
97 124 75
95 122 73
96 123 74
98 126 75
96 123 73
98 125 75
97 125 75
96 123 74
97 125 75
94 121 73
99 126 76
95 121 72
96 123 74
99 127 76
206 216 224
207 216 225
202 213 222
206 216 226
200 211 219
211 220 231
204 215 224
212 221 231
206 216 226
205 215 224
202 213 223
199 209 216
207 217 227
207 216 225
177 191 189
152 169 155
123 145 116
98 126 75
99 127 77
97 125 76
95 123 73
97 125 75
97 124 74
94 122 73
98 125 75
97 124 74
97 124 75
96 124 74
97 124 74
132 152 130
204 213 221
204 214 223
205 215 223
207 217 225
204 215 225
208 217 227
204 213 221
206 216 225
203 213 221
202 212 220
209 218 228
209 218 227
206 215 224
201 211 220
202 213 221
206 215 224
207 216 225
209 218 227
202 211 218
207 217 227
206 215 222
204 214 223
207 216 225
204 215 227
206 216 226
213 222 232
205 214 224
206 216 225
212 222 232
152 169 157
97 125 74
99 127 77
94 122 73
96 123 74
96 123 74
93 120 71
98 126 76
96 123 74
98 126 75
97 124 74
97 125 75
95 123 74
95 123 74
99 127 76
96 124 74
96 124 75
94 121 73
97 125 75
99 127 76
95 123 74
94 121 72
96 123 74
94 122 73
96 124 74
94 121 72
99 126 75
96 124 74
96 123 74
114 138 102
203 213 221
205 215 224
205 215 227
206 216 225
204 214 223
208 217 225
200 210 217
207 217 226
204 214 223
200 210 218
206 216 227
201 211 219
206 215 223
207 216 222
204 214 223
205 215 224
204 215 224
207 216 226
207 217 226
210 219 227
203 213 222
197 207 213
210 219 228
204 214 225
208 218 228
209 217 225
211 220 229
209 218 226
185 196 200
96 123 73
97 124 75
95 122 73
98 125 75
100 128 77
96 124 74
96 123 74
97 124 74
99 126 76
97 124 74
98 126 76
97 125 75
97 124 75
97 124 74
99 126 76
96 124 75
99 126 78
117 139 110
127 147 122
140 158 138
143 161 143
169 183 177
182 195 196
181 193 191
187 199 201
192 204 209
203 213 221
203 214 223
141 159 140
97 124 74
98 125 75
96 123 74
97 125 75
96 124 74
95 122 73
98 125 75
96 123 74
96 123 73
98 125 75
94 121 72
95 122 73
100 127 77
97 124 74
99 127 76
96 123 74
98 126 75
99 127 76
97 124 74
97 125 76
93 120 73
99 126 76
98 125 75
95 122 73
97 125 75
95 123 73
106 131 91
202 212 220
202 211 218
210 219 229
202 212 221
208 218 229
205 215 225
198 209 219
199 209 216
211 219 228
214 223 234
203 214 223
212 221 232
194 204 211
214 222 230
204 214 225
211 219 226
207 217 227
203 213 222
208 217 228
205 215 224
204 215 225
204 215 224
203 213 222
208 218 229
200 210 218
203 214 223
174 186 184
94 122 73
98 126 76
98 125 75
98 126 76
97 125 75
98 125 75
98 125 75
96 124 75
97 125 75
97 124 74
99 127 76
97 124 74
96 122 73
99 126 76
96 124 74
95 122 73
94 121 73
97 124 74
100 127 76
96 124 74
97 125 75
99 126 76
100 128 77
97 125 75
98 125 75
181 193 192
200 210 218
205 215 223
206 215 225
201 212 221
206 215 224
211 220 230
205 215 223
204 213 221
211 220 228
200 210 218
204 215 225
204 213 222
199 209 216
204 214 222
205 214 221
210 220 229
215 224 235
196 206 213
212 221 232
206 216 227
202 212 221
203 213 224
206 215 223
179 193 190
99 127 76
99 127 76
98 126 76
97 123 79
111 134 100
110 135 101
120 141 110
147 163 148
142 160 141
168 182 176
182 195 194
191 202 207
190 202 206
207 216 225
208 218 228
201 211 219
209 218 228
208 217 227
210 218 227
207 217 226
195 206 215
208 219 230
183 195 193
95 123 74
93 120 72
96 123 74
97 124 75
97 125 75
97 124 74
95 122 74
95 123 74
95 122 73
95 123 74
98 125 75
95 122 73
209 218 227
195 205 212
206 216 226
203 213 222
203 213 222
201 211 220
211 220 231
207 216 224
208 218 226
210 219 228
199 210 218
210 219 228
208 218 228
208 219 230
192 203 209
163 178 171
106 131 88
95 122 73
96 124 75
94 121 73
98 126 76
96 124 75
94 122 72
94 121 73
95 122 73
97 125 75
93 120 71
168 182 179
202 212 221
202 212 221
204 214 223
199 210 219
207 217 227
207 217 226
210 219 230
203 213 220
202 212 221
212 221 229
195 205 212
210 220 231
212 221 231
206 216 226
207 217 226
201 212 221
199 210 218
204 214 222
207 216 224
207 217 226
207 217 227
203 212 220
207 216 225
202 212 221
201 211 217
208 218 228
197 209 220
172 185 185
94 121 73
98 125 75
97 125 76
99 127 76
95 123 74
97 124 74
98 125 74
124 145 116
179 192 191
192 203 206
201 211 219
194 206 215
210 219 229
211 221 232
203 213 221
208 218 226
202 212 218
206 217 229
204 214 221
205 215 225
207 216 225
210 219 228
207 217 226
203 213 222
213 222 232
200 211 221
203 212 218
205 215 225
166 180 173
97 124 75
97 125 74
94 121 73
100 128 77
98 126 76
98 126 76
98 126 76
100 128 77
95 123 73
96 123 75
96 123 74
99 126 75
97 124 75
96 124 74
97 125 75
97 125 75
92 119 71
101 129 77
95 122 73
97 125 75
97 125 75
98 125 75
95 122 73
98 125 75
97 125 74
97 125 75
97 125 75
94 121 73
102 128 87
206 216 225
207 216 226
210 220 231
206 215 225
210 218 227
204 214 222
208 217 226
209 219 231
200 211 220
204 214 223
202 212 220
203 212 220
204 214 222
207 217 228
210 220 231
200 211 221
207 216 226
201 211 217
186 198 198
145 163 146
109 133 95
95 123 74
91 118 71
97 125 76
93 120 72
97 124 75
94 121 72
97 124 75
96 123 74
158 173 164
202 212 221
208 218 229
191 203 209
206 216 226
205 215 224
197 208 216
202 213 222
214 222 232
198 208 216
204 215 224
204 214 221
205 215 225
204 214 224
203 214 222
201 212 222
209 219 228
205 215 223
210 219 230
206 217 227
210 219 229
212 220 229
203 212 220
208 218 228
205 214 222
201 212 221
208 216 225
198 208 216
207 217 227
209 218 229
113 137 100
100 128 77
98 126 76
98 126 76
96 124 74
95 122 73
96 124 75
99 127 77
96 124 74
98 125 75
96 123 73
98 125 75
95 123 74
95 123 74
94 122 73
96 124 74
95 122 73
96 124 74
96 123 73
96 123 74
96 124 74
100 128 76
96 124 75
95 122 73
95 122 73
99 126 76
95 122 73
99 127 76
98 126 77
155 170 159
209 219 231
194 205 210
211 220 231
212 221 233
205 215 224
207 217 226
202 211 218
209 218 229
210 218 226
206 216 225
206 216 226
203 213 223
207 217 227
206 216 223
199 210 218
203 212 221
207 217 227
206 216 226
207 217 227
209 218 228
206 215 224
210 218 227
207 216 224
205 214 223
200 210 218
206 215 223
205 215 226
207 216 225
148 164 152
98 126 76
96 124 75
98 126 76
97 125 75
96 123 74
94 121 72
94 121 73
98 126 76
98 126 76
97 125 75
97 125 74
97 124 74
99 127 76
96 124 75
96 124 74
100 127 76
96 123 73
96 123 74
96 123 74
99 127 77
98 126 76
96 124 74
96 124 74
96 123 73
94 122 73
98 126 76
90 117 69
119 141 112
196 206 210
186 197 198
186 198 200
180 192 190
160 175 165
154 169 157
137 155 136
134 154 132
126 146 119
112 136 98
103 129 82
95 123 73
96 123 73
95 122 73
100 127 76
99 127 76
97 124 75
95 122 74
95 123 74
98 125 75
94 121 72
96 124 75
97 125 75
99 126 75
97 124 74
96 124 74
95 123 74
151 167 160
200 211 220
210 220 230
201 212 222
205 214 223
208 217 227
209 218 226
206 216 224
200 210 218
205 214 224
207 217 228
207 216 226
201 211 221
196 207 215
201 210 219
205 215 225
207 217 227
206 216 225
204 214 224
206 217 228
206 215 224
210 219 229
211 220 231
205 216 227
208 217 227
204 214 224
201 212 220
110 133 96
97 124 75
92 119 71
98 126 76
96 124 74
97 125 75
97 124 74
95 122 73
97 124 75
97 125 75
95 123 75
97 126 76
98 126 75
98 126 77
94 121 72
98 126 75
93 120 72
96 123 74
96 124 75
95 122 73
98 126 75
97 125 75
98 125 75
98 125 75
93 120 71
134 153 132
202 213 222
202 212 220
210 220 231
212 221 233
205 214 223
206 215 224
202 211 219
204 214 221
203 213 222
201 212 219
201 211 221
209 219 229
199 210 216
202 212 220
204 214 221
211 220 229
204 214 223
199 210 217
194 204 210
183 196 197
184 197 199
177 189 186
164 178 171
155 170 162
185 197 199
170 184 180
189 200 202
198 209 215
203 213 223
201 211 219
203 213 221
199 209 216
211 220 230
206 215 224
208 218 226
199 209 217
204 213 221
211 221 231
203 212 220
213 222 234
209 218 227
208 217 225
205 215 224
204 214 225
209 217 224
205 214 223
192 203 208
114 137 101
99 126 76
97 124 74
94 120 71
97 124 74
98 126 76
95 122 73
99 127 77
95 123 74
95 122 73
97 124 74
98 126 76
96 124 74
193 205 210
210 219 230
204 213 222
210 220 229
199 210 218
204 214 223
192 202 209
201 210 217
206 216 226
211 220 229
206 215 224
205 215 224
199 210 217
202 213 222
211 219 228
203 213 220
197 207 213
172 186 184
117 140 107
99 127 76
94 122 73
92 119 72
96 123 74
95 122 73
96 124 74
96 123 74
98 126 75
165 180 173
201 212 222
201 211 218
209 218 227
189 201 207
205 215 224
208 217 224
200 210 218
204 214 222
200 210 217
206 216 225
207 217 226
209 218 228
205 215 226
206 215 221
199 208 215
209 218 226
200 211 220
202 213 223
206 216 228
208 217 226
206 215 224
209 219 227
208 218 227
205 215 223
204 213 221
207 216 225
202 212 220
175 188 184
99 127 76
95 123 73
95 122 73
99 126 76
98 126 75
97 125 75
96 123 73
97 124 74
99 126 76
96 123 75
128 149 124
167 181 175
201 211 217
207 217 227
200 211 220
202 213 222
202 211 219
213 222 231
207 216 225
202 212 219
209 218 228
208 218 229
206 216 225
206 215 225
201 212 220
208 217 226
213 222 231
207 217 228
160 174 164
98 126 76
99 127 77
98 125 74
96 123 74
100 127 77
99 127 76
98 125 75
97 125 75
92 119 71
95 122 73
96 123 74
97 124 75
99 127 77
94 120 72
97 124 74
95 122 73
97 124 74
97 125 75
97 124 74
96 123 74
95 122 73
97 125 75
99 126 75
95 122 73
94 121 73
98 125 75
94 121 73
98 126 76
129 149 124
195 206 213
202 212 220
199 210 217
212 221 232
204 215 224
200 210 218
201 211 218
206 215 224
208 217 227
206 216 226
207 216 225
210 218 228
205 215 223
203 213 221
208 217 226
206 215 224
205 215 224
209 218 227
211 220 230
202 212 220
199 210 218
193 204 208
180 192 189
144 161 144
107 130 92
96 124 74
94 122 73
92 119 71
96 124 75
176 189 187
204 214 222
207 216 226
201 211 220
206 216 225
202 213 223
204 214 224
205 215 224
202 213 222
198 209 215
197 208 215
209 219 229
207 216 224
203 213 222
204 214 224
203 213 222
198 209 216
207 217 227
211 221 231
202 212 220
202 212 220
202 213 223
205 214 221
207 216 225
204 214 223
205 215 225
208 217 225
209 218 227
201 211 221
191 202 205
96 124 74
96 123 75
95 122 74
99 126 76
95 121 72
93 120 72
94 121 72
96 124 74
94 122 73
94 122 73
97 125 75
96 123 74
94 121 72
96 124 74
96 123 74
94 122 73
96 123 74
98 126 75
96 123 74
96 124 75
98 126 76
96 124 74
94 121 72
94 121 73
95 122 73
98 126 76
97 124 75
97 124 74
97 125 75
186 198 200
199 209 217
201 211 218
200 210 218
202 212 221
205 214 221
207 217 227
209 219 228
210 220 230
206 216 226
209 218 227
205 215 224
207 217 228
204 214 222
202 212 220
204 213 220
200 211 220
197 207 214
207 216 225
202 213 223
205 215 224
205 214 222
205 215 224
202 212 220
199 210 217
199 210 218
205 216 227
212 221 232
200 210 218
117 140 109
97 125 74
94 121 72
98 126 75
95 122 73
98 126 76
96 124 74
93 120 72
96 124 74
95 123 75
95 122 73
97 125 75
99 127 76
97 125 75
94 122 74
97 125 75
96 123 74
95 123 74
95 122 74
96 123 73
99 127 75
96 123 74
96 123 74
100 128 77
94 121 73
96 123 73
96 123 74
99 127 76
165 180 173
205 216 225
213 222 233
204 214 225
203 213 221
204 214 221
205 216 226
201 211 216
199 209 218
205 214 222
205 216 226
206 215 224
205 216 226
196 208 215
194 204 209
189 200 202
183 195 195
185 197 199
168 183 177
168 181 175
166 181 175
154 170 158
148 166 153
142 159 141
144 162 144
126 146 118
121 143 114
123 143 117
204 214 222
212 220 228
206 215 222
205 215 223
203 213 221
210 218 227
207 217 227
206 216 227
206 216 225
206 216 223
209 218 228
207 217 226
201 211 220
195 206 215
201 212 221
212 221 230
202 213 224
210 218 225
191 202 208
205 214 223
204 215 225
207 216 225
199 210 218
203 213 222
204 213 222
207 217 227
173 187 180
97 125 75
95 122 73
100 128 77
96 123 74
97 125 75
99 127 76
100 128 77
95 122 73
99 127 76
99 127 76
99 127 77
96 123 74
98 125 75
93 120 72
96 123 74
95 122 73
98 126 76
97 124 74
98 126 75
98 125 75
93 120 71
99 127 76
99 126 76
96 123 74
99 126 76
193 203 207
200 210 218
200 211 220
196 208 216
191 202 208
184 195 194
191 203 209
175 187 184
171 185 181
168 182 177
163 177 171
153 169 157
141 159 142
126 146 120
134 154 132
120 141 112
114 137 101
96 123 79
97 125 75
95 123 74
95 123 73
98 125 75
93 120 72
97 124 74
159 174 168
209 218 226
207 216 224
200 211 220
199 210 220
199 209 215
203 213 224
213 222 232
207 217 226
207 216 226
212 221 229
206 216 226
208 217 225
208 218 229
204 214 221
207 216 224
206 215 223
204 213 220
205 214 222
203 213 221
193 204 208
207 216 222
207 217 227
160 175 167
95 122 73
96 124 74
98 126 76
97 124 74
96 123 73
96 124 75
96 124 75
94 121 73
95 121 72
99 127 76
94 120 71
94 121 72
98 125 75
169 182 178
208 218 228
203 214 223
202 212 222
203 212 220
207 216 224
207 218 228
215 224 234
207 217 225
204 214 223
204 214 220
214 222 231
203 213 222
195 206 214
203 213 222
200 211 220
204 214 224
200 211 218
206 214 222
185 196 195
141 159 144
104 129 88
98 125 75
94 122 73
97 125 74
97 124 75
95 123 74
162 177 172
206 216 226
200 211 221
207 217 228
205 215 225
213 222 231
206 216 225
197 206 213
210 219 230
206 216 225
197 208 215
203 212 221
205 214 223
210 219 229
207 216 225
205 214 222
203 213 222
205 215 226
199 209 216
204 213 221
203 212 220
208 217 225
204 214 223
202 213 223
203 213 221
208 218 228
201 211 219
195 206 214
172 186 184
96 123 74
97 125 75
96 123 73
98 126 75
94 121 73
95 123 73
96 124 74
98 125 75
94 121 72
97 125 75
94 121 72
95 123 74
101 128 79
119 141 116
166 180 175
200 211 220
202 211 219
194 205 212
204 214 224
207 217 226
213 222 230
205 215 225
209 218 228
201 211 218
202 212 220
201 211 220
207 217 225
205 214 223
150 167 150
98 125 76
98 126 75
94 121 71
91 118 70
98 126 75
96 123 74
97 125 75
95 122 73
96 124 74
99 127 76
98 125 75
98 126 76
95 123 73
99 127 76
93 120 72
98 125 75
96 123 73
94 121 73
99 127 76
94 122 73
94 121 73
95 122 74
95 123 74
98 126 75
94 121 72
93 121 73
95 123 74
96 123 74
136 156 138
207 216 225
205 215 225
202 211 218
206 215 223
210 219 230
205 215 224
214 223 234
206 215 222
200 210 218
211 219 227
209 218 227
206 217 228
207 217 225
205 215 224
207 218 229
207 216 224
204 215 225
200 210 219
190 202 210
209 219 228
204 214 223
198 208 216
209 219 229
201 211 220
204 214 225
192 204 209
163 179 176
136 155 137
113 136 103
186 199 202
208 216 224
207 217 226
197 208 216
201 211 220
203 213 222
207 217 226
199 209 214
206 217 228
200 210 219
203 214 225
208 217 224
201 212 222
207 216 226
203 213 222
199 209 217
203 214 225
206 215 223
208 217 226
199 209 218
207 216 226
209 218 227
203 213 222
200 210 218
211 219 227
205 214 223
202 212 220
209 218 227
204 214 223
181 193 190
93 120 72
98 125 74
97 125 75
97 125 76
97 125 75
98 126 76
95 123 74
98 126 75
96 124 74
95 122 73
96 123 75
99 127 76
97 125 75
97 125 75
96 124 75
98 126 77
98 126 75
96 123 73
99 127 76
95 122 72
96 123 73
97 124 75
98 125 75
96 124 74
96 123 74
94 121 73
97 124 74
93 121 72
103 128 85
206 216 225
203 213 219
209 218 229
203 213 222
209 218 225
204 213 220
204 214 222
208 218 229
209 218 227
211 220 229
213 221 231
205 215 225
191 203 210
195 207 215
207 217 226
200 210 219
208 217 226
203 213 223
205 214 222
202 211 219
208 218 229
210 219 228
207 216 224
208 218 230
207 216 226
203 214 222
208 218 228
206 217 229
193 205 210
94 121 73
95 123 74
100 127 76
95 122 72
93 120 71
94 121 73
95 123 74
99 127 77
94 122 73
96 124 75
95 123 73
95 123 74
96 124 74
90 117 70
99 126 76
98 126 76
93 120 71
96 123 74
96 123 74
98 126 75
96 124 75
98 125 75
96 123 74
97 125 75
97 124 75
99 127 77
97 124 73
97 123 76
204 213 220
203 213 221
206 216 226
200 211 220
208 218 229
203 213 222
204 214 222
205 214 221
209 218 226
207 217 227
201 212 222
205 215 224
199 210 220
207 217 226
211 220 229
202 212 221
203 213 223
203 213 221
199 209 215
204 214 223
210 219 229
208 217 227
202 212 220
205 215 225
201 211 220
206 217 227
209 218 227
161 175 166
99 127 77
93 120 72
110 134 96
111 135 97
112 136 101
119 141 111
132 152 129
130 150 127
139 158 137
140 158 138
136 155 135
150 166 152
144 161 147
155 171 157
147 164 148
144 161 147
164 178 170
165 179 172
161 176 169
162 177 170
154 170 158
162 178 169
163 178 170
160 176 168
157 173 164
168 182 180
166 181 174
152 168 153
151 167 156
151 168 157
158 173 163
155 172 160
162 177 171
168 183 176
149 166 151
154 170 159
156 172 162
161 175 166
172 185 180
173 187 183
176 189 186
180 193 192
179 192 187
175 188 186
183 194 194
182 194 194
177 191 192
192 203 206
190 201 204
193 205 210
197 208 213
154 169 156
92 120 72
95 122 72
95 122 73
96 123 73
96 123 75
95 122 73
99 127 77
94 121 73
96 123 73
96 124 74
96 123 74
96 124 74
99 126 76
96 123 73
94 121 73
95 123 73
97 125 75
97 125 75
97 125 75
94 121 72
96 123 74
100 128 77
94 121 72
139 158 136
201 212 221
205 216 226
201 212 220
210 220 229
206 216 226
200 210 216
206 215 224
206 216 226
212 221 229
204 214 224
202 212 220
207 217 227
213 221 230
207 217 227
199 209 216
201 211 219
213 222 231
206 215 223
198 208 216
202 212 219
208 217 224
209 218 226
185 197 198
98 125 75
98 125 75
100 127 76
99 126 76
95 123 74
93 119 71
97 125 75
95 123 74
96 123 74
96 124 75
94 121 72
94 122 72
94 120 71
99 126 75
158 173 164
203 213 223
205 215 222
204 214 222
201 212 220
203 213 221
209 219 230
202 212 222
202 212 220
197 208 215
201 211 219
198 208 216
206 215 223
206 215 225
208 217 225
209 219 229
202 212 221
209 218 227
206 215 224
200 211 219
210 219 229
206 215 223
164 178 172
124 145 117
93 121 72
99 127 76
95 122 73
149 166 152
204 214 223
206 216 227
209 217 225
200 210 218
205 214 223
207 216 224
206 217 229
211 219 230
203 213 221
208 216 224
209 219 230
200 210 217
199 209 216
203 213 221
200 211 221
200 210 218
206 215 225
206 216 226
203 213 222
212 221 232
203 213 222
208 218 227
209 219 228
211 220 230
211 220 229
210 219 227
200 210 218
164 178 172
93 120 71
96 124 74
95 122 73
96 124 74
98 125 75
94 121 72
92 120 72
94 121 72
96 124 75
97 125 76
94 121 72
94 121 72
95 122 73
94 121 72
96 123 74
96 124 74
134 153 130
166 181 175
191 202 209
201 211 218
210 219 227
209 219 229
201 212 223
205 215 224
202 213 222
207 216 223
202 213 221
205 214 222
138 157 138
99 127 76
95 122 73
92 119 71
95 122 73
93 120 72
97 124 75
97 125 74
97 126 77
97 125 75
96 123 74
98 125 75
96 123 74
93 120 72
93 120 72
95 122 73
99 127 77
98 126 75
98 125 75
95 122 73
93 119 71
98 126 76
94 121 72
93 120 71
97 125 75
96 124 74
99 126 76
99 127 76
95 123 73
146 163 148
209 217 226
202 213 221
202 212 219
204 214 224
202 211 217
209 218 225
202 212 219
209 218 227
209 219 229
209 219 229
200 211 220
206 215 223
207 217 227
205 215 224
203 214 224
206 216 223
207 217 227
206 215 222
205 214 223
201 211 216
197 208 216
208 218 228
205 215 223
206 215 224
201 211 219
202 212 220
199 209 216
215 223 234
205 214 220
122 144 114
146 163 147
180 193 194
204 214 222
204 214 223
201 211 219
199 209 218
204 214 222
209 218 227
212 221 231
204 214 220
207 217 225
204 214 223
207 217 229
208 217 226
205 215 225
207 217 227
209 218 229
198 209 216
211 220 229
209 218 228
204 215 225
205 216 227
205 215 224
202 213 221
209 220 232
206 215 223
207 217 227
203 213 222
147 164 149
95 122 73
96 124 73
94 122 73
94 122 73
95 122 73
97 124 75
97 125 75
99 127 77
96 123 74
97 124 74
99 127 77
96 124 74
93 119 70
96 123 73
97 125 75
92 119 71
95 123 74
97 124 74
96 124 75
97 125 75
95 122 73
95 123 74
95 122 73
95 123 74
96 123 74
99 127 77
97 124 74
96 124 75
146 164 148
203 213 220
201 211 218
208 218 228
197 208 216
206 217 228
209 219 229
211 220 230
206 216 226
207 217 225
204 215 226
202 212 220
202 212 220
207 215 223
206 216 225
200 210 218
203 213 220
199 209 217
204 214 223
208 217 226
201 211 219
206 215 223
201 211 220
209 219 230
195 207 214
204 214 223
201 212 220
207 216 224
204 214 223
153 170 157
97 124 75
97 124 75
95 122 73
99 126 76
98 125 75
99 127 76
101 129 78
97 124 74
98 126 75
97 124 74
98 125 75
99 127 77
91 118 71
97 124 75
98 126 76
96 124 74
97 124 74
97 125 74
95 122 73
94 121 73
99 126 76
99 126 76
97 124 74
95 122 73
97 125 75
98 126 76
93 121 72
141 160 143
206 215 222
203 213 221
204 214 224
203 213 220
206 216 227
211 220 230
201 211 218
205 215 223
203 213 221
201 211 219
198 208 218
210 220 230
207 216 224
208 217 227
199 210 219
208 217 225
202 213 222
202 212 220
208 218 227
204 214 222
205 216 227
207 216 225
209 219 228
206 216 225
205 214 222
209 218 226
197 207 213
99 125 82
97 124 75
99 126 76
96 123 73
97 125 75
97 125 75
97 124 74
92 119 72
95 123 73
97 125 75
96 124 74
98 125 75
95 123 73
97 125 75
98 126 76
93 120 72
96 123 74
94 121 72
93 120 71
96 123 74
96 123 74
97 124 75
96 124 75
95 122 73
98 125 75
96 123 74
165 180 172
211 219 228
205 216 226
201 211 219
208 217 224
209 218 227
204 214 222
208 217 225
198 209 218
201 211 218
201 211 219
196 207 215
209 218 227
203 213 222
199 210 220
208 217 226
200 210 218
200 210 220
195 206 213
207 216 226
204 214 224
205 215 223
205 215 223
203 213 221
199 209 217
192 203 208
101 127 81
98 126 75
96 124 75
96 123 73
95 122 74
96 123 74
97 124 74
96 124 75
99 127 77
93 120 71
96 123 73
94 122 74
99 127 76
98 125 75
98 126 76
97 125 75
95 122 73
97 125 75
96 123 74
95 123 74
94 121 72
98 126 76
96 124 75
100 126 83
198 208 212
207 216 224
200 211 221
210 219 227
204 214 222
212 221 231
208 217 225
208 217 226
198 210 219
195 206 214
203 213 222
205 214 222
199 209 217
203 213 220
210 220 230
197 208 216
204 215 225
206 215 223
198 208 214
207 217 227
199 209 216
209 218 225
192 203 207
108 131 94
95 122 73
98 125 75
96 123 73
96 123 74
96 124 75
99 127 76
94 121 73
99 127 76
95 122 73
92 119 71
98 126 77
97 124 75
94 121 73
96 123 74
134 153 134
202 212 220
203 214 224
206 216 224
201 210 218
194 205 211
196 207 215
195 206 213
210 220 231
206 215 222
205 215 223
209 217 225
203 213 222
205 215 225
208 218 230
208 217 227
204 214 221
207 216 226
199 209 216
205 215 225
200 211 218
197 207 215
204 214 223
203 213 221
193 204 210
158 173 162
106 130 94
131 150 129
209 218 226
207 217 228
201 212 220
207 216 225
203 213 221
199 209 215
206 215 224
210 218 226
203 213 221
206 216 224
209 218 228
202 213 222
211 220 231
200 210 216
210 219 230
198 209 218
199 209 216
206 216 226
208 216 224
205 214 222
207 217 226
208 218 226
202 212 221
211 219 228
205 215 224
201 210 216
203 214 224
169 183 179
98 126 76
96 124 74
98 126 76
96 123 74
101 129 78
97 124 75
96 123 74
98 125 75
96 123 74
97 124 74
94 121 72
98 126 76
98 125 75
94 121 72
97 125 76
99 127 77
101 129 77
95 121 72
102 128 82
138 157 137
162 176 170
201 210 217
205 215 225
207 216 225
202 213 223
203 212 219
205 214 222
206 216 224
138 156 136
96 124 74
95 123 74
93 120 72
95 122 73
99 127 76
96 124 74
97 125 75
99 126 76
93 120 72
98 125 75
96 124 74
98 126 77
97 125 75
91 117 70
98 125 75
96 123 73
94 121 73
97 125 75
95 122 73
97 125 75
99 126 76
96 123 74
98 125 75
98 126 75
94 121 72
99 127 77
93 120 72
95 123 74
181 193 193
205 214 223
201 211 220
204 214 222
209 218 227
210 220 230
210 219 227
209 218 227
205 215 225
212 222 232
205 215 223
210 219 228
201 211 219
204 214 223
200 211 219
212 221 231
207 217 225
213 222 234
207 217 227
207 216 225
209 219 229
208 218 227
205 215 225
204 214 223
205 214 222
202 212 219
205 215 223
204 214 223
204 213 221
178 191 189
96 123 74
94 121 72
95 122 73
94 122 73
121 144 112
147 164 149
167 181 172
194 206 210
211 221 232
198 209 216
208 217 227
208 217 227
203 213 222
204 213 221
211 221 231
212 222 233
197 207 212
202 212 222
208 217 226
207 217 229
201 211 218
198 210 218
205 215 224
202 212 219
204 213 221
205 216 226
203 213 221
206 216 225
200 211 221
110 134 98
95 122 73
98 125 75
96 123 73
93 120 72
96 123 74
97 124 74
97 124 75
93 120 71
93 120 71
93 121 73
95 122 73
96 123 73
97 124 74
97 124 74
97 124 74
98 126 76
97 124 75
100 127 77
96 124 75
97 125 75
98 126 76
97 125 75
93 120 72
97 125 75
95 122 73
96 124 74
94 121 72
98 126 75
185 197 198
198 209 218
202 213 222
204 214 221
207 216 224
205 216 227
196 207 215
204 214 223
204 214 222
209 218 227
206 215 224
203 212 219
207 216 225
209 219 229
202 212 220
198 208 216
204 214 222
208 218 227
202 213 224
204 214 224
200 210 219
209 218 228
204 215 225
203 214 223
203 212 220
202 212 221
207 217 226
208 217 227
208 218 228
99 125 80
96 123 74
99 127 77
93 120 71
93 120 71
98 125 75
98 125 75
98 125 75
96 123 74
90 117 70
96 123 74
97 125 75
100 127 76
95 123 74
96 123 73
98 125 75
99 126 76
93 120 72
95 122 73
96 124 74
94 121 72
96 123 74
98 126 76
97 125 76
93 120 72
99 127 77
95 122 74
97 124 74
191 202 205
201 212 220
201 210 216
205 214 224
206 216 225
204 214 224
207 217 226
207 217 227
200 210 217
202 214 225
210 219 228
210 219 228
207 217 227
198 210 218
205 215 223
206 216 226
205 215 224
205 214 222
201 212 223
203 213 222
205 215 224
203 213 223
203 213 221
206 215 224
200 212 223
205 215 225
205 214 223
169 182 177
97 124 75
95 122 73
99 127 77
92 120 72
97 124 75
97 124 75
93 120 72
100 128 76
95 123 74
95 122 73
95 123 74
97 125 75
98 125 76
99 126 76
96 123 74
95 123 74
96 124 75
94 121 73
95 123 74
97 124 75
96 124 74
96 124 74
97 124 74
95 123 74
99 127 76
108 132 93
202 213 221
207 217 226
209 219 228
205 215 224
205 214 222
202 212 220
208 216 224
196 206 213
205 215 224
208 218 228
202 212 221
208 217 226
202 212 220
207 217 228
208 217 225
208 217 227
204 215 225
208 217 226
206 215 223
201 211 219
205 215 225
211 220 229
204 214 224
201 210 218
207 217 226
142 161 146
94 121 72
94 121 73
96 123 74
96 124 74
95 122 73
95 122 72
97 124 74
96 124 75
100 127 76
99 126 76
95 122 73
96 123 74
97 124 74
95 123 74
97 125 75
96 124 74
100 128 77
96 124 74
94 121 72
96 124 74
95 122 74
99 127 76
95 123 74
153 169 158
209 219 229
203 212 221
202 213 222
198 209 218
198 208 213
206 214 224
201 212 222
204 214 224
205 214 221
207 216 223
203 213 219
206 216 224
205 215 224
202 212 221
203 213 223
197 208 218
202 212 220
212 221 230
208 218 228
201 211 219
201 211 220
199 209 218
122 144 117
97 124 74
93 121 73
97 124 74
96 124 75
94 121 72
96 124 74
97 124 75
95 123 74
95 123 73
97 124 74
95 122 73
93 120 72
97 124 74
93 120 72
97 125 75
129 149 126
207 217 227
209 218 228
196 207 214
206 216 225
198 209 217
207 216 226
209 218 227
204 214 222
210 219 228
204 214 223
205 215 224
203 213 221
205 214 224
204 214 224
207 217 227
207 217 227
195 208 218
202 212 222
201 211 220
199 210 219
208 217 228
202 212 220
210 219 228
202 212 220
201 211 219
201 210 215
186 198 201
179 192 191
202 212 220
197 207 212
199 209 216
207 217 225
205 214 223
203 213 223
203 213 222
199 210 219
205 215 225
203 213 222
206 216 227
204 214 224
199 210 220
197 207 215
211 220 231
203 213 221
205 216 226
198 207 213
202 211 218
207 217 226
204 213 221
202 213 223
206 216 226
204 214 223
202 212 221
206 216 225
169 183 178
96 123 74
93 120 72
99 127 76
98 126 75
95 122 73
91 118 71
100 127 77
96 123 74
97 125 75
96 124 75
97 124 74
95 122 73
97 124 75
100 128 77
97 125 75
97 125 75
95 123 73
97 125 76
96 123 73
96 123 74
96 123 74
97 123 76
132 151 128
168 182 177
185 197 201
208 217 226
201 211 219
200 209 215
131 151 126
98 126 76
96 124 74
97 125 75
97 125 75
98 125 76
99 127 77
96 124 74
97 124 74
94 121 73
99 126 76
98 125 75
100 128 77
94 121 72
98 125 75
94 120 71
95 122 73
96 124 74
94 121 72
94 122 73
98 126 75
98 125 75
94 122 73
96 123 74
97 124 75
96 123 74
95 123 74
98 125 75
93 121 73
186 198 199
206 216 224
211 219 228
205 215 225
202 212 219
200 210 217
205 214 223
209 218 227
202 213 221
202 213 223
205 215 224
207 216 224
205 214 222
200 209 216
207 217 228
204 214 223
208 217 225
200 210 215
202 211 219
202 212 220
206 216 226
210 219 229
205 214 221
203 212 219
201 211 220
204 214 224
209 218 228
208 217 227
203 213 221
173 187 184
100 127 77
96 123 73
93 120 72
95 122 74
93 119 71
96 124 75
99 126 75
97 125 75
119 141 105
146 163 146
154 170 162
192 203 207
202 212 217
205 215 224
205 215 225
201 211 219
205 215 224
206 215 223
201 211 219
205 215 224
210 219 229
206 216 227
201 212 221
204 214 222
196 207 214
205 215 225
200 210 217
209 218 226
193 204 210
96 123 73
91 118 71
96 124 74
95 122 73
98 126 75
97 124 74
98 126 75
98 125 75
96 124 75
97 125 75
97 124 75
96 123 74
95 123 75
97 125 76
97 125 75
94 121 72
91 118 69
95 122 74
98 125 76
96 123 73
99 126 75
96 123 74
97 125 75
93 119 70
98 126 75
97 124 75
95 121 72
98 125 75
104 130 86
209 218 226
208 218 228
197 207 213
204 214 222
199 210 218
207 216 226
195 207 214
203 213 222
195 206 212
204 214 222
208 217 226
196 208 218
208 217 225
206 217 229
208 217 226
210 219 228
202 212 221
206 216 225
209 218 227
202 212 221
201 211 218
193 204 209
204 214 224
204 214 223
206 216 223
200 210 219
203 212 219
208 218 228
168 181 177
95 123 73
97 124 75
92 119 72
96 124 74
96 124 74
100 128 77
97 124 75
95 122 73
94 122 73
97 125 75
94 121 72
97 125 76
95 123 74
96 123 73
95 123 74
96 123 74
98 125 76
99 126 75
98 125 75
98 126 76
96 123 74
97 124 74
94 121 73
95 122 73
95 122 73
93 120 72
94 121 72
131 152 126
202 211 218
202 211 219
210 219 228
201 212 221
203 213 223
199 210 218
203 213 222
204 214 221
212 222 231
203 212 218
209 219 228
205 215 224
201 212 222
205 215 224
209 218 227
198 208 216
200 211 220
206 216 225
203 212 220
193 204 212
204 214 224
209 219 228
202 212 220
207 217 228
207 216 225
207 217 227
198 209 218
107 130 95
96 123 73
94 121 73
96 124 74
95 122 73
97 124 74
94 121 73
99 126 75
98 126 76
98 125 75
98 125 75
96 123 73
95 122 74
95 122 73
98 126 75
94 122 73
97 125 74
96 124 74
97 124 75
97 124 74
99 127 76
93 120 72
99 127 76
98 126 75
97 124 75
96 124 75
175 189 186
208 218 227
207 217 226
201 212 222
208 218 228
208 217 226
205 215 223
209 218 226
202 212 221
199 210 217
198 208 214
204 214 223
209 218 228
201 212 221
207 216 225
201 212 220
200 211 219
210 219 230
206 216 224
203 213 221
203 213 221
202 213 222
209 219 228
205 215 225
199 209 216
180 193 192
95 122 73
95 122 73
101 128 77
95 122 73
95 123 73
96 123 74
94 122 73
94 122 73
96 123 74
95 123 73
96 123 74
90 117 69
98 126 76
96 123 74
97 124 74
96 124 74
96 123 74
97 125 75
96 124 75
94 121 73
95 122 73
97 124 74
96 123 74
146 164 145
211 220 230
197 208 218
199 210 219
198 208 218
207 216 224
203 213 219
197 209 219
207 217 227
200 210 218
202 212 219
206 215 223
200 211 220
201 211 219
212 221 232
205 215 226
202 213 221
206 215 224
197 207 214
198 208 215
202 212 221
195 205 214
197 208 217
157 173 160
97 124 75
98 125 76
96 123 74
93 120 72
95 122 73
96 123 73
97 125 75
96 122 73
94 121 72
94 122 73
98 125 75
96 124 74
95 122 73
99 126 75
95 122 73
96 124 74
108 132 95
205 214 222
203 213 223
207 217 227
196 207 215
203 214 222
212 221 230
203 213 220
209 217 224
203 213 222
200 211 218
202 212 219
205 215 224
207 217 228
207 216 224
203 213 225
207 216 225
206 216 226
209 219 228
199 209 219
207 217 225
204 214 225
206 216 226
195 206 213
205 214 223
201 212 221
197 207 215
187 199 203
96 123 73
117 140 110
166 180 174
198 208 214
204 214 222
204 214 224
209 217 226
202 212 219
207 217 227
201 210 216
207 215 221
207 216 225
206 215 223
210 219 229
210 218 225
205 215 224
205 215 223
205 215 223
204 214 222
206 215 223
204 214 224
198 208 217
207 217 226
200 210 216
206 215 224
205 215 223
206 216 225
178 191 189
99 127 76
97 124 74
94 122 73
97 124 74
98 126 75
94 121 73
98 126 76
94 121 72
96 123 73
99 126 76
92 119 71
96 124 75
98 126 76
95 123 73
95 123 74
98 126 76
99 127 77
95 122 73
94 121 72
96 123 74
98 126 76
96 124 74
95 122 73
97 124 75
98 126 76
120 142 112
170 184 179
195 205 209
121 143 111
98 125 75
97 125 75
95 122 74
93 120 71
95 123 74
98 125 75
96 123 74
97 124 74
95 122 72
97 125 75
97 125 75
95 123 74
94 121 72
96 123 74
91 117 70
96 123 74
98 126 76
95 122 73
95 123 74
96 124 74
98 126 75
98 125 75
97 124 74
96 123 74
98 126 76
94 121 72
98 126 76
98 125 75
180 193 195
201 211 220
210 219 229
207 217 226
204 214 224
203 214 224
201 212 220
203 213 223
204 214 224
199 209 217
204 214 222
202 211 219
210 219 229
201 211 219
202 211 218
202 212 222
209 219 228
201 211 219
200 210 215
194 205 211
204 215 225
198 209 217
201 210 218
206 216 225
208 218 227
198 209 218
200 210 216
200 210 216
201 211 219
158 173 165
97 125 75
98 125 75
96 124 74
98 125 75
96 124 75
96 124 75
98 125 76
97 125 75
97 125 74
97 125 75
96 123 74
94 121 72
100 126 83
131 151 128
160 175 166
179 192 192
200 210 216
202 212 221
201 212 222
200 211 222
207 216 225
203 213 221
204 214 225
206 216 225
200 211 220
200 210 217
198 209 218
216 223 233
161 176 169
96 123 74
94 121 73
95 122 74
99 126 75
94 121 72
98 125 75
98 125 75
95 121 72
93 120 72
96 124 74
97 124 74
95 123 74
97 124 75
97 124 74
96 123 74
98 125 75
98 126 77
97 124 75
96 123 74
99 127 76
96 124 74
98 126 76
97 124 75
97 124 74
96 123 73
92 119 71
95 123 74
100 128 77
129 149 124
203 213 222
195 206 214
203 213 221
201 210 216
198 209 218
201 211 220
201 210 217
205 214 223
214 222 233
204 214 222
198 209 218
201 211 220
199 209 217
207 216 226
206 215 224
207 217 228
206 215 221
209 219 229
203 212 220
202 212 218
202 212 220
201 211 219
209 218 227
204 214 222
203 213 222
201 211 220
205 215 224
204 214 221
133 153 129
99 127 77
98 126 76
95 122 73
94 121 73
97 125 75
95 122 73
94 122 74
99 126 76
95 122 73
94 121 73
97 124 75
96 124 74
97 124 74
96 123 74
97 124 75
95 122 73
97 125 75
94 122 73
91 118 70
95 122 73
96 124 74
96 123 74
97 124 74
98 125 75
98 125 75
94 122 73
95 123 74
173 187 184
209 218 227
205 216 227
211 220 231
204 214 223
198 209 216
199 209 218
211 220 229
204 214 223
206 215 224
203 214 223
207 216 226
200 210 216
207 217 227
204 213 221
202 213 223
202 213 224
199 209 218
201 211 220
208 217 225
200 210 217
203 212 220
205 215 223
198 209 218
207 217 226
204 215 224
203 214 224
167 181 175
94 122 74
97 125 75
99 126 75
95 122 73
100 127 77
94 122 73
97 124 74
97 125 74
92 119 71
93 120 71
97 125 75
98 125 75
99 126 75
93 120 72
98 126 75
97 124 75
98 126 76
96 123 73
98 125 75
99 127 76
94 121 72
95 123 74
97 124 75
99 127 77
97 125 75
122 144 112
210 219 228
203 213 223
197 209 219
210 219 230
206 216 224
202 211 219
202 212 220
209 218 227
205 215 225
200 211 220
203 213 221
210 218 227
199 210 218
208 217 225
197 208 216
197 208 217
207 217 226
201 211 219
205 214 222
205 215 223
203 212 220
198 207 213
205 215 223
212 221 231
203 214 222
110 134 100
96 123 74
96 123 75
99 126 75
98 126 76
97 124 75
97 124 74
97 124 75
95 122 73
95 123 74
96 123 73
96 123 74
93 121 73
95 122 73
99 127 76
97 124 75
98 125 75
97 124 74
91 118 70
98 126 76
93 120 72
97 124 74
93 120 72
99 125 83
187 199 204
207 216 227
201 212 220
208 218 228
205 214 223
210 219 229
209 218 228
212 221 232
202 212 220
208 217 225
206 215 225
202 212 220
208 217 225
209 219 228
208 217 226
201 210 218
199 209 217
202 212 220
208 218 226
199 210 219
205 215 225
204 213 220
185 197 200
99 125 80
96 124 74
97 125 75
100 127 76
96 123 74
99 127 76
96 123 73
96 123 73
97 124 74
96 123 75
94 121 72
121 143 115
93 120 71
97 124 74
96 124 74
93 120 72
95 123 73
98 126 76
193 204 210
203 213 220
201 212 221
200 211 219
211 220 228
206 215 224
205 216 225
208 217 228
203 212 220
201 211 218
205 215 223
197 208 216
203 213 222
196 207 216
210 219 228
200 210 220
204 213 221
205 215 223
206 215 223
209 218 227
199 209 217
202 213 221
204 214 222
206 216 226
203 213 222
205 214 222
186 197 202
95 123 74
98 125 75
94 122 73
96 124 74
128 149 124
183 195 196
200 211 219
209 218 228
203 213 223
195 207 217
197 208 214
197 208 216
201 212 221
202 213 223
203 212 218
211 220 229
202 212 220
198 209 216
213 222 232
205 215 225
204 214 222
208 218 228
204 213 219
207 216 225
201 211 217
205 214 221
201 211 218
169 183 179
94 122 73
95 122 73
98 126 76
95 122 73
94 122 72
97 125 75
94 122 73
96 123 74
94 121 72
94 121 72
97 125 76
99 126 75
96 124 74
94 122 73
94 121 72
96 124 74
98 125 75
96 123 73
92 119 71
98 125 75
96 124 75
94 121 71
99 127 77
93 120 72
96 123 74
97 125 75
93 120 72
95 121 71
179 192 193
163 177 171
122 143 116
97 124 74
94 120 72
95 123 74
95 123 73
96 123 74
98 125 75
97 124 74
97 124 74
96 123 74
94 120 71
93 121 73
95 122 73
97 124 74
96 124 74
98 126 76
99 126 76
97 124 75
92 119 71
93 120 72
95 123 74
94 122 74
98 125 75
94 121 73
97 124 74
92 119 71
96 122 73
206 215 223
195 206 213
201 211 219
201 211 220
208 217 226
206 216 225
204 214 224
207 215 223
209 219 228
202 212 220
209 218 228
198 208 215
205 215 224
206 216 225
206 216 226
208 217 225
203 214 223
204 214 224
206 215 223
200 210 217
203 213 221
207 217 225
207 218 229
205 215 224
211 219 227
211 220 229
203 213 220
203 212 220
205 215 224
142 160 142
99 126 76
98 125 75
95 123 74
97 125 75
94 121 72
97 125 75
93 121 73
93 120 72
94 122 73
98 125 75
96 123 74
97 125 75
99 127 76
98 125 75
94 121 73
99 127 77
97 124 75
107 131 94
132 151 130
158 174 168
188 200 203
212 221 230
201 210 217
201 210 217
204 213 220
206 215 224
206 216 226
204 214 222
150 166 151
100 128 77
97 125 75
96 123 74
95 122 73
94 121 73
97 125 75
95 122 72
96 123 73
95 123 74
96 124 74
97 125 75
96 124 75
95 123 74
97 125 75
96 123 73
95 122 73
90 117 70
97 125 75
97 125 75
96 123 74
95 122 73
97 124 75
93 121 72
95 122 73
98 125 75
98 125 75
96 124 74
95 122 74
177 189 187
205 215 227
209 218 228
206 216 224
203 213 221
206 215 224
211 220 229
202 212 221
206 215 223
202 212 220
203 213 220
198 209 217
206 216 225
210 219 227
210 219 229
203 213 220
212 221 232
197 207 216
198 209 218
204 214 225
210 218 227
202 213 223
200 211 221
199 210 219
205 214 223
209 218 226
204 214 223
198 209 219
197 206 210
96 124 77
96 124 74
96 123 73
94 122 73
98 125 75
95 121 72
95 122 73
96 123 73
95 123 74
96 123 74
99 127 77
97 124 73
97 124 75
96 124 74
95 123 74
96 124 74
96 123 73
96 123 74
98 125 75
95 123 74
98 126 76
96 124 75
100 127 76
95 122 73
95 123 74
96 123 74
93 120 72
114 137 103
205 214 223
208 218 229
196 208 217
193 205 213
207 216 225
205 215 225
203 213 221
206 216 226
203 214 222
213 222 233
204 213 222
197 208 215
207 216 226
203 214 226
204 214 223
200 210 217
205 216 227
200 211 221
208 217 226
199 210 219
205 215 226
208 218 226
207 216 225
203 213 220
198 208 217
207 217 226
202 212 218
107 132 91
100 128 77
93 121 73
89 116 69
96 123 74
94 121 72
97 125 75
96 124 74
95 122 73
95 122 73
97 124 74
96 124 75
99 126 76
100 128 77
94 122 73
95 122 73
96 124 75
98 125 75
92 119 71
95 122 74
94 121 73
93 119 71
94 121 72
94 122 73
96 123 74
95 122 73
175 188 184
204 214 223
203 213 222
208 218 228
204 213 221
206 216 225
201 211 219
202 212 220
196 206 213
207 217 227
204 214 224
200 211 219
199 210 220
202 213 221
198 209 218
200 211 218
204 214 224
201 211 220
202 212 219
200 211 218
210 219 227
203 213 220
204 214 222
206 216 228
213 222 231
150 167 155
97 124 74
95 123 74
94 121 73
98 125 75
95 122 73
98 125 75
95 122 73
95 123 75
97 124 75
96 123 74
94 121 73
96 123 74
94 122 73
97 124 74
101 129 77
96 124 74
94 121 73
92 119 72
94 121 72
96 123 74
93 120 71
96 124 75
95 122 73
178 192 191
209 218 227
200 211 220
199 210 218
198 208 214
204 214 221
210 219 230
206 215 223
209 218 226
206 216 226
203 213 221
204 214 224
204 214 221
207 217 227
201 211 219
211 220 229
198 208 215
200 210 217
201 212 221
197 207 214
210 219 228
199 209 218
195 205 210
113 136 102
94 121 72
96 124 74
97 125 75
94 122 73
98 125 75
98 125 75
98 126 75
97 124 75
96 124 74
93 120 72
95 123 73
203 213 222
185 197 197
142 159 142
91 118 71
96 124 74
97 125 76
96 123 73
188 199 201
209 219 230
207 217 226
210 219 229
205 214 223
206 216 225
205 215 223
200 210 219
199 209 217
207 216 226
204 214 224
197 208 217
208 218 226
204 213 219
206 215 225
204 214 224
202 212 221
196 206 214
200 210 218
195 205 211
199 209 216
204 214 222
195 205 213
204 214 224
199 210 218
199 210 218
189 200 206
100 127 76
97 124 74
96 124 75
95 123 74
94 122 73
98 126 75
102 128 84
156 172 161
194 205 211
207 217 225
206 215 225
200 210 217
200 211 219
191 203 208
206 216 225
206 216 225
204 215 225
199 208 215
202 212 219
201 211 218
205 215 225
202 212 220
208 217 225
211 220 229
207 216 224
202 213 226
199 210 217
176 189 187
97 125 75
95 122 73
93 120 72
94 121 72
94 121 73
96 123 73
97 125 75
94 121 72
95 122 73
97 125 75
100 127 77
94 121 73
94 121 72
97 125 75
97 125 75
98 126 76
96 123 74
96 123 74
97 126 76
94 122 73
94 122 74
96 123 74
95 122 73
94 121 72
100 127 76
98 125 75
95 122 73
97 125 75
192 202 205
206 215 226
213 222 233
198 207 213
170 184 182
137 156 135
98 125 80
94 121 72
96 123 74
99 126 76
93 120 72
96 124 75
92 119 70
97 125 75
95 123 75
94 121 73
96 123 73
95 122 73
96 123 74
95 122 73
100 127 76
94 121 72
98 126 76
97 125 75
95 122 73
97 124 75
98 126 76
93 121 73
99 126 80
208 218 228
200 210 219
206 215 224
209 217 226
207 215 223
206 215 223
198 208 217
196 207 213
205 215 223
209 218 227
208 217 226
200 210 216
212 221 231
202 212 221
204 214 221
198 209 218
204 213 221
200 210 216
212 221 230
203 212 221
200 210 218
206 217 228
204 215 226
203 214 223
195 206 215
206 216 224
204 214 222
196 206 212
202 211 218
100 125 85
97 125 75
96 124 75
94 121 72
97 124 73
96 123 74
97 125 75
94 121 73
96 124 75
95 122 73
95 122 73
98 125 75
96 123 73
93 120 72
94 121 72
97 125 75
97 125 75
97 125 75
96 124 74
93 120 72
97 124 75
95 122 73
95 123 74
126 147 121
152 169 158
170 184 181
194 205 209
202 212 221
210 219 231
114 138 102
97 123 74
97 124 74
95 122 73
96 124 75
99 127 76
94 122 73
97 124 75
98 126 76
94 122 73
99 126 76
96 123 74
96 123 74
97 124 74
92 119 71
95 122 73
96 123 75
96 123 74
96 124 75
97 125 75
94 122 74
98 126 75
96 124 74
97 124 74
98 126 76
95 122 73
98 126 76
96 123 73
100 126 78
198 208 213
199 208 215
202 212 220
202 212 222
202 213 221
205 215 224
207 217 224
210 220 230
210 219 227
203 213 221
206 216 226
198 209 218
208 218 229
206 215 224
206 216 226
204 214 222
202 213 222
203 214 223
207 216 224
203 213 221
202 213 221
205 215 224
199 208 214
198 209 218
207 217 225
192 203 210
210 220 230
211 220 228
156 172 162
99 126 75
91 119 72
97 125 75
94 122 73
94 122 73
94 120 71
92 119 71
97 125 75
97 124 74
97 125 75
96 123 74
94 121 73
98 126 76
98 125 75
95 122 73
94 121 72
95 123 73
93 120 71
94 120 71
98 125 76
100 128 78
96 123 74
97 124 74
98 125 76
98 125 75
94 121 72
95 122 74
160 174 167
205 214 222
207 217 226
204 214 224
204 215 224
205 216 226
205 215 226
203 213 221
203 213 223
202 213 222
204 214 222
206 215 221
211 220 227
206 215 224
201 211 218
199 210 218
199 209 216
203 214 223
203 213 222
199 210 218
207 217 228
203 213 223
202 212 220
208 217 225
198 209 216
198 208 216
201 211 218
168 182 178
96 123 73
96 124 74
95 123 73
94 121 72
96 124 75
95 122 74
96 123 74
95 122 73
94 121 73
96 123 74
93 120 71
97 124 74
94 121 73
95 122 73
96 123 74
99 126 76
98 125 75
97 124 74
95 122 73
96 124 74
95 122 73
97 125 76
93 120 71
95 122 73
95 121 72
130 149 129
203 212 221
204 214 222
200 210 218
203 213 221
208 217 226
194 206 214
202 212 220
210 220 231
204 215 225
203 213 222
206 215 223
210 220 232
207 217 226
199 209 218
197 207 216
204 214 222
208 217 226
201 211 220
209 218 227
211 219 228
208 218 229
208 217 227
200 210 218
208 217 227
188 199 203
97 123 79
97 124 74
94 121 72
97 125 76
96 123 75
100 128 77
100 128 77
95 122 73
100 128 76
98 126 75
97 124 74
95 122 73
98 125 75
96 124 74
99 127 76
96 123 74
95 122 73
97 125 75
95 123 74
94 121 72
95 123 74
93 120 72
97 125 76
128 148 124
201 211 219
212 221 231
206 215 223
203 212 220
209 218 226
209 218 226
199 209 217
206 216 223
207 217 225
196 207 214
203 212 218
206 216 224
203 212 220
207 216 225
204 214 224
202 212 221
204 214 223
204 214 223
206 215 224
201 211 218
205 215 224
206 216 225
150 166 151
98 125 75
94 121 72
94 121 72
95 122 73
95 122 73
95 122 73
94 121 73
94 121 73
95 123 73
97 124 74
95 123 73
94 121 73
199 210 219
207 216 225
209 218 226
201 212 221
163 178 169
106 131 92
100 127 76
174 186 183
203 212 219
202 212 221
200 210 218
207 217 227
202 212 220
206 216 225
199 210 219
208 217 226
205 215 224
205 214 223
201 210 219
209 218 227
204 213 222
212 220 230
198 208 216
199 210 218
210 219 228
194 206 213
213 221 231
199 210 217
197 208 217
209 219 229
206 216 226
203 213 222
198 208 215
207 217 228
99 125 82
95 122 73
94 122 74
95 122 73
96 123 74
97 124 74
99 127 76
99 127 76
94 122 74
120 142 111
167 182 175
200 210 217
203 213 223
209 218 228
200 210 218
200 210 216
202 212 220
201 211 219
210 219 229
205 215 223
210 220 230
208 218 229
200 211 222
201 212 222
196 207 213
203 213 220
203 213 223
176 188 186
101 128 77
94 121 73
98 126 75
95 123 74
95 123 74
94 122 73
97 125 75
95 122 72
95 122 74
94 121 72
94 122 73
95 122 72
93 120 72
92 119 70
93 120 72
98 126 75
97 124 75
97 125 75
93 120 72
95 122 73
96 122 73
98 125 75
98 125 75
97 125 75
95 122 74
92 119 71
94 122 73
95 122 73
202 212 218
206 216 226
206 216 225
210 219 228
201 212 221
198 209 218
193 204 210
173 187 186
137 155 136
99 127 79
94 121 72
93 121 72
96 124 74
93 121 72
95 123 74
95 122 73
95 122 73
97 125 75
97 125 76
95 122 73
96 123 73
94 122 73
94 121 72
93 120 72
97 124 75
97 124 75
98 125 75
93 120 71
132 151 128
203 213 222
205 215 222
203 213 222
195 207 215
199 210 220
203 213 222
206 215 221
206 215 224
200 209 216
205 215 224
205 215 224
204 214 223
210 220 231
203 214 224
200 211 220
205 215 224
208 217 225
202 212 220
211 220 229
204 214 222
195 205 212
205 215 222
208 217 224
197 208 217
209 219 228
208 217 227
206 215 223
210 219 228
195 206 211
99 127 76
95 122 73
94 121 72
95 122 72
97 125 76
97 124 75
92 119 71
95 122 73
95 122 73
98 126 76
98 126 76
95 122 73
94 121 72
94 121 72
96 123 74
98 125 75
96 123 74
99 126 75
95 123 73
94 122 73
94 122 73
97 125 75
98 126 75
95 122 73
96 124 74
98 125 75
95 122 73
109 133 95
158 174 164
159 175 165
144 162 145
115 137 107
99 127 77
96 124 74
98 126 75
94 121 72
97 124 74
96 123 73
99 126 76
91 118 70
93 121 72
96 123 74
96 124 75
96 124 75
97 124 75
99 126 75
95 123 73
99 127 77
94 121 72
94 121 72
98 125 75
92 119 71
93 120 71
96 123 74
98 126 75
98 125 75
96 123 73
123 144 117
201 211 219
205 215 224
203 214 223
205 215 225
205 215 224
207 217 226
204 213 221
201 211 220
207 217 225
198 208 215
206 215 224
203 213 220
208 218 230
200 210 217
203 213 220
204 214 223
207 216 224
204 214 223
196 207 215
205 214 222
205 215 224
203 214 225
208 218 228
205 215 225
206 216 225
209 218 228
211 220 229
208 218 228
124 145 116
96 123 73
97 125 75
96 123 73
96 123 73
93 121 73
98 125 75
95 122 73
97 125 75
99 127 77
97 125 76
97 124 75
92 119 71
92 119 71
100 128 77
98 126 76
94 121 73
93 120 71
99 126 76
94 121 73
91 117 70
96 123 73
101 128 77
99 127 76
98 125 75
94 122 73
95 122 73
108 133 91
203 213 222
205 215 225
208 218 227
197 208 216
200 210 217
206 216 224
202 213 223
209 217 227
207 217 228
203 212 219
201 212 222
207 216 224
199 209 215
207 215 223
207 216 225
210 218 226
199 209 216
203 213 222
206 216 225
204 214 223
208 218 228
207 216 226
202 213 222
204 214 222
208 218 227
201 211 220
200 211 218
114 138 102
98 125 75
92 118 70
95 122 73
95 123 74
96 124 74
93 121 73
97 124 74
97 124 74
94 121 72
99 126 76
97 125 76
92 119 71
96 123 74
93 120 71
95 123 74
95 122 73
98 125 75
94 121 72
96 123 74
96 123 73
99 126 75
94 121 72
98 125 75
96 124 75
97 125 75
180 193 194
204 215 225
208 219 231
202 213 222
203 213 222
199 210 218
207 215 223
206 215 223
203 213 221
207 216 225
200 211 219
200 211 219
202 213 223
208 218 229
201 211 218
205 215 224
205 215 225
214 222 230
200 211 221
209 218 227
203 213 220
205 216 227
202 212 223
199 210 220
206 216 225
135 154 131
93 120 71
94 121 73
98 125 75
98 126 75
95 122 72
94 122 73
91 118 71
97 124 74
95 122 73
94 121 73
99 126 76
92 119 71
93 120 72
95 122 73
97 124 73
95 122 72
93 120 72
94 121 72
96 123 74
96 123 73
97 125 75
91 118 70
103 129 87
192 204 212
202 213 223
199 210 218
196 207 214
202 213 222
202 213 223
206 216 225
203 213 221
199 209 215
205 215 224
205 215 224
206 216 224
203 212 221
201 211 221
209 218 227
196 206 211
203 213 222
207 217 227
203 213 222
203 212 220
206 216 223
205 215 224
171 185 181
100 127 76
96 123 74
96 123 74
95 123 74
90 117 70
94 122 73
94 122 73
98 125 75
95 123 73
96 124 75
97 124 74
96 124 74
99 127 76
197 208 217
200 211 219
211 220 230
208 217 226
197 207 215
196 207 214
178 191 190
169 182 176
201 212 220
203 214 224
206 215 224
203 213 222
207 216 225
204 214 224
200 210 217
201 211 219
198 208 216
209 219 231
205 214 220
205 216 225
202 212 218
203 213 225
196 205 212
202 211 218
211 219 228
211 220 228
210 219 229
204 214 222
200 210 218
201 211 221
200 211 219
209 218 226
206 216 224
197 208 215
112 135 102
98 126 75
95 122 73
97 125 75
96 123 74
98 126 75
96 124 75
95 123 74
91 119 71
97 124 74
95 122 73
96 124 75
135 154 132
174 188 187
199 209 216
202 213 222
205 214 224
203 213 221
199 210 218
202 212 222
202 212 220
204 214 222
212 221 231
199 210 218
198 208 216
206 216 227
205 215 223
185 197 198
97 124 74
97 124 74
97 125 75
94 122 73
98 125 75
95 122 73
95 123 74
93 120 72
96 123 74
95 122 73
94 122 72
96 124 74
98 125 75
96 124 74
92 119 72
97 125 76
99 127 77
96 123 74
95 122 73
98 126 75
95 123 74
95 122 73
95 123 73
96 123 74
99 127 76
98 126 75
97 124 74
96 122 76
200 210 217
201 211 218
211 220 230
209 218 228
205 215 226
201 211 220
208 218 227
204 213 220
207 216 226
204 213 222
181 193 194
148 165 155
112 136 104
97 125 75
97 124 74
94 122 73
98 125 75
96 123 74
97 124 75
96 124 74
94 122 73
94 121 73
94 121 72
95 122 73
96 124 74
96 123 73
97 125 75
96 124 74
146 163 146
201 212 221
195 206 214
206 215 225
198 209 220
198 209 218
200 211 220
207 217 228
207 217 227
202 212 221
212 221 232
205 215 224
206 216 225
208 217 224
206 214 223
200 210 218
210 219 228
202 212 220
205 215 224
204 214 222
201 212 222
206 216 224
210 218 228
199 209 217
200 210 216
201 212 222
203 213 221
208 219 230
206 215 223
178 191 190
96 123 74
97 125 75
93 120 72
93 120 72
95 123 73
99 127 76
94 122 73
94 122 73
94 120 72
97 125 75
100 128 76
100 127 76
98 125 75
94 121 71
95 122 73
96 123 74
94 121 72
94 121 72
97 124 74
96 124 74
94 121 71
95 122 73
97 124 74
97 124 74
97 125 76
96 123 74
94 121 73
96 124 74
146 164 146
203 213 221
206 216 228
202 212 222
202 213 220
189 200 201
166 179 174
139 157 136
118 140 110
102 128 82
97 125 75
95 122 73
94 121 72
97 124 75
94 121 72
93 120 71
99 127 76
96 123 75
95 122 73
97 125 75
96 123 73
98 125 75
98 125 75
95 122 73
94 121 73
94 121 72
97 124 74
95 122 73
95 122 74
163 178 171
205 214 223
209 219 229
208 217 226
198 208 214
204 213 222
209 218 228
213 222 232
207 216 225
206 215 224
208 218 229
195 205 214
203 214 224
201 211 220
207 218 228
206 215 225
207 217 226
198 209 219
203 213 222
207 217 228
196 206 212
208 218 227
209 219 227
202 212 220
198 208 214
205 215 224
200 210 217
197 207 216
182 195 195
95 122 73
93 121 73
94 122 73
96 123 74
96 123 73
97 125 75
96 124 75
94 121 72
97 124 74
98 126 75
95 123 73
96 123 73
96 123 74
97 124 74
97 125 75
100 127 76
94 121 72
95 122 74
98 125 75
94 122 73
97 125 75
96 123 74
94 122 73
96 123 73
96 123 74
98 125 75
100 128 77
160 174 164
203 213 224
206 216 224
205 215 223
207 217 227
206 216 227
209 218 225
199 209 216
207 216 224
209 218 228
213 222 233
213 222 234
204 213 221
199 210 216
199 209 217
204 214 223
201 211 218
202 212 221
201 211 219
204 213 220
202 211 217
205 215 224
202 212 219
206 215 223
210 219 228
201 212 221
207 216 226
164 178 172
93 120 71
97 125 75
95 122 73
95 122 73
97 124 75
94 121 72
91 118 70
96 124 74
97 125 75
94 120 72
98 126 77
90 117 71
94 122 74
93 120 72
95 123 73
98 125 75
96 123 74
93 120 73
93 121 72
94 121 73
95 123 74
99 127 76
95 123 73
95 123 74
99 127 76
145 163 147
203 214 222
199 209 217
205 215 226
209 218 227
204 213 222
212 221 232
204 213 219
203 214 225
206 215 222
204 214 224
205 215 224
202 213 222
206 215 223
200 210 218
204 214 224
199 209 216
202 212 221
205 215 225
199 209 216
201 211 219
201 210 218
205 215 224
206 215 224
202 213 222
176 189 189
92 119 72
95 122 72
94 121 72
96 123 73
97 124 74
93 120 72
95 122 73
97 124 75
98 125 75
94 122 73
97 124 74
95 122 73
94 122 74
94 122 73
97 125 76
95 122 74
96 124 74
97 125 75
95 122 73
94 121 73
93 121 72
95 123 73
97 123 74
170 183 177
201 212 220
200 210 216
207 217 225
205 214 222
199 210 219
210 219 229
202 212 221
199 209 217
204 215 225
206 215 223
203 214 224
200 210 219
210 219 228
203 213 222
202 212 220
204 214 223
206 215 223
202 211 219
197 208 215
201 211 221
207 217 226
185 198 201
112 136 97
97 125 75
94 121 72
100 128 77
97 125 76
96 124 74
95 122 73
92 119 72
93 120 72
94 122 73
97 125 75
99 127 76
94 120 72
95 122 73
200 210 217
203 213 220
200 210 220
203 212 220
204 214 222
198 209 216
201 212 220
180 192 192
135 155 130
168 182 175
192 203 211
199 209 217
198 209 216
206 216 225
200 210 220
207 216 224
205 215 223
208 218 226
195 206 212
193 203 209
200 210 218
197 208 216
208 217 226
196 207 214
203 213 221
195 207 214
201 211 218
195 206 214
200 211 220
201 210 218
208 217 225
203 214 223
203 213 221
207 217 228
126 146 122
90 116 69
98 126 76
97 124 75
95 123 73
96 123 73
96 123 74
96 123 73
96 123 74
94 121 72
97 125 75
94 121 73
96 124 75
98 125 75
94 120 74
147 165 151
187 199 201
204 215 223
197 208 218
204 214 222
193 204 210
203 214 225
198 208 216
206 216 225
202 211 220
194 205 213
212 221 232
175 188 186
94 121 72
96 124 74
93 120 71
96 124 75
97 124 74
96 123 74
99 127 77
98 126 76
97 125 75
96 123 74
97 125 75
96 124 75
95 122 73
95 123 73
99 127 76
98 125 75
98 126 76
97 124 75
98 125 75
98 125 75
96 123 73
97 124 75
98 125 75
95 123 74
93 119 70
97 124 75
94 122 73
113 135 103
204 214 223
202 212 221
210 219 228
200 211 219
200 211 219
205 214 222
203 214 223
200 210 215
202 213 221
205 215 225
200 211 220
201 211 219
208 218 228
189 201 203
170 183 178
121 142 116
92 119 71
96 124 74
97 124 74
92 119 71
98 125 76
98 126 76
97 125 75
95 123 73
93 120 71
93 120 71
96 124 74
97 125 75
147 163 150
200 210 217
210 220 230
200 211 219
195 206 213
199 209 217
200 210 217
205 215 225
206 216 225
210 219 226
204 214 222
204 214 222
203 214 223
199 210 219
202 212 220
200 211 219
202 212 221
211 221 231
205 216 228
207 217 226
201 211 219
204 214 221
200 210 218
196 206 214
209 218 227
202 213 222
205 215 224
202 212 222
208 218 227
162 177 167
97 125 75
95 122 73
95 123 74
92 118 70
96 124 75
97 125 75
98 126 76
98 126 75
98 125 75
99 127 76
96 123 74
93 120 71
98 125 75
94 121 73
93 121 72
96 124 75
96 124 75
97 124 74
93 120 72
96 123 74
100 128 77
95 123 74
96 124 74
93 120 71
93 120 72
96 124 75
96 124 74
95 123 74
174 187 185
208 218 228
192 203 212
204 214 224
204 214 224
202 212 220
197 207 214
208 217 227
202 211 218
202 212 220
181 193 194
175 188 186
141 159 143
126 147 120
106 130 89
96 124 74
95 122 73
97 125 75
95 122 74
96 123 73
100 128 76
94 122 73
91 118 70
98 126 76
98 125 76
98 125 75
93 120 72
97 125 75
96 120 79
197 208 216
206 216 225
196 208 216
204 215 225
204 214 224
204 214 221
208 218 229
198 208 213
204 213 220
204 214 222
203 213 222
204 214 224
197 208 217
208 219 230
199 210 217
204 214 222
209 219 229
206 216 224
202 212 220
202 212 222
204 214 221
198 209 217
200 209 217
204 214 223
201 212 221
204 214 222
205 214 224
209 218 227
154 171 160
96 124 74
95 122 73
98 125 75
98 126 76
96 124 74
100 127 77
95 123 74
96 124 74
95 122 73
93 120 72
97 124 74
96 123 74
97 125 75
90 117 70
95 122 73
96 123 74
93 120 71
95 123 74
95 122 73
98 125 75
97 125 75
95 122 74
94 122 73
92 120 72
96 124 75
97 125 75
102 127 86
193 204 210
203 213 220
209 219 230
206 215 223
207 216 225
207 217 226
199 209 216
205 215 225
198 209 219
202 212 221
204 214 223
205 215 226
195 206 215
199 209 216
202 212 222
215 224 235
202 212 223
206 215 223
206 216 225
196 207 215
195 205 211
195 205 212
191 202 208
203 213 220
204 214 224
202 212 221
203 213 220
109 133 93
96 123 74
94 122 72
95 122 73
96 124 75
95 122 73
97 124 74
96 124 74
97 124 74
96 124 74
96 124 74
95 122 74
95 122 73
95 122 73
99 127 77
96 123 74
96 124 74
96 124 75
96 124 74
98 126 76
95 122 73
96 123 73
100 127 76
97 125 75
97 125 75
110 135 94
196 206 211
200 211 219
204 213 222
202 213 222
207 217 226
204 214 221
207 216 226
210 220 229
197 207 213
203 213 222
204 214 224
199 209 218
198 209 219
200 210 218
204 214 223
197 208 217
202 212 220
204 213 222
200 210 220
198 208 214
207 217 226
206 215 225
207 216 225
208 217 224
202 212 219
109 132 94
95 123 74
95 123 74
94 122 73
94 121 72
95 122 74
95 123 75
98 125 75
91 118 71
96 124 74
92 119 71
92 120 72
99 127 76
95 122 73
97 125 75
97 125 75
93 120 72
96 124 75
94 121 72
96 124 75
95 122 74
92 119 71
96 124 74
125 145 124
198 209 218
201 212 221
203 212 221
202 213 223
208 218 228
200 211 220
204 215 225
204 213 221
202 213 222
204 213 221
199 209 215
208 218 227
211 220 228
202 212 221
203 214 224
205 214 223
201 210 216
195 207 216
196 206 214
205 214 223
195 205 211
197 208 215
135 154 133
97 124 75
93 121 72
99 127 76
96 124 75
93 121 72
99 126 76
94 121 73
92 119 71
96 123 73
96 124 74
96 124 75
96 123 74
94 121 72
96 124 74
201 212 220
204 213 221
213 221 231
201 212 223
199 209 217
197 207 213
204 214 224
190 202 207
96 123 74
95 122 73
106 131 92
150 166 152
193 203 207
202 212 220
201 211 219
203 212 220
203 213 221
209 219 227
204 214 222
204 215 225
204 215 224
199 209 217
206 214 221
200 211 221
204 214 223
205 215 224
201 212 221
197 208 217
197 208 216
200 210 217
208 217 227
208 217 227
192 203 211
204 214 225
140 159 141
95 122 73
95 122 73
95 122 74
94 121 72
94 122 73
95 122 72
94 121 73
93 120 72
95 123 74
95 123 74
97 124 75
97 124 74
95 123 74
95 122 73
94 120 71
93 120 72
118 141 105
152 167 154
189 200 201
214 222 231
201 211 221
206 216 226
205 214 223
208 217 226
204 214 224
203 214 223
182 194 193
96 123 74
94 122 73
94 121 73
93 120 72
92 119 72
99 127 76
98 126 76
95 122 73
94 121 72
94 121 72
96 123 74
96 124 74
95 123 74
99 126 75
95 123 74
97 124 75
96 124 75
99 127 76
99 127 76
91 119 71
94 121 72
92 120 71
93 120 72
95 122 74
96 124 75
101 128 77
94 121 73
125 146 123
205 214 222
208 217 226
206 215 223
202 213 222
206 216 224
204 214 220
206 215 224
203 214 224
204 214 223
199 209 218
205 213 220
197 207 216
201 212 221
204 214 222
206 216 223
205 215 225
194 204 210
171 185 182
143 161 145
100 125 83
95 122 73
96 124 75
95 122 73
96 123 73
98 125 75
93 121 72
96 123 74
97 125 75
165 179 173
210 219 227
204 215 225
204 215 226
203 213 222
202 211 217
202 212 221
198 209 218
210 219 229
208 218 228
202 212 221
197 207 215
202 212 221
204 214 224
207 217 226
206 215 224
209 219 229
199 208 216
202 212 220
206 216 226
211 220 228
210 219 227
207 217 227
204 214 225
202 212 220
205 215 225
208 217 227
204 214 223
204 214 224
130 149 127
95 122 73
97 124 74
94 121 73
94 121 72
96 124 74
96 123 74
94 122 73
93 120 72
98 126 76
96 123 74
96 123 74
94 122 73
96 124 74
94 122 74
95 122 73
94 122 73
95 123 74
92 119 71
94 122 73
96 123 74
97 124 75
95 122 73
95 122 73
96 123 74
97 125 75
94 121 72
93 120 72
91 119 70
194 204 210
207 216 225
206 215 222
200 210 219
200 210 218
206 215 224
213 221 230
202 212 221
202 212 221
203 213 222
206 215 224
197 206 212
203 213 223
205 215 226
201 211 218
189 201 206
165 179 175
156 172 161
139 156 139
110 133 99
97 125 75
96 124 74
96 124 74
98 125 75
96 123 73
95 122 73
95 122 73
92 119 71
136 156 135
202 212 221
205 215 224
204 214 222
202 212 221
207 216 225
201 213 223
208 218 228
203 212 220
203 213 222
193 204 211
210 219 228
207 217 226
203 213 221
204 214 222
206 215 224
203 213 219
201 210 218
204 213 222
209 219 229
206 216 226
200 210 219
206 215 223
206 216 225
207 217 228
206 215 223
197 208 218
208 217 225
188 200 206
99 125 80
95 122 73
96 123 74
92 119 70
97 124 75
94 122 73
93 120 72
96 124 74
97 124 75
95 122 73
97 124 74
96 123 74
95 122 74
95 122 73
99 126 76
94 122 73
96 124 75
97 124 74
96 123 74
96 124 75
92 119 71
95 122 73
95 122 73
97 125 76
97 124 75
96 123 74
98 126 75
138 156 136
204 214 222
207 216 225
203 213 222
203 213 222
199 210 220
212 220 229
201 211 220
205 215 224
201 211 218
201 212 221
199 209 217
204 213 219
198 209 218
201 212 222
200 211 221
209 218 228
199 209 218
203 213 223
203 213 221
202 212 222
205 215 223
199 210 217
207 217 226
203 213 221
201 211 219
198 209 217
156 172 166
95 123 73
95 122 72
94 121 72
99 126 76
99 127 76
97 125 76
94 121 72
96 124 75
96 124 75
94 121 72
97 124 74
97 124 75
95 122 74
96 123 74
98 126 76
95 122 72
97 125 75
94 122 73
95 122 73
96 124 74
96 123 74
96 123 74
95 122 73
93 120 71
95 122 73
164 179 171
212 221 231
206 216 226
208 219 230
204 213 221
197 209 217
204 214 222
206 216 223
200 210 217
201 210 217
203 213 220
208 218 228
202 213 221
205 214 222
210 220 232
206 216 226
204 214 223
210 219 228
204 213 221
200 210 218
200 211 220
201 211 220
206 216 225
198 209 219
197 207 214
142 159 147
96 123 74
99 127 77
93 121 72
95 122 73
94 121 72
97 124 75
96 124 73
94 121 73
95 123 73
93 120 72
100 127 76
97 125 75
97 124 74
95 122 72
94 121 72
95 123 73
97 124 75
97 125 75
99 126 76
95 123 74
97 124 74
95 122 73
101 127 84
201 211 218
205 214 222
205 215 226
198 209 216
203 214 225
194 205 215
206 217 227
201 212 223
207 216 226
208 218 228
202 212 220
206 216 225
201 211 218
206 216 224
199 209 216
202 213 221
198 210 221
202 212 221
201 212 222
199 209 215
206 215 224
207 217 227
153 168 156
96 123 73
96 123 74
95 123 73
96 124 75
93 120 72
97 124 74
97 125 75
99 127 76
91 119 71
96 124 75
97 124 75
94 121 72
92 119 71
94 122 73
98 125 75
204 214 226
204 214 224
195 205 213
205 215 225
208 217 226
203 213 223
206 215 223
198 208 214
96 122 76
95 122 72
99 126 75
92 119 71
97 124 74
136 154 135
181 192 192
199 209 217
204 214 221
206 215 225
211 219 227
202 213 221
208 217 227
199 208 216
204 213 222
205 215 225
202 212 221
201 212 221
207 217 228
203 214 225
197 207 214
205 215 224
208 217 227
200 211 220
201 211 219
203 213 222
145 161 145
94 122 73
97 125 75
96 124 74
91 118 70
95 123 74
95 123 73
96 124 74
96 123 74
96 123 74
95 122 73
96 123 73
93 120 71
92 119 70
97 124 74
92 119 71
97 125 75
95 122 73
92 119 70
94 122 73
110 133 99
154 171 159
202 212 219
199 211 221
196 207 214
207 216 225
205 215 225
179 192 191
98 126 75
96 123 73
93 121 72
97 125 74
96 123 74
97 125 75
95 122 73
96 123 74
98 126 76
94 121 72
94 121 72
93 121 72
94 121 72
95 122 74
95 123 73
92 119 71
99 126 76
93 120 72
96 123 74
91 118 70
95 122 74
95 123 73
94 121 72
97 125 75
92 119 71
97 124 75
94 121 73
135 154 136
191 202 209
200 210 218
206 217 227
204 213 219
202 212 219
206 216 226
205 215 225
201 211 220
208 217 226
207 217 226
197 207 213
212 221 231
204 215 225
201 211 219
204 214 222
202 211 218
207 216 224
209 218 226
205 214 222
205 215 224
180 193 191
153 169 160
129 149 122
100 127 79
94 121 73
92 120 71
93 120 72
93 120 71
187 198 200
209 218 227
201 211 218
205 215 222
207 217 227
198 210 220
201 212 219
206 216 226
205 215 223
204 213 222
206 215 222
201 211 220
208 218 228
196 205 211
202 212 220
207 217 226
199 210 218
200 211 222
202 212 220
207 217 227
202 213 221
198 209 217
204 214 223
206 216 225
211 220 229
206 215 223
200 210 218
201 210 216
204 214 224
101 125 87
95 123 74
97 124 75
94 121 72
94 122 73
97 126 76
97 124 74
96 123 73
92 119 71
96 124 75
95 123 74
94 121 73
95 123 73
93 121 72
95 122 73
92 119 70
98 126 76
96 124 74
98 125 75
98 125 76
97 124 75
97 124 75
96 124 74
95 123 74
97 125 75
97 125 75
98 126 76
95 123 73
123 143 115
207 217 227
202 211 219
200 209 215
203 213 223
212 221 230
202 212 220
199 209 218
197 207 215
198 209 216
206 216 223
207 216 224
203 213 220
205 215 225
209 218 229
198 209 218
204 213 221
206 216 227
201 211 220
198 209 219
198 209 218
196 207 215
180 193 195
167 181 178
152 169 158
128 147 124
114 138 103
96 122 73
94 121 72
163 177 171
194 205 213
207 216 224
205 216 227
200 210 216
199 209 218
198 209 217
205 216 226
204 214 223
203 213 220
204 214 222
202 212 220
209 218 226
203 212 220
197 208 216
212 220 228
199 209 216
199 211 221
208 217 226
205 214 223
198 209 218
200 210 218
196 206 211
200 211 220
203 213 221
201 211 219
202 212 219
201 212 220
163 176 172
98 125 75
92 119 71
96 123 74
97 124 75
96 123 73
94 121 73
92 119 71
99 127 77
96 123 73
97 125 75
94 121 73
93 119 71
95 122 73
93 120 72
94 121 72
96 123 74
93 121 73
98 126 75
96 123 74
93 121 72
95 122 73
92 119 71
92 119 71
98 125 76
97 124 75
94 121 72
98 126 76
187 198 200
203 213 222
200 211 220
205 214 224
206 216 225
201 211 220
201 211 218
208 217 225
207 216 224
201 211 220
203 213 222
195 205 213
203 213 222
201 211 219
206 215 224
195 206 214
210 219 229
207 217 226
196 206 212
204 214 224
205 215 223
207 216 224
204 214 224
207 218 229
195 206 213
199 210 220
205 215 222
109 131 96
95 123 74
93 121 72
95 122 73
96 123 73
94 122 73
94 121 72
93 121 71
99 127 76
94 121 73
97 124 75
97 124 74
97 125 76
93 121 72
97 125 75
96 124 74
94 122 73
97 124 74
94 121 72
98 125 75
93 119 71
96 123 74
96 123 73
97 124 75
97 125 76
109 131 96
206 215 224
205 215 226
195 206 214
203 214 223
214 223 232
197 208 216
205 214 223
206 216 226
204 214 222
204 214 222
202 211 218
209 218 227
202 211 219
200 211 220
208 217 227
205 215 223
200 210 218
205 214 220
205 214 223
199 209 215
199 209 217
202 213 222
199 210 220
201 211 219
185 197 200
94 121 75
96 124 75
98 125 75
96 123 74
95 123 74
96 124 74
94 122 73
96 124 74
95 122 73
93 120 72
97 124 75
94 121 73
97 125 75
95 122 73
95 123 74
96 123 74
93 120 71
96 123 74
93 120 72
96 124 74
94 122 73
94 121 72
93 120 72
158 173 166
203 212 219
196 206 214
204 215 225
209 218 227
205 215 223
200 210 218
207 216 224
200 211 220
207 216 224
202 212 222
201 211 217
204 213 221
203 214 224
202 212 219
209 218 225
203 212 223
204 214 223
200 211 218
199 210 218
205 215 226
202 212 220
172 185 181
96 123 74
96 124 75
91 118 70
96 124 74
92 119 70
92 119 71
97 124 75
93 120 72
94 121 73
97 124 74
93 121 72
93 120 72
91 118 70
97 124 74
95 122 73
95 123 74
149 165 154
140 159 136
155 171 162
147 164 150
138 156 138
157 171 160
161 177 166
156 171 162
165 179 173
168 182 178
163 178 172
165 179 174
158 172 164
164 179 171
169 183 178
166 179 174
190 203 211
164 179 174
166 180 173
155 171 161
155 172 162
157 172 163
155 171 161
159 175 166
164 178 172
161 176 167
167 181 174
165 179 173
168 181 176
152 169 160
168 183 177
169 184 179
155 171 162
171 185 181
154 169 157
161 175 166
135 154 131
152 169 158
152 166 154
138 156 137
158 174 163
146 163 151
148 165 150
150 166 152
142 160 142
143 160 144
161 176 168
144 163 144
136 155 137
136 155 136
151 167 154
142 160 142
143 161 146
138 157 145
135 154 134
152 168 153
140 159 139
169 183 178
200 210 216
177 189 187
179 192 189
171 184 180
133 152 130
154 170 157
138 156 141
141 158 140
145 163 146
144 161 142
133 151 129
133 152 136
131 151 125
145 162 144
133 152 130
131 151 126
140 159 140
140 158 141
131 151 131
130 149 126
139 157 137
137 154 138
119 141 112
137 156 138
131 150 129
148 164 150
135 154 132
137 156 135
138 156 142
130 151 126
123 145 119
154 169 158
177 189 188
182 194 194
181 194 195
186 198 199
179 192 192
181 194 195
182 194 198
189 201 203
171 184 183
180 192 194
181 194 195
184 196 197
189 201 204
190 201 202
183 196 197
186 198 201
186 198 200
174 187 186
187 198 198
191 203 207
179 192 192
178 190 192
190 201 203
188 199 198
146 163 147
120 141 111
112 136 103
109 132 98
177 190 189
196 207 210
181 195 196
186 198 200
198 209 214
188 200 204
190 201 206
186 198 201
188 199 203
188 199 201
185 196 198
178 190 189
179 191 191
186 198 203
185 197 201
184 196 199
189 201 206
188 200 206
197 207 213
179 192 192
191 203 209
195 205 211
190 201 204
189 201 203
197 208 212
181 194 195
184 196 199
188 200 202
187 199 201
117 139 109
123 145 116
121 143 111
115 139 104
117 140 108
124 144 116
120 142 112
116 137 107
118 140 110
117 138 107
104 129 91
111 134 98
112 135 100
123 145 114
127 148 120
114 137 103
124 145 115
112 134 99
117 138 109
122 143 117
123 143 116
115 138 103
110 134 98
108 131 98
116 140 105
109 132 99
126 146 118
114 137 103
151 167 151
195 206 212
191 202 206
179 192 197
195 205 209
191 202 207
194 205 211
194 205 210
194 204 209
191 202 207
180 194 198
193 204 210
196 207 212
194 205 211
196 206 213
192 202 209
196 206 211
194 204 209
189 201 205
187 200 207
192 204 209
191 202 206
192 203 209
198 208 214
194 205 211
199 210 216
190 201 206
188 199 201
174 188 187
150 167 153
169 183 180
187 199 202
199 209 216
196 207 214
192 204 209
188 200 203
190 202 208
194 204 211
196 206 211
193 203 207
197 208 215
198 209 215
197 207 212
193 204 209
198 208 214
188 200 203
194 206 213
192 202 206
193 204 208
190 201 205
192 203 209
188 199 203
202 212 218
191 202 206
197 207 213
183 195 198
197 207 213
141 160 144
118 141 107
121 144 111
117 139 107
111 134 98
115 138 104
125 145 120
112 135 98
115 138 108
118 141 107
124 145 116
131 151 127
123 144 116
128 148 124
119 142 109
113 137 101
113 136 101
104 129 91
111 134 100
118 141 109
121 144 110
122 144 118
119 141 111
107 132 95
107 130 96
121 142 113
123 145 117
134 152 130
190 200 203
194 205 211
193 204 209
193 204 210
188 201 208
188 199 202
193 203 208
186 197 199
196 206 210
195 205 210
181 194 195
193 204 208
185 197 198
198 208 213
188 200 203
189 199 203
184 197 201
184 196 198
187 199 204
181 195 198
191 203 206
183 195 195
182 194 196
191 202 208
188 200 202
187 198 200
171 184 182
117 139 108
119 141 113
115 137 107
124 145 117
135 154 131
126 146 120
130 150 125
129 148 123
132 151 130
119 141 109
126 146 121
128 149 125
123 143 116
143 161 141
125 146 118
131 151 127
125 145 121
131 150 132
131 150 129
131 151 130
124 144 119
133 151 129
133 151 130
126 147 123
142 160 142
148 165 151
182 194 197
179 190 191
178 191 192
187 199 203
185 197 199
182 194 192
171 184 184
183 196 198
180 192 193
184 197 197
169 183 179
176 189 190
176 188 188
173 186 183
182 195 197
179 191 188
178 191 190
185 196 196
179 191 188
175 187 185
172 186 183
181 193 191
174 187 185
176 189 186
156 171 162
137 155 140
137 156 139
142 159 142
127 148 125
141 158 141
145 163 149
141 159 145
140 158 140
146 163 147
133 152 130
156 171 158
153 169 155
149 166 153
159 175 162
155 171 162
156 171 162
157 173 160
153 169 154
155 171 159
145 162 145
147 163 151
155 170 159
133 152 134
171 185 180
166 181 172
163 179 175
170 185 179
165 179 175
166 180 173
157 172 165
161 176 169
166 180 174
171 185 180
160 177 170
167 182 176
154 169 158
159 175 164
149 166 150
158 174 166
170 183 176
157 173 164
162 178 172
156 172 161
157 172 162
166 181 177
166 180 172
163 176 169
154 170 161
161 176 166
164 178 169
156 171 163
165 179 173
171 185 182
162 177 170
167 181 175
174 187 185
166 180 175
171 185 180
164 179 171
171 185 180
142 159 144
145 162 148
97 125 76
95 122 73
96 123 74
96 123 74
94 121 73
98 125 74
96 123 74
96 123 74
176 189 189
203 213 221
204 214 223
198 209 217
202 212 223
205 215 225
202 212 220
204 214 225
200 210 219
202 212 221
181 193 193
139 157 137
109 132 95
97 124 74
96 124 74
95 122 72
97 125 76
97 124 75
96 123 74
98 126 76
93 120 72
96 123 74
95 122 73
97 125 75
96 123 74
96 123 73
158 173 162
202 212 219
201 212 223
202 212 221
190 201 208
202 212 223
200 210 218
200 210 216
198 208 214
203 213 221
204 213 221
200 210 217
206 216 225
204 214 222
204 213 222
197 208 216
204 214 221
207 217 225
205 215 223
208 217 227
205 215 224
205 214 222
202 212 220
203 213 220
207 217 226
200 211 219
184 196 196
162 176 168
201 212 221
199 209 215
198 209 218
200 211 219
198 208 215
201 211 218
202 212 220
200 210 217
199 210 218
207 217 226
198 208 215
210 219 229
195 206 213
205 214 223
205 214 223
205 215 223
193 204 210
206 216 226
203 213 222
203 213 223
203 213 223
206 215 225
198 209 218
211 221 232
205 214 221
199 210 218
204 214 223
169 183 181
93 120 72
98 125 75
97 124 75
95 123 74
95 123 73
94 122 74
96 123 74
96 124 75
96 123 74
97 124 74
94 121 73
95 122 73
97 125 75
95 123 73
92 119 71
95 122 73
96 123 74
91 119 72
96 123 74
94 121 73
95 122 74
95 122 73
97 124 75
92 119 71
97 125 75
95 123 74
96 122 76
124 144 121
158 173 163
141 158 140
96 122 76
94 121 73
96 123 74
96 123 74
95 122 73
95 122 72
95 122 74
96 123 74
98 126 76
91 118 70
96 123 74
94 122 73
95 122 73
94 121 73
95 122 72
99 127 76
92 120 72
97 125 75
94 121 73
99 127 77
98 125 75
92 119 71
97 124 74
98 125 75
95 122 72
96 124 75
131 151 130
207 216 225
211 220 231
206 216 225
206 216 226
206 216 224
196 206 213
206 216 226
203 213 220
210 220 231
200 211 220
203 213 222
203 212 220
196 207 213
203 213 223
205 215 225
205 214 223
204 214 222
198 208 215
206 216 227
204 214 223
201 211 218
196 206 212
206 215 224
207 216 226
208 218 228
205 215 224
198 209 217
206 215 224
142 159 140
95 122 73
97 124 74
95 122 72
95 122 73
95 122 72
98 125 75
99 127 76
98 126 76
94 122 74
96 123 73
95 123 74
93 120 72
91 117 69
96 123 74
94 122 73
98 125 75
98 126 76
98 125 75
94 122 73
94 121 72
94 121 73
94 122 73
94 121 73
96 123 74
94 121 72
97 125 75
95 122 72
124 146 120
207 216 225
210 219 229
212 221 231
207 217 226
204 213 220
187 199 203
178 191 192
156 171 161
148 165 149
126 147 120
102 128 82
93 120 71
95 122 73
96 123 74
96 124 74
94 121 72
94 122 73
96 123 73
92 120 72
97 125 75
95 122 74
99 126 76
96 123 74
95 123 74
96 123 74
97 124 74
98 125 74
124 145 118
204 214 224
198 208 215
206 215 222
201 211 218
204 213 221
208 218 227
204 214 223
201 212 221
202 213 222
206 216 226
206 216 226
198 209 217
204 214 221
199 209 217
204 215 225
207 216 224
201 212 222
207 217 227
205 215 225
203 213 221
208 218 228
196 207 215
200 210 218
203 213 222
203 213 221
199 210 218
195 207 215
135 154 133
97 125 75
98 125 75
92 120 72
94 121 73
95 122 73
92 120 72
97 124 75
99 127 77
98 125 75
96 123 74
96 124 74
92 119 70
96 123 74
94 121 72
92 120 72
91 119 71
96 123 74
93 120 72
93 121 73
99 126 76
97 123 73
95 123 73
96 124 74
97 125 75
96 123 74
104 129 87
192 203 206
206 216 226
206 217 228
201 211 220
205 215 224
201 211 218
200 210 217
197 209 219
206 215 223
211 219 228
204 214 222
203 212 218
206 216 227
206 216 224
194 205 211
204 214 222
205 215 225
197 207 213
199 209 216
199 209 218
207 216 224
202 212 219
203 213 220
198 209 216
199 210 220
182 194 197
95 122 76
97 124 75
95 122 73
96 123 74
97 124 74
97 124 74
96 124 75
95 123 74
97 125 75
98 125 75
96 123 74
96 123 74
96 123 74
97 125 76
95 122 73
96 123 73
98 125 75
94 121 73
93 120 72
94 121 72
97 125 75
98 126 76
95 123 73
97 124 74
154 170 160
204 214 223
200 210 216
206 214 222
202 213 223
201 211 218
199 209 217
199 209 218
203 213 222
199 209 217
201 212 222
204 215 225
203 213 222
205 215 222
204 214 222
206 216 226
197 207 214
198 209 216
206 215 223
203 213 222
194 205 212
203 213 223
201 210 219
194 205 209
113 136 104
98 126 76
91 117 70
94 121 72
94 122 73
99 127 76
95 122 73
95 122 73
96 124 74
98 125 75
96 123 74
97 124 75
97 125 75
96 123 74
95 122 73
95 122 73
96 124 74
96 123 74
92 120 72
98 126 76
97 124 74
98 125 78
179 192 194
197 208 215
199 210 218
204 213 222
200 210 218
198 209 217
196 207 214
202 212 221
205 215 226
201 211 219
192 203 205
171 185 180
158 173 162
148 166 150
122 143 117
101 126 84
96 124 75
94 122 73
92 119 72
95 123 74
97 125 76
95 122 72
92 120 71
95 122 73
95 122 73
94 122 73
162 177 169
193 204 210
197 208 217
201 212 222
209 219 229
204 214 223
202 212 220
201 212 220
208 217 225
205 215 222
200 209 217
202 212 221
202 212 218
149 165 157
110 133 97
96 123 74
96 124 75
94 122 73
95 123 74
93 120 72
97 124 74
94 121 72
100 127 76
94 121 73
95 122 72
97 124 74
139 157 138
195 205 212
204 214 222
200 210 219
208 217 226
205 215 225
201 210 217
204 214 222
202 212 221
198 209 217
199 209 215
201 211 221
206 215 225
208 217 226
204 214 224
201 211 220
201 211 218
203 214 223
198 208 214
205 216 225
204 213 220
199 209 217
204 214 223
207 217 227
204 213 220
194 204 210
209 218 229
172 185 183
110 134 95
135 154 135
174 187 184
201 211 218
198 208 214
202 213 222
214 222 233
202 212 219
203 214 223
203 214 224
209 217 225
204 213 221
205 215 225
205 215 225
211 220 230
203 213 221
207 216 223
205 215 222
203 213 223
203 213 222
199 210 219
204 214 222
202 212 220
201 211 220
199 210 219
204 214 223
201 211 219
167 181 176
95 122 73
92 120 72
97 124 74
96 124 74
98 126 75
97 124 73
97 125 74
96 123 74
93 120 72
98 125 76
91 118 71
90 117 69
99 126 76
95 123 74
95 123 73
93 120 72
96 124 74
98 125 76
99 126 75
97 124 74
95 122 73
94 122 74
96 123 73
96 124 74
96 123 74
96 124 74
95 123 74
101 127 83
192 203 208
202 212 221
200 210 216
171 185 183
141 158 144
111 134 100
95 122 73
96 123 73
92 118 70
94 121 72
96 124 74
93 120 71
99 127 77
96 123 74
94 121 72
97 124 75
94 120 72
95 122 73
97 124 74
97 125 76
96 123 73
94 121 72
94 121 72
95 122 73
95 123 74
96 124 74
94 121 72
94 121 72
163 177 170
208 218 228
201 211 219
205 214 223
203 212 221
195 207 215
197 207 214
205 215 224
203 212 220
212 221 230
208 217 227
205 214 221
201 211 219
208 217 225
196 207 213
200 210 217
202 212 221
199 209 217
195 206 214
204 214 224
207 216 225
198 209 217
198 209 215
189 200 205
201 211 219
199 208 215
206 215 223
202 211 219
205 214 224
109 134 94
93 120 72
97 125 75
97 125 74
97 124 75
95 122 73
96 123 75
96 123 74
96 123 74
93 120 72
96 123 74
94 122 73
97 124 75
97 125 74
97 125 75
93 120 72
93 120 71
94 122 73
94 121 72
98 126 75
95 122 74
95 122 73
94 121 72
92 120 72
96 123 73
95 122 73
94 122 73
96 123 74
160 175 168
199 209 218
203 213 222
203 213 222
200 210 220
211 219 228
200 211 220
195 207 215
206 215 223
207 217 228
199 210 219
206 216 224
196 207 213
183 195 195
175 188 185
153 170 158
148 164 148
130 150 129
102 127 86
97 124 74
94 122 73
96 123 73
93 120 71
95 122 73
93 120 71
97 125 76
98 125 75
93 119 72
154 169 161
205 216 225
197 207 214
202 213 221
205 216 227
203 213 223
205 215 224
205 215 224
205 215 224
199 210 220
209 218 228
203 213 221
199 209 218
203 213 221
204 214 223
202 212 220
204 214 222
204 214 221
199 210 217
199 209 217
202 212 219
212 220 229
201 211 218
204 215 225
197 208 214
198 208 214
208 217 226
189 201 207
96 123 73
97 124 75
100 127 76
99 126 76
95 121 72
93 120 72
92 119 71
93 120 71
96 124 74
96 124 74
95 122 73
96 123 73
95 122 73
96 124 75
97 125 74
100 127 76
95 122 73
97 125 76
97 125 75
95 123 74
95 121 72
97 124 74
92 119 71
94 121 72
99 126 76
95 122 73
150 165 154
199 210 218
199 210 218
200 210 218
195 206 214
204 214 223
204 214 225
204 214 223
206 216 224
205 214 224
195 206 215
205 214 222
201 212 221
206 216 225
198 209 219
203 214 224
196 206 213
202 212 220
203 213 223
201 212 221
200 210 218
199 209 217
200 210 217
205 215 225
205 215 223
202 213 223
120 142 114
96 123 74
96 123 74
98 126 75
96 123 73
94 121 72
93 120 72
94 122 73
95 122 73
99 126 75
97 124 75
93 120 72
96 123 74
98 126 76
92 119 71
97 124 74
95 122 73
94 121 73
95 123 74
94 122 73
98 126 76
94 121 73
94 122 73
94 121 73
124 145 116
203 213 221
198 208 215
210 219 228
211 220 231
202 212 220
209 219 230
203 213 221
205 215 223
208 217 226
202 212 220
208 217 226
196 206 214
200 210 221
202 213 222
204 214 225
200 211 220
208 218 227
209 217 225
206 216 224
203 213 221
206 216 224
203 213 221
196 206 211
130 149 126
97 125 75
93 120 72
96 123 74
94 121 72
94 122 72
90 117 69
97 124 75
92 119 70
93 120 72
95 122 73
96 124 74
94 121 73
97 124 75
92 119 72
97 125 75
94 122 73
94 121 72
92 119 71
95 122 73
97 124 74
95 122 72
173 187 182
208 217 226
211 221 232
201 211 218
194 204 209
180 193 193
152 168 159
161 177 170
141 159 142
113 137 104
100 126 83
95 123 73
97 124 75
92 119 71
94 121 72
95 123 74
98 126 76
92 119 72
96 123 74
93 120 72
94 121 73
96 123 73
95 122 73
90 117 69
93 120 71
94 122 73
95 122 73
151 167 154
204 214 223
213 222 232
202 213 222
206 216 225
204 214 222
201 211 220
199 209 218
209 217 225
204 214 224
200 210 219
197 207 214
203 212 221
199 209 214
202 213 222
179 192 193
139 157 142
94 119 76
94 121 72
94 121 73
96 123 73
95 123 74
95 122 73
94 121 73
91 118 70
99 127 77
131 151 128
196 207 215
200 210 218
206 215 223
200 210 219
199 208 215
206 215 225
205 214 223
204 215 225
200 210 217
199 209 218
202 212 222
207 216 227
202 212 221
209 218 228
198 209 219
202 212 219
201 211 218
193 204 212
203 212 220
203 213 224
213 221 231
196 206 215
196 207 214
206 217 227
205 215 223
197 208 216
184 197 201
97 124 74
93 120 72
94 121 72
102 128 86
135 154 135
166 181 175
195 205 210
204 214 224
202 212 220
207 215 225
202 212 219
205 215 223
205 215 223
204 213 221
200 211 220
202 212 221
199 210 219
198 209 217
207 216 224
201 212 221
202 212 219
198 209 219
200 210 217
207 216 226
202 211 221
202 212 219
193 204 211
161 177 170
91 118 70
91 118 70
94 121 72
99 127 77
92 119 71
94 121 73
95 122 73
91 118 69
94 121 72
96 123 73
98 125 75
92 120 72
96 124 74
97 124 74
93 119 71
95 122 73
95 122 72
95 123 74
93 120 72
95 122 73
96 123 73
94 121 73
95 122 73
98 125 76
93 120 72
93 120 72
95 123 74
117 138 111
209 218 227
207 216 224
207 216 225
197 207 216
204 216 226
197 208 217
200 210 217
174 188 186
149 166 152
115 137 107
96 123 73
97 125 76
95 122 72
97 124 75
94 122 73
92 119 71
95 123 73
94 121 72
93 119 71
95 122 73
96 124 75
96 123 74
93 120 71
97 124 74
92 119 71
97 125 75
98 126 76
98 126 76
184 195 196
203 213 222
198 210 221
203 213 221
196 206 215
209 218 226
207 218 230
204 214 222
203 214 223
199 209 217
199 210 218
208 218 228
206 215 224
209 218 228
198 209 219
205 215 224
204 213 221
203 213 222
202 211 218
200 210 217
199 209 216
205 214 223
206 215 222
206 216 223
194 206 214
211 219 228
207 216 226
196 207 215
186 198 201
95 123 74
97 124 74
95 122 73
98 125 75
91 118 70
95 123 73
94 122 74
96 124 74
95 122 74
95 122 73
93 120 72
100 127 76
97 124 75
95 122 73
93 120 72
93 121 73
90 117 70
95 123 74
96 124 75
96 123 74
96 123 74
93 121 72
96 123 73
97 125 75
96 123 74
97 125 75
90 117 70
96 124 75
202 211 218
192 203 211
203 213 222
197 207 215
205 214 221
201 210 218
198 209 219
196 206 212
203 213 221
206 215 224
196 207 217
206 216 226
196 207 217
207 217 229
204 215 226
199 210 218
212 221 231
202 213 222
198 209 217
193 204 210
187 199 202
178 192 191
161 176 170
158 173 162
135 155 133
123 145 114
107 130 92
96 122 76
195 205 211
198 208 217
203 213 223
204 213 220
206 216 226
205 215 224
204 213 221
207 218 229
204 214 224
198 210 218
201 211 220
202 212 221
202 212 221
197 207 213
197 208 216
203 213 220
206 215 222
201 211 219
207 217 228
203 213 221
199 210 219
204 214 222
198 209 218
208 217 227
204 214 224
197 207 214
212 221 230
153 169 159
92 118 70
98 125 74
91 118 71
95 121 72
99 127 76
98 126 76
99 127 76
94 121 73
92 119 71
91 117 70
96 123 74
96 123 73
95 123 73
94 121 73
94 121 72
95 122 74
93 120 72
99 126 76
92 119 71
94 122 73
93 120 72
98 126 75
96 123 74
95 123 74
95 122 73
109 133 95
195 206 212
202 212 221
198 209 218
201 211 218
206 215 223
209 218 226
204 214 224
208 217 225
197 207 214
202 212 220
201 212 221
206 216 226
205 215 225
205 216 229
204 213 222
198 208 213
202 212 220
196 207 215
196 207 214
198 209 218
204 214 223
191 203 210
200 210 217
201 211 217
201 212 220
179 191 191
97 124 74
95 122 73
91 118 70
92 119 71
97 124 74
94 120 71
91 118 70
91 118 70
92 118 70
89 116 69
94 122 72
94 120 71
95 122 73
97 124 75
95 122 73
93 121 72
96 124 74
95 123 73
96 124 75
98 125 75
93 120 72
91 117 70
96 123 74
99 126 76
176 189 190
200 210 218
204 214 222
205 215 225
205 216 226
199 210 218
203 213 222
205 214 222
202 212 220
207 216 225
199 209 217
209 219 229
203 213 222
210 219 229
197 207 213
192 203 211
206 214 222
204 214 223
198 208 215
192 204 211
204 214 225
205 215 223
199 210 218
170 184 180
97 125 74
93 120 71
95 122 73
93 121 72
93 121 72
95 123 73
92 118 69
95 123 74
94 121 73
95 122 73
92 119 72
93 121 72
96 123 74
97 125 74
98 124 74
92 119 71
97 124 74
96 123 73
95 121 75
121 142 114
141 159 141
127 146 123
152 169 159
126 146 118
115 138 107
99 126 81
93 120 72
94 121 72
95 122 72
96 123 73
94 121 73
94 121 72
97 124 75
97 125 74
95 122 74
95 122 72
96 124 74
94 120 71
94 122 72
96 123 74
96 123 74
96 123 74
96 123 74
96 123 74
95 122 73
95 122 73
92 119 71
96 123 73
92 119 71
131 151 128
203 213 221
197 207 214
196 206 213
205 215 223
193 204 212
197 208 217
203 212 219
198 208 217
199 210 217
204 213 222
196 207 214
203 213 221
204 214 224
207 216 226
201 211 218
205 214 223
200 210 216
175 189 187
126 148 122
94 121 72
96 123 73
93 121 72
93 120 72
95 122 72
96 123 75
130 150 124
194 204 210
208 217 227
200 211 220
193 204 211
199 210 219
211 220 231
192 203 210
199 209 218
208 217 226
206 216 227
207 217 226
197 208 218
195 206 213
215 223 233
202 213 223
208 218 229
203 212 220
203 212 220
198 209 217
202 211 221
208 217 226
200 210 216
197 208 216
197 207 214
204 214 225
204 215 225
180 192 192
97 124 74
97 125 75
96 123 74
96 123 74
95 123 73
93 120 72
107 131 92
147 164 148
172 186 184
201 212 221
210 219 230
201 211 220
206 216 227
196 207 215
202 212 220
203 212 222
201 211 220
202 213 223
204 213 221
201 211 220
209 217 225
200 211 219
207 216 224
204 214 222
200 211 219
207 216 225
197 208 217
155 171 161
98 126 75
94 121 72
94 122 74
95 122 74
90 117 70
93 120 71
96 123 74
98 125 75
96 123 74
95 122 73
94 121 72
98 126 75
95 122 73
94 122 73
94 121 72
94 121 72
91 118 70
91 118 71
95 122 73
96 123 74
94 122 73
95 123 74
96 124 74
96 123 73
95 122 73
97 124 75
98 126 75
136 154 134
202 211 218
200 211 221
201 210 217
201 211 219
202 212 221
201 211 220
201 212 221
203 214 223
201 211 217
201 210 215
188 200 205
170 182 178
151 168 155
100 124 86
95 123 74
96 123 73
92 118 70
95 122 73
95 122 73
94 121 72
95 122 73
93 121 72
94 122 74
95 122 73
100 128 76
95 122 73
96 123 73
94 121 72
198 209 217
199 209 217
203 213 223
200 211 222
208 217 227
203 212 221
204 214 224
205 215 224
210 220 229
208 217 227
193 204 209
208 218 227
202 212 221
203 212 220
207 217 227
202 212 221
197 208 217
202 212 219
207 217 226
203 212 220
207 217 227
199 210 220
196 207 216
210 219 229
206 216 226
202 211 218
204 214 222
201 211 218
161 176 168
97 125 75
94 122 73
95 122 73
96 123 74
96 122 73
98 125 75
92 119 70
95 122 73
99 126 76
95 122 73
97 124 75
97 125 75
97 125 75
97 124 74
92 119 70
95 123 74
92 119 72
93 120 72
96 123 74
95 122 73
97 124 75
89 116 69
90 117 69
95 122 73
93 119 71
95 122 73
93 120 71
122 143 114
208 218 228
202 212 221
197 208 217
201 210 216
205 216 227
200 210 219
201 211 220
205 214 223
196 207 214
199 209 218
203 213 223
203 213 222
200 210 218
205 216 227
205 215 223
200 211 221
193 204 211
201 211 220
203 213 221
200 210 219
202 213 222
205 215 222
207 217 229
203 213 223
199 209 215
195 207 216
204 213 222
168 182 178
117 139 109
130 150 129
149 166 151
162 178 171
178 190 189
184 197 198
196 208 216
205 215 224
203 214 224
208 218 229
205 215 222
199 210 218
204 213 222
196 207 215
195 206 215
198 208 216
200 210 217
206 216 225
199 210 217
196 207 213
206 215 223
207 217 228
201 210 217
200 210 216
198 209 217
203 212 218
191 203 208
105 129 89
95 123 74
97 125 75
92 120 72
94 120 71
96 123 74
95 122 73
97 125 75
98 126 76
92 119 72
97 125 75
91 118 70
94 122 73
98 125 75
97 125 75
90 117 69
94 121 73
94 121 73
93 120 71
95 123 74
95 122 73
97 124 75
94 121 72
94 121 72
95 122 73
93 120 73
146 163 150
207 216 225
201 211 222
199 210 219
197 207 215
201 211 220
204 214 222
198 209 219
202 212 220
204 214 223
194 205 213
199 209 217
202 212 219
200 210 217
199 209 217
205 215 225
198 208 214
200 210 218
203 213 222
199 209 214
197 209 217
206 216 226
207 216 226
205 215 225
200 211 220
209 218 226
121 143 115
97 124 75
99 126 76
94 121 72
91 119 71
95 123 74
94 122 73
96 123 74
91 118 70
95 123 73
95 122 72
96 124 74
93 121 73
93 120 72
97 125 75
97 124 75
95 123 74
100 128 77
95 123 73
92 119 71
94 122 74
95 123 74
95 123 74
92 118 70
154 169 155
201 211 220
194 205 211
200 210 218
207 217 227
209 218 226
201 212 220
206 215 223
200 210 217
210 219 228
201 212 222
204 214 223
205 214 222
202 213 222
206 216 225
204 214 223
199 209 215
202 211 219
203 214 223
206 216 225
202 211 218
199 209 217
208 217 224
184 195 197
102 127 86
100 127 76
96 123 74
95 122 73
96 123 74
96 123 74
97 124 75
92 119 70
93 120 72
97 125 75
91 118 70
109 134 95
128 148 122
145 162 149
147 162 148
166 179 171
168 183 179
196 206 211
202 212 219
206 215 223
205 214 223
204 213 220
107 131 92
95 122 73
95 122 73
95 122 73
98 125 75
98 125 75
96 124 74
95 122 73
95 122 74
96 123 74
94 121 72
97 124 75
95 123 74
96 124 75
94 122 73
94 121 72
92 119 71
97 125 75
94 122 73
94 121 73
97 124 75
96 123 74
98 126 76
97 125 75
96 124 75
95 123 74
95 121 72
94 122 73
110 133 98
199 209 215
205 216 226
206 215 223
195 206 213
208 217 227
207 217 225
204 213 220
203 212 220
202 212 223
204 214 223
204 213 222
210 219 229
201 212 221
203 212 221
197 208 217
197 208 218
207 217 226
201 211 220
207 217 225
194 204 208
144 162 147
110 135 94
91 118 71
99 126 76
96 123 74
116 139 106
196 206 212
205 215 224
199 209 215
202 212 221
200 210 217
203 214 224
199 210 219
207 217 227
202 213 221
203 213 222
201 211 219
202 211 217
201 211 218
201 211 218
202 212 219
210 219 227
200 211 220
196 206 215
205 215 223
204 214 223
204 213 221
202 212 220
197 207 215
202 213 220
200 210 217
208 217 225
173 185 183
94 121 73
99 127 76
98 125 74
95 122 73
92 120 72
95 123 73
97 124 75
96 124 74
94 122 73
103 128 89
143 159 144
170 184 183
194 205 212
206 216 227
202 212 218
208 217 226
195 206 211
204 213 221
199 210 217
203 213 223
204 214 222
193 204 212
210 219 227
204 213 221
210 218 227
205 214 223
193 203 209
137 157 139
97 125 75
94 122 73
95 122 73
92 119 71
92 119 71
94 121 72
93 120 71
95 122 73
95 122 73
98 126 75
95 122 73
95 123 74
93 120 72
94 122 73
91 118 71
98 127 77
95 122 73
94 121 73
95 123 74
95 123 74
94 122 73
93 121 72
93 120 72
94 121 73
93 120 72
99 127 77
95 122 73
150 167 156
198 208 215
206 216 225
203 212 221
196 208 216
201 211 219
201 211 220
201 212 224
200 211 220
210 219 228
203 213 220
208 218 227
203 214 224
202 212 219
202 212 220
181 193 195
160 175 170
154 170 161
104 128 91
94 121 73
96 124 74
94 121 72
95 122 73
96 124 74
93 120 71
97 125 75
94 121 73
93 121 73
113 136 101
198 208 215
211 220 229
202 213 223
199 210 217
208 218 226
200 211 218
197 208 217
194 205 212
212 221 231
207 216 226
204 215 226
205 214 221
205 214 222
199 208 215
207 216 225
207 217 226
208 218 228
200 211 219
193 205 213
202 212 221
205 215 225
198 209 218
205 214 222
208 217 226
204 214 222
201 212 220
200 210 218
199 210 217
117 139 108
94 121 72
95 122 74
95 123 74
99 126 76
96 124 74
96 123 74
95 122 73
92 119 71
99 127 76
94 122 74
95 122 73
94 122 73
95 123 74
96 123 73
93 121 73
95 122 74
95 122 72
95 122 73
96 123 73
98 126 75
93 120 72
97 124 75
95 122 74
94 121 72
96 123 74
96 123 74
99 126 75
168 182 176
199 210 218
202 212 219
204 214 222
200 210 218
198 209 218
209 217 225
204 214 224
200 211 220
200 210 219
196 206 213
203 214 224
203 212 220
209 218 227
203 213 223
206 216 226
205 215 224
193 204 212
201 212 222
210 218 226
202 212 221
202 212 222
201 211 219
204 214 221
207 217 227
206 216 224
201 211 218
201 211 219
129 149 122
95 122 73
96 124 74
97 125 75
93 120 72
98 126 76
96 124 74
97 124 74
95 123 74
103 128 89
122 143 115
130 149 126
152 168 157
158 172 163
163 177 174
175 188 186
177 190 192
195 206 213
202 212 220
204 214 221
200 210 217
201 211 219
201 212 221
201 212 221
194 205 213
211 220 228
204 215 225
169 183 181
97 125 76
95 122 73
94 122 73
98 125 74
101 129 78
92 120 71
96 124 74
90 117 69
93 120 72
96 123 73
98 125 75
93 120 72
91 119 71
93 120 72
98 126 76
96 124 75
95 123 74
96 123 74
96 124 74
98 126 76
95 122 74
94 122 73
96 123 74
95 122 72
94 121 72
104 129 87
198 209 217
204 214 223
198 209 217
198 209 216
203 213 222
200 210 218
198 208 216
202 213 222
202 212 219
208 217 226
203 212 219
206 215 224
198 209 218
209 218 226
204 214 222
199 209 216
203 214 224
201 212 220
202 212 220
198 209 217
214 222 231
196 207 215
203 212 220
204 213 219
203 214 224
150 166 155
91 117 69
97 125 75
95 122 73
96 124 74
93 120 72
97 125 75
94 121 72
92 119 71
93 120 72
96 124 75
93 120 71
95 123 73
94 121 72
95 123 73
98 125 75
92 119 71
97 124 74
93 121 73
97 124 74
95 122 73
95 122 74
94 122 73
92 119 71
110 133 99
189 199 204
202 212 220
205 215 225
201 211 218
202 213 223
200 211 219
202 212 220
198 209 215
204 214 223
201 212 221
202 211 217
198 209 217
204 214 225
195 206 213
202 212 220
203 213 220
201 211 219
201 212 223
192 202 206
201 212 221
195 206 215
207 217 229
205 215 225
134 154 132
90 117 70
102 128 84
106 130 96
122 143 113
142 158 147
163 178 170
168 182 175
173 185 184
186 198 200
196 207 213
193 204 211
197 207 213
202 212 223
203 213 222
205 215 223
193 204 213
209 218 227
199 209 216
199 211 220
206 215 225
203 212 219
123 143 118
97 124 74
98 125 75
94 121 72
96 123 74
95 122 73
96 122 73
95 122 72
97 124 74
94 122 73
95 122 73
92 119 71
96 123 74
94 121 73
96 123 73
95 122 73
93 120 71
94 121 72
92 120 72
95 122 73
139 157 138
96 123 73
94 121 72
97 125 75
95 122 73
95 122 73
91 118 71
94 121 72
97 125 76
94 121 73
188 200 205
202 213 224
208 218 229
201 212 222
199 210 220
196 207 215
207 216 224
200 211 220
201 211 219
201 211 217
203 213 220
185 196 200
202 213 224
196 208 219
202 212 220
195 206 216
200 211 220
197 208 220
199 210 217
202 212 220
195 205 212
198 207 213
173 186 184
142 160 142
96 123 76
106 130 93
209 218 227
198 210 220
201 211 218
199 209 215
199 209 217
204 214 223
192 203 209
206 216 227
195 205 209
209 218 225
202 212 219
202 212 219
210 218 227
193 204 211
206 216 227
209 218 228
202 212 221
201 210 218
194 205 212
205 214 223
201 211 221
204 214 222
200 210 217
204 214 223
203 213 222
208 216 225
184 195 196
92 119 71
96 124 74
98 125 75
93 120 72
94 121 72
98 125 75
93 120 71
93 120 71
95 122 73
95 123 74
96 124 74
90 117 69
110 135 95
145 163 147
168 183 178
196 207 213
202 212 221
198 209 216
204 213 223
203 212 219
194 205 213
206 216 225
203 212 221
202 213 223
199 210 217
204 214 225
194 205 212
138 156 136
93 120 71
97 125 75
92 119 71
91 118 71
94 121 72
92 119 71
96 123 73
96 123 74
95 122 73
97 125 75
91 118 70
95 122 73
95 122 73
95 122 74
94 121 73
95 123 73
96 123 74
97 124 74
98 125 74
98 126 76
92 120 72
96 123 74
95 122 72
93 121 73
96 124 75
97 125 75
97 124 75
166 180 173
204 214 222
205 215 224
204 214 222
206 215 222
201 210 218
205 216 226
201 211 219
210 219 228
203 213 219
202 213 223
206 215 224
201 212 223
198 209 215
204 214 223
196 206 212
201 212 221
209 219 229
210 219 227
190 201 204
163 178 171
143 160 145
113 136 104
97 124 75
93 121 73
92 119 71
98 125 75
91 118 70
137 154 138
202 212 220
202 212 221
201 212 221
208 217 227
206 215 223
200 211 219
206 215 224
201 212 223
201 211 219
202 213 224
201 211 219
203 213 221
203 213 222
203 213 223
199 210 220
204 213 222
205 215 224
202 212 221
197 208 216
201 211 221
200 210 217
204 214 224
204 214 225
199 209 216
206 215 224
204 213 220
196 206 214
202 211 219
99 125 80
97 124 75
96 123 74
94 121 72
92 119 71
94 121 72
97 124 74
95 123 74
93 120 72
95 123 74
93 120 72
95 122 73
93 120 72
93 120 72
97 124 74
91 118 70
98 125 75
98 126 76
94 122 73
96 123 74
95 122 73
93 120 72
95 122 74
95 122 73
97 125 75
97 125 75
97 124 75
94 121 73
188 199 202
202 213 222
204 214 224
204 214 223
207 217 226
204 213 220
202 212 220
193 204 211
196 207 214
197 208 216
206 216 226
198 209 219
198 208 217
198 209 216
200 210 216
203 214 223
206 216 225
199 209 216
199 209 219
202 212 219
200 210 219
205 214 224
207 216 225
208 218 226
204 214 224
202 212 219
205 214 221
192 202 205
95 123 74
95 122 73
90 118 70
95 122 73
94 121 72
96 123 73
95 122 73
95 123 74
95 122 74
94 121 72
97 125 74
94 121 73
93 120 72
96 123 74
97 124 74
94 120 72
96 124 74
94 121 72
94 121 72
105 129 94
119 141 112
141 158 141
139 157 140
157 172 163
151 167 157
161 177 170
183 194 196
131 150 130
119 140 112
104 128 88
105 129 90
96 123 74
96 124 75
97 124 75
95 122 74
93 120 72
95 122 73
91 119 71
92 119 71
96 124 75
93 120 71
94 121 72
90 117 69
95 123 73
95 123 74
95 122 73
92 119 72
94 121 72
95 122 73
97 124 74
95 122 73
94 121 72
98 125 75
162 176 169
204 214 222
204 214 222
210 218 227
196 206 212
199 209 216
204 214 222
197 208 216
204 213 222
201 211 219
200 211 220
208 217 225
195 205 211
202 212 220
205 214 222
194 205 211
196 207 214
199 209 218
198 208 216
196 207 216
201 211 220
204 213 221
198 209 218
203 213 223
209 219 229
189 201 207
102 128 86
96 123 74
94 121 73
97 125 75
93 121 72
94 121 73
94 122 73
97 124 74
98 125 75
97 125 75
98 126 76
94 121 72
97 123 74
97 124 75
94 122 74
97 124 74
94 122 73
92 119 71
95 123 73
98 125 76
97 124 75
93 120 72
95 123 74
92 118 70
179 191 191
197 207 213
204 214 222
209 218 226
204 214 223
207 216 225
203 213 222
192 204 212
207 216 226
202 213 224
195 206 214
197 209 218
200 210 218
202 213 222
206 215 224
185 197 201
186 198 201
182 193 195
185 198 204
151 167 155
157 173 164
144 162 144
137 156 136
174 188 186
185 197 201
202 211 218
197 207 213
197 208 217
208 217 224
206 215 224
195 205 213
203 212 222
199 210 218
202 212 222
208 217 227
205 215 224
196 206 212
197 207 213
195 206 214
205 215 225
201 210 217
198 208 215
198 208 215
203 213 223
195 206 213
145 161 148
97 125 75
94 122 73
93 120 72
94 120 72
95 122 73
95 122 72
95 122 73
97 124 75
94 121 73
98 125 75
91 117 70
96 124 75
98 125 76
96 123 73
98 125 75
98 125 75
95 123 73
94 121 72
95 122 74
117 138 107
203 213 220
177 190 192
122 144 113
95 122 73
96 124 74
94 121 73
92 119 71
98 125 75
97 125 75
97 124 75
186 198 202
192 203 211
197 208 218
203 213 221
198 209 216
201 211 219
195 206 213
202 212 222
198 208 216
201 212 221
203 213 220
199 209 217
197 208 215
204 214 222
204 213 220
196 206 212
200 210 218
205 215 223
206 216 225
204 214 222
200 210 217
198 209 216
201 211 220
200 211 219
192 203 208
174 187 182
185 197 200
204 214 223
201 211 220
199 210 218
207 217 227
202 212 221
199 210 218
198 207 214
205 215 226
199 210 217
195 206 211
200 211 219
205 215 224
211 220 230
202 212 219
199 209 217
203 214 222
203 213 223
208 217 228
195 206 212
207 217 225
202 211 216
207 217 226
203 213 222
202 212 221
204 213 222
175 189 187
94 121 72
95 122 73
98 126 76
97 124 75
97 125 75
96 123 74
94 121 73
99 126 76
93 120 72
94 121 73
91 117 70
96 124 75
93 120 72
92 119 71
95 122 74
100 126 83
139 157 138
171 185 181
194 205 211
200 210 217
203 213 222
196 207 214
195 206 211
206 216 225
198 209 217
205 215 225
200 211 220
126 146 123
94 121 73
93 120 72
96 123 74
94 121 73
95 122 73
91 119 71
96 123 73
94 122 73
96 123 74
96 124 74
93 120 72
97 124 74
96 123 74
93 120 72
98 125 76
95 122 73
96 123 73
95 122 73
94 121 73
96 123 74
92 119 71
90 117 69
93 121 72
96 124 74
91 119 71
92 118 70
96 123 74
183 195 196
200 210 216
203 213 223
201 211 219
205 215 225
205 214 222
198 209 218
199 209 215
203 213 223
204 214 224
203 213 222
199 210 220
206 216 227
206 215 225
211 220 228
204 214 224
203 213 221
206 215 223
201 212 220
203 213 221
205 215 224
203 214 223
203 212 219
191 203 207
175 187 183
144 162 146
113 136 103
96 123 77
161 176 169
208 217 225
205 214 222
198 209 218
203 214 223
201 211 218
204 214 221
204 214 223
197 207 213
204 213 222
193 203 210
201 211 218
196 206 214
208 217 226
200 210 217
202 212 219
199 210 219
208 218 226
206 215 224
205 215 224
201 211 219
201 212 222
201 212 222
207 216 227
198 208 214
199 210 217
201 211 220
210 219 228
178 191 191
97 124 75
96 123 74
96 124 74
95 122 73
97 125 75
94 121 73
94 120 71
95 122 73
95 123 74
98 125 76
95 122 72
98 125 75
97 125 75
96 123 74
94 122 73
96 123 74
93 120 72
95 122 74
90 117 70
98 126 76
93 120 71
94 122 73
95 122 72
94 121 73
96 123 73
95 122 73
93 120 72
132 151 131
193 204 212
207 216 226
212 222 233
202 212 221
197 208 218
203 213 221
200 210 217
204 215 225
199 209 218
194 205 211
200 210 218
206 215 222
197 209 217
196 206 214
204 214 225
199 209 217
204 214 221
199 210 217
199 210 219
207 216 225
206 216 227
202 212 221
204 214 223
205 215 225
196 207 215
202 212 222
206 216 226
150 167 153
92 120 72
97 124 75
95 122 73
92 119 71
101 129 79
96 124 74
99 127 77
94 121 72
99 126 76
90 117 69
94 120 72
97 125 74
94 122 73
98 125 75
94 122 73
96 123 74
94 121 71
96 123 73
93 120 73
92 118 70
97 124 75
91 118 70
96 123 74
92 120 71
97 124 75
95 122 73
146 163 149
196 207 215
201 211 219
196 206 212
199 210 218
197 208 217
193 203 205
188 199 202
176 188 187
177 190 189
175 188 185
160 176 166
162 177 170
148 163 152
135 154 135
133 152 132
141 159 141
135 154 133
117 139 108
118 139 109
102 127 86
104 128 88
90 117 70
94 121 72
94 122 73
99 126 76
124 146 116
201 211 219
204 213 221
206 216 226
198 208 217
202 212 220
202 212 222
200 210 218
200 211 220
199 209 217
193 204 210
203 212 221
200 211 221
195 205 212
208 218 227
193 204 213
212 221 232
204 214 223
207 217 226
200 210 218
206 216 224
201 211 219
199 209 216
202 212 219
191 202 208
190 202 207
148 165 151
97 124 74
91 118 70
95 122 73
94 122 73
94 121 72
93 120 72
96 123 74
94 121 73
93 121 73
96 124 74
98 125 75
92 119 71
96 123 74
94 121 73
97 124 74
94 121 72
97 125 75
93 120 72
93 120 72
96 124 75
97 124 74
95 122 76
100 126 80
138 157 136
191 202 206
188 200 203
183 196 201
181 193 193
159 174 166
167 181 175
164 179 172
148 165 150
144 162 147
147 163 149
130 150 129
122 142 115
110 133 97
101 126 83
95 122 74
96 124 75
93 121 73
95 122 73
95 122 73
96 123 74
93 120 72
99 126 76
120 142 110
196 206 213
204 213 222
203 214 223
202 212 221
202 212 220
201 211 220
200 210 215
199 209 217
203 212 220
198 209 217
204 213 220
201 211 219
198 208 216
209 218 228
191 202 206
205 214 222
203 213 223
200 210 217
203 212 218
197 208 214
203 212 221
175 188 189
95 122 73
97 124 74
95 123 73
90 116 68
97 124 74
95 122 73
94 121 72
98 125 75
96 124 74
94 121 73
96 123 74
95 122 73
94 121 72
95 122 73
94 122 73
97 125 75
91 118 70
98 126 76
96 124 75
109 134 92
193 204 209
197 208 216
201 211 219
201 212 222
185 196 197
146 163 148
94 121 72
89 116 69
93 120 72
98 126 75
96 124 74
149 166 155
203 213 222
203 213 222
197 207 213
195 207 214
209 217 225
205 215 224
195 206 215
209 218 227
206 216 228
201 211 220
204 215 224
202 212 221
210 219 228
198 209 219
207 217 227
199 210 219
209 218 227
205 215 225
196 206 212
204 214 223
208 217 227
201 210 217
201 212 223
205 214 223
206 216 226
113 135 102
126 146 119
154 169 160
193 204 210
198 208 216
202 212 219
205 214 223
203 213 222
199 210 218
198 210 222
207 216 224
204 214 222
213 221 229
200 210 217
201 211 220
205 215 223
205 215 224
196 206 212
205 215 226
206 216 226
199 210 219
203 214 225
201 212 221
208 216 225
200 210 219
197 208 218
186 198 198
97 125 75
93 121 73
95 122 73
96 123 74
93 120 72
92 119 71
94 121 73
96 123 74
96 123 74
94 121 72
94 121 73
95 122 73
93 120 72
91 118 71
95 123 74
94 121 72
97 125 75
93 120 72
97 124 74
121 143 117
166 181 175
189 201 207
194 205 212
195 207 215
206 216 225
189 201 209
204 213 222
121 142 116
97 125 75
94 122 73
93 120 71
94 120 72
98 125 76
92 119 71
94 122 73
96 123 73
92 119 71
93 120 72
94 121 72
95 122 74
93 120 72
94 122 73
91 118 70
92 119 71
96 123 74
93 121 73
98 126 75
96 123 73
95 122 73
94 121 73
92 118 70
93 120 72
97 125 75
95 122 74
96 124 74
201 211 218
198 208 218
206 216 225
201 211 219
206 215 224
202 213 222
200 210 217
197 208 216
207 216 226
195 206 216
202 213 225
196 207 213
202 213 223
206 216 226
196 207 216
189 201 209
207 217 228
202 212 220
199 210 219
206 216 227
201 212 223
202 211 219
208 217 225
207 217 225
204 214 223
202 212 220
204 213 222
190 202 209
147 163 151
157 172 164
191 202 206
200 209 216
203 213 222
203 213 221
198 208 216
189 199 203
200 209 217
195 204 209
202 213 222
203 213 221
199 209 216
196 207 216
202 213 223
198 208 217
195 206 215
204 214 223
203 212 220
210 219 229
202 212 221
198 208 215
200 210 220
199 209 217
210 219 229
198 208 215
199 209 216
197 207 213
151 167 155
91 118 71
93 120 71
95 122 72
93 120 72
99 126 76
93 119 71
94 122 73
93 120 72
93 120 71
93 120 72
91 118 70
95 123 74
92 119 71
95 122 74
91 117 69
98 125 75
95 123 74
93 120 71
93 120 72
96 123 73
97 125 76
96 124 74
96 123 73
98 125 75
96 124 75
95 123 74
95 122 73
166 181 176
201 212 222
203 213 223
206 216 225
200 210 218
198 210 219
203 213 222
199 210 219
206 216 224
193 205 212
197 207 214
201 211 219
197 209 217
203 213 222
191 202 208
209 218 227
200 210 218
200 211 219
203 213 220
202 213 221
206 216 225
198 207 214
199 210 218
200 210 217
210 219 230
199 209 219
201 211 220
201 211 218
104 128 90
95 123 73
91 118 70
93 121 72
98 126 76
91 118 71
94 121 72
98 126 76
95 122 73
95 122 73
93 120 72
97 124 74
95 122 73
96 123 73
96 124 75
92 119 71
98 125 75
93 120 72
94 121 72
96 123 74
95 123 74
95 123 74
95 123 74
91 118 70
97 125 75
95 123 73
103 128 86
192 204 211
204 213 221
204 213 221
200 210 219
202 212 220
201 211 218
202 213 223
200 210 217
201 211 219
197 207 213
204 214 223
203 213 221
199 209 217
200 210 218
195 206 211
202 212 221
200 210 217
198 209 217
195 207 215
201 210 218
205 215 226
197 209 219
204 214 224
193 203 207
199 210 215
191 202 204
149 165 152
112 135 101
125 147 117
126 146 122
137 155 135
141 159 144
136 154 135
149 167 154
145 163 147
160 174 165
143 161 148
159 174 168
139 156 144
165 179 174
162 177 169
163 178 173
165 179 175
162 176 170
169 183 179
163 177 172
167 182 177
161 177 170
156 171 167
158 174 164
156 172 165
166 180 177
145 162 149
145 162 147
148 165 150
153 168 157
170 184 178
154 169 160
154 169 158
163 177 170
169 183 177
156 171 160
170 184 182
171 185 181
174 186 185
179 192 191
174 188 190
170 184 183
177 189 188
182 194 196
191 202 208
199 209 215
199 209 216
203 213 222
204 215 226
193 204 209
111 134 102
94 121 73
95 122 73
97 124 74
92 120 71
91 118 70
96 124 74
98 125 75
96 124 75
94 121 73
94 121 73
96 124 74
97 124 75
98 125 75
92 119 71
96 124 74
96 124 74
94 121 72
94 121 73
93 120 72
92 119 71
97 125 75
102 127 86
184 195 195
200 211 220
207 217 229
200 210 219
202 212 221
202 212 221
200 211 221
203 212 221
210 219 227
204 213 221
208 217 227
205 216 225
202 212 221
209 218 227
210 219 228
202 213 223
193 204 212
199 209 219
203 213 222
203 213 221
207 216 224
195 205 210
109 131 96
93 120 71
97 125 75
93 120 72
97 124 74
94 121 72
96 123 74
94 122 73
94 121 73
96 123 74
94 122 73
98 126 76
94 121 72
93 120 73
94 122 73
94 121 73
97 125 75
94 121 72
92 119 71
100 126 81
177 189 186
206 216 224
192 203 209
198 208 216
203 213 221
203 213 220
198 209 218
193 204 210
168 181 177
115 138 107
94 121 72
92 119 71
142 160 144
198 209 216
202 212 219
205 215 223
197 207 213
207 216 225
197 208 215
203 213 222
198 208 217
205 215 224
197 209 219
197 207 216
200 211 220
193 204 212
189 199 205
199 209 217
205 215 224
206 216 225
202 211 217
204 214 224
200 211 219
198 208 218
207 217 226
199 209 217
203 213 222
200 210 219
117 140 110
93 120 72
96 124 74
91 118 70
135 153 133
169 182 180
195 205 211
202 211 218
203 213 221
204 214 223
203 213 222
209 218 226
198 208 216
198 208 216
202 213 223
198 208 216
207 217 227
205 215 225
195 206 215
202 212 221
204 214 224
203 213 221
196 207 216
199 209 217
201 211 219
202 213 221
189 201 204
93 120 71
93 120 72
93 120 72
94 121 73
97 125 75
96 124 74
94 121 73
92 119 71
93 119 72
95 122 73
96 123 74
96 123 74
92 119 71
94 121 72
94 121 73
94 120 72
94 121 73
96 124 74
95 122 73
95 122 72
93 120 72
91 118 70
121 143 114
151 167 154
183 195 196
197 208 212
203 212 220
106 130 96
89 116 69
93 120 71
93 119 71
98 126 76
96 123 74
97 124 74
94 121 73
94 122 73
91 118 71
96 124 75
92 119 71
95 123 74
95 122 73
93 120 71
96 124 74
92 119 71
93 121 73
100 128 77
95 123 74
96 124 74
96 123 74
95 123 73
92 119 71
95 122 73
95 122 72
95 123 74
108 132 97
207 217 227
208 217 227
197 208 217
206 215 222
209 218 228
198 208 216
200 211 220
201 212 221
203 213 221
197 207 213
199 211 223
201 211 219
209 218 226
193 204 212
199 210 219
200 210 218
201 211 221
196 207 215
201 211 219
195 205 209
203 213 221
207 218 229
203 212 221
200 209 215
203 214 224
206 215 226
205 215 224
200 210 219
104 129 87
92 118 70
96 124 74
99 125 78
127 147 120
159 174 168
174 187 182
201 211 218
205 214 224
203 213 221
195 206 213
202 212 220
202 212 221
199 210 219
201 212 222
204 213 220
203 213 222
209 218 228
200 211 219
210 219 229
198 210 221
199 209 216
203 213 222
195 205 211
191 201 207
199 210 218
197 208 216
206 215 225
108 132 97
94 121 73
93 120 72
94 121 72
93 120 72
94 121 72
94 121 71
96 123 74
92 120 71
95 122 73
92 119 72
92 119 71
99 127 77
93 121 72
94 121 72
94 122 73
97 125 75
94 121 72
91 118 70
96 124 74
93 120 72
93 120 72
93 119 71
97 124 74
92 120 72
92 119 72
95 122 74
97 123 78
187 199 204
203 213 223
207 216 225
204 214 224
204 213 222
192 204 211
196 207 214
200 210 218
203 212 220
200 210 216
197 208 215
204 215 224
197 207 215
204 214 222
202 212 220
205 215 223
208 217 226
192 203 210
202 212 220
201 211 218
201 210 215
204 214 224
196 207 215
203 213 221
202 212 220
196 207 216
194 205 210
175 188 188
93 121 72
98 125 76
92 119 71
92 119 71
91 118 69
97 124 75
94 121 73
97 124 74
92 119 71
97 124 74
93 120 72
96 123 74
95 122 73
90 117 70
95 123 73
93 121 72
92 120 72
93 120 72
96 124 74
93 120 72
96 123 74
90 117 70
94 122 73
93 120 71
97 124 75
97 125 75
138 156 136
201 212 222
212 221 231
201 212 221
204 214 225
210 219 229
200 211 219
203 213 223
206 215 223
197 208 215
203 213 220
200 210 217
204 214 222
205 214 221
204 214 224
198 209 218
211 220 228
204 214 223
202 212 221
203 213 222
208 218 228
195 205 211
201 210 217
198 209 218
201 212 221
203 214 225
192 203 207
94 121 72
95 122 73
96 124 74
96 124 74
94 122 73
98 126 75
95 122 73
95 121 72
95 122 73
98 125 75
96 123 74
90 118 71
98 126 76
94 121 73
93 121 73
94 121 72
93 120 72
95 122 73
93 121 72
96 123 74
93 121 73
93 120 71
93 121 73
100 128 77
99 126 78
193 204 207
198 209 217
199 210 219
203 212 220
200 211 218
199 210 218
207 216 226
201 211 218
198 208 217
195 206 216
206 215 224
200 211 223
199 210 217
205 215 224
210 219 227
204 213 220
205 215 226
210 219 228
199 210 216
204 214 223
200 211 219
201 211 220
203 213 221
201 210 217
139 157 140
93 120 72
91 119 71
94 121 72
91 119 71
97 125 76
97 124 75
93 120 72
98 125 75
93 120 72
98 125 75
93 120 72
93 120 72
95 122 73
92 118 70
97 125 75
95 122 73
97 125 75
96 123 74
93 120 71
98 125 76
93 120 71
93 120 72
169 182 180
199 208 216
199 210 221
203 213 222
204 213 222
202 211 219
192 202 209
207 217 227
203 213 222
202 211 219
203 213 221
201 211 221
202 212 219
193 203 209
200 211 220
199 210 219
196 206 212
203 212 219
195 206 214
205 214 224
204 214 223
197 208 217
119 140 112
96 123 74
96 124 74
96 124 75
94 122 73
94 121 72
95 122 72
96 124 74
93 120 72
97 124 75
96 123 74
94 122 73
97 124 74
98 125 75
92 119 71
94 121 72
92 119 71
94 121 72
95 122 73
95 123 74
159 175 170
205 215 225
204 215 226
201 212 221
195 206 215
205 215 225
200 210 217
205 215 223
207 217 227
212 221 233
204 214 223
178 191 193
140 157 139
125 146 123
197 207 213
204 214 224
196 208 218
191 202 211
208 216 224
203 213 223
207 217 226
195 206 212
204 214 223
203 212 219
200 210 218
193 204 211
201 212 220
209 218 229
203 212 221
205 216 228
205 215 223
200 210 219
199 209 219
205 215 225
210 219 228
206 215 225
206 215 224
199 210 220
201 210 218
133 152 132
93 119 71
96 123 74
94 120 71
91 117 69
96 124 75
97 122 83
145 161 148
181 193 194
207 218 228
202 213 223
196 207 216
200 210 220
199 210 218
199 210 219
196 208 218
204 214 221
194 204 210
201 211 219
200 210 218
195 205 212
205 215 225
204 213 221
198 208 215
199 210 220
200 210 219
191 203 207
94 121 73
94 121 73
93 120 72
94 121 72
95 122 73
96 124 75
91 118 70
94 121 73
93 120 72
97 124 75
92 119 71
94 121 71
97 125 75
95 122 72
96 123 74
96 123 74
95 122 73
95 123 74
99 126 76
93 120 71
98 125 75
94 121 73
94 122 72
96 124 75
95 122 73
108 132 97
136 154 139
141 159 141
102 127 86
91 118 71
93 120 71
94 121 72
97 124 75
93 121 72
93 119 71
94 120 71
96 124 74
95 122 73
91 118 70
90 116 69
96 123 74
97 125 75
95 122 73
100 127 77
96 124 74
95 122 73
95 122 73
96 123 74
95 123 73
95 123 74
95 122 73
94 121 73
95 122 73
92 119 71
111 133 101
200 210 218
207 217 226
203 213 222
210 219 228
203 213 222
208 217 226
202 211 219
199 210 220
204 214 222
196 208 217
207 216 225
202 212 222
199 210 220
201 210 219
205 214 223
206 215 223
204 215 226
205 214 224
201 210 217
201 210 218
202 211 219
204 213 222
205 214 222
199 210 219
205 215 223
202 212 221
201 212 221
188 199 201
94 121 72
96 123 74
94 121 72
93 120 71
95 123 74
96 123 74
94 122 73
96 123 74
113 136 100
136 154 136
171 184 178
194 205 210
197 208 214
204 213 222
200 210 219
204 214 224
206 215 222
203 213 222
202 212 220
201 211 221
200 210 220
203 213 222
210 220 231
201 210 219
199 210 219
199 209 217
202 212 220
186 197 202
95 122 73
94 122 73
94 121 72
94 121 72
94 122 73
93 120 71
97 125 75
92 119 71
96 124 75
92 119 71
97 124 74
92 118 70
94 121 73
95 122 73
96 124 74
93 121 72
93 120 72
95 122 73
93 120 71
93 120 71
95 122 73
95 123 73
93 120 72
94 122 73
96 124 74
94 122 73
92 119 70
133 152 130
194 205 212
205 215 226
203 212 219
199 210 220
207 216 225
197 207 213
193 204 211
199 209 216
200 210 218
201 212 219
198 209 216
196 206 214
199 209 216
201 210 217
196 206 214
200 210 217
196 207 214
195 205 212
200 211 221
199 208 216
200 210 217
200 210 217
206 216 224
200 211 221
200 211 220
203 213 221
200 209 216
130 149 127
95 122 73
94 121 72
95 123 74
97 124 74
92 120 73
98 126 75
98 125 75
94 121 72
90 117 69
94 121 72
94 121 72
95 122 72
98 125 75
89 116 69
94 121 72
93 120 71
95 122 73
95 122 73
91 118 70
93 120 72
94 121 72
97 125 75
93 120 72
96 123 73
92 119 71
91 117 69
180 192 193
204 213 223
205 214 220
200 210 219
203 213 222
198 209 217
201 211 219
198 208 216
203 213 220
200 210 216
196 207 216
200 211 219
200 211 221
199 208 215
198 208 215
198 208 215
199 209 217
206 216 224
198 208 215
200 211 219
208 217 226
198 208 215
203 213 223
202 212 220
196 206 213
202 212 221
129 149 129
95 121 72
97 124 75
91 118 70
95 122 73
94 121 72
91 118 71
97 124 75
93 120 72
95 122 73
94 121 72
90 117 70
92 119 71
94 121 72
92 119 71
94 121 72
94 122 73
92 118 70
94 122 73
92 119 71
95 122 73
97 124 75
95 122 73
95 122 73
93 120 72
137 155 137
209 218 229
198 209 216
204 214 222
194 205 214
199 210 218
194 205 211
193 203 209
196 207 216
195 206 211
198 209 218
194 205 213
195 206 212
203 213 221
208 217 226
197 207 214
202 212 222
204 213 221
200 211 219
200 210 219
202 213 223
204 214 224
211 220 230
206 216 226
180 193 197
92 119 71
95 122 73
92 120 72
92 119 71
94 121 72
94 121 73
96 124 74
94 121 72
90 117 70
94 121 71
96 123 74
95 122 73
95 123 74
93 119 71
93 120 72
95 122 74
94 122 73
95 123 73
95 122 73
95 122 73
96 123 74
93 120 73
127 147 123
202 212 220
209 219 229
208 217 226
203 213 222
206 215 223
204 213 220
204 213 222
206 216 226
199 209 215
199 210 218
204 214 224
202 213 223
198 209 219
205 215 224
210 218 226
195 205 212
210 218 228
204 214 221
205 215 224
198 208 213
201 211 219
144 161 147
97 124 74
95 122 73
96 123 73
97 124 75
97 124 74
94 121 72
94 120 71
92 120 72
91 117 70
96 124 75
98 125 75
92 119 71
88 114 67
95 123 74
97 124 74
93 120 72
94 121 73
98 126 76
95 123 73
145 162 149
203 212 222
205 214 222
201 211 220
200 211 221
207 217 228
196 207 216
202 213 221
200 211 219
206 215 224
198 208 217
202 212 222
206 216 225
198 208 215
192 203 205
149 165 150
176 190 191
201 210 217
197 208 216
200 210 219
201 211 220
197 208 216
202 213 223
196 207 214
209 217 224
200 210 219
198 208 216
199 209 219
202 212 220
204 215 225
204 214 221
203 213 222
199 209 216
200 210 217
202 212 221
202 213 223
205 215 225
198 208 215
199 209 216
204 214 225
130 150 130
94 121 72
97 124 75
96 123 74
96 123 74
95 122 73
93 120 71
94 120 72
94 122 73
104 128 91
136 154 136
184 196 198
202 213 220
205 215 224
196 207 216
203 214 224
198 209 220
196 207 214
209 218 227
203 213 222
204 213 222
209 218 226
203 213 221
202 212 220
201 211 220
203 213 222
189 200 203
95 123 74
95 123 74
98 125 75
98 126 76
95 122 73
89 116 68
93 120 71
94 121 72
93 120 72
93 120 72
96 124 75
96 123 74
94 121 72
93 120 71
88 114 67
96 124 74
96 124 75
95 122 73
96 123 73
95 123 74
92 118 71
99 126 76
97 125 75
96 123 73
93 120 71
95 122 73
102 129 84
195 205 211
199 209 216
170 184 183
133 152 133
101 126 86
94 121 72
97 125 76
93 120 72
92 119 71
93 120 72
92 119 71
92 119 70
96 124 74
94 122 73
95 123 74
96 123 74
95 123 74
95 122 73
93 120 71
95 123 73
95 123 74
97 125 74
93 120 71
98 126 75
99 126 76
95 123 75
94 122 73
135 155 134
201 212 220
199 209 216
198 209 216
202 212 221
197 208 214
203 213 222
195 205 210
198 209 218
194 205 211
197 206 213
200 210 219
199 210 220
204 213 219
203 213 223
198 208 216
195 205 212
204 214 222
201 211 219
197 208 213
205 215 224
206 216 225
206 216 224
203 213 221
198 209 215
200 211 220
197 207 215
201 210 217
168 182 176
92 119 71
92 118 70
96 124 74
93 120 72
95 121 71
97 125 75
94 122 73
97 124 75
93 120 72
92 120 71
94 122 74
92 119 72
92 118 73
122 144 113
138 155 140
168 182 177
188 200 204
191 203 210
191 202 208
205 215 225
205 214 222
197 208 216
200 211 218
207 217 227
204 214 224
206 216 225
201 211 219
152 168 158
92 120 72
94 121 73
92 119 72
95 123 74
94 121 72
92 119 72
95 123 73
93 120 72
93 120 71
95 122 73
94 121 72
95 122 73
93 120 71
94 122 73
95 122 73
93 121 72
90 117 70
95 122 73
94 121 72
96 123 74
95 122 73
92 119 71
94 121 72
96 123 74
95 123 73
94 121 72
96 123 74
162 176 170
207 216 224
202 212 220
208 217 227
202 212 219
198 208 216
201 211 219
206 216 228
205 216 226
202 212 219
203 212 220
208 218 227
204 214 224
210 220 230
203 213 220
193 204 211
201 212 219
207 217 227
204 214 224
202 212 222
201 211 221
195 205 210
204 214 223
201 211 222
203 213 222
197 207 214
200 210 217
191 202 207
92 120 72
94 122 73
94 121 72
93 121 72
93 120 73
94 121 73
97 125 75
97 125 75
98 126 76
95 123 73
92 119 71
95 123 74
91 119 71
97 125 75
93 120 72
94 121 73
96 123 74
94 121 73
93 120 71
95 123 74
94 121 72
96 123 74
96 123 74
92 119 70
95 123 73
96 124 74
130 150 124
204 214 224
197 207 213
191 202 208
199 209 217
196 207 216
204 214 224
206 215 224
198 208 215
202 212 222
203 212 220
197 208 218
195 206 214
202 212 221
206 216 224
193 204 211
204 214 224
201 211 219
201 211 219
200 211 221
197 209 219
198 209 217
210 218 227
204 214 223
200 210 219
197 207 216
176 188 187
96 124 75
91 118 70
95 122 73
95 123 73
96 123 75
97 124 75
98 125 75
92 119 71
95 122 73
96 124 75
98 125 75
95 122 73
94 121 72
95 122 73
96 124 74
95 122 73
92 119 72
94 122 73
95 122 73
94 121 73
96 124 74
93 120 72
94 122 73
96 123 74
108 133 98
196 207 216
205 215 226
206 216 227
201 211 221
200 210 217
205 215 224
197 207 212
190 202 210
198 208 217
210 220 231
198 209 218
195 206 215
198 207 216
214 222 232
199 208 215
202 213 222
197 207 214
200 210 217
193 203 209
207 216 225
202 212 220
201 212 219
208 217 227
197 208 216
119 140 112
95 123 73
90 116 69
94 121 72
96 124 75
91 117 69
94 121 73
94 121 71
92 119 71
98 125 75
95 122 74
95 122 73
94 120 71
95 122 74
96 124 74
90 117 69
93 120 71
95 123 74
91 119 71
94 121 72
99 126 76
93 120 72
107 131 94
196 207 214
201 211 217
200 211 220
189 201 207
203 213 223
196 206 213
207 216 225
201 212 221
202 213 222
197 207 214
194 204 212
196 207 216
195 206 214
197 208 217
204 214 224
205 214 223
201 211 219
200 210 218
204 213 222
202 212 220
200 210 218
166 180 176
98 126 75
97 124 74
96 123 73
91 118 71
95 123 74
94 121 73
94 121 72
94 121 72
92 118 70
92 120 72
98 125 75
93 119 71
91 118 71
89 115 68
92 119 71
89 115 68
90 116 68
96 123 74
92 119 70
129 149 124
197 208 216
206 215 224
202 212 220
205 215 224
192 203 209
199 209 218
210 219 228
207 216 224
199 208 215
194 205 212
195 206 214
203 213 223
201 211 220
200 211 221
197 207 215
109 133 97
95 122 73
128 147 126
167 180 177
191 204 212
202 211 218
203 213 222
200 210 218
196 208 217
202 212 221
201 211 219
202 213 221
202 212 222
199 209 218
200 210 220
199 209 218
208 218 227
202 212 222
202 212 220
202 213 223
205 215 224
204 214 224
205 215 226
197 208 216
198 209 220
157 172 162
92 119 71
92 119 71
94 121 73
91 118 70
93 120 71
95 122 73
94 121 72
94 120 71
94 121 72
94 120 72
94 121 72
113 135 104
162 177 169
194 206 214
203 212 218
204 213 221
204 215 225
196 206 213
203 212 220
196 207 214
198 208 216
207 217 227
202 211 218
200 210 217
201 211 220
178 192 193
95 123 74
95 122 74
95 122 73
95 122 73
95 122 73
95 123 74
93 121 73
95 122 73
91 118 70
93 119 71
95 122 74
96 123 73
95 122 73
96 124 74
93 120 72
94 121 73
92 119 71
96 123 73
92 119 71
95 123 74
92 119 72
93 120 73
91 118 70
98 125 75
91 118 71
93 120 72
102 128 84
197 209 218
191 202 208
199 210 218
200 211 222
195 206 214
193 203 208
161 176 167
113 136 103
96 122 75
96 124 74
93 120 72
89 116 69
94 121 72
96 124 75
95 122 73
96 123 74
97 124 74
94 121 72
93 120 71
96 123 74
92 119 71
95 122 73
95 123 74
93 120 72
94 122 73
98 125 75
96 124 74
160 175 166
198 209 216
196 206 211
201 212 222
203 212 220
205 215 225
198 209 218
203 213 222
202 212 219
201 212 221
202 212 219
201 211 220
205 215 224
201 211 218
194 205 212
200 211 220
208 217 227
203 213 221
205 214 223
202 213 223
196 208 216
196 207 214
206 215 225
196 206 213
197 208 215
199 209 217
197 207 212
205 215 225
155 171 161
93 120 72
94 122 73
94 121 72
97 125 75
94 120 72
96 123 74
94 122 74
93 120 72
97 125 75
97 125 75
96 124 75
94 121 72
97 125 76
95 122 73
95 122 73
98 126 76
91 117 70
98 124 82
119 142 113
136 154 138
170 184 180
186 198 201
199 209 217
201 212 223
202 212 219
199 209 216
196 207 214
146 163 148
98 126 76
98 125 76
92 119 71
93 120 72
92 118 70
92 119 71
94 120 71
96 123 73
93 120 71
89 116 68
94 122 73
92 119 71
90 116 69
95 122 73
94 121 73
97 124 75
95 123 73
91 117 70
94 121 73
94 121 72
96 124 75
95 122 73
97 124 74
97 125 75
95 123 74
94 120 71
92 118 70
193 205 211
203 213 221
204 214 223
205 215 224
202 212 221
207 217 227
197 207 212
199 209 216
199 210 217
204 214 223
198 209 217
208 217 226
204 213 222
207 217 226
207 218 229
205 215 223
205 215 224
205 214 223
203 213 222
196 207 215
199 209 216
198 209 217
193 204 212
195 206 216
200 210 220
201 211 220
208 218 227
140 158 141
94 121 72
90 117 70
93 120 72
97 124 75
92 119 71
92 119 70
95 122 73
93 120 72
93 121 72
95 123 74
93 120 71
97 124 74
92 119 70
94 122 73
91 118 70
95 122 73
96 124 74
96 123 74
93 120 72
96 124 75
92 118 70
96 124 75
92 119 71
93 120 72
97 124 75
93 120 72
180 192 194
203 213 220
202 212 221
194 205 211
196 207 214
197 207 214
202 212 222
198 209 216
193 205 216
195 206 213
201 211 217
204 214 224
201 211 218
202 213 223
197 207 214
196 207 214
203 213 220
208 217 226
204 214 225
193 203 210
202 212 221
198 208 214
205 214 222
196 208 216
206 216 225
196 207 213
124 145 122
96 123 74
93 120 71
99 126 76
98 126 76
91 118 70
90 117 70
94 121 72
92 120 72
93 121 72
95 122 74
97 125 75
95 122 73
94 120 72
96 124 74
97 124 75
91 118 71
93 120 72
94 121 72
92 119 71
95 123 74
95 123 73
98 125 75
92 119 71
96 123 74
174 187 184
193 204 212
194 204 211
206 216 225
201 211 219
209 219 232
198 209 219
196 207 215
209 219 228
204 213 219
204 214 222
202 212 220
201 210 217
200 211 219
201 212 221
203 213 222
203 213 222
200 210 217
196 207 216
203 213 222
200 211 220
192 203 208
205 215 224
203 213 221
152 167 155
92 119 71
98 125 75
95 122 73
94 121 73
94 121 72
96 124 74
98 125 75
93 121 73
96 123 74
91 118 70
93 121 72
98 125 75
94 121 73
97 124 74
93 120 72
93 120 71
93 119 71
98 125 75
95 122 73
95 122 73
97 125 75
92 120 72
180 192 194
199 208 214
200 210 219
203 213 221
207 217 226
199 209 216
198 208 215
197 208 217
205 215 223
206 215 222
203 213 223
189 200 206
194 205 212
191 203 210
194 205 212
204 214 220
205 214 222
200 210 219
199 209 217
199 210 217
193 203 211
178 190 192
94 121 72
93 121 73
95 121 72
96 124 74
96 123 73
97 124 75
95 122 73
96 124 74
90 117 69
96 123 74
94 121 71
96 124 75
92 119 71
95 122 73
98 125 75
93 121 72
97 124 74
93 121 72
94 122 74
128 148 124
197 208 214
199 209 218
202 212 220
206 216 224
197 207 212
198 208 217
195 206 213
199 210 218
197 208 217
205 215 224
201 211 219
200 210 218
203 213 221
198 209 218
198 208 214
198 210 219
125 145 120
95 122 73
91 117 69
94 121 72
107 131 95
156 171 162
193 205 212
206 215 223
203 213 221
197 208 217
202 212 220
204 213 221
201 211 219
203 212 222
193 204 211
198 208 217
193 205 213
197 206 212
190 201 210
199 210 218
204 214 222
198 209 219
200 210 219
201 211 221
196 208 218
156 172 161
92 119 71
94 122 73
94 122 73
96 124 74
91 118 70
95 122 73
95 122 73
96 123 74
94 121 73
94 122 73
93 120 71
92 118 71
90 116 69
96 123 74
125 145 118
174 187 185
194 205 213
193 204 211
200 211 221
191 202 209
207 216 224
195 206 213
190 201 207
200 209 216
207 217 225
182 195 198
90 117 69
97 125 75
96 123 73
96 124 74
95 123 74
93 120 72
94 122 73
95 122 73
93 120 71
95 123 74
92 118 70
93 120 71
93 120 72
93 120 72
94 121 72
99 127 76
95 122 73
95 123 74
97 125 76
96 123 75
96 124 74
93 120 72
91 118 70
93 120 72
95 122 72
93 121 73
132 151 129
199 210 217
208 218 228
204 214 222
203 213 223
199 209 217
200 210 217
196 207 216
195 206 214
184 197 202
162 177 172
139 157 144
105 129 88
94 121 72
94 121 73
89 117 70
94 121 72
95 122 73
93 120 71
92 120 72
95 122 73
95 123 74
95 122 74
95 123 74
97 124 75
94 121 72
95 122 73
95 122 73
162 176 172
203 213 223
196 207 214
206 216 226
202 212 221
201 211 219
204 215 225
193 204 208
202 213 225
198 209 217
200 210 218
199 209 215
202 213 220
202 212 221
200 211 222
200 210 217
210 219 229
202 213 223
211 221 232
203 213 223
197 208 218
196 207 213
205 215 225
201 211 219
201 210 218
206 215 224
204 213 222
196 207 215
120 142 114
97 125 76
95 123 73
96 124 74
98 125 75
94 122 73
94 121 73
95 122 74
98 125 75
97 124 74
93 120 72
93 120 71
93 121 73
93 120 72
93 120 72
91 118 71
96 123 74
95 123 74
94 121 73
94 121 72
95 123 74
93 121 73
96 123 74
93 119 74
115 137 107
162 177 170
170 183 179
189 201 206
109 132 97
94 122 72
97 124 74
90 117 70
94 121 73
93 120 72
93 121 72
96 123 74
92 119 71
93 120 72
93 121 72
94 121 72
94 121 72
93 120 71
91 118 70
94 122 74
95 122 73
96 124 74
96 124 74
94 122 73
95 123 73
91 118 70
95 123 74
95 122 74
98 126 76
96 123 74
92 119 71
141 159 143
197 208 216
202 211 219
203 213 224
199 210 219
201 211 220
208 218 227
200 210 218
204 213 221
199 209 216
201 211 220
211 220 230
195 207 216
204 213 222
205 215 225
204 213 222
190 202 209
191 202 209
195 206 213
208 217 227
207 216 225
205 215 225
206 216 227
203 212 220
200 210 217
202 212 221
202 212 221
201 212 220
107 130 93
98 125 76
91 118 70
95 123 74
95 121 72
96 123 75
94 121 73
93 120 71
94 120 71
96 124 75
90 117 69
95 122 72
92 118 70
95 123 73
101 129 78
93 121 73
95 123 74
96 124 75
93 121 73
94 121 73
93 119 71
95 122 73
94 122 73
95 122 72
93 120 72
96 124 75
128 148 122
200 210 217
201 211 218
202 212 219
201 212 220
199 209 217
207 216 224
201 210 218
195 207 217
196 207 213
202 212 221
200 211 221
204 214 223
208 217 226
198 209 218
200 211 219
192 203 207
198 208 217
193 204 211
205 215 225
208 217 226
196 207 215
199 209 219
197 208 214
200 211 221
202 213 222
181 193 193
93 120 72
97 124 74
96 123 73
94 121 72
96 124 74
99 126 76
89 116 69
96 123 75
92 118 70
92 119 72
93 120 71
94 121 73
98 125 75
95 123 74
95 122 73
94 121 73
96 124 74
99 126 76
95 122 74
95 123 74
92 120 72
95 122 74
99 127 76
92 119 71
129 149 125
193 204 210
199 210 219
203 213 223
206 215 222
207 217 225
209 218 226
203 214 225
202 211 219
202 212 221
201 210 216
200 210 217
201 212 223
200 211 219
210 219 227
206 216 225
206 215 224
197 207 215
199 209 216
203 213 222
199 209 216
205 215 225
201 212 222
199 209 216
185 197 195
97 124 77
93 120 72
93 120 72
94 121 73
87 114 67
93 120 72
98 126 75
95 122 73
95 123 74
93 120 72
94 121 73
95 122 73
95 123 74
93 120 71
96 124 74
92 119 71
93 120 71
95 123 74
96 123 73
96 123 74
94 121 71
93 120 72
162 178 170
205 215 224
192 203 211
199 209 217
194 204 209
198 208 216
199 209 217
193 205 212
202 213 222
200 210 218
198 209 218
202 213 223
196 207 216
207 216 224
207 216 226
201 212 220
201 212 221
197 208 217
202 212 220
197 208 217
207 216 224
194 204 206
112 134 101
93 120 72
95 122 74
98 126 76
95 122 73
96 123 74
96 123 73
95 122 73
93 121 72
93 120 72
96 124 74
94 122 74
91 117 69
91 118 70
97 125 75
93 120 71
93 119 71
94 121 72
95 122 73
103 127 86
191 203 208
202 212 220
202 212 222
204 214 225
209 218 229
205 215 225
191 202 210
204 214 225
201 211 220
197 208 215
197 208 215
202 212 220
201 211 220
204 214 223
206 215 226
207 216 224
196 207 215
148 164 155
96 124 75
93 121 72
94 121 72
97 124 74
94 120 72
96 123 74
117 139 110
165 180 175
197 207 214
195 206 217
202 211 220
199 210 220
202 211 219
205 215 225
200 210 219
203 213 221
197 208 215
205 215 224
204 214 223
207 216 225
203 213 222
202 212 220
202 212 221
205 215 224
173 187 183
95 123 74
97 124 75
89 116 69
94 121 72
95 121 72
91 117 70
89 116 68
94 121 73
93 120 72
92 118 71
97 124 74
92 119 71
92 118 71
94 121 72
94 122 73
94 121 72
93 120 71
126 145 125
162 176 168
196 207 214
203 213 222
205 215 224
193 204 210
206 216 226
200 210 219
176 190 193
99 126 76
94 121 73
96 124 74
93 120 72
94 121 73
95 123 74
96 124 74
94 122 73
97 125 75
95 122 73
95 122 74
94 122 73
90 117 69
93 120 72
92 119 71
95 123 74
92 119 70
97 124 74
93 119 70
93 121 72
94 121 71
95 123 74
95 121 72
96 123 74
90 117 70
96 124 74
119 141 116
210 219 227
201 211 219
206 216 227
208 217 226
197 208 216
200 211 219
201 212 223
212 221 232
197 207 213
195 205 211
206 215 224
206 217 227
183 195 196
159 174 165
140 156 138
99 127 79
90 117 70
95 123 73
94 121 73
94 122 73
97 125 75
90 117 70
91 118 70
95 123 75
93 120 71
94 121 72
93 120 71
180 193 194
195 207 216
200 210 219
198 208 217
203 213 221
198 208 215
206 215 224
198 209 217
207 216 227
200 211 220
203 213 222
199 209 217
191 202 206
192 204 211
197 208 216
202 212 221
204 214 224
192 204 213
193 204 210
205 215 226
201 211 219
208 217 226
199 209 219
195 206 213
206 216 227
203 213 222
201 211 219
200 210 219
96 124 75
92 119 70
98 126 76
95 122 73
95 122 73
95 123 74
95 122 73
93 120 72
96 123 74
95 122 72
97 125 75
94 121 72
95 122 73
95 122 74
92 118 71
95 122 73
92 119 71
91 118 71
93 120 72
93 120 72
93 120 72
94 121 73
97 124 74
97 124 74
93 120 71
95 122 73
94 121 73
133 151 132
197 208 217
188 200 205
166 180 173
154 169 157
136 155 132
102 127 85
95 122 73
99 126 76
93 120 72
93 120 71
91 118 71
94 121 73
92 119 71
97 125 75
97 124 74
95 122 73
96 123 74
95 122 74
97 125 75
98 125 75
92 119 71
96 123 73
96 124 74
93 120 72
93 120 72
96 124 75
93 120 72
173 186 183
196 207 213
198 208 214
203 213 222
204 215 225
204 213 222
195 206 213
204 214 222
194 205 212
198 209 217
204 214 223
201 211 218
194 205 213
201 211 218
202 212 221
196 207 214
206 215 222
198 208 213
207 216 226
204 213 220
195 205 213
197 207 215
200 209 214
197 206 212
201 212 220
210 219 226
197 208 217
163 178 174
95 122 73
95 122 73
95 122 73
93 120 72
94 121 72
94 121 73
97 124 75
90 117 70
93 119 71
96 123 74
93 120 72
96 124 74
96 123 73
90 117 70
91 119 71
96 124 75
92 119 71
96 124 74
93 121 73
93 120 72
94 121 73
95 123 74
92 119 70
92 120 72
96 122 73
93 121 72
181 193 193
207 216 226
204 213 220
198 208 216
205 215 226
207 216 224
200 210 219
200 211 220
202 212 220
204 212 219
195 206 215
199 209 217
202 213 223
201 211 219
201 211 220
207 217 226
207 217 228
201 212 222
200 211 220
200 210 217
205 215 223
191 201 207
201 211 219
202 213 222
197 207 215
199 208 217
119 140 112
89 115 68
92 119 71
91 118 70
91 118 71
97 125 75
97 125 75
96 124 74
96 123 73
97 124 75
93 121 72
94 121 72
93 120 71
96 123 74
95 121 72
92 119 71
95 122 73
94 122 73
97 124 74
96 122 73
96 124 74
95 122 73
89 116 69
90 117 70
94 121 75
179 192 194
202 212 221
201 211 219
200 210 219
203 213 223
204 214 224
203 213 222
199 210 219
202 212 220
193 203 209
189 201 209
197 207 213
195 205 211
195 206 213
204 214 223
197 207 216
199 209 218
204 214 224
200 211 217
194 205 213
195 206 213
197 207 214
200 211 220
193 204 209
118 139 110
93 120 71
93 120 72
93 121 72
94 122 73
93 120 72
96 124 75
95 122 73
94 121 72
94 122 74
93 120 72
96 123 74
95 122 73
93 120 71
95 122 74
95 122 73
94 122 73
94 121 73
93 120 72
96 122 73
91 118 70
93 121 73
122 143 116
199 209 217
191 202 207
200 210 218
201 212 222
202 212 221
199 210 220
203 213 220
197 208 217
201 211 219
203 214 224
201 211 220
200 210 219
198 208 216
192 203 211
209 218 228
204 214 224
199 209 217
185 197 205
202 211 220
195 206 215
194 205 212
123 144 120
95 122 73
93 120 71
97 124 74
95 122 73
91 117 70
96 124 74
93 120 72
89 116 69
96 123 74
94 121 72
97 124 74
85 111 65
95 123 74
94 121 72
93 120 72
93 120 71
94 121 73
96 124 74
99 124 81
187 199 202
202 211 219
201 211 220
203 213 221
200 210 216
206 216 225
200 210 218
194 204 210
198 209 218
193 205 211
196 208 216
200 210 220
204 215 225
199 209 216
194 205 213
195 206 212
199 210 219
199 209 217
169 182 180
96 123 74
94 121 73
93 120 72
92 119 71
94 121 72
96 123 74
91 118 71
94 121 72
100 126 83
135 154 136
185 198 200
203 213 221
194 205 212
198 209 217
192 204 211
210 218 228
204 214 223
190 201 208
202 212 220
197 209 219
202 213 225
197 208 218
201 212 221
205 215 224
167 181 175
96 123 74
94 121 72
94 120 72
96 123 75
93 120 72
97 124 74
94 121 72
91 118 70
94 121 73
90 116 69
95 122 73
95 122 73
95 122 73
90 118 70
90 117 69
91 118 70
88 114 68
95 122 73
91 119 71
95 121 78
132 151 131
167 181 177
189 201 207
192 204 212
203 213 224
187 200 204
92 118 70
94 122 73
95 122 73
92 119 71
97 124 75
95 123 74
93 120 71
96 123 73
93 120 72
91 117 69
93 121 73
96 124 74
94 121 72
95 123 73
96 124 74
90 117 70
92 119 71
93 120 71
95 123 73
91 118 70
94 121 72
96 123 74
97 124 75
94 121 72
94 121 73
92 119 71
138 156 138
206 216 224
204 214 222
204 213 220
204 214 224
194 205 212
200 211 220
198 208 216
198 209 217
197 209 218
199 209 218
197 209 220
198 208 215
192 203 211
202 212 221
194 204 209
199 210 220
172 185 182
147 163 150
114 138 104
90 118 70
95 122 73
90 117 70
96 123 74
91 118 71
91 118 71
98 124 74
98 126 75
191 202 207
193 204 212
199 210 220
198 208 215
202 212 219
200 211 219
199 209 216
204 214 224
203 214 223
200 210 219
197 208 216
202 213 223
207 217 229
205 214 222
203 213 224
204 214 223
196 207 214
207 217 227
198 209 218
201 211 219
203 213 222
202 212 220
206 215 222
208 217 227
195 206 213
205 215 225
193 205 212
195 206 211
97 125 75
95 122 73
90 117 69
93 120 71
94 121 72
96 123 74
95 122 73
95 123 74
94 122 73
97 124 75
96 123 74
96 123 74
91 118 70
93 121 73
91 119 71
91 118 70
97 125 75
99 126 76
95 122 74
94 121 73
94 121 72
97 125 74
92 119 72
90 116 69
93 121 72
90 117 70
94 122 73
159 174 166
192 202 207
202 213 222
191 203 212
204 213 220
206 215 224
208 217 227
184 197 201
178 190 186
143 160 148
154 170 158
118 139 111
96 122 76
97 125 75
94 121 73
93 120 72
97 125 75
93 120 72
92 118 70
93 120 71
93 120 72
96 124 74
98 125 75
93 120 72
96 123 74
94 121 72
95 122 72
98 124 85
194 204 210
208 218 227
199 208 214
205 215 223
204 214 224
195 206 213
198 208 217
199 209 218
204 214 223
199 209 218
198 209 217
195 206 214
204 214 224
195 205 212
201 211 220
203 214 224
199 209 217
198 209 215
199 208 215
200 210 218
207 217 226
201 211 219
195 206 214
197 207 216
203 213 222
205 214 224
204 213 221
129 149 126
93 120 72
96 124 75
95 122 73
96 123 74
93 120 73
92 120 72
96 123 74
94 121 72
95 122 73
93 120 71
92 119 71
94 122 73
92 119 72
95 122 73
97 124 75
97 124 74
93 121 72
94 122 74
91 118 70
91 118 70
95 122 72
93 120 72
91 118 71
98 126 76
94 121 72
128 149 126
206 215 225
193 204 211
203 213 220
205 215 225
197 208 218
198 207 214
195 206 213
198 208 216
196 207 215
202 212 220
208 217 226
202 212 221
196 207 215
205 215 222
205 215 226
200 210 217
207 217 226
198 208 215
203 213 221
195 207 215
199 209 217
195 206 212
204 214 223
200 211 220
203 213 223
177 189 186
95 122 72
97 125 76
98 126 76
98 126 76
95 122 72
93 120 72
91 118 70
93 120 71
96 124 74
93 120 71
92 120 72
92 119 71
96 124 74
95 123 74
96 124 75
96 124 75
92 118 70
93 120 71
91 117 70
96 123 73
97 124 75
89 116 69
97 125 75
90 117 70
149 165 154
200 211 220
193 205 211
200 211 220
190 201 206
188 200 208
198 209 216
207 217 227
196 205 210
203 212 221
202 212 221
201 212 221
202 213 222
193 204 210
201 210 218
201 212 221
198 209 217
198 209 217
197 208 215
204 213 221
197 206 212
199 209 216
201 212 220
194 205 211
138 155 136
95 122 73
93 121 72
97 125 75
95 122 74
90 117 70
94 121 73
93 120 73
90 117 70
97 125 75
92 120 72
97 125 75
95 122 73
94 122 73
93 120 71
97 124 74
97 124 74
94 122 73
97 125 75
94 121 72
97 124 75
95 122 73
103 126 90
185 196 199
204 214 225
204 213 223
199 210 219
204 214 225
207 217 227
197 208 216
192 203 210
198 208 217
203 212 219
194 205 211
203 213 222
206 215 224
199 209 217
205 215 224
190 202 209
200 210 217
194 205 212
194 205 212
204 214 224
198 208 215
149 165 153
93 119 71
94 121 73
93 120 72
95 122 73
94 121 73
95 122 73
98 126 76
91 117 69
93 120 72
92 120 72
94 122 73
95 122 73
92 119 71
91 117 70
91 117 70
93 121 72
89 116 70
89 116 69
98 124 76
172 185 185
206 215 225
205 214 222
197 208 215
184 196 198
168 182 179
143 160 143
114 137 104
97 124 77
203 213 223
200 211 221
203 213 223
199 210 219
207 217 226
193 203 209
202 213 222
200 210 217
198 209 218
207 216 223
176 189 190
93 120 72
96 123 73
94 121 72
95 123 74
92 118 70
93 120 73
93 120 72
94 121 72
94 121 72
94 121 73
92 119 71
117 140 107
148 164 156
197 208 214
199 211 221
208 217 228
201 211 220
201 211 219
208 217 228
194 204 209
194 204 212
197 208 215
200 211 220
193 204 213
183 195 195
95 122 73
93 120 72
94 121 73
91 118 71
94 121 72
93 120 71
90 116 69
91 119 71
91 119 71
94 122 72
92 119 72
91 118 70
96 124 74
92 119 71
90 117 70
95 123 74
95 122 73
95 122 73
91 118 71
94 121 73
94 121 73
93 121 73
94 120 74
145 162 149
167 181 177
173 187 186
94 121 73
95 122 73
89 115 68
94 122 73
92 119 71
94 122 73
93 120 72
94 121 72
96 124 75
94 121 73
94 121 72
92 119 71
95 122 73
93 120 72
93 121 73
98 125 75
97 124 75
91 119 71
95 122 73
93 120 71
96 124 74
94 121 72
95 122 74
94 121 72
93 120 72
93 120 72
147 163 150
207 216 225
199 209 216
208 217 225
202 212 221
200 209 216
193 204 214
199 210 219
202 212 220
194 205 212
201 211 218
193 204 211
205 215 226
198 208 215
200 210 217
195 206 214
198 208 216
196 207 215
193 204 210
202 213 222
187 198 202
163 178 173
144 161 146
104 129 87
93 120 72
95 122 73
95 123 73
95 122 76
194 205 211
206 215 224
201 211 218
192 203 211
205 213 219
191 201 206
202 212 222
209 218 228
204 215 225
204 213 221
202 212 221
198 208 217
204 214 222
197 207 215
202 212 220
205 215 223
190 201 207
194 206 214
199 209 217
199 210 218
204 214 222
200 210 218
204 213 223
205 215 224
195 206 213
198 209 218
203 213 223
164 178 173
99 127 76
97 124 75
90 117 69
95 122 73
92 119 71
91 117 70
91 118 70
95 122 73
95 122 73
93 120 72
98 125 75
93 119 71
94 121 73
93 120 73
95 122 73
95 122 74
94 121 72
93 120 71
95 122 74
96 123 73
89 116 69
95 122 73
96 124 75
95 123 74
92 118 70
95 122 73
93 119 71
176 187 189
205 215 224
197 208 217
203 212 221
200 211 218
192 203 212
200 211 218
198 209 217
204 213 221
198 209 217
206 216 224
209 219 230
196 207 213
190 202 207
171 185 180
154 169 159
134 154 133
108 132 95
95 122 73
93 121 73
92 119 70
93 120 71
92 119 71
96 124 74
90 117 70
95 122 73
94 121 72
135 153 136
203 213 222
203 213 220
205 215 224
206 216 226
198 209 217
194 206 214
195 206 215
199 210 219
200 210 218
200 211 220
205 215 222
205 214 223
197 208 216
199 209 216
195 205 210
202 211 220
200 210 219
199 209 217
201 211 220
204 214 224
202 213 222
205 215 224
193 204 210
197 208 216
206 216 225
199 209 218
176 188 189
93 121 72
92 119 72
97 124 74
90 117 70
91 118 70
95 123 73
94 121 73
94 122 73
93 121 73
96 123 74
92 120 72
95 122 73
93 120 71
100 128 77
92 119 71
95 122 73
94 121 73
91 117 70
96 123 74
90 118 71
95 123 73
92 119 71
94 121 72
97 124 75
93 121 72
95 122 72
180 192 191
204 213 220
195 206 213
192 204 213
198 209 218
201 211 218
199 209 217
198 209 218
198 209 218
201 210 218
197 207 214
200 210 216
195 206 213
206 215 225
201 211 218
199 209 216
202 212 220
202 213 221
207 216 224
203 213 221
204 214 224
201 211 220
202 213 222
201 211 217
193 204 212
191 203 209
99 124 81
95 122 73
92 119 71
95 122 73
95 122 73
95 122 73
96 123 74
94 122 73
95 122 74
96 123 74
93 120 72
93 120 72
95 123 74
95 122 73
97 124 74
98 126 76
94 121 73
95 122 73
96 124 74
94 121 72
89 115 68
90 117 69
92 120 71
94 121 73
104 128 93
199 209 216
193 205 212
200 210 222
197 209 219
199 210 218
199 209 217
205 214 222
195 205 212
194 205 211
199 209 218
197 207 214
204 214 225
203 212 220
210 219 230
201 211 219
205 215 224
202 211 218
205 215 224
196 207 215
203 213 223
201 211 220
205 215 225
201 211 220
180 191 192
100 127 79
96 123 73
99 126 76
95 123 74
95 122 74
94 121 71
92 119 71
92 119 71
95 122 73
91 118 70
97 125 76
93 121 72
90 117 69
94 122 73
97 124 74
90 116 69
95 122 72
95 122 73
93 119 71
92 119 71
95 123 74
90 116 69
177 189 188
206 215 225
195 206 213
200 211 220
198 209 217
192 202 208
200 210 217
196 207 215
199 209 218
199 209 217
200 211 219
197 207 214
202 213 222
195 206 213
204 214 221
202 212 221
197 207 214
203 213 221
197 207 215
200 210 219
202 212 222
168 182 180
98 126 75
97 124 74
93 121 72
96 124 75
95 123 74
91 119 71
95 123 74
97 124 74
97 125 75
91 119 71
93 120 72
96 123 73
96 123 73
93 120 72
93 121 72
96 123 74
94 121 72
93 119 74
114 137 102
134 153 129
149 164 150
134 152 134
107 131 96
93 120 71
97 123 73
97 124 75
97 124 74
91 117 70
94 121 73
200 210 217
202 212 222
200 210 220
203 212 222
197 207 214
202 212 222
198 207 215
195 205 212
197 207 213
205 215 224
192 203 210
94 120 72
94 121 72
92 119 71
92 119 72
92 118 71
94 121 73
94 121 72
95 123 73
95 122 74
98 126 76
90 117 70
92 119 71
94 121 73
89 115 68
139 157 138
168 183 181
195 206 212
194 204 211
198 209 218
198 209 217
193 203 209
193 205 213
200 211 221
195 206 214
192 203 208
93 120 72
96 123 73
90 117 70
95 122 73
94 121 72
96 123 74
93 120 71
94 122 73
96 123 73
95 123 74
98 125 75
98 125 76
94 121 73
93 119 71
99 126 75
97 124 75
94 121 73
94 121 72
95 122 73
90 116 69
95 122 73
96 124 75
96 124 74
93 120 71
95 122 73
120 141 115
179 191 191
148 166 153
112 135 98
95 123 73
95 122 73
95 123 74
94 122 73
92 119 71
96 124 75
92 119 71
92 118 70
94 120 72
89 116 69
95 122 73
96 123 73
93 121 73
96 123 74
94 120 71
91 118 71
94 121 72
93 120 71
92 118 71
91 119 71
93 120 71
89 115 68
96 124 74
145 162 148
212 221 231
197 208 216
202 212 221
200 209 216
184 197 203
198 209 218
196 206 213
204 214 224
203 213 221
202 212 220
202 213 224
201 211 217
196 207 215
203 213 222
199 210 218
197 208 215
202 213 222
200 211 221
200 211 220
200 210 216
197 208 216
200 210 217
195 206 215
181 194 195
160 175 166
124 146 120
130 148 127
198 208 217
205 214 223
212 221 231
194 205 211
199 210 218
198 208 215
203 212 221
198 209 217
199 209 216
203 212 220
203 212 222
197 207 216
201 211 222
207 217 225
186 198 204
204 214 223
199 210 218
197 207 213
197 207 212
189 200 207
197 207 213
201 211 219
195 205 211
206 216 226
190 201 208
197 208 216
199 210 219
144 161 145
94 121 73
97 124 75
90 117 70
92 119 71
95 122 73
95 122 73
96 123 74
95 123 74
91 117 70
91 118 71
96 124 74
92 119 71
93 121 72
98 125 75
93 120 72
92 119 70
96 123 73
95 123 74
93 120 72
94 121 73
98 126 76
95 123 73
94 122 72
93 119 71
96 123 74
92 119 71
114 137 102
203 214 222
194 205 212
199 210 218
198 208 215
198 209 217
203 213 221
196 207 216
200 210 218
199 210 220
198 208 215
200 210 221
198 209 219
200 210 217
199 209 217
198 208 213
202 212 221
201 211 220
199 209 218
192 203 211
177 189 192
153 169 161
156 171 163
141 158 143
113 135 102
100 125 83
94 121 72
93 120 71
178 191 192
198 209 217
199 210 218
196 206 215
203 214 225
195 206 214
199 210 218
198 208 217
203 213 222
209 218 227
201 212 223
206 217 227
196 207 215
191 203 209
202 212 221
200 210 219
200 210 218
201 212 221
203 213 223
201 211 219
197 207 214
203 213 219
196 205 212
198 209 219
200 209 216
201 212 222
199 210 218
131 151 129
98 125 75
95 122 73
88 116 69
96 123 74
95 122 73
92 119 71
96 123 73
95 123 74
94 121 73
95 122 73
97 125 74
92 118 71
94 121 73
93 121 72
97 125 75
93 120 72
95 122 74
93 120 72
94 121 72
91 118 70
95 122 73
94 122 73
94 121 72
98 126 76
93 120 71
125 145 118
205 216 227
198 208 216
203 213 222
199 210 218
199 210 220
203 213 223
200 210 218
203 212 220
204 213 220
203 213 224
199 210 220
200 210 220
197 208 216
202 212 221
200 210 216
197 207 214
204 215 225
208 217 226
198 208 217
197 207 215
197 208 216
202 213 223
197 207 214
204 214 223
198 208 215
158 174 169
93 120 72
96 123 74
97 124 75
95 123 74
95 123 74
93 121 73
96 124 74
91 119 71
96 123 74
95 122 74
91 118 70
93 120 73
91 117 69
92 119 71
92 119 71
94 122 73
95 122 73
96 123 73
90 117 71
96 124 74
93 120 72
93 120 72
94 122 73
98 125 76
174 187 186
197 207 212
198 209 217
204 213 222
195 207 216
197 208 214
193 203 208
202 212 221
199 209 217
191 203 209
202 211 218
193 205 215
205 215 223
199 209 216
200 210 217
201 211 221
200 210 219
196 207 215
201 211 218
197 208 215
202 212 220
200 210 217
204 214 222
200 209 215
107 131 92
95 122 74
95 123 74
94 121 73
93 120 72
93 121 72
96 123 74
96 123 74
94 121 72
93 120 72
92 119 71
97 124 74
93 120 72
96 123 74
95 122 73
95 122 74
96 123 74
92 119 71
90 117 70
95 122 73
98 125 75
86 113 67
155 171 162
198 208 215
191 202 207
208 217 226
205 214 220
210 220 230
194 205 211
200 210 217
201 211 219
194 205 212
198 208 216
203 213 224
203 214 222
197 208 216
196 205 212
192 203 212
198 208 215
199 209 215
195 206 214
204 214 222
198 209 217
188 199 200
98 124 79
95 122 73
95 122 73
93 120 71
95 123 74
95 122 73
92 119 71
97 124 74
94 120 72
95 122 74
96 123 73
92 119 71
93 120 71
107 130 96
137 155 137
156 170 160
161 176 170
190 202 208
202 212 218
162 177 172
95 121 72
96 123 73
92 119 71
92 119 70
99 126 75
93 120 72
96 123 74
93 120 72
92 120 72
95 122 72
159 174 169
200 210 216
197 208 216
194 204 212
199 209 216
195 205 211
201 212 223
205 215 224
198 209 216
201 212 220
193 204 213
101 126 85
93 120 71
96 124 74
95 122 73
91 118 70
95 122 73
93 120 72
97 124 75
96 123 74
95 122 72
94 121 73
95 123 74
94 122 74
94 122 73
97 124 74
93 120 71
101 127 84
145 162 149
183 194 197
196 207 213
205 214 222
200 211 220
192 204 213
199 209 216
194 204 209
94 121 73
95 122 74
95 122 73
93 120 72
94 121 72
91 118 71
95 122 73
94 121 72
94 121 72
96 124 74
97 124 74
89 116 69
94 121 73
98 125 75
94 122 73
92 119 71
95 122 72
94 121 72
93 120 71
94 121 73
87 113 67
95 122 73
98 125 76
94 121 73
92 120 72
119 140 111
200 211 220
203 213 222
196 206 213
184 195 193
142 159 142
112 135 100
96 124 74
94 121 72
96 123 74
94 121 72
92 119 71
93 121 73
93 120 72
94 121 73
95 122 73
94 121 73
96 123 74
92 118 70
94 121 72
93 120 72
95 122 73
94 121 72
93 120 71
93 120 72
91 118 70
93 120 72
153 170 161
199 209 218
194 205 210
196 205 212
201 209 215
200 211 219
204 213 222
195 205 212
201 210 217
204 214 224
204 214 223
205 215 225
202 212 221
197 207 214
198 209 216
194 205 214
202 212 222
199 209 216
199 210 219
192 203 210
205 214 224
201 211 219
198 209 216
190 202 209
196 207 216
191 201 205
205 214 224
173 187 185
131 150 131
165 179 173
182 195 197
198 208 216
205 214 223
193 205 212
195 207 215
200 210 218
197 208 216
203 213 223
196 206 214
201 211 219
196 207 214
200 211 220
207 217 227
200 210 217
205 214 224
207 217 225
202 212 221
201 210 217
197 207 215
193 205 213
202 212 222
207 216 225
204 213 222
198 207 214
201 211 219
115 137 112
97 124 74
96 123 74
92 119 71
95 123 74
93 120 71
89 116 69
96 123 74
89 116 69
91 117 70
96 123 73
91 118 71
92 119 71
94 121 72
93 120 72
93 120 71
95 122 73
94 121 73
93 120 71
95 122 73
93 121 73
94 121 73
94 121 72
93 120 72
96 123 74
99 126 76
93 119 71
146 163 149
197 208 216
201 210 218
202 212 220
193 204 209
205 215 226
196 206 212
200 211 221
205 215 225
194 205 211
200 210 218
207 216 224
197 208 215
196 206 213
204 214 225
197 207 215
208 218 227
201 211 219
199 209 215
195 206 213
200 210 217
200 211 219
202 212 222
202 212 220
197 208 217
202 212 221
185 197 199
174 187 185
147 164 151
160 175 172
161 176 169
199 210 218
197 208 216
193 204 212
205 214 222
200 211 220
202 212 221
194 204 211
208 218 227
195 205 212
196 207 217
195 206 214
195 206 214
200 209 217
200 210 219
204 215 224
196 206 214
202 213 223
207 216 224
205 215 224
201 212 220
195 205 212
202 211 217
198 208 217
194 204 208
99 126 81
92 119 71
94 121 72
94 121 73
95 122 72
95 122 73
92 119 70
90 117 70
93 120 72
91 118 71
93 120 72
93 119 71
92 119 71
95 122 73
97 125 75
92 119 71
95 121 72
92 119 72
94 122 73
91 118 71
96 123 73
96 123 73
93 120 72
93 120 72
95 122 73
94 121 72
180 192 193
194 205 211
201 211 220
208 218 227
198 208 216
201 211 222
198 209 218
193 204 211
200 210 219
204 214 223
193 204 212
201 211 218
197 208 217
198 210 219
200 211 221
210 219 228
200 210 217
210 219 229
194 204 211
197 207 214
198 209 217
195 207 216
203 213 221
201 211 218
197 208 217
190 201 208
99 125 84
95 122 72
98 126 76
93 120 71
94 121 72
93 121 72
95 123 73
92 120 71
92 119 71
94 121 72
89 116 69
93 120 72
93 119 72
94 121 73
97 124 75
90 117 69
96 124 75
96 124 74
97 125 75
93 121 72
95 122 73
95 122 73
92 119 71
95 123 74
131 150 128
199 209 216
195 206 214
198 209 216
204 213 220
195 205 213
189 200 205
201 211 220
191 203 212
202 212 219
200 211 222
195 205 213
190 202 211
195 205 212
187 198 205
188 199 206
204 213 220
198 208 215
198 209 216
192 203 209
202 212 221
194 205 211
196 207 215
204 214 224
146 163 154
90 116 69
92 119 72
90 117 70
94 121 72
96 123 74
92 119 71
95 122 73
93 120 72
96 124 74
92 119 71
93 120 72
96 123 75
95 122 73
97 125 75
94 122 73
94 121 73
93 121 72
93 120 72
93 120 72
92 119 71
95 122 74
109 132 97
187 199 203
195 206 214
198 208 217
190 201 209
196 207 214
203 213 222
199 209 218
199 209 218
196 207 214
203 214 223
202 212 219
199 211 221
204 214 223
200 211 220
197 208 218
193 204 210
197 207 216
195 206 214
205 215 225
197 208 216
190 202 207
109 132 97
96 124 74
91 118 70
93 120 71
94 121 73
91 118 71
92 119 70
98 123 81
126 146 123
136 154 136
150 167 155
178 191 189
201 211 219
198 209 218
194 205 213
200 210 220
201 212 222
201 211 219
202 211 218
172 184 183
98 125 77
95 122 74
93 120 71
93 119 71
93 120 72
98 125 75
90 117 69
91 118 71
96 124 75
96 123 73
93 121 73
91 118 70
110 133 101
161 176 166
193 204 211
202 213 221
199 210 218
203 213 222
193 205 211
196 206 213
195 206 212
193 204 211
132 151 132
90 117 70
94 121 72
95 122 72
96 124 74
95 122 73
89 115 69
91 118 71
90 117 69
92 120 72
94 121 72
93 121 73
90 117 69
92 120 72
96 124 74
93 120 71
89 116 69
96 123 74
91 117 70
120 142 114
151 166 158
193 203 210
194 205 212
190 202 211
199 210 220
95 122 72
95 123 74
94 120 71
94 121 73
94 121 72
91 118 71
94 121 73
95 122 73
91 118 70
92 119 71
95 122 73
96 124 75
94 121 72
93 120 71
91 118 70
96 124 75
95 122 73
92 119 71
92 119 71
95 122 73
92 118 70
93 119 71
90 118 70
92 118 70
93 119 72
113 135 104
203 212 221
209 218 228
198 208 215
200 211 220
195 206 214
201 212 222
179 192 196
155 171 160
111 133 101
96 124 74
93 121 73
90 117 69
92 119 71
94 121 73
97 124 74
93 121 72
92 119 71
96 124 74
95 122 73
90 117 70
92 119 71
93 120 72
92 119 71
92 119 72
95 122 73
94 122 72
163 177 171
198 208 217
200 210 220
207 217 226
197 207 214
196 207 213
204 214 223
206 216 226
195 206 213
202 211 219
201 212 220
206 215 225
201 212 222
194 205 214
204 214 222
199 210 220
196 207 215
196 207 214
200 210 219
202 212 221
197 207 215
193 203 209
189 200 206
194 205 212
191 202 210
205 215 226
202 213 223
152 167 157
94 120 72
96 123 74
96 123 74
97 122 83
135 155 133
158 172 164
169 183 181
200 211 218
200 210 217
196 206 213
202 212 220
202 211 220
201 212 221
196 207 216
196 207 216
197 209 218
201 211 220
193 203 209
196 207 215
201 211 221
195 206 214
194 205 212
202 212 220
194 205 211
198 209 219
196 207 215
187 200 206
95 123 74
93 120 72
94 121 72
93 120 72
92 119 71
95 122 73
93 120 72
92 120 72
94 121 73
92 120 72
95 122 73
95 122 73
98 125 75
95 122 73
92 118 70
92 119 71
94 122 73
95 122 73
93 120 71
97 124 74
94 122 73
93 120 72
90 117 71
93 120 72
96 124 75
94 121 72
92 118 70
167 180 176
201 212 221
197 208 216
204 214 222
201 212 224
195 205 213
195 206 214
200 211 221
199 209 218
198 208 216
202 213 222
200 210 219
202 212 220
204 214 224
205 215 222
201 210 217
206 216 225
199 208 213
197 208 217
206 215 222
193 204 211
201 211 222
203 213 222
193 205 213
201 211 221
205 214 224
203 213 221
170 183 181
92 119 71
94 121 72
91 118 71
86 113 67
98 124 82
114 137 102
130 148 127
146 163 150
167 181 175
176 189 191
191 202 205
201 211 218
204 214 223
206 215 224
201 211 219
203 213 221
201 212 221
207 217 227
196 207 216
203 213 221
203 213 219
195 206 213
197 207 214
198 208 215
196 207 216
197 207 212
162 176 168
94 122 73
92 119 71
95 122 73
94 122 73
94 121 73
96 123 74
94 122 73
92 119 72
95 122 73
95 122 73
93 120 71
96 123 73
98 125 76
95 123 73
98 125 75
88 115 67
95 123 73
93 120 72
96 124 74
93 120 72
95 123 74
92 119 71
94 121 72
95 122 72
96 123 74
117 138 110
199 210 219
204 214 223
209 218 227
202 213 221
199 210 220
198 209 216
201 212 221
208 217 227
196 206 214
203 213 221
197 208 216
196 207 214
206 215 224
195 206 215
193 204 212
201 212 222
208 218 229
202 213 222
198 208 215
197 208 218
204 213 223
196 207 216
195 205 211
200 210 218
198 209 218
155 171 159
91 118 71
93 121 72
97 124 74
92 119 70
95 122 74
96 123 73
93 120 72
93 121 72
98 125 75
97 124 74
91 119 71
95 123 73
93 120 71
92 119 71
95 122 73
93 120 72
96 123 74
93 120 73
94 121 73
95 123 73
93 120 72
91 117 70
97 125 75
96 123 79
186 197 202
196 207 218
204 213 223
199 210 219
197 207 215
191 203 210
196 206 213
192 204 213
195 205 212
203 213 221
192 204 211
200 210 219
194 205 213
199 210 218
191 202 208
207 217 227
199 209 217
204 215 225
204 214 221
201 211 220
195 205 212
198 208 214
199 209 217
180 192 194
97 124 78
92 119 71
95 122 73
91 118 70
93 119 71
94 122 73
95 122 73
97 124 75
90 117 69
94 121 73
91 118 71
96 124 74
93 121 73
96 123 74
95 123 74
93 121 73
94 122 73
97 124 74
92 119 71
99 126 76
92 119 71
97 124 77
191 202 206
201 211 217
197 208 216
191 202 209
205 215 224
197 208 216
195 207 219
199 209 216
202 212 221
191 202 207
198 208 215
202 211 220
200 210 217
199 210 218
194 205 211
193 204 212
203 213 221
203 213 223
198 209 217
202 212 221
196 206 213
131 151 132
101 126 83
111 134 99
135 153 136
145 161 152
148 165 153
179 193 195
195 205 212
197 207 214
196 207 214
192 203 210
201 212 221
196 207 214
205 216 226
197 208 216
199 210 218
198 208 215
201 211 219
201 212 222
182 194 196
103 130 85
90 116 69
94 121 72
92 119 71
93 121 72
93 120 71
96 124 74
96 123 74
93 120 71
92 119 71
91 117 70
92 119 70
93 120 72
91 118 71
95 122 73
92 118 73
136 155 137
177 190 190
196 207 214
207 217 227
201 210 217
196 207 216
203 213 223
154 169 160
94 121 72
89 116 69
93 120 72
96 124 75
95 122 73
89 115 68
94 121 72
89 115 68
92 119 71
93 120 72
93 120 73
92 119 71
96 124 74
95 123 74
89 116 69
92 120 72
92 118 71
98 125 75
95 122 73
94 120 72
95 122 75
134 151 133
165 180 174
200 210 217
121 141 116
88 115 67
94 121 72
98 126 76
96 124 75
93 121 72
95 123 74
91 118 70
95 122 73
95 122 73
95 122 73
96 123 73
92 119 72
89 116 69
94 121 73
92 120 72
94 122 73
88 114 67
94 121 72
95 122 73
95 122 73
90 117 71
93 121 73
94 121 71
91 118 71
133 152 130
197 208 215
200 210 219
197 209 218
192 203 210
204 214 225
202 212 219
203 214 223
198 208 218
204 214 223
184 196 200
149 165 154
121 141 116
92 118 71
97 124 75
92 119 72
91 118 71
91 118 70
95 122 73
91 117 70
91 119 71
92 119 71
95 122 73
93 121 73
92 119 71
91 117 69
97 125 75
172 185 182
199 209 217
193 205 212
203 213 222
203 213 223
198 208 216
202 212 221
194 205 212
204 214 222
199 209 216
205 215 225
200 209 217
199 211 220
201 213 224
194 204 210
195 206 215
204 214 225
202 211 219
202 212 222
203 211 218
196 207 215
204 213 222
205 214 222
205 215 225
200 211 222
201 211 219
202 212 220
147 164 150
90 117 71
92 118 70
94 121 73
91 118 70
93 120 72
95 122 73
96 124 75
110 134 102
143 159 145
167 182 179
181 193 197
198 209 217
192 203 208
199 209 216
201 211 222
191 203 208
201 211 218
206 216 226
197 207 214
205 215 224
190 201 207
199 209 217
197 207 214
194 204 211
207 216 226
194 204 210
169 183 179
88 114 69
94 121 72
99 127 76
93 120 71
96 123 73
92 119 72
94 120 72
96 123 74
91 118 70
92 119 70
92 119 71
93 120 72
92 119 71
91 118 70
93 120 72
94 121 73
93 120 72
90 117 70
92 118 70
89 117 71
95 123 74
96 123 74
93 120 72
96 123 74
97 124 75
93 120 71
95 121 75
199 209 217
199 209 216
199 209 215
204 214 223
196 207 215
191 203 209
203 214 226
206 215 223
202 212 220
200 210 218
197 207 216
209 218 228
201 211 218
198 209 217
193 205 213
205 215 223
199 209 217
201 211 220
201 212 223
204 214 223
197 208 217
201 212 221
198 209 217
192 204 211
202 211 219
195 206 215
193 204 212
127 148 125
93 121 72
96 123 74
94 122 73
94 121 72
92 119 71
90 117 69
93 120 72
93 121 73
93 120 72
95 122 73
94 121 72
98 124 76
112 134 104
129 148 128
141 159 142
146 162 151
160 174 168
182 194 196
191 202 209
201 211 218
204 214 224
195 206 214
196 206 213
195 206 215
197 208 217
200 210 218
110 133 99
95 122 73
96 124 74
95 123 74
92 118 70
93 119 71
93 120 71
93 120 72
91 118 70
97 124 74
94 122 73
97 124 75
92 119 71
88 115 68
92 119 71
94 121 73
94 121 73
91 119 71
93 120 72
93 119 71
95 122 74
92 119 71
93 120 71
94 121 73
93 120 72
92 119 71
174 187 186
203 213 222
204 213 222
201 210 219
189 201 207
198 208 216
205 215 225
196 208 218
202 212 222
194 204 212
192 204 210
199 209 218
202 213 224
201 212 220
203 213 223
207 217 226
197 208 215
198 209 218
199 209 216
198 209 215
197 208 216
202 212 221
203 212 219
200 211 219
198 209 217
191 203 207
99 124 82
95 122 72
94 121 73
97 125 76
92 119 71
93 121 72
94 121 72
96 124 74
90 117 70
93 121 72
95 122 73
93 121 72
93 120 72
96 123 74
95 123 74
94 121 72
93 120 72
91 118 70
95 122 73
93 121 72
95 123 74
94 121 73
95 122 73
90 116 69
161 177 170
196 207 216
203 213 223
198 209 217
206 216 225
200 211 220
188 200 206
192 203 208
190 201 209
201 211 222
197 208 218
199 210 219
198 208 216
199 209 217
200 211 220
200 209 218
195 204 211
200 210 217
205 214 222
191 202 207
200 210 218
195 205 211
200 210 218
188 200 206
113 137 101
95 123 74
96 124 75
94 121 72
93 120 72
92 119 71
91 119 71
94 121 73
92 119 71
91 118 71
92 119 71
93 121 72
95 122 73
98 125 76
95 121 72
96 123 73
94 121 72
88 115 68
93 120 71
96 123 74
95 122 73
96 124 75
165 179 174
204 214 223
194 205 213
198 209 218
199 209 218
195 206 215
200 211 222
199 209 216
198 209 217
206 216 226
201 211 219
189 200 207
190 201 205
195 206 212
196 208 217
195 206 216
188 200 204
181 193 196
162 176 172
151 167 158
145 162 150
175 188 189
186 198 203
200 210 217
196 206 213
206 216 224
199 209 217
188 199 206
203 213 222
199 210 219
199 209 217
199 210 217
194 204 211
202 212 220
203 213 221
198 208 216
195 206 214
205 215 224
198 208 214
187 199 204
182 195 198
104 129 93
91 118 70
96 123 74
92 119 72
97 124 75
93 120 72
93 120 72
93 121 73
94 120 72
94 121 72
94 121 72
97 126 76
91 118 70
95 122 73
98 124 74
93 121 72
92 119 71
89 116 69
94 121 72
111 134 98
150 168 154
195 206 211
202 212 221
196 207 216
153 168 162
93 120 72
90 117 70
90 116 69
93 120 72
93 120 71
90 117 69
95 122 73
94 121 72
95 122 73
95 122 74
96 124 74
92 119 71
94 121 73
95 123 73
94 121 72
93 121 73
92 119 72
93 121 73
93 120 72
92 119 71
94 121 72
89 115 69
92 119 71
98 124 81
155 170 162
146 163 150
97 122 80
93 119 71
92 119 71
93 119 71
90 116 69
92 118 70
94 121 73
91 118 71
94 121 72
94 122 73
94 121 72
93 121 73
94 121 72
93 120 72
92 119 71
93 119 71
86 112 67
95 122 74
90 117 69
95 123 74
93 119 71
95 122 74
87 114 67
117 138 109
193 203 211
199 210 218
202 212 222
202 212 221
193 203 210
198 209 218
207 217 226
197 206 212
194 204 211
198 208 215
197 208 216
196 207 213
189 201 206
164 177 175
136 154 137
94 121 75
93 119 70
93 120 71
94 121 72
92 119 71
96 124 75
94 121 73
92 119 71
88 115 68
96 123 74
93 120 72
179 191 191
192 204 214
203 214 225
198 209 218
202 213 222
199 208 215
203 213 222
194 204 210
200 211 218
196 207 215
199 209 216
197 208 217
190 201 206
191 202 209
198 208 215
194 204 210
190 201 205
203 213 222
199 209 215
199 209 214
201 211 220
200 210 218
196 207 216
194 206 214
198 208 217
203 213 221
203 212 221
123 144 119
92 119 70
95 123 74
92 119 72
90 117 70
94 121 72
94 121 73
94 121 72
95 121 72
93 120 71
93 120 72
94 122 72
107 131 97
134 153 134
150 165 157
172 185 186
190 201 208
202 211 218
202 212 221
197 208 215
196 207 213
194 206 213
200 210 221
199 210 219
201 212 221
197 207 214
201 212 221
152 169 159
93 120 71
93 120 72
92 119 71
93 120 71
92 119 71
94 122 73
94 122 73
92 119 71
94 121 72
95 122 73
94 121 73
95 122 74
95 122 73
95 122 73
92 119 71
94 122 73
94 121 72
95 122 72
94 121 72
92 119 72
95 123 74
94 121 73
91 117 70
94 121 72
95 123 74
91 118 70
129 148 126
204 214 223
201 211 220
195 205 211
200 211 218
196 207 215
201 212 222
197 208 215
198 208 215
191 202 208
204 214 223
194 205 212
201 211 219
195 206 215
201 212 222
201 212 221
191 202 209
201 210 217
194 204 212
200 210 218
195 205 211
203 213 221
203 213 222
200 211 219
203 213 223
203 213 224
200 210 217
188 199 205
98 124 77
93 119 71
95 122 73
94 121 72
93 119 70
92 118 70
96 123 74
95 122 72
94 121 72
92 119 71
92 118 70
94 121 72
91 118 70
93 120 72
93 119 71
94 121 73
90 117 70
95 122 73
94 122 73
91 117 70
97 123 76
117 139 108
125 145 117
134 152 133
157 173 168
158 173 166
176 190 188
122 142 119
111 133 100
95 120 77
95 122 73
92 119 72
95 122 74
91 118 71
96 124 74
93 120 72
93 120 71
93 120 71
97 125 75
95 122 74
94 121 72
94 121 72
93 120 72
93 120 72
90 117 70
92 119 71
97 125 75
92 119 71
96 123 74
94 121 73
94 121 72
93 121 72
116 138 109
202 212 219
201 211 220
209 218 227
198 209 217
203 212 219
201 211 219
196 207 217
195 206 216
199 209 216
198 209 215
194 204 213
197 208 215
209 217 226
193 205 213
199 210 218
199 209 217
196 207 216
202 212 222
193 204 210
193 204 211
195 206 212
205 215 223
197 208 216
206 215 225
200 210 217
146 163 148
95 123 74
95 122 73
95 122 74
91 118 71
90 117 69
94 122 73
92 119 71
96 123 73
93 120 73
92 118 70
95 122 73
97 124 74
92 118 70
96 123 74
93 120 72
93 121 72
93 120 72
97 124 74
91 118 71
93 120 71
95 122 73
97 125 75
93 120 72
106 129 95
194 205 212
206 216 226
197 208 214
193 204 213
200 210 216
201 212 222
200 211 220
201 212 221
203 213 222
199 209 218
201 211 221
198 208 218
202 213 224
195 205 213
198 208 215
189 201 208
184 196 202
192 203 211
195 206 212
193 204 212
197 208 216
206 216 226
197 208 216
157 171 162
95 123 74
89 116 69
93 120 72
95 123 74
92 119 71
93 120 72
94 122 73
94 121 73
95 122 73
88 115 68
95 122 72
93 120 71
93 121 72
95 123 74
94 121 72
94 122 73
95 123 74
97 125 76
91 118 71
93 120 72
90 117 71
131 151 128
200 212 223
202 212 222
196 208 217
200 211 220
201 211 219
204 213 221
207 216 224
197 207 215
186 198 201
176 190 188
180 192 195
154 169 160
139 157 145
129 148 125
128 148 122
100 124 84
94 122 74
90 117 70
94 121 73
95 123 74
153 169 157
198 208 214
190 202 211
198 209 216
201 212 221
202 211 219
199 210 219
194 205 212
190 201 207
207 217 227
204 213 221
197 208 218
202 212 221
197 209 218
205 214 223
204 213 220
196 207 215
200 210 217
197 208 218
186 198 204
110 134 98
93 120 72
93 120 72
96 124 74
93 120 72
94 121 73
89 115 69
93 120 71
97 124 75
94 121 73
92 118 70
88 114 68
87 114 68
94 121 72
92 119 70
92 119 71
95 123 74
96 123 73
93 119 71
90 116 69
93 120 71
92 118 70
98 125 77
141 159 143
160 175 169
180 193 197
96 123 74
93 120 72
94 121 73
93 120 71
93 120 72
92 119 71
89 116 69
95 122 73
97 125 74
98 126 76
92 119 71
93 120 72
89 116 70
95 122 74
90 117 70
93 120 72
93 120 72
91 118 71
96 123 73
96 122 73
93 120 72
94 121 72
94 121 73
94 121 73
176 188 187
197 207 214
192 203 208
170 183 180
127 147 123
92 118 70
96 123 74
93 121 72
95 122 72
92 119 71
95 122 73
95 122 73
94 121 72
92 119 71
92 119 71
94 121 72
95 121 72
94 121 72
97 125 75
95 122 73
92 119 71
93 120 72
97 124 75
92 119 71
92 118 70
118 140 111
194 204 209
202 212 222
196 206 214
196 207 214
198 209 217
202 212 220
199 210 218
202 211 219
203 214 224
198 209 216
198 209 217
196 208 217
200 211 220
198 208 215
192 203 209
192 203 210
163 177 170
131 150 129
105 129 89
91 119 71
92 119 71
97 124 75
95 122 73
94 121 73
92 119 71
93 119 71
189 200 205
191 202 208
195 205 211
197 209 218
195 207 214
194 204 211
197 209 219
197 207 216
203 213 220
202 213 223
203 213 224
200 211 220
205 215 224
194 204 212
201 212 220
203 213 224
205 214 222
200 210 219
199 210 219
194 204 211
197 207 215
197 208 215
192 202 209
198 208 217
194 206 215
203 213 222
198 209 216
102 129 84
98 125 74
91 118 71
92 119 71
94 121 72
94 122 73
92 118 70
93 119 72
94 121 72
95 122 74
96 123 74
94 121 73
97 124 74
92 119 71
90 117 70
92 119 71
95 122 76
133 152 130
147 164 153
172 185 184
190 202 207
202 212 219
195 206 212
203 213 223
197 208 218
198 209 218
199 210 218
128 148 126
97 125 75
92 119 71
92 119 72
98 125 75
94 121 73
90 117 69
97 124 74
90 117 69
91 118 71
95 122 74
93 120 71
93 120 72
92 119 71
93 120 72
95 123 73
100 127 76
91 118 70
98 126 76
94 121 73
93 120 72
93 120 72
89 116 68
93 120 72
96 123 73
92 120 72
97 125 75
158 173 164
198 208 215
198 209 219
196 207 217
195 206 215
201 210 216
197 208 216
203 212 220
199 210 220
193 204 211
203 212 220
209 219 231
200 210 216
199 208 215
197 207 214
207 217 227
194 205 210
200 210 219
189 200 206
200 209 215
205 215 225
199 209 218
193 204 210
200 210 218
203 213 221
197 207 217
210 219 229
155 170 162
96 123 74
91 119 71
93 120 71
90 117 70
94 121 73
95 122 73
98 126 75
93 120 72
88 115 68
94 120 72
95 122 73
93 121 73
94 122 74
97 124 75
94 120 72
92 119 71
94 121 73
94 120 72
93 120 71
98 126 75
89 114 67
94 121 72
94 121 72
91 118 70
95 122 73
90 117 69
182 194 197
201 210 219
202 212 220
199 209 215
190 201 207
179 191 192
181 193 193
165 179 174
158 173 167
146 162 148
133 151 133
128 147 124
109 132 99
100 126 83
94 121 73
95 122 74
88 114 68
94 121 73
93 121 72
96 123 74
92 119 71
91 118 70
94 121 72
91 118 70
95 123 73
92 119 70
163 177 173
192 202 207
195 207 214
199 209 216
198 209 218
201 211 221
195 206 212
201 211 220
188 200 207
201 212 221
206 215 224
205 214 223
196 207 216
197 207 213
199 210 219
197 208 216
201 212 224
198 209 217
196 206 213
199 210 217
192 203 209
197 208 217
196 206 213
196 207 215
207 216 225
176 189 191
93 120 72
91 118 71
95 121 72
91 117 70
95 122 73
93 120 72
98 125 76
94 121 72
91 118 71
92 119 72
94 121 72
95 122 73
94 122 73
93 120 73
92 119 71
91 117 69
93 120 71
93 121 72
92 119 71
97 124 75
94 121 73
94 121 73
94 121 73
93 120 72
181 194 197
195 206 214
200 211 219
192 204 212
196 206 213
200 210 218
199 209 216
204 214 223
200 210 217
195 205 212
198 208 217
205 214 225
201 211 220
199 210 218
199 209 218
194 204 210
196 206 214
201 211 219
201 211 218
190 201 206
202 212 223
202 212 221
201 212 221
174 187 187
92 119 71
95 122 73
91 118 70
94 121 72
94 120 72
93 121 73
92 119 71
95 122 73
90 118 71
90 118 71
96 123 74
96 123 74
92 119 71
95 123 74
94 121 73
91 119 72
93 119 71
94 121 73
91 119 71
92 119 72
99 125 80
128 149 124
175 189 189
168 181 179
171 184 180
155 171 161
151 167 155
129 147 126
124 144 118
105 130 91
98 124 77
92 120 71
93 120 72
93 119 71
94 121 73
94 121 72
93 120 71
90 116 69
93 120 71
95 122 74
89 116 70
93 120 72
132 151 133
193 204 211
205 215 224
192 204 213
196 207 215
199 209 218
196 207 214
201 211 218
199 210 219
197 207 215
196 207 215
202 213 223
195 206 216
198 209 218
199 209 216
194 205 211
200 210 218
201 211 222
201 210 219
188 200 207
132 150 130
92 119 71
92 119 72
95 123 73
92 118 70
91 117 70
98 125 75
94 121 73
92 119 71
91 118 70
95 123 74
90 118 70
91 118 71
92 119 71
93 120 72
108 132 96
100 124 84
97 123 79
90 117 69
93 120 71
95 122 73
93 119 72
91 118 70
90 117 70
92 118 70
91 118 71
101 126 87
144 160 149
123 143 116
94 122 74
95 123 74
94 121 72
90 117 69
95 121 73
94 121 73
94 122 74
96 124 75
95 122 73
91 118 70
88 114 68
88 115 68
91 118 70
92 118 71
91 117 69
94 121 72
93 120 71
88 115 69
93 120 72
97 125 75
93 120 71
93 120 72
176 188 188
191 202 208
197 208 219
204 214 223
196 207 213
176 189 193
167 182 179
120 142 110
94 122 73
90 117 70
90 117 69
94 121 72
95 122 73
91 118 71
90 118 71
96 123 74
94 121 73
96 123 74
91 117 70
93 120 71
89 117 70
90 117 70
93 120 72
95 123 73
96 123 74
109 131 101
207 215 224
202 212 220
201 211 220
201 212 222
192 203 210
202 212 220
202 212 221
202 212 221
202 211 219
194 204 210
194 205 213
193 204 212
206 215 224
191 201 206
193 204 212
194 205 212
196 206 213
189 201 208
194 206 216
184 196 198
153 169 165
113 134 103
96 124 74
89 116 69
89 115 68
92 119 71
182 195 199
200 211 221
205 214 222
206 216 225
201 211 218
203 213 221
194 205 211
197 207 216
201 211 220
192 203 209
192 203 210
202 211 219
197 208 216
197 207 213
198 209 218
209 218 227
199 209 215
193 204 210
196 207 215
198 209 218
202 213 222
192 203 211
195 207 216
198 209 217
190 201 205
207 217 227
188 200 207
95 123 74
90 117 70
95 123 73
93 120 72
90 117 70
92 119 71
92 119 71
95 123 73
96 123 74
94 121 72
92 120 72
92 118 70
93 120 71
95 122 73
92 120 71
94 121 72
97 124 75
92 119 70
92 119 71
93 120 72
96 123 76
116 138 105
150 166 154
179 191 192
191 203 207
201 211 220
195 205 213
99 124 84
94 122 73
98 125 75
93 120 73
93 120 72
96 124 75
93 121 72
95 122 73
91 118 70
92 119 72
92 119 70
93 120 71
93 120 72
92 119 71
97 124 74
92 119 71
90 116 69
93 121 73
90 116 69
93 120 72
94 122 73
90 117 70
95 122 73
92 119 71
95 122 74
90 117 70
94 121 72
177 190 188
202 212 220
200 211 221
193 204 211
197 208 217
205 214 224
201 211 219
204 215 224
206 216 227
198 209 219
203 213 221
200 210 219
201 211 220
201 211 216
202 212 221
199 210 218
194 204 212
197 208 216
197 208 216
197 208 214
194 204 209
203 213 221
200 211 220
191 202 209
194 205 212
193 203 209
197 208 215
116 138 108
95 122 73
96 124 74
90 117 70
97 124 75
90 116 69
88 115 69
95 122 73
92 118 71
92 120 72
90 116 69
95 122 74
94 121 72
89 116 69
91 118 71
90 117 69
97 125 75
95 122 73
94 121 73
91 118 70
95 122 73
96 124 75
95 122 73
93 120 72
94 122 73
95 122 73
126 147 120
199 210 218
195 206 214
201 211 219
205 214 223
195 206 212
196 206 214
201 211 220
198 209 216
206 216 225
194 205 212
207 217 226
188 200 207
206 215 223
202 212 221
190 201 206
191 203 207
181 193 192
168 182 178
173 186 183
149 165 155
143 160 147
147 164 151
132 151 133
124 145 119
122 142 115
118 140 110
200 210 218
198 208 215
201 211 220
198 208 218
205 214 223
197 208 215
199 209 219
195 205 210
203 213 223
204 214 224
199 210 218
197 207 216
206 216 225
202 212 223
203 215 226
204 213 219
195 206 214
186 197 202
201 211 219
198 209 216
201 211 220
199 209 215
194 205 212
198 209 219
200 209 217
116 138 109
89 116 69
94 120 72
94 121 73
91 118 70
94 121 73
92 120 72
90 116 69
94 121 72
94 122 73
88 114 68
93 120 71
92 119 71
96 124 74
95 122 73
93 120 72
93 120 71
91 118 71
91 118 70
95 123 73
98 126 76
89 116 69
94 121 73
95 122 73
155 170 161
190 201 206
201 212 224
199 210 219
204 214 222
198 208 215
203 213 221
201 211 220
205 215 224
192 204 211
193 203 210
196 207 215
204 213 220
188 200 206
196 206 215
195 206 212
208 217 226
197 207 215
196 206 214
189 200 205
202 213 223
196 206 213
192 203 212
182 195 197
105 129 89
96 124 74
90 118 71
96 124 74
95 122 74
93 119 71
97 124 75
90 117 69
95 121 72
113 137 101
117 139 108
117 138 105
135 153 133
145 163 148
146 163 148
147 163 149
164 178 176
173 186 185
173 186 188
179 192 196
199 209 217
199 210 218
108 132 95
95 122 73
92 119 72
95 122 74
94 121 73
93 120 72
91 119 71
94 122 73
93 120 72
91 118 71
95 122 73
93 120 72
93 120 71
95 122 73
89 116 68
91 118 71
94 121 72
92 119 71
97 124 74
90 117 70
107 130 94
199 209 217
201 211 218
200 210 217
201 211 219
201 212 221
204 215 225
206 215 225
203 213 221
198 209 219
200 211 221
197 208 216
197 208 217
194 205 213
190 201 206
201 211 221
193 204 210
199 210 219
194 204 213
201 211 219
134 152 131
96 123 73
93 120 72
90 117 70
96 123 74
88 114 68
96 123 73
97 125 75
90 117 69
92 119 72
92 120 72
90 116 69
94 121 73
96 123 76
98 124 80
116 138 110
204 215 225
200 210 218
201 212 221
198 208 216
189 200 204
199 209 217
189 201 209
191 203 208
187 198 203
182 194 198
183 195 197
179 191 194
139 156 141
139 157 139
118 140 106
125 145 118
155 170 161
166 181 176
146 162 150
153 168 156
149 166 153
151 167 158
154 169 160
135 154 135
140 159 144
150 166 153
146 162 150
131 150 130
132 150 132
133 153 131
141 158 140
131 150 126
129 147 126
120 141 116
117 137 110
114 137 104
147 165 152
193 204 209
180 193 199
200 211 220
193 203 210
195 206 214
203 212 220
208 217 225
181 193 195
159 175 169
115 138 109
91 118 71
96 124 76
92 120 72
95 122 73
91 118 70
96 123 74
94 121 72
89 116 69
98 125 75
94 121 73
99 126 76
97 125 75
95 122 73
92 119 72
116 137 110
198 208 214
198 209 217
201 210 220
196 206 214
195 206 212
201 211 222
201 210 218
192 203 210
197 207 213
189 201 208
196 207 215
199 208 215
199 209 215
196 208 217
195 206 213
200 210 217
199 210 220
192 203 208
197 207 216
196 206 212
196 207 213
194 205 211
190 202 207
149 166 152
139 158 138
94 121 73
200 211 220
199 209 217
194 205 211
195 206 214
198 209 219
199 209 217
199 210 218
201 211 219
203 213 222
201 211 219
199 209 217
198 208 216
202 212 219
195 205 211
193 204 212
198 208 215
202 212 220
194 205 212
203 212 222
202 212 220
207 216 226
196 207 215
193 205 213
202 212 221
201 211 220
196 206 214
176 189 190
91 118 71
91 118 70
95 122 73
93 120 72
94 121 73
90 116 69
92 119 72
92 119 71
94 121 73
95 122 72
96 123 73
95 122 73
92 119 71
95 122 73
93 120 72
94 121 72
93 120 71
91 117 70
93 120 72
94 122 73
92 119 70
89 115 68
92 119 71
96 124 74
94 121 73
99 123 81
147 164 151
145 162 150
137 154 137
110 133 99
91 118 70
95 123 74
88 114 68
92 119 70
92 119 71
95 123 74
87 114 68
93 121 72
93 120 71
93 121 72
90 117 70
95 123 73
96 124 75
90 116 69
93 120 72
93 119 71
93 120 71
92 118 70
96 123 73
94 121 73
91 118 70
92 119 71
91 118 70
105 128 90
201 212 221
204 214 221
199 209 216
203 213 220
199 209 216
198 208 216
201 211 219
187 199 204
198 209 217
194 205 213
197 207 216
186 197 202
197 208 218
196 207 213
192 203 210
200 210 218
201 211 218
204 213 221
201 210 217
195 205 211
199 209 216
202 211 220
198 208 214
204 214 223
197 208 216
207 216 225
172 184 184
91 118 70
93 120 71
92 119 72
94 121 72
93 120 72
96 123 74
93 120 71
96 123 74
94 121 73
92 119 71
91 118 70
97 124 74
90 117 70
92 119 71
92 120 72
92 119 71
94 121 73
90 117 69
96 123 74
91 117 70
92 120 72
94 121 73
95 122 73
94 121 72
88 115 67
95 123 74
155 169 161
195 206 216
195 206 213
194 205 216
194 205 212
204 214 223
205 215 224
197 207 214
202 212 220
204 214 222
200 210 217
199 209 217
198 208 215
201 211 218
202 211 219
189 200 206
195 205 213
190 201 205
205 215 225
197 207 215
193 204 211
186 197 204
197 207 214
204 214 224
199 208 216
197 207 214
144 161 148
93 120 72
107 130 98
104 128 90
124 143 120
129 149 128
137 156 136
145 161 149
160 175 169
168 181 179
166 181 177
150 165 155
173 186 184
162 176 174
180 192 193
171 184 182
181 194 197
186 197 200
195 206 213
186 198 203
190 201 208
196 207 214
202 213 223
198 209 218
205 214 222
167 181 178
94 121 73
92 119 71
93 120 71
91 118 71
94 121 72
92 119 71
95 122 72
93 120 72
92 119 72
93 120 72
94 121 72
94 122 73
90 117 70
89 116 69
95 122 74
94 122 73
90 117 71
94 121 72
95 123 74
90 117 69
93 120 71
91 119 71
91 117 70
110 133 99
191 202 208
202 212 222
190 201 208
195 205 212
188 199 204
196 206 214
199 210 219
194 205 212
206 215 223
196 207 216
203 213 220
197 207 215
197 207 215
198 209 217
199 210 219
191 203 210
185 197 200
188 199 201
180 193 195
171 184 182
174 187 188
173 186 185
170 184 179
166 180 175
153 168 161
154 170 161
169 183 181
172 186 186
179 192 192
181 193 193
190 202 208
185 197 201
202 211 221
203 212 220
205 215 227
190 201 209
201 211 221
202 212 221
192 203 210
198 209 216
196 206 213
198 208 216
199 209 216
202 211 219
199 209 216
145 162 148
96 123 74
89 116 68
92 119 71
95 123 73
93 119 70
91 117 69
94 121 72
90 117 69
91 118 70
94 122 73
91 117 69
93 119 71
96 123 74
93 120 72
94 121 73
100 127 81
97 122 78
99 124 86
102 128 88
109 132 96
174 187 186
185 197 200
178 191 190
180 192 193
180 192 196
180 192 193
156 171 168
176 190 189
167 181 180
172 184 180
175 188 187
159 174 165
152 167 157
157 172 163
155 171 163
141 158 145
154 170 160
147 164 153
143 160 148
177 191 193
164 178 177
164 178 176
170 183 181
181 193 195
178 191 191
186 198 202
187 199 203
189 201 208
186 197 198
194 205 212
203 212 220
201 212 220
197 208 216
197 206 212
189 199 206
193 204 213
200 210 218
187 199 205
199 209 216
191 201 208
190 201 209
188 198 203
198 209 216
185 196 202
197 208 214
203 213 224
201 211 219
196 206 214
133 151 134
95 123 74
94 122 73
94 122 73
97 123 81
123 143 120
177 190 194
205 215 225
196 206 212
195 206 212
200 210 220
202 213 221
199 210 218
191 202 208
194 205 213
198 208 215
193 205 212
193 204 211
199 210 219
199 210 219
191 202 211
192 203 210
195 205 210
200 209 216
164 177 174
93 121 72
93 119 71
97 124 75
92 119 71
93 120 71
98 124 80
106 129 95
102 126 90
111 133 99
116 139 109
109 131 96
136 154 137
178 191 189
184 196 198
181 193 194
177 190 191
169 182 177
178 191 192
173 186 185
163 177 176
178 190 188
165 179 175
156 171 163
156 170 163
146 162 151
139 156 141
158 173 164
137 156 136
153 169 159
151 167 155
148 164 150
150 167 155
166 180 179
160 174 167
170 184 181
156 172 166
164 179 173
181 192 193
157 173 164
171 184 180
173 186 187
166 180 177
168 181 178
181 193 195
175 187 188
180 193 195
166 180 178
177 190 191
164 178 175
185 195 197
177 189 189
156 171 165
175 187 187
192 203 209
183 195 200
188 199 205
196 206 213
196 205 212
200 210 217
199 210 217
196 207 214
197 208 214
198 209 214
188 199 206
200 210 219
194 205 214
200 209 216
189 200 204
195 206 211
191 202 209
200 210 220
202 211 219
200 210 219
201 211 218
196 207 214
197 208 217
198 208 216
172 185 185
97 124 75
95 123 73
94 121 73
91 117 70
94 122 73
90 116 69
92 120 72
97 124 74
89 115 68
97 126 76
93 120 72
94 122 73
94 121 72
95 122 73
95 122 74
89 116 68
93 120 72
93 120 72
98 126 76
95 122 73
93 120 71
94 121 72
94 121 73
95 122 73
90 117 70
93 120 72
159 174 166
197 208 217
197 207 215
199 210 217
184 196 199
170 183 179
150 166 157
119 140 115
97 124 77
90 116 70
93 120 72
92 119 71
91 117 70
91 118 70
94 121 72
91 118 70
90 117 70
95 122 73
89 114 67
91 118 70
97 124 75
89 116 69
93 120 72
87 114 69
88 115 69
96 123 74
91 117 70
147 164 151
190 201 209
199 209 214
194 204 211
201 211 217
194 204 211
197 207 215
201 210 218
195 205 212
199 210 219
199 208 216
187 200 207
195 205 212
199 208 215
197 208 215
197 208 216
194 205 213
194 206 214
197 207 214
192 203 209
202 213 223
192 203 210
202 213 225
199 209 216
202 212 220
192 203 211
199 209 216
155 170 160
95 123 74
92 120 72
93 120 72
94 121 72
91 118 70
94 121 72
93 119 70
93 120 72
93 121 73
95 122 73
90 117 70
94 122 73
93 120 72
91 117 69
87 114 67
92 119 71
91 118 70
93 120 72
93 120 72
95 122 73
94 122 73
91 118 71
91 118 71
92 119 71
87 113 66
115 137 107
202 212 221
204 215 226
187 200 208
193 204 212
197 208 216
201 211 219
197 207 215
195 207 215
200 210 220
202 211 217
194 204 212
199 209 218
201 212 220
193 203 211
198 207 215
196 208 218
199 210 219
202 212 220
203 213 222
196 207 215
197 206 213
198 207 214
198 208 216
201 212 220
203 212 220
186 197 202
94 121 73
95 122 73
92 119 71
91 118 71
89 115 68
91 118 70
93 119 70
94 122 73
94 121 73
91 117 70
90 117 69
94 121 73
94 121 73
90 118 71
96 123 73
90 117 69
95 121 71
92 119 71
91 118 70
91 119 71
89 116 70
92 118 70
101 125 87
108 133 95
108 132 95
178 191 193
183 195 196
184 196 201
187 199 202
179 192 192
182 194 196
152 168 160
180 192 195
177 190 193
164 179 174
169 183 181
161 176 169
161 176 174
159 174 167
164 178 175
162 177 171
171 184 181
161 175 174
174 187 186
163 178 174
160 175 169
172 185 182
170 183 181
172 186 185
139 157 142
129 148 130
131 150 129
140 157 141
130 149 128
126 146 124
140 158 145
123 143 119
130 149 127
127 148 125
135 153 137
127 147 124
120 140 113
110 133 99
108 131 102
115 138 106
121 142 115
129 148 128
122 142 119
128 148 127
125 144 124
138 156 137
129 149 128
150 166 156
160 175 169
163 177 172
171 185 188
162 177 173
150 166 156
168 181 180
165 180 178
160 175 170
156 171 164
142 159 147
157 172 163
159 173 166
161 175 168
152 167 156
141 158 147
147 163 150
144 162 147
138 157 139
148 163 151
136 154 139
149 165 152
170 183 178
174 186 186
182 195 198
164 179 175
177 189 190
163 177 174
184 195 198
178 191 192
177 189 187
187 198 201
188 199 202
188 200 206
191 202 209
196 207 213
191 203 208
197 208 215
191 203 211
200 209 217
195 205 212
204 214 223
194 206 215
136 155 137
90 117 70
90 117 69
93 120 71
96 122 73
90 117 70
94 121 72
92 119 70
91 118 70
94 121 72
94 121 73
93 120 71
93 120 71
96 122 73
92 119 71
91 118 70
91 118 71
92 119 71
92 118 71
146 162 150
193 204 211
194 205 213
197 207 213
205 215 224
196 207 217
196 207 216
198 209 217
201 212 222
202 213 222
207 217 228
201 210 217
193 204 211
198 209 218
190 200 207
197 207 215
193 203 209
184 197 203
189 201 208
190 201 206
202 212 218
197 207 214
204 214 222
188 200 208
199 210 220
205 215 223
192 203 210
196 207 215
196 206 215
193 204 209
146 163 146
90 117 70
90 116 69
93 120 72
93 120 72
92 120 73
95 123 73
118 139 112
146 163 149
186 198 199
190 202 211
195 206 215
193 204 211
196 206 214
194 205 213
195 206 213
196 208 217
191 202 208
198 208 215
196 206 213
188 201 209
205 215 225
202 212 223
199 210 221
154 169 161
91 118 71
91 117 69
91 119 71
92 119 71
89 116 69
90 117 70
91 118 70
91 118 70
89 116 69
95 122 73
92 119 71
94 120 71
93 120 72
120 141 111
163 178 172
182 194 200
190 201 208
203 212 219
191 202 208
193 203 210
205 214 225
202 213 222
198 208 216
197 208 217
187 197 201
96 124 75
92 119 71
95 122 73
93 120 72
96 123 74
91 117 69
90 116 69
88 114 68
93 120 72
93 120 71
90 117 70
93 120 72
94 122 73
91 118 71
93 121 72
92 119 70
92 119 71
92 119 71
94 121 73
92 119 71
95 122 72
93 121 73
89 116 69
98 126 76
92 119 70
107 131 92
196 207 214
199 210 217
196 207 213
183 195 198
153 168 161
126 146 124
97 123 79
95 122 73
91 118 70
91 118 71
93 120 71
91 118 71
95 121 75
98 123 81
98 124 79
95 121 77
92 118 73
101 124 88
103 128 88
116 138 107
109 132 99
103 127 90
115 137 107
115 138 104
122 143 116
118 138 112
163 177 170
178 191 195
185 197 199
187 199 201
183 194 195
176 190 193
189 199 201
186 197 200
176 188 189
181 193 194
177 190 193
170 185 182
182 193 194
190 201 206
171 183 179
169 184 184
167 180 178
167 180 180
173 186 187
171 185 182
175 188 190
172 185 181
152 167 159
163 177 173
154 169 164
172 185 183
161 177 173
149 165 154
149 166 153
160 174 165
145 161 150
157 171 161
143 160 146
143 160 145
148 165 154
146 161 149
135 152 133
102 127 90
108 133 98
139 157 138
150 166 153
156 172 165
154 169 161
157 172 164
156 171 163
146 162 151
135 153 139
152 169 156
149 166 155
152 167 156
146 162 148
160 175 165
137 154 138
149 165 154
138 155 142
158 173 166
153 169 162
168 183 176
162 176 170
156 171 162
163 177 172
162 177 170
160 175 173
164 179 174
149 166 157
163 178 173
162 176 171
163 178 175
159 173 166
159 173 165
165 179 175
156 171 162
170 183 180
164 178 174
156 173 165
165 179 172
172 186 182
170 183 181
168 182 178
171 184 182
157 172 167
148 164 152
141 158 145
150 167 155
146 162 147
142 160 144
146 163 150
148 164 153
141 160 147
138 154 141
142 159 145
147 164 151
138 156 140
139 157 141
157 171 167
145 161 150
149 166 153
137 156 138
149 164 156
147 164 150
132 151 132
141 158 145
156 172 159
154 169 158
152 168 156
147 165 152
134 152 137
154 169 159
165 180 174
155 170 160
147 163 152
159 173 168
161 176 171
162 176 172
159 174 166
155 171 162
153 168 156
167 182 181
150 167 160
151 168 160
166 181 177
162 176 171
159 175 171
154 169 161
165 178 173
163 177 170
155 170 159
168 181 178
157 172 166
144 161 149
154 169 161
147 164 149
154 169 161
172 185 185
157 172 164
152 167 158
156 171 163
157 171 163
155 170 162
156 171 161
170 185 183
166 181 178
175 188 186
171 184 182
162 176 171
160 174 170
169 182 177
163 178 175
167 181 175
167 180 177
165 180 177
170 183 178
163 177 174
167 181 181
165 179 175
168 182 178
168 180 175
177 190 191
145 162 145
122 142 114
124 144 120
130 150 131
114 135 105
126 146 126
132 152 130
118 139 113
126 146 124
117 138 109
132 152 127
126 146 121
117 138 111
107 131 97
106 129 95
120 141 117
110 133 101
110 133 98
109 132 97
114 136 103
107 131 97
112 135 100
101 126 85
99 124 83
140 158 141
198 208 216
198 209 218
203 213 224
199 210 221
193 205 213
197 208 216
196 206 213
198 209 217
196 206 212
186 198 205
195 206 214
195 206 213
191 202 206
204 214 224
206 216 226
200 209 218
199 209 219
203 213 223
205 214 223
183 196 202
205 214 224
198 209 217
181 194 197
92 118 70
95 122 72
93 120 72
95 123 74
91 117 70
92 118 70
93 120 72
88 114 68
96 123 74
89 116 69
95 122 73
90 118 71
96 123 74
94 121 72
95 122 73
92 119 70
92 119 71
95 122 72
95 122 74
93 120 71
92 119 70
127 147 124
193 204 212
206 215 222
200 210 219
201 211 218
191 202 208
199 209 218
195 206 212
197 207 215
195 206 213
200 210 219
201 210 218
192 204 212
199 209 217
192 203 209
199 209 217
195 206 213
206 216 226
200 210 217
197 207 214
192 203 209
147 164 151
93 121 73
93 120 72
89 116 70
90 117 70
92 119 71
95 123 74
89 116 69
94 120 72
97 124 75
94 121 73
93 120 71
91 117 69
95 122 73
91 118 70
90 117 69
95 122 73
87 113 66
90 117 69
142 159 149
197 208 216
201 211 219
194 204 211
192 203 211
196 206 215
192 203 210
194 204 210
199 209 217
207 216 226
201 211 219
191 203 210
191 202 209
200 211 221
196 207 215
196 206 214
193 204 211
166 181 179
184 197 199
197 206 213
191 202 208
196 207 214
194 204 213
195 205 211
194 204 210
193 204 212
194 205 213
202 212 220
193 204 211
190 201 209
193 204 211
173 185 185
93 119 71
93 120 72
88 115 69
91 118 71
93 121 72
96 124 76
90 116 69
92 119 71
91 118 70
123 144 117
170 184 182
198 209 217
193 205 215
193 204 210
195 206 216
202 212 221
195 205 213
195 206 214
199 209 216
198 209 217
191 202 207
194 206 213
193 203 209
173 186 185
91 118 71
95 122 73
92 119 71
95 122 73
91 118 71
89 116 69
90 116 69
94 122 73
92 119 72
94 120 72
88 114 67
93 120 72
95 123 73
96 123 74
94 121 72
89 116 69
119 138 116
158 174 166
186 197 200
192 203 209
198 209 219
193 204 212
198 208 216
190 202 209
192 204 209
94 121 73
94 121 73
95 122 73
90 117 69
90 117 70
92 119 71
91 118 70
94 121 72
96 123 74
92 119 71
91 118 71
92 119 72
94 121 72
91 118 71
92 119 71
90 117 69
94 121 72
96 122 73
94 121 73
96 123 74
92 119 71
93 120 71
95 123 74
93 120 71
96 123 74
113 134 105
191 202 210
200 209 216
189 200 204
201 210 218
189 200 206
191 202 209
201 211 217
168 181 178
161 175 169
116 138 109
95 122 73
93 121 72
95 122 73
93 120 71
93 120 71
93 120 72
90 117 70
89 115 68
95 122 72
92 119 71
91 118 70
92 119 71
92 118 70
90 117 69
90 117 70
93 120 72
172 184 183
202 212 221
186 198 204
193 204 210
198 208 216
189 200 206
196 206 215
190 201 208
204 214 223
195 206 213
196 206 212
199 210 218
198 209 216
203 213 222
199 209 215
195 205 213
194 205 211
199 209 217
191 202 207
203 213 221
201 211 219
201 211 219
196 208 218
205 215 225
206 216 224
196 207 215
199 210 219
110 133 98
94 121 72
90 118 70
94 121 72
91 117 69
95 122 73
91 118 70
95 122 73
90 117 70
96 123 74
88 114 67
91 118 71
92 119 71
101 126 87
119 139 111
157 172 161
161 174 169
196 206 213
192 204 212
195 205 211
193 204 210
210 219 228
191 203 211
195 207 215
196 206 214
195 207 218
193 203 208
92 118 73
92 119 71
90 117 70
91 118 70
95 123 74
95 121 71
94 121 72
92 119 72
95 122 73
91 117 70
93 121 73
90 117 70
99 127 77
94 121 72
95 123 74
91 118 70
94 121 72
90 116 69
87 114 68
92 118 71
96 124 75
92 118 70
95 122 74
94 122 74
93 120 72
95 121 72
132 151 132
194 204 209
185 196 201
204 214 221
190 200 206
200 209 217
196 206 213
198 208 215
197 207 213
197 206 214
191 202 209
198 209 220
204 213 223
195 206 213
189 200 206
202 213 222
187 199 206
202 212 220
196 207 214
189 201 209
192 203 209
202 212 222
200 211 219
188 200 207
200 210 220
203 213 223
196 207 214
108 132 97
90 116 68
92 119 71
92 120 72
91 118 71
91 118 70
95 122 73
89 116 69
93 120 72
92 119 70
89 116 69
93 120 72
95 122 74
93 120 72
88 114 68
91 118 70
89 116 69
88 114 68
92 119 71
93 120 72
93 121 72
95 123 74
95 122 73
95 122 73
89 116 69
124 145 118
198 208 217
204 215 225
197 207 213
194 206 214
199 208 214
197 209 220
192 202 207
198 209 219
196 207 216
206 217 228
203 213 221
196 207 215
197 207 213
202 212 220
188 199 206
189 200 205
202 211 218
198 208 217
194 204 210
201 211 220
190 202 209
189 201 207
203 214 226
200 210 218
187 199 205
98 123 80
92 118 70
90 117 69
88 114 67
89 116 70
94 122 73
92 118 70
88 115 68
95 122 73
89 116 69
89 115 68
89 115 68
92 119 71
95 122 73
93 120 72
89 116 69
93 120 71
93 120 71
93 121 73
94 121 73
96 124 75
93 121 72
90 116 69
97 123 81
194 205 214
204 213 222
196 207 217
193 205 213
194 205 213
201 211 220
193 203 209
196 207 216
190 201 207
206 216 227
198 210 220
201 211 219
202 212 220
199 209 218
192 203 210
194 205 213
203 213 222
195 206 215
200 211 222
189 200 206
202 212 222
196 206 211
199 210 219
111 134 98
87 113 67
94 122 73
93 121 72
93 120 72
94 121 72
95 122 72
97 124 75
95 123 74
92 118 70
96 123 73
95 123 74
95 122 74
94 122 73
93 119 71
90 116 70
93 119 71
95 122 73
92 119 72
93 120 73
91 119 71
109 132 97
185 197 202
205 215 224
193 204 211
195 206 214
200 211 220
200 210 219
190 201 207
194 203 210
200 210 218
200 211 220
198 208 213
194 205 213
194 206 215
197 208 219
205 215 223
205 214 221
187 198 205
199 209 217
198 208 216
198 207 216
151 166 156
90 117 70
90 116 69
90 117 69
93 121 72
93 119 70
89 115 69
91 118 71
91 117 70
93 120 71
92 119 71
93 120 72
92 120 71
94 122 73
91 118 71
97 124 75
91 118 71
93 120 72
94 121 72
148 166 155
201 211 220
198 208 217
203 213 223
204 214 224
190 202 210
199 209 217
196 206 212
195 206 214
202 212 220
193 203 209
195 205 213
190 201 208
174 186 187
163 178 170
134 151 134
107 130 96
99 125 84
170 183 180
196 206 215
106 131 92
146 163 155
182 194 197
195 206 214
194 205 214
194 205 212
193 204 214
198 208 217
197 207 214
195 206 214
199 209 217
195 205 209
191 201 207
97 124 75
91 118 71
92 119 71
92 119 71
93 120 72
85 111 65
92 119 72
91 118 71
89 116 69
92 119 72
92 119 71
97 124 77
135 153 136
177 190 193
183 194 199
194 205 214
202 213 223
189 199 204
202 212 220
189 200 206
201 211 218
196 206 214
204 214 224
179 193 196
91 119 71
93 120 71
94 121 72
93 121 72
89 116 69
94 121 73
93 120 72
90 117 69
92 119 71
89 115 68
93 120 72
94 120 72
90 117 70
96 123 74
94 122 73
94 122 73
92 119 71
88 115 68
95 122 73
123 142 119
153 167 159
183 195 197
197 207 214
190 202 209
184 195 198
93 120 72
96 123 74
95 122 74
95 122 74
96 123 73
93 120 72
90 116 69
97 124 74
91 119 71
90 117 70
92 119 70
91 118 69
94 121 73
89 116 69
92 118 70
93 120 72
95 122 73
94 122 73
87 114 68
94 121 73
96 124 75
93 120 72
89 116 69
96 124 74
97 125 75
119 139 113
194 204 209
191 202 210
197 207 213
200 210 218
194 205 213
192 203 208
196 207 215
195 206 213
196 207 214
200 211 219
183 195 198
160 175 169
129 148 127
102 124 90
92 120 71
92 119 71
93 121 73
89 116 69
94 121 72
92 119 71
91 118 71
93 120 72
95 122 73
93 120 72
89 116 69
95 122 73
192 203 208
190 201 207
206 215 225
190 201 207
201 211 220
201 211 218
203 213 222
190 202 210
194 204 210
198 208 217
201 210 217
201 211 220
205 215 226
198 208 217
196 206 214
197 207 215
194 205 211
202 212 220
202 212 219
188 200 205
196 206 215
193 205 213
206 215 223
200 210 217
200 209 216
195 206 214
188 200 206
96 124 74
94 122 73
92 119 71
93 121 73
91 118 70
94 121 72
88 115 68
92 119 71
93 120 71
95 122 73
88 115 69
93 120 72
92 119 70
90 117 69
90 116 69
89 115 68
93 119 70
93 121 72
96 122 75
114 136 107
144 160 147
153 168 161
175 188 190
194 205 211
196 206 212
207 216 225
168 180 174
95 123 75
95 122 73
97 124 74
91 117 69
86 113 67
84 110 64
92 119 71
94 121 72
90 118 70
95 123 74
94 121 73
93 120 72
93 120 72
94 121 72
94 121 73
89 115 68
96 124 74
93 120 71
94 121 73
93 120 72
92 118 71
93 121 72
94 121 73
94 121 72
91 118 70
95 122 72
170 183 182
193 205 214
194 204 211
203 213 220
197 207 215
195 206 213
187 199 205
182 194 201
192 203 209
197 207 215
201 211 219
206 215 223
198 209 216
199 210 219
199 209 218
199 210 218
189 200 206
199 209 217
200 210 218
198 209 217
204 214 224
197 208 216
197 207 212
197 206 214
196 207 214
187 199 205
149 165 155
97 125 75
96 124 74
92 119 71
93 120 72
91 118 71
94 121 72
93 121 73
89 116 69
90 117 69
94 122 73
91 118 71
92 119 71
91 117 70
92 119 71
93 120 71
91 118 70
93 120 72
90 117 70
92 119 71
87 114 68
92 119 71
88 114 67
90 117 70
92 119 71
89 115 68
174 187 186
197 208 216
196 206 211
195 205 212
201 212 223
198 208 218
200 210 217
200 209 218
202 213 222
194 205 211
199 209 217
199 209 216
207 216 224
191 202 209
198 208 217
195 207 217
195 206 214
199 208 216
205 215 225
195 206 215
195 206 213
202 213 223
194 205 211
206 216 226
198 210 218
130 148 127
86 113 67
88 115 69
92 119 71
94 121 73
91 118 70
95 122 72
88 115 69
93 120 71
93 120 72
90 117 70
93 119 71
98 125 75
93 121 72
92 119 72
92 120 72
90 117 70
95 122 73
91 118 70
91 118 71
93 120 72
90 117 70
88 115 68
91 118 70
174 185 185
202 212 221
197 207 216
198 209 218
197 207 214
197 207 215
201 211 221
199 210 218
194 206 214
195 206 214
198 209 218
192 204 212
201 211 219
200 210 219
208 217 225
197 207 216
195 205 212
194 204 212
206 215 223
203 213 222
193 206 215
195 206 214
202 211 220
146 163 149
93 121 72
93 120 72
92 119 70
96 124 74
89 115 68
97 125 75
91 118 70
94 121 72
92 120 72
93 120 72
91 118 71
91 118 71
90 117 70
88 115 68
92 118 71
91 118 71
93 120 71
93 120 72
94 122 73
93 120 72
97 123 79
171 185 187
202 212 221
201 211 219
199 209 216
194 206 215
201 212 221
195 205 212
191 202 209
199 209 216
200 210 219
200 209 216
191 202 209
200 210 219
196 206 214
195 205 212
202 212 220
195 205 213
191 202 210
192 203 210
200 210 218
165 178 177
92 119 71
92 119 71
90 116 69
93 120 71
97 125 75
95 123 73
91 117 69
91 118 70
91 117 69
91 118 71
92 118 70
92 119 71
94 121 72
93 120 72
93 120 72
89 116 69
90 116 69
94 121 73
142 161 144
191 203 209
196 206 213
201 211 221
199 209 220
199 210 217
191 202 209
196 207 213
205 214 221
171 184 181
153 168 160
146 164 148
124 144 117
94 120 74
94 121 73
92 120 72
89 116 69
106 131 92
187 198 201
199 209 218
190 201 205
96 123 73
91 117 69
94 122 73
118 139 110
160 174 165
196 207 214
201 211 219
192 203 212
193 205 215
190 201 208
195 205 213
192 202 208
194 205 212
108 131 99
93 120 72
93 120 72
95 122 73
96 123 74
94 120 72
93 120 72
93 119 71
91 118 71
92 119 72
90 117 70
92 118 70
94 121 72
91 118 71
104 127 94
162 176 168
177 190 191
201 211 220
192 202 208
199 210 218
195 205 213
202 212 219
196 207 215
192 203 208
93 121 73
93 120 72
93 120 72
94 121 73
90 117 70
94 121 74
94 121 72
94 121 73
93 120 72
88 114 68
94 121 72
94 121 72
87 115 69
95 122 73
90 117 70
94 121 72
91 118 71
94 121 72
95 122 73
87 114 68
92 119 71
96 124 74
112 135 103
157 171 166
174 187 185
92 119 71
93 120 71
96 123 74
92 118 71
90 117 70
95 122 73
97 124 75
88 115 68
94 121 71
95 122 73
94 122 73
92 119 71
91 118 70
91 117 69
91 117 69
95 122 74
94 121 72
95 122 72
90 117 70
87 113 67
89 115 68
96 124 74
92 119 71
91 117 70
95 122 72
137 154 138
205 214 224
199 209 219
198 208 214
186 197 203
200 210 220
203 212 218
194 205 213
200 210 218
197 208 217
195 206 212
188 198 202
196 207 215
202 212 221
204 214 222
171 184 186
151 167 158
126 146 125
98 123 84
92 119 72
92 119 71
93 120 72
95 122 72
92 119 71
93 119 71
90 116 69
92 119 72
194 204 212
205 214 224
193 204 211
204 214 224
197 207 214
196 206 213
195 206 213
203 213 223
189 201 208
195 206 213
201 211 222
195 206 214
204 214 224
200 211 220
199 210 217
201 211 220
188 199 207
195 205 212
192 203 211
192 203 209
198 208 216
203 212 221
198 208 217
206 216 226
194 205 213
192 203 209
169 183 178
93 120 71
92 119 71
93 120 72
94 121 72
89 116 69
91 118 71
92 119 71
92 119 71
90 116 69
97 124 75
90 117 69
95 122 72
92 119 70
94 121 73
95 122 73
94 121 73
93 120 72
93 120 72
92 119 71
92 119 71
93 120 72
96 123 74
91 118 71
96 123 76
109 132 99
132 151 134
165 179 178
137 154 137
108 132 97
103 129 87
94 122 73
93 120 71
91 118 70
93 120 72
90 117 69
97 124 74
94 121 72
96 124 74
92 119 71
92 119 71
89 116 69
90 117 70
96 123 74
96 123 74
96 123 74
99 126 76
91 118 71
93 120 72
90 117 70
89 117 70
94 120 71
90 117 69
96 122 81
200 210 217
193 204 211
205 214 223
201 212 222
200 211 219
198 208 217
201 211 219
194 206 213
202 211 221
200 210 219
196 207 217
201 211 220
201 211 220
190 201 208
199 208 216
192 203 211
202 211 220
204 214 225
197 206 212
196 207 214
191 203 211
202 212 220
194 204 213
194 205 213
190 202 209
201 210 218
116 137 112
94 121 72
93 120 71
90 117 69
90 117 70
90 117 70
88 115 69
96 124 75
93 120 72
94 122 73
91 118 70
92 118 70
96 123 73
93 120 72
90 116 69
95 122 73
92 118 70
94 121 73
93 120 71
92 119 71
91 118 71
92 119 71
92 119 71
93 120 72
91 117 69
128 147 131
194 205 212
201 211 220
198 208 214
199 209 216
193 204 211
196 207 215
196 206 212
199 208 215
193 204 211
201 211 218
197 207 214
196 206 214
204 215 226
192 203 208
190 202 210
191 203 211
194 205 212
196 208 216
191 202 209
198 209 218
203 213 223
198 208 214
198 209 219
188 200 204
181 194 196
94 121 72
92 119 71
90 117 70
92 119 72
96 123 74
90 117 69
92 119 71
95 122 73
88 115 68
90 117 69
93 120 72
89 115 68
90 117 70
92 118 71
96 123 74
94 122 73
91 118 71
91 118 71
93 120 72
94 121 72
95 122 73
94 121 73
90 117 69
142 159 145
201 211 220
198 208 216
195 207 217
201 211 219
197 207 214
192 204 211
202 211 219
191 202 209
200 210 218
194 205 213
195 205 213
196 207 215
198 209 217
197 208 218
190 202 209
198 209 217
197 206 213
201 212 221
205 214 222
192 203 210
200 210 218
189 200 205
166 181 178
96 123 74
92 119 71
94 121 72
95 121 73
95 122 73
93 120 72
94 121 73
93 121 73
94 121 72
93 120 72
93 120 72
93 120 72
95 122 73
90 117 69
95 122 74
94 121 73
92 119 71
96 123 74
92 119 71
91 118 69
90 117 70
161 174 169
207 216 226
192 202 210
195 204 210
200 210 218
197 207 216
196 207 214
199 209 217
200 210 218
199 209 217
205 215 224
199 210 219
199 209 218
198 208 214
198 208 215
192 203 210
196 207 215
191 202 209
195 207 216
199 210 218
179 191 192
99 124 82
94 121 72
93 120 72
93 120 72
93 120 72
91 119 72
94 121 72
94 121 72
89 116 68
93 120 72
93 121 73
90 116 69
93 120 71
92 119 71
92 118 70
89 116 69
90 117 69
89 117 70
135 154 135
190 201 208
193 204 211
198 208 216
196 206 213
169 184 181
157 172 165
145 161 148
108 130 99
101 126 83
93 120 71
94 121 73
91 118 70
91 117 70
95 122 73
90 117 69
92 119 72
98 124 82
177 190 193
193 204 211
193 204 214
196 208 219
90 117 70
90 117 69
95 123 74
90 117 70
92 119 71
110 134 99
148 164 153
181 193 194
192 203 209
189 200 208
193 205 213
202 212 220
193 204 210
128 148 127
90 117 70
89 115 68
88 115 70
92 119 70
88 114 68
91 118 71
92 120 72
95 122 74
95 122 73
97 124 74
91 117 69
87 113 67
91 118 70
92 119 71
91 118 69
95 123 74
108 131 98
148 163 154
184 196 202
197 207 215
204 214 223
188 200 206
197 207 214
91 117 70
94 120 72
93 120 72
91 118 70
92 118 70
95 122 72
91 117 70
94 121 72
92 119 71
92 119 72
91 117 69
90 117 70
93 120 72
92 120 72
88 114 68
89 115 69
91 117 70
92 119 72
91 119 71
90 117 70
95 122 73
96 123 74
95 122 73
92 119 71
110 132 102
188 200 206
151 166 155
126 145 125
100 125 85
91 118 70
92 118 70
89 116 69
94 121 73
94 121 73
89 116 70
91 119 71
92 119 71
99 126 75
91 118 71
92 118 71
93 120 72
91 118 71
91 118 71
90 117 69
93 119 71
89 116 69
94 121 72
93 120 72
94 121 72
93 119 71
131 149 130
192 203 211
199 210 219
196 206 214
196 206 214
192 203 210
188 198 202
193 204 213
190 201 208
198 208 216
193 203 211
189 200 205
197 207 215
210 219 230
200 211 219
201 212 221
196 206 211
191 201 207
192 204 211
177 190 188
135 153 139
114 135 109
95 122 76
96 123 73
91 117 70
93 120 73
119 139 113
197 208 217
191 203 211
203 213 223
192 203 210
190 201 206
187 199 203
192 203 210
194 206 213
198 209 216
192 203 211
192 203 210
201 211 220
199 210 219
202 212 221
202 212 221
202 212 221
193 204 211
191 202 207
184 196 202
198 208 213
204 214 221
202 212 222
195 207 215
203 213 223
206 215 226
204 213 223
147 164 151
93 120 71
92 119 71
88 114 67
93 120 72
89 116 70
92 119 71
94 121 72
89 116 70
92 119 71
92 118 70
91 118 71
89 116 69
94 122 73
92 119 72
91 117 69
95 122 73
94 122 73
93 121 73
93 119 71
89 116 69
95 122 73
92 120 72
92 119 71
94 121 72
94 120 72
91 118 71
190 202 208
187 198 205
202 212 220
187 199 207
176 188 190
159 174 170
154 170 163
132 150 132
109 133 101
94 121 75
94 122 73
90 116 70
91 119 71
96 123 74
89 116 69
93 120 72
92 120 72
93 119 71
94 120 72
94 121 72
93 120 71
94 122 73
88 114 68
95 122 73
92 119 71
96 124 75
147 163 152
196 207 217
188 200 207
200 209 216
194 205 213
187 199 204
193 205 213
200 211 220
195 206 213
194 205 212
186 198 205
201 212 221
203 213 220
192 203 210
199 209 217
203 214 223
197 207 215
192 204 212
201 212 221
196 205 210
205 215 223
199 209 218
203 212 220
195 206 214
197 208 216
188 200 207
173 186 186
94 120 71
96 123 74
94 121 73
91 118 70
90 116 68
93 120 71
93 120 72
96 123 74
86 113 68
94 121 72
91 118 70
89 115 68
93 119 71
88 115 68
94 121 72
96 123 74
94 122 73
91 119 71
89 116 69
94 121 73
91 118 71
96 123 73
91 119 71
90 117 69
91 118 71
180 192 192
199 209 218
201 210 217
198 209 218
197 208 216
192 203 212
195 205 213
194 205 213
197 207 214
194 204 212
194 205 213
193 204 210
199 210 218
206 216 228
200 211 221
199 209 218
195 205 211
206 216 227
199 210 218
201 211 219
196 206 212
199 209 218
202 212 221
193 203 208
193 204 211
111 134 101
94 121 72
91 117 70
94 122 73
92 119 71
93 121 73
91 118 70
87 114 67
92 119 71
96 123 73
92 118 70
95 122 74
93 120 73
91 117 70
83 109 64
94 122 73
89 115 68
95 123 74
93 119 71
94 121 72
88 114 68
91 118 71
95 122 74
96 122 76
182 194 198
186 198 206
201 210 218
194 205 214
191 201 206
187 199 208
193 204 212
193 204 210
192 204 212
200 210 220
203 212 220
199 210 220
198 208 215
196 207 215
193 203 210
198 209 217
186 197 203
196 207 214
206 215 224
199 210 219
190 201 208
197 208 216
188 200 203
102 127 86
90 117 69
90 116 70
90 117 70
86 112 66
91 118 70
94 121 73
93 120 72
89 115 69
92 119 72
90 116 69
90 117 70
95 122 73
92 119 72
93 120 71
88 115 69
92 118 71
95 122 73
93 120 71
96 124 75
92 119 71
152 168 157
197 208 217
188 199 206
201 212 221
193 204 213
195 205 213
199 209 218
207 216 225
194 204 212
187 198 205
191 202 208
193 203 210
203 213 222
199 210 217
192 202 207
202 212 221
191 203 209
197 209 217
195 205 211
193 204 212
192 203 209
111 133 99
92 119 72
91 117 70
90 116 69
93 119 71
91 118 70
91 118 70
92 119 72
94 122 73
89 117 70
90 117 69
91 118 69
93 120 71
89 116 69
94 121 73
86 112 66
92 119 71
94 121 75
109 133 98
170 183 181
159 174 168
146 163 151
110 133 98
95 122 73
90 117 70
92 119 71
92 119 71
92 118 71
93 120 71
91 118 70
92 120 72
92 119 72
93 121 72
95 122 73
91 118 70
104 129 90
177 191 193
195 206 214
203 214 224
195 206 214
196 207 216
90 117 70
93 120 71
91 118 71
91 117 69
92 119 71
92 118 71
92 118 71
93 120 72
115 137 109
165 179 175
195 206 211
196 206 214
203 213 223
161 175 168
92 119 71
92 119 71
91 118 71
88 115 69
92 119 71
88 114 67
93 120 72
89 115 68
93 120 72
92 119 71
88 115 69
90 117 69
91 119 72
92 119 71
92 119 71
91 118 71
90 116 68
92 119 71
89 115 67
123 143 117
159 173 168
182 194 197
195 206 214
104 128 91
93 121 72
94 121 72
91 118 70
89 117 70
87 113 67
91 118 70
92 120 72
93 120 71
95 122 73
93 121 73
93 121 73
92 119 71
91 118 70
94 121 73
91 118 70
92 119 72
94 121 73
91 117 69
92 119 71
92 119 71
93 120 71
91 118 70
89 116 69
113 134 105
199 209 216
196 207 214
200 211 218
198 209 217
155 170 161
136 154 137
101 125 87
89 116 69
89 116 69
94 121 73
91 118 70
91 118 71
90 117 70
94 120 71
92 119 71
91 118 70
97 124 74
92 119 70
90 117 70
91 118 70
91 118 70
85 111 65
90 117 69
90 117 69
91 118 71
157 171 164
187 200 206
189 200 206
201 212 221
195 206 215
183 195 201
204 214 224
198 208 215
198 208 215
193 204 211
195 206 214
197 208 217
190 202 209
203 214 223
192 204 211
193 205 213
202 214 228
202 212 221
202 212 222
191 202 210
202 212 221
202 212 219
192 203 209
172 185 183
138 156 144
115 136 106
142 160 145
199 210 221
194 204 211
204 214 222
196 206 214
199 209 216
191 201 207
190 201 208
193 204 211
199 210 217
201 212 220
194 205 213
194 205 211
178 191 196
191 201 207
193 205 215
193 203 209
191 202 210
207 216 224
201 211 219
203 213 224
202 212 222
195 206 215
203 214 223
189 200 206
191 203 211
198 208 216
114 136 106
93 120 73
90 117 70
94 121 72
93 120 71
91 117 70
92 119 71
89 116 69
94 121 73
90 116 68
93 120 72
91 118 70
95 122 73
88 114 68
89 116 70
85 111 66
94 121 73
87 114 67
91 118 70
94 121 72
92 119 71
93 120 71
92 118 70
94 122 73
95 122 74
96 124 74
136 154 137
195 206 214
198 209 220
190 202 210
201 211 219
199 210 218
196 207 215
202 212 220
197 207 214
201 210 218
199 208 214
180 192 192
170 184 182
159 173 166
128 148 128
110 130 101
97 124 77
89 116 69
93 120 72
95 122 73
95 122 73
92 120 72
95 121 73
95 122 73
92 119 71
95 122 73
90 117 71
184 195 197
198 208 214
189 200 208
196 207 215
205 215 222
197 207 214
201 211 219
193 203 209
192 203 211
198 208 217
206 216 226
200 209 220
198 209 217
201 212 224
194 205 212
196 207 216
199 209 217
205 215 223
196 207 213
194 205 214
198 209 215
200 210 220
188 200 208
194 205 212
207 215 223
196 207 216
127 146 123
94 122 73
92 120 71
88 115 68
92 119 71
91 118 71
88 114 68
95 122 73
93 120 72
91 118 71
91 118 70
93 120 72
92 120 72
93 120 72
91 117 70
94 121 73
89 115 69
91 118 70
89 116 69
91 118 70
91 118 71
93 120 72
91 118 71
90 117 69
92 120 72
133 151 135
203 214 225
202 211 218
190 200 207
190 201 209
196 206 213
201 210 218
204 214 222
196 206 212
191 201 209
200 210 219
188 199 205
194 205 214
197 208 218
194 206 214
190 201 209
190 201 206
194 204 211
197 207 215
194 205 214
202 212 221
194 205 212
197 207 215
203 212 222
191 202 210
151 168 157
92 119 71
92 119 71
90 116 69
95 123 74
97 125 75
96 123 73
92 119 70
87 113 67
93 120 72
93 120 72
95 122 73
92 119 72
96 123 74
93 121 73
93 120 72
93 121 72
95 122 73
91 118 70
93 120 72
97 124 74
91 118 70
90 118 70
94 120 72
150 166 158
186 198 204
196 207 216
194 205 211
193 205 213
194 205 213
199 209 217
195 206 213
192 203 209
203 213 223
197 209 219
189 201 208
198 208 216
198 209 220
195 205 213
192 204 212
202 212 219
196 206 214
193 204 210
192 203 212
193 203 209
193 204 213
199 209 216
124 144 121
95 122 73
94 120 71
92 119 72
96 123 74
91 118 71
92 119 71
90 117 70
94 121 72
89 116 69
92 119 71
94 121 72
93 120 72
93 120 71
89 116 69
95 122 73
88 114 68
91 118 71
96 123 74
90 116 70
92 119 71
131 151 130
191 202 209
200 210 218
203 212 219
194 205 213
194 205 210
200 210 218
195 205 213
197 208 218
198 209 220
192 203 209
191 203 210
196 207 216
195 206 215
196 208 215
191 202 209
195 206 214
202 212 222
191 203 211
193 204 211
193 204 210
108 131 98
95 122 73
86 112 67
98 125 75
91 119 71
91 118 71
94 121 72
91 118 71
92 119 70
94 121 73
92 119 70
95 122 73
96 123 74
100 125 84
136 154 137
154 169 161
157 172 164
170 184 183
179 192 194
99 125 82
89 117 70
90 116 69
94 121 72
95 123 74
92 119 71
96 123 73
87 113 67
93 120 72
90 116 68
93 120 71
89 115 68
89 116 69
93 121 72
95 122 73
95 122 73
107 130 91
186 198 200
194 205 213
196 207 215
191 202 209
197 208 216
182 192 197
85 111 65
93 121 72
92 119 72
91 117 69
91 118 71
90 117 70
91 118 70
91 118 70
90 117 70
94 121 72
100 125 84
145 163 149
180 192 193
173 185 182
90 118 71
93 119 71
91 117 70
90 117 70
90 117 70
89 116 69
89 116 69
91 117 69
90 117 70
95 122 73
91 118 71
96 123 74
92 119 71
97 124 74
91 117 70
91 118 70
92 118 71
92 119 71
93 120 72
90 117 69
92 119 71
89 116 69
120 141 114
136 154 137
94 119 76
87 114 67
94 121 72
90 117 70
92 119 71
92 119 72
94 121 73
95 122 73
91 118 70
92 119 72
90 117 70
91 117 70
92 119 71
92 119 71
93 121 73
91 118 70
94 122 74
89 115 69
93 120 72
89 116 69
93 120 72
92 119 71
92 119 72
118 139 111
191 202 210
193 204 209
196 207 214
193 204 211
197 207 213
195 206 212
199 210 218
173 185 185
147 164 156
113 135 104
91 118 71
92 119 71
91 118 71
91 118 71
93 121 72
93 120 72
92 119 71
87 113 67
93 120 72
88 114 67
91 118 70
94 121 73
91 117 70
89 116 69
92 119 71
158 174 172
194 205 212
185 197 201
198 208 216
194 205 212
192 202 209
199 209 217
188 200 207
197 208 216
189 199 204
193 205 214
190 201 209
190 201 209
198 208 216
196 207 214
197 207 215
192 203 211
202 211 220
194 204 210
189 200 205
192 203 210
199 209 219
201 210 218
196 206 213
193 204 210
206 215 224
159 175 166
125 144 126
154 170 163
185 197 200
191 203 210
193 205 213
195 206 214
193 204 210
200 210 218
198 209 217
193 204 212
202 212 221
204 214 223
199 209 216
195 206 216
195 206 216
193 204 211
200 211 222
194 204 211
200 210 219
200 211 220
201 211 221
194 206 213
196 206 215
196 206 214
198 208 215
176 187 188
90 117 69
92 118 70
93 121 73
91 117 70
91 119 72
92 119 71
90 116 69
90 117 70
92 120 72
94 120 71
93 120 72
94 121 72
91 118 71
95 122 73
92 119 72
92 119 71
95 122 73
88 115 68
93 120 72
89 115 68
94 122 73
90 118 71
94 121 73
93 121 73
93 120 72
92 119 71
162 176 169
197 207 216
192 202 210
199 208 216
198 209 218
197 207 215
192 204 211
197 208 217
193 204 212
191 202 208
200 211 221
191 202 209
198 208 216
194 204 211
192 203 209
196 207 215
198 208 214
181 193 194
163 177 174
172 186 184
155 169 160
118 139 113
106 128 94
96 122 76
92 119 70
94 122 74
116 136 108
205 214 222
192 203 211
188 199 206
201 212 220
191 202 209
192 202 209
196 207 214
202 211 220
192 202 208
200 211 219
186 198 205
199 209 216
197 208 217
192 203 211
202 213 222
196 207 216
203 213 222
196 207 215
198 208 217
197 207 214
195 206 211
197 208 215
199 209 218
190 201 208
202 213 223
175 188 188
94 121 73
89 116 69
93 120 72
94 121 72
92 119 71
90 117 69
91 118 70
95 122 72
90 117 70
91 118 71
93 120 72
90 117 70
91 118 70
93 120 71
91 118 70
92 118 70
91 118 70
95 122 73
88 115 68
96 124 75
92 119 72
91 118 71
90 118 70
93 120 72
95 122 72
182 193 194
194 206 215
198 208 216
193 204 211
194 204 212
194 204 211
191 203 211
197 207 216
200 210 217
201 211 220
201 211 219
198 208 217
203 213 220
201 211 219
195 206 214
197 208 216
188 198 203
207 216 223
201 211 219
197 208 217
197 207 215
194 205 214
195 207 217
192 202 208
183 195 198
99 124 82
90 117 70
93 121 73
94 120 72
93 120 72
95 122 73
92 119 71
91 118 70
93 120 72
92 119 71
93 121 72
96 124 74
97 125 75
94 121 72
93 120 71
90 117 70
94 121 72
90 117 70
94 120 72
88 114 67
93 121 73
93 121 73
92 119 71
128 149 128
202 211 218
193 204 211
194 204 210
189 200 208
193 204 211
194 205 212
198 209 218
188 200 207
202 213 223
199 210 219
196 207 216
194 205 211
197 207 214
201 211 219
194 205 212
196 206 212
192 203 209
203 213 224
200 210 219
199 209 219
199 209 218
196 207 216
145 162 149
94 121 72
93 120 71
92 119 71
91 119 71
91 118 70
93 120 72
92 119 71
91 117 70
96 123 74
92 118 71
92 119 71
91 119 71
89 116 69
93 120 72
89 116 69
88 114 66
87 114 67
96 122 73
96 123 74
90 117 70
104 129 91
191 202 209
201 211 220
195 205 213
201 210 218
193 204 210
190 202 210
190 202 208
192 203 210
188 199 207
196 206 212
192 202 208
198 208 216
188 199 205
189 201 209
199 210 220
198 208 214
188 200 208
197 207 214
197 208 217
197 207 214
112 134 104
92 118 70
89 115 68
88 114 68
93 120 72
95 123 74
93 120 72
90 117 72
120 141 113
130 149 128
148 163 152
171 184 181
178 190 192
199 209 218
191 203 210
188 199 205
194 205 213
197 208 217
177 190 192
108 131 94
92 119 71
93 120 72
94 121 73
89 115 68
94 121 72
94 121 73
94 122 73
93 120 71
93 120 71
94 121 73
94 121 73
91 118 70
92 119 71
92 119 71
91 118 70
103 127 88
179 190 192
194 205 214
202 212 221
198 209 219
197 207 214
194 205 211
203 213 222
94 121 72
92 118 70
90 117 69
93 119 71
94 121 72
96 123 74
93 119 71
90 117 70
89 115 68
92 119 70
92 119 71
88 115 69
91 118 71
113 134 106
156 172 165
111 134 102
94 121 72
91 118 70
96 123 74
88 116 69
92 119 71
92 118 70
90 117 70
95 122 73
91 118 70
94 122 73
88 115 68
90 117 70
90 116 69
92 119 72
95 122 72
94 121 73
94 121 72
89 116 69
89 116 68
94 122 73
94 122 73
177 189 191
186 197 204
164 178 174
140 157 140
96 122 76
96 123 73
90 117 70
92 119 71
91 117 69
94 121 73
94 122 73
94 121 73
95 122 73
91 118 71
91 118 70
95 122 73
90 117 70
91 118 70
93 120 72
90 116 69
93 120 71
94 120 71
96 124 74
94 121 72
101 125 86
192 203 210
187 199 205
199 208 215
198 209 218
191 202 208
191 202 208
195 206 214
195 207 215
195 205 214
202 211 218
175 187 187
158 173 164
119 141 114
99 125 77
91 118 70
92 118 70
93 120 71
92 119 72
93 120 71
95 123 74
90 117 69
94 120 71
91 118 71
90 116 69
89 116 69
168 182 178
197 207 214
197 208 216
193 204 214
195 206 216
191 202 206
201 211 220
191 202 210
186 199 207
191 203 210
197 207 216
197 207 215
195 206 214
191 202 208
194 205 213
186 198 204
200 211 219
195 206 214
201 211 220
195 206 215
195 205 211
194 205 212
193 203 209
203 213 222
195 206 213
197 207 216
134 153 134
92 119 71
90 117 70
91 118 71
93 119 73
133 152 133
155 170 161
171 184 183
191 202 208
204 213 220
195 205 211
196 207 215
195 206 213
190 201 207
194 205 212
190 202 212
199 209 218
200 210 217
195 206 214
197 208 215
197 207 215
192 204 212
197 207 214
204 214 223
197 208 217
192 204 212
164 178 175
85 111 65
93 120 72
93 120 72
93 120 71
92 119 71
92 120 72
95 122 73
94 121 73
97 124 75
97 125 76
92 119 71
90 117 70
89 116 69
93 120 72
90 117 70
92 119 71
91 118 70
88 115 68
95 122 74
92 119 70
92 118 70
90 117 69
93 119 71
94 122 73
93 120 72
95 122 75
179 191 196
201 211 218
197 208 216
206 215 223
197 208 217
196 207 215
198 209 219
195 206 215
192 203 212
191 203 210
190 200 206
187 199 206
190 202 210
203 214 224
201 210 218
189 201 209
194 204 210
194 206 214
196 207 215
204 213 222
193 205 213
200 210 220
201 211 217
190 201 206
181 194 196
165 179 176
158 173 166
167 179 177
179 192 194
182 193 198
189 201 207
197 207 214
192 203 211
199 210 218
190 201 208
193 204 210
195 206 215
197 207 215
196 206 212
194 205 211
197 207 215
198 209 217
200 210 220
194 205 214
199 210 220
202 212 221
190 201 205
193 204 211
195 205 212
200 210 217
191 202 208
195 206 213
145 162 148
90 116 69
90 117 70
90 117 70
94 121 72
90 116 69
94 122 73
91 118 70
91 118 71
91 118 70
95 122 74
93 119 71
93 119 71
93 121 73
89 115 68
89 116 68
89 116 69
90 117 70
93 120 72
93 121 73
90 117 70
93 120 71
93 120 71
92 119 72
95 123 74
132 151 131
198 208 216
205 215 224
192 203 209
196 207 216
195 205 213
193 204 211
194 204 212
184 196 201
199 209 218
198 208 218
199 210 218
190 201 209
193 205 213
203 212 221
187 198 203
191 202 210
196 207 216
192 202 208
204 214 224
196 206 214
195 206 214
198 209 218
201 211 220
188 199 206
133 151 132
90 117 70
94 121 73
92 119 71
92 118 70
94 121 71
91 118 71
93 120 72
90 117 70
88 115 68
90 117 70
93 120 72
89 116 69
94 120 72
93 121 72
90 116 69
93 121 72
91 117 70
96 124 74
95 123 74
97 124 74
94 121 73
93 120 72
101 126 88
181 193 196
200 211 221
200 211 221
193 203 210
194 205 212
190 202 209
195 206 213
199 210 219
194 204 210
200 210 217
191 203 212
193 205 213
196 206 213
196 207 215
193 204 211
197 208 216
190 202 207
200 211 220
189 201 209
201 211 219
187 198 204
193 204 211
177 190 192
93 120 72
90 117 70
89 116 68
90 117 69
94 121 73
93 120 72
90 117 70
91 118 70
89 116 68
94 121 72
95 122 73
93 120 72
93 120 72
93 120 72
90 116 69
93 121 72
90 117 70
92 119 71
86 112 67
93 120 72
95 121 78
173 187 186
188 200 205
191 203 212
187 199 205
203 213 224
195 206 213
190 201 208
189 200 206
195 205 212
195 205 212
199 210 219
200 210 218
194 204 212
199 210 218
194 206 213
195 205 212
199 210 221
193 205 213
189 200 205
193 204 211
136 154 136
90 117 70
97 122 85
123 143 120
142 158 146
152 166 159
180 192 194
179 191 194
185 196 202
194 205 212
190 202 209
196 206 214
197 207 215
198 209 220
194 205 213
195 205 213
198 208 216
202 213 222
190 201 207
102 125 93
92 119 71
84 110 65
93 120 72
91 118 70
93 120 73
96 123 74
92 119 72
93 120 72
91 118 71
89 116 69
93 120 72
90 116 69
93 120 72
89 116 69
93 120 71
110 133 97
181 193 193
187 199 206
198 208 216
205 214 224
191 202 207
195 206 213
195 205 213
191 202 209
92 119 71
88 115 68
94 122 74
91 118 70
89 116 69
92 120 72
93 121 72
87 114 67
91 118 70
90 117 70
89 116 69
93 120 72
97 124 74
91 117 72
184 195 201
189 200 205
173 186 184
137 156 142
98 124 79
94 121 73
90 117 70
90 117 70
88 115 69
89 116 69
90 117 69
92 119 72
93 120 72
91 118 70
91 118 70
93 121 73
90 117 70
89 116 69
92 119 71
95 122 73
92 119 71
94 122 73
93 120 71
163 177 173
201 211 221
195 207 217
192 202 208
190 201 207
166 180 178
138 155 138
96 123 79
92 119 72
92 119 71
93 120 71
92 119 72
93 121 72
92 119 70
93 120 72
90 117 69
94 121 72
92 118 70
92 119 71
94 121 72
90 117 69
96 123 74
92 119 72
90 117 69
106 130 94
197 207 214
189 202 210
197 207 214
195 205 211
195 206 212
198 207 213
195 206 213
197 207 215
187 200 207
197 207 216
184 195 202
195 205 212
189 201 206
190 201 208
166 181 177
130 147 127
91 117 72
88 115 68
89 116 69
93 120 71
91 118 71
90 117 69
94 121 72
95 123 74
91 118 70
183 196 199
198 209 219
189 200 207
195 206 215
197 206 212
198 208 215
193 204 214
195 206 214
206 215 222
194 205 213
197 208 218
200 209 217
198 209 218
195 207 216
197 207 213
185 197 202
198 207 214
202 212 220
200 211 221
190 202 212
198 209 218
193 203 210
192 203 210
191 202 206
194 205 216
191 202 210
113 134 107
92 120 71
95 122 73
87 115 69
94 121 72
91 118 70
93 120 72
90 117 71
102 127 83
119 139 116
147 163 151
174 188 187
187 198 205
201 211 219
201 211 221
193 204 210
198 209 217
198 208 217
192 204 212
197 208 217
193 204 212
189 200 207
199 209 217
194 205 213
198 209 217
191 203 212
141 158 144
94 120 72
91 119 71
90 117 70
94 121 73
92 120 71
95 122 74
88 115 68
91 117 71
89 115 68
92 118 70
93 120 72
93 121 72
90 117 70
92 119 71
90 117 70
90 117 70
88 114 68
93 120 72
91 117 70
90 117 69
91 119 71
91 117 70
91 118 70
91 119 71
92 119 72
124 143 119
192 203 211
191 202 207
197 208 216
195 206 216
191 202 210
199 210 218
199 208 215
190 201 207
198 208 218
191 202 207
201 211 221
195 205 211
196 207 215
191 201 207
199 210 218
200 211 218
192 203 210
199 209 217
194 205 213
195 206 213
192 203 210
189 199 205
197 208 216
201 212 220
194 205 213
198 209 219
98 124 82
91 118 70
91 118 70
93 120 73
99 125 80
116 138 107
119 140 114
145 162 148
167 180 177
170 184 182
177 190 191
184 196 202
190 201 207
197 207 216
191 202 210
194 204 210
192 202 209
201 212 220
203 212 221
197 207 215
202 212 221
194 205 212
195 205 212
199 209 219
195 206 213
185 197 199
94 121 77
93 120 71
93 119 71
91 118 71
92 120 72
92 119 71
92 119 71
92 119 71
92 119 71
89 116 69
92 120 72
92 119 71
96 123 73
87 114 68
93 120 72
93 119 71
93 121 73
90 117 70
94 122 74
95 122 73
92 119 71
93 121 72
90 117 70
88 114 68
92 118 73
182 194 196
206 216 225
201 210 218
191 202 210
183 195 201
196 206 214
190 202 210
203 213 222
197 208 216
197 208 216
199 208 216
197 208 215
194 205 214
197 209 219
192 204 212
195 206 215
202 212 221
195 206 215
191 202 209
196 207 213
201 211 221
188 200 208
185 197 202
197 207 215
168 181 177
91 119 71
92 119 71
91 117 69
91 118 70
88 114 68
92 118 70
95 122 74
90 116 69
93 120 72
93 119 71
96 123 74
90 116 69
94 122 74
92 119 71
95 122 74
96 123 74
92 119 71
94 121 73
91 118 70
91 117 71
87 113 66
92 119 72
90 117 69
155 170 161
198 209 219
192 203 213
187 199 205
187 200 207
200 209 216
196 207 217
201 211 220
197 208 216
199 210 218
193 204 211
195 205 212
195 206 214
198 208 215
197 207 215
195 205 212
201 211 218
197 206 212
186 197 202
189 201 209
194 205 211
190 201 205
190 201 207
109 133 98
93 120 72
91 118 70
92 119 71
92 119 71
90 116 69
92 118 70
92 119 71
94 122 73
88 115 68
89 116 69
91 118 71
91 118 70
94 122 73
93 120 71
91 118 70
91 117 69
94 121 73
93 120 72
92 119 71
89 116 68
152 168 156
187 198 205
196 206 212
193 205 215
195 206 212
199 209 217
188 199 203
201 210 218
191 202 209
191 203 209
195 206 212
190 201 207
192 204 214
199 209 217
179 193 197
189 200 204
186 197 203
165 178 178
152 169 156
155 169 161
169 183 183
187 199 204
191 202 208
195 206 214
193 203 209
191 202 209
197 208 216
198 207 213
189 201 207
198 209 216
202 212 221
189 200 207
192 204 211
196 207 216
187 198 204
203 213 223
198 210 219
197 208 216
185 197 201
108 130 98
87 114 68
89 115 69
92 118 70
90 117 70
89 115 69
93 120 71
91 118 69
92 120 71
93 120 72
95 122 73
92 119 72
87 113 67
91 118 70
90 117 70
93 120 72
96 121 78
191 202 207
197 207 215
200 210 216
196 207 215
188 200 206
203 214 224
192 203 211
188 200 205
197 208 216
130 148 128
91 118 71
90 116 69
85 111 66
94 121 72
93 120 72
91 119 71
91 117 70
88 115 68
93 121 72
88 115 68
90 117 70
88 114 68
90 117 70
176 188 189
191 202 208
189 201 207
192 203 212
195 205 210
154 169 163
136 154 138
95 122 76
92 119 71
93 120 72
90 116 69
91 118 71
93 121 72
92 119 71
91 118 71
90 116 69
91 117 69
93 120 72
92 119 71
94 122 73
96 123 73
93 120 72
93 119 71
156 171 165
198 209 218
194 205 215
203 213 223
188 199 206
190 201 206
192 204 213
195 205 210
155 171 165
144 163 149
94 122 76
94 122 73
96 123 74
93 121 72
92 119 71
96 123 74
94 121 72
89 115 68
92 119 71
91 118 70
93 120 72
93 120 72
94 121 72
91 118 71
118 138 115
192 203 210
196 206 214
189 201 206
192 203 212
198 208 216
188 200 206
190 201 208
191 203 212
195 205 213
195 206 213
189 201 207
195 205 211
191 204 212
184 195 199
194 205 213
197 209 217
184 196 203
171 184 185
152 167 159
118 139 113
85 111 66
95 123 75
91 118 70
89 116 69
94 121 73
192 203 209
194 205 212
192 203 209
198 208 214
193 203 209
199 210 218
190 202 208
199 209 218
197 208 216
198 209 218
192 204 214
192 203 212
191 202 209
191 202 209
198 208 217
196 207 216
202 212 220
197 206 212
199 209 216
191 202 209
194 205 212
189 200 208
187 198 203
198 209 219
190 201 207
192 202 209
104 128 88
94 122 73
91 118 70
94 121 73
93 120 72
90 117 69
93 120 72
94 121 73
92 119 71
93 120 72
88 114 68
95 122 74
92 120 72
120 141 112
148 165 152
172 185 183
178 191 194
195 205 211
187 197 204
197 207 214
185 196 203
194 205 213
186 198 204
197 209 217
194 204 210
201 210 218
117 138 112
90 116 70
93 120 72
89 115 68
93 121 74
89 116 70
88 115 68
93 120 71
95 122 73
97 124 74
93 120 72
89 115 68
89 115 68
92 119 71
92 119 71
96 123 74
91 118 71
94 122 73
92 119 71
93 120 72
92 119 71
91 118 70
93 121 72
92 119 71
92 119 72
91 118 70
156 171 164
191 203 210
201 211 219
192 203 210
202 213 223
200 210 218
197 207 213
195 206 216
195 205 213
198 208 215
194 205 214
198 208 216
197 207 215
196 207 214
187 198 204
196 207 215
186 199 204
190 200 206
203 213 224
195 205 210
201 211 219
191 202 210
193 204 212
198 208 215
197 208 216
190 202 209
161 176 171
94 121 72
87 114 67
91 118 71
91 118 70
91 117 70
87 113 66
89 116 70
93 120 71
94 122 73
90 118 71
93 120 71
91 118 70
101 125 87
115 137 107
138 155 140
155 170 161
148 164 151
181 194 196
175 188 188
184 196 201
191 202 208
188 199 206
192 204 211
200 210 218
184 196 203
138 155 139
92 119 71
93 119 71
93 120 72
89 116 69
95 123 74
90 118 70
96 123 73
92 119 71
94 121 73
91 117 70
91 117 70
90 117 70
92 119 71
90 117 69
95 123 73
96 123 73
91 117 70
90 117 69
95 122 73
93 121 72
91 118 70
91 118 70
91 118 71
92 119 71
146 163 152
197 207 214
206 215 224
193 203 210
196 207 213
189 200 208
194 205 211
193 204 210
194 204 212
190 201 209
189 201 206
197 208 217
203 212 220
192 203 211
196 207 216
197 209 220
207 217 227
196 207 215
202 212 219
189 200 209
193 205 213
192 203 212
191 203 209
196 207 216
183 195 201
108 130 99
86 112 66
97 125 75
95 122 73
90 116 69
93 120 72
92 119 71
92 119 71
94 121 72
94 121 72
92 119 71
91 117 70
91 118 70
90 118 70
94 122 74
90 116 69
88 115 68
93 121 73
89 115 67
90 116 69
92 119 72
92 119 71
90 117 70
122 143 117
200 211 221
199 209 217
194 206 214
202 212 221
192 203 211
186 198 206
206 217 227
193 203 210
199 210 219
195 205 213
195 206 214
193 203 210
195 207 215
197 208 216
196 206 214
194 206 214
197 206 213
196 206 214
195 206 213
186 198 205
194 205 212
203 212 220
118 140 115
90 117 70
95 122 73
93 120 72
92 118 71
92 119 71
95 123 73
91 118 70
93 120 72
94 122 73
92 119 71
86 112 67
97 124 74
93 120 72
91 118 70
90 116 68
89 116 69
92 119 71
91 118 70
91 118 71
90 117 70
135 152 138
193 204 211
200 210 218
191 203 209
200 210 218
201 211 221
198 209 218
193 204 212
195 206 215
181 193 193
164 178 176
154 170 167
163 177 170
136 154 135
126 146 126
107 130 91
96 123 77
94 121 73
90 117 69
92 119 71
149 165 154
194 205 211
203 213 220
196 207 217
196 207 215
206 216 225
192 203 210
189 201 209
192 203 212
195 206 215
201 211 219
197 207 217
195 206 215
199 210 218
193 205 212
197 207 216
205 215 226
190 201 206
190 201 207
114 136 106
93 121 73
88 114 69
93 120 72
91 117 69
94 121 72
88 115 68
88 114 68
89 116 69
91 118 70
92 118 70
90 116 69
88 114 67
94 121 72
92 119 71
91 118 70
118 140 110
187 198 200
185 197 205
192 202 208
194 204 212
194 205 214
185 197 203
194 205 212
196 207 217
192 203 209
161 175 170
189 201 207
185 197 201
155 170 163
104 129 89
89 115 69
88 115 68
89 115 68
92 119 71
90 117 69
93 120 71
89 116 68
90 118 71
92 119 72
91 118 70
160 174 168
196 206 214
191 202 209
191 203 211
196 207 215
184 196 200
195 205 213
186 197 202
156 171 163
124 144 121
91 118 71
93 120 72
92 119 71
90 117 70
95 122 73
94 121 73
93 120 72
93 119 71
94 121 73
94 121 72
96 123 74
91 118 70
91 118 70
145 161 149
195 206 213
196 207 216
197 208 217
192 203 208
196 206 214
192 203 210
193 204 209
189 200 206
200 211 221
187 199 206
164 177 173
135 154 134
99 124 82
88 115 69
89 116 69
96 123 74
94 121 72
94 120 72
94 121 72
91 118 71
94 121 72
91 117 69
88 114 67
124 144 120
189 200 206
195 206 215
199 209 218
195 205 214
190 201 209
197 207 216
204 213 222
192 204 213
193 204 211
197 208 218
191 201 208
191 202 208
193 204 210
194 205 213
197 209 218
197 208 215
195 206 213
189 200 206
194 205 213
199 209 217
179 191 195
156 170 160
122 142 119
100 126 85
93 120 72
196 207 214
195 206 214
187 198 204
189 200 208
193 204 212
185 198 204
197 208 217
199 209 219
191 202 210
194 205 212
189 199 205
203 213 221
201 211 219
198 209 217
192 203 212
187 199 204
194 205 212
196 206 212
195 207 213
189 200 206
191 202 209
194 204 212
192 203 211
185 197 203
203 213 223
177 190 192
91 118 70
91 118 71
91 118 70
92 120 72
91 117 69
93 121 73
93 120 72
96 123 74
92 119 71
91 117 70
88 114 67
89 116 69
92 119 71
90 116 70
92 119 71
89 116 69
94 121 73
99 125 82
109 131 103
151 166 157
167 180 178
189 201 206
189 201 209
197 207 213
194 206 214
185 197 203
91 118 73
96 123 74
89 115 69
94 121 73
91 118 70
92 118 70
94 122 73
93 120 72
87 113 67
90 117 69
93 121 73
92 119 71
94 121 73
85 111 67
90 117 70
95 122 73
91 118 70
94 121 72
93 121 73
89 116 69
88 116 69
93 120 71
95 122 73
96 123 73
91 117 70
93 120 72
180 192 191
200 209 218
198 208 214
196 206 215
195 206 213
194 204 213
202 212 219
200 211 221
199 209 215
197 208 217
186 198 203
194 205 213
194 205 212
198 208 216
196 207 214
193 203 210
201 212 220
194 205 210
199 210 219
192 203 211
190 202 209
194 205 211
200 210 219
197 208 215
190 202 209
195 206 212
118 139 112
94 122 74
91 117 70
91 118 70
93 119 71
91 118 70
93 120 71
95 122 74
88 115 68
94 121 72
93 120 71
89 116 69
91 118 71
92 118 70
91 118 70
89 116 69
91 118 71
93 120 71
91 118 70
94 121 72
93 120 72
89 116 69
109 132 97
108 131 98
142 159 142
151 167 159
157 172 166
139 156 140
140 157 143
118 138 109
107 131 94
94 119 82
95 122 73
91 118 71
94 121 72
89 115 69
95 122 74
94 121 73
89 116 69
91 118 69
90 117 70
95 123 74
91 118 70
91 118 71
91 118 70
92 119 71
90 117 69
91 118 71
86 112 67
90 117 70
101 125 84
184 196 200
194 204 211
199 210 219
201 211 218
196 207 217
197 208 216
195 206 213
193 204 212
193 204 210
196 206 211
190 202 209
195 206 213
197 208 216
197 209 217
199 210 218
194 205 214
200 210 218
194 205 212
184 195 200
195 206 215
199 208 213
198 208 215
200 210 219
196 207 216
166 180 178
92 119 71
91 118 70
90 117 69
92 119 71
94 121 72
89 116 69
90 116 69
91 117 71
90 117 70
90 116 69
89 116 70
90 117 69
96 124 75
90 116 69
88 115 68
93 120 72
93 120 72
92 119 71
92 119 71
89 116 69
92 119 71
89 115 68
92 116 77
185 197 203
200 211 223
197 207 213
194 204 212
183 195 200
194 205 213
193 205 212
196 207 216
192 204 213
189 201 209
181 192 199
202 212 222
191 203 210
195 207 217
193 204 212
196 206 212
201 211 219
195 206 212
194 204 209
198 208 216
201 212 221
193 204 214
149 164 152
93 120 72
91 118 71
94 121 72
90 117 70
91 118 71
89 115 69
94 121 73
90 118 70
92 119 71
89 116 70
90 116 70
91 118 71
92 119 71
96 123 73
89 116 69
94 121 72
88 115 67
91 118 70
92 119 71
93 117 75
127 145 129
171 184 184
167 181 177
164 177 172
147 163 154
140 155 142
125 143 121
111 133 101
102 127 86
93 121 73
91 118 70
90 117 70
92 119 70
93 120 72
94 121 73
89 116 69
93 119 71
91 118 70
86 111 66
96 122 73
141 157 145
192 205 216
198 208 216
195 206 213
193 205 215
195 206 215
186 197 204
196 207 214
192 202 209
193 203 210
192 203 211
190 200 207
199 210 219
198 209 219
187 198 204
187 198 204
196 207 214
198 208 217
191 202 207
121 142 113
86 113 67
86 113 68
91 118 71
91 118 70
91 117 70
92 118 70
89 115 68
90 117 70
95 122 73
89 116 69
90 117 70
91 118 70
96 123 74
89 115 69
92 119 72
122 142 116
193 204 211
193 205 215
203 214 224
190 202 209
192 203 210
181 194 198
172 186 186
140 157 143
105 128 93
94 121 72
91 117 70
186 198 204
195 206 213
192 203 210
191 202 208
158 173 168
125 144 125
86 112 66
94 121 72
91 117 69
89 116 69
89 115 69
90 117 70
92 119 71
91 118 70
132 151 131
200 210 218
190 201 207
186 197 205
198 209 218
196 207 214
187 199 203
186 198 204
194 205 215
188 199 206
173 187 188
142 159 147
112 134 102
92 119 71
90 116 69
91 118 70
91 118 71
93 119 71
88 114 68
92 119 71
83 109 64
92 119 71
89 116 69
129 149 128
190 201 209
194 204 211
183 195 199
193 203 211
199 209 218
186 198 202
190 202 211
191 203 212
197 207 215
195 206 215
197 208 217
192 204 211
189 200 206
175 188 188
150 166 152
102 126 86
93 120 71
91 118 70
87 114 68
92 118 71
95 122 73
92 119 71
93 121 72
112 134 103
200 210 216
191 202 209
196 207 216
188 200 207
191 202 209
193 204 212
197 207 214
188 200 208
180 192 198
197 207 214
195 206 214
189 201 207
190 202 210
192 203 210
190 202 210
198 208 216
196 207 217
204 214 224
190 201 207
203 214 224
197 208 218
194 204 210
207 217 226
190 202 209
169 183 181
145 161 151
176 188 188
202 212 220
193 204 211
186 197 202
194 206 215
185 196 201
203 213 224
191 202 211
200 210 217
195 205 213
188 199 207
198 210 221
194 204 211
190 201 208
193 204 212
199 210 219
189 201 207
195 205 213
197 207 214
181 194 201
197 208 216
192 203 210
193 204 213
187 198 204
159 174 170
86 112 66
89 116 70
91 118 71
94 121 73
90 117 70
92 119 70
91 118 70
86 113 67
91 118 72
92 119 71
89 116 69
89 116 69
93 120 72
90 116 69
93 120 71
93 120 72
91 118 70
92 120 72
93 120 72
92 118 70
92 119 71
92 119 74
113 135 100
128 147 129
161 177 171
158 174 165
99 124 84
94 120 71
93 120 72
91 118 71
92 119 71
91 118 70
92 119 71
90 117 70
92 119 71
94 121 72
90 117 70
93 120 71
90 117 70
92 119 71
94 122 73
89 116 69
88 115 68
92 119 71
91 117 70
92 119 71
93 119 71
92 119 71
92 120 72
89 116 68
91 117 70
117 138 107
200 211 221
202 212 220
196 207 215
191 202 209
185 196 201
195 206 214
189 201 208
196 206 213
201 211 219
203 214 224
188 199 204
193 204 210
196 207 216
192 203 210
192 204 212
198 208 215
188 199 206
191 202 208
203 213 223
190 201 208
184 196 201
186 199 209
183 195 199
190 201 208
195 206 213
181 194 194
90 117 69
90 117 70
91 118 70
90 117 70
92 119 72
92 119 70
89 116 69
89 116 69
87 114 68
90 117 70
92 119 71
94 121 73
90 117 70
89 116 69
90 117 70
88 114 68
93 121 72
91 117 70
87 114 67
92 119 71
89 115 68
92 119 71
91 118 70
92 119 71
90 117 69
156 171 164
198 208 215
189 201 207
197 207 214
185 197 203
190 201 206
186 197 203
195 205 210
179 191 191
176 189 191
168 181 181
157 171 164
160 175 167
147 162 149
121 141 119
127 146 124
115 136 113
99 124 84
95 122 76
93 119 71
93 120 71
89 116 69
93 120 71
91 118 70
92 119 70
151 167 156
198 208 216
197 208 216
196 207 216
190 201 207
192 203 209
181 193 199
201 211 218
199 208 216
196 207 216
182 194 202
196 206 213
198 208 216
195 205 212
199 209 215
201 211 220
205 214 224
190 201 208
186 198 204
189 200 204
196 206 215
196 207 216
188 200 207
191 202 207
190 200 204
96 121 77
93 120 72
89 115 68
91 118 71
90 117 70
91 117 70
89 116 69
89 116 69
90 117 70
90 116 69
92 118 71
90 118 70
93 120 72
95 123 74
92 119 72
90 117 70
91 118 70
96 123 74
92 119 72
96 123 74
86 113 66
91 118 70
91 118 70
163 177 172
194 204 211
194 205 212
204 213 222
182 194 198
190 201 209
194 205 212
184 195 200
198 209 217
191 202 209
193 204 210
189 201 208
200 211 221
198 208 216
188 200 206
205 216 227
200 211 223
187 199 205
191 202 210
197 207 214
197 207 214
187 198 205
171 183 181
92 119 71
92 119 71
91 118 70
90 116 69
95 122 73
89 115 68
92 119 71
93 120 72
94 122 73
99 124 87
112 135 102
119 141 117
142 159 144
139 156 144
151 167 157
165 179 176
171 184 182
182 193 194
182 194 196
196 205 211
171 183 184
97 121 84
86 112 67
96 123 74
92 119 71
92 119 71
90 117 70
91 118 71
90 116 69
89 116 69
92 118 71
92 118 70
92 119 72
89 115 69
97 124 75
88 114 68
88 114 68
91 118 70
91 117 70
95 122 73
125 146 127
196 206 213
193 204 212
198 208 217
197 207 215
195 206 217
196 207 216
181 192 197
191 202 209
192 203 210
196 207 216
200 210 217
200 210 217
197 208 217
184 196 199
189 201 209
198 208 217
194 205 211
192 202 208
118 139 114
93 120 72
88 115 68
93 120 71
88 115 68
90 116 68
88 115 69
96 123 74
90 117 69
89 115 68
89 116 69
87 113 67
95 122 73
89 115 68
88 115 69
93 120 72
121 142 115
178 190 194
205 214 222
175 188 188
156 171 164
128 148 125
101 124 90
96 123 74
92 120 72
90 117 69
93 120 72
91 117 69
89 116 69
188 199 204
197 208 217
197 208 217
195 206 214
196 207 215
198 208 217
183 194 200
142 158 148
116 138 107
90 116 69
94 121 73
86 113 67
88 115 69
92 119 71
108 131 98
195 206 216
196 206 214
190 202 210
196 207 216
196 206 214
193 204 211
193 204 210
198 208 217
193 205 214
198 209 218
196 206 213
196 207 213
173 186 188
132 151 133
97 122 83
95 122 74
92 119 71
96 124 74
88 115 68
91 118 70
91 118 70
90 116 69
113 134 103
203 212 221
202 212 221
186 197 202
194 205 211
194 205 213
190 201 208
192 204 214
197 207 214
193 205 216
195 205 211
182 195 203
199 210 220
188 199 204
194 204 211
198 209 219
185 198 204
168 181 180
128 146 129
98 123 85
90 116 69
88 114 68
89 115 68
93 120 72
114 135 106
194 204 212
192 204 211
198 208 216
192 203 212
200 210 218
190 202 208
189 201 209
194 205 214
187 200 207
197 208 216
196 206 212
188 199 204
188 200 208
196 206 214
192 202 210
202 212 222
188 200 208
192 204 211
197 207 215
188 199 205
202 212 221
193 205 215
192 203 211
198 208 218
184 196 200
90 117 70
85 111 66
104 128 89
131 149 130
162 176 171
185 197 204
193 204 211
191 202 209
188 199 202
195 206 213
200 211 220
199 209 215
178 190 193
195 207 217
197 207 214
189 201 209
196 206 212
191 202 209
198 209 219
195 205 213
192 203 208
188 200 207
198 209 217
191 202 208
194 205 213
145 160 150
93 119 71
90 117 69
93 120 72
88 115 69
90 117 70
89 116 71
92 119 71
96 122 73
93 120 71
92 119 71
91 118 71
85 111 65
91 118 71
91 117 71
89 116 69
94 121 72
92 119 71
91 118 71
91 118 71
88 114 69
90 116 69
94 121 72
93 120 71
91 118 71
92 118 70
145 162 150
194 206 214
179 191 192
157 172 162
145 161 149
117 137 112
97 124 76
94 122 74
90 117 70
93 121 72
93 120 71
89 116 69
90 118 70
91 118 70
90 117 70
90 117 69
93 119 71
93 120 72
89 115 68
91 117 70
87 114 68
92 119 71
90 116 69
88 115 69
91 118 70
91 119 71
155 170 163
192 204 214
192 204 212
192 202 208
187 199 206
192 203 209
189 201 210
192 203 213
191 202 209
184 195 200
193 204 211
198 209 218
198 208 214
196 206 214
186 197 202
188 200 208
187 199 205
199 208 216
198 209 217
200 210 218
193 205 213
205 216 226
188 199 207
193 203 208
191 202 208
189 201 207
147 162 155
90 117 70
89 115 69
90 116 69
95 122 73
94 121 72
89 116 68
90 117 70
89 116 69
91 118 70
90 117 71
89 116 69
92 119 71
89 116 69
93 121 73
90 117 70
93 120 71
91 118 70
90 117 69
88 115 68
89 116 69
93 120 72
90 117 69
89 116 70
90 116 69
117 138 111
192 203 210
197 208 217
190 202 209
194 206 213
201 210 220
195 206 216
196 207 216
185 196 200
194 205 211
192 202 209
199 210 219
198 209 217
191 202 211
190 201 206
201 211 218
194 204 209
202 213 222
181 192 196
188 200 207
197 207 214
192 202 209
185 196 200
178 190 190
174 187 186
161 177 172
133 152 135
144 160 147
156 172 165
161 174 170
165 179 176
164 177 175
182 195 197
170 183 183
186 199 201
197 208 215
181 193 197
188 200 206
194 205 211
195 206 213
192 203 211
194 205 213
189 201 209
190 201 208
195 206 215
197 208 217
198 209 219
188 200 207
191 204 213
190 200 207
133 151 132
93 120 72
90 117 70
93 120 71
90 118 70
90 117 69
92 119 71
90 116 68
90 116 69
91 117 70
90 116 69
97 125 75
91 118 71
91 118 70
93 120 72
96 123 74
93 120 71
87 114 67
93 121 72
94 121 73
94 121 72
88 115 67
91 118 70
140 155 144
194 205 213
192 203 210
179 190 193
197 208 218
204 214 224
197 207 216
196 206 212
194 205 211
201 212 224
189 200 207
194 205 213
190 201 209
184 197 206
196 207 216
197 208 216
191 202 208
192 203 209
177 190 194
178 190 191
181 194 196
174 188 189
180 192 194
140 156 143
148 164 154
161 175 170
155 170 162
153 167 162
169 183 182
174 187 188
186 198 204
175 187 190
195 205 213
194 205 212
194 205 213
194 205 213
191 202 207
188 200 207
198 209 218
193 205 211
190 201 209
192 204 211
185 196 202
190 202 208
115 136 110
92 119 72
91 117 70
89 116 69
93 121 72
88 115 69
86 112 67
92 118 70
90 117 70
89 115 68
93 120 72
89 115 68
92 118 71
89 115 69
89 115 69
87 113 66
92 118 71
96 123 74
89 115 68
114 135 109
194 205 213
192 203 210
191 201 208
194 204 210
193 203 210
195 205 211
192 203 210
191 202 211
195 206 212
187 198 204
201 210 218
200 210 219
193 205 213
189 201 210
193 204 210
193 203 212
195 205 213
192 203 209
114 136 106
95 122 73
88 114 68
90 117 70
91 118 70
93 121 72
90 117 69
92 119 72
90 116 69
93 120 72
88 115 68
93 120 72
90 117 69
90 118 70
89 115 68
107 130 97
108 130 100
128 146 130
112 133 103
99 124 84
95 123 74
90 116 69
87 114 67
92 119 72
89 115 68
94 120 72
93 119 71
90 117 69
88 114 68
85 111 65
195 204 210
176 188 192
195 206 214
193 204 210
201 210 220
185 197 205
185 197 201
194 206 214
194 205 215
175 186 187
145 161 148
93 118 78
94 121 73
88 114 68
89 116 69
196 207 214
197 208 217
193 204 212
190 202 209
188 200 207
194 205 212
193 204 213
180 192 197
192 203 211
202 212 221
200 210 220
197 208 214
187 199 207
197 208 214
189 200 206
172 184 182
141 157 143
91 117 73
85 111 66
89 116 69
88 114 68
91 117 70
118 139 113
196 206 215
175 187 190
179 192 198
191 201 207
193 204 213
185 197 205
198 209 217
190 201 208
188 199 206
196 206 215
190 200 207
189 200 206
191 201 208
196 207 215
190 201 209
195 206 214
191 202 209
186 197 203
187 199 204
185 198 201
140 157 147
123 143 120
93 121 73
112 135 102
195 205 212
193 205 213
197 208 216
185 197 203
188 199 204
190 202 209
193 204 211
181 192 196
191 202 209
203 213 222
185 198 206
190 202 210
183 196 201
192 203 209
187 199 206
192 202 210
193 204 212
192 203 210
196 206 215
193 204 211
181 192 197
188 199 207
196 207 216
200 211 220
180 192 194
85 111 66
93 120 72
89 116 70
92 119 71
89 116 69
91 117 70
109 133 97
145 161 149
174 188 189
195 206 213
195 205 212
191 202 207
196 207 216
198 209 218
201 211 220
194 205 212
188 199 204
197 207 214
190 202 209
194 205 211
192 203 210
188 200 210
194 205 213
191 202 206
187 199 208
140 157 144
90 116 69
89 115 69
94 121 72
87 114 67
90 117 69
93 120 72
96 124 74
89 115 68
92 118 71
90 117 70
92 119 71
90 116 69
89 116 69
89 116 69
88 115 69
90 117 70
90 116 69
90 117 69
94 121 72
92 119 72
90 117 69
94 121 72
94 121 72
90 117 69
92 119 71
174 187 188
194 205 214
189 200 204
189 201 207
190 200 207
189 201 207
203 213 223
181 194 198
161 175 172
142 158 144
120 140 112
98 124 83
92 119 71
90 116 70
90 117 70
87 113 67
89 116 69
93 120 72
95 123 74
91 118 71
89 117 70
90 117 70
93 120 72
93 120 72
91 119 71
91 118 71
172 185 186
198 207 213
191 202 208
195 206 214
192 203 209
199 210 217
193 203 210
190 202 209
198 207 215
200 210 219
188 200 207
191 201 207
184 196 201
190 201 207
203 212 219
192 202 207
195 206 212
194 205 215
201 212 221
196 206 214
190 202 210
195 207 217
189 200 208
194 205 212
196 206 215
176 188 193
96 122 78
90 116 69
87 114 67
92 119 71
91 117 70
91 118 70
88 115 68
93 120 72
91 118 70
91 118 71
92 119 71
92 119 71
89 116 69
89 115 68
95 122 73
92 119 72
90 117 69
93 120 71
93 121 72
93 120 71
89 116 69
94 120 72
92 119 71
92 119 72
93 119 71
155 171 162
196 207 214
194 205 213
193 204 210
198 209 217
186 197 204
189 200 205
196 207 216
195 204 212
198 208 216
188 201 208
193 204 212
201 210 218
201 212 221
189 201 208
185 197 203
195 206 213
197 208 217
191 202 209
196 206 214
190 201 208
195 206 213
197 207 215
199 209 218
192 202 209
137 155 139
94 121 72
91 118 70
87 113 67
90 117 70
94 121 73
92 118 70
94 121 73
87 112 67
93 120 72
87 113 67
90 117 69
89 116 69
95 120 79
101 125 87
106 131 92
119 140 112
115 135 109
124 144 119
130 147 127
130 148 128
137 155 137
130 149 131
140 158 143
161 175 173
167 180 175
150 166 159
162 176 173
160 173 167
161 175 170
147 164 155
147 163 150
153 168 164
155 170 160
148 164 152
136 153 136
152 166 160
141 159 147
144 161 150
141 157 143
150 166 155
153 168 155
157 173 166
149 166 156
150 166 155
156 171 162
148 165 153
138 155 137
135 153 136
134 153 136
138 156 143
134 153 137
135 153 136
145 163 146
130 148 134
134 152 135
127 145 127
120 140 116
115 137 107
111 132 104
106 128 95
107 130 96
86 112 66
93 119 74
88 114 68
88 115 69
92 119 71
88 115 68
89 115 68
95 119 81
169 182 182
202 212 222
199 209 217
199 209 218
196 206 213
181 193 198
184 196 201
197 208 216
189 200 208
196 207 214
193 203 210
186 197 203
190 201 208
198 208 215
188 200 207
193 203 210
200 211 221
191 202 210
194 204 213
194 205 214
180 192 195
125 146 121
89 116 68
89 115 69
89 116 69
93 120 72
90 116 69
89 116 68
92 119 71
89 115 68
89 115 68
92 119 71
90 117 69
88 115 68
93 121 73
93 121 73
90 117 69
90 116 69
90 117 70
87 113 67
118 139 111
185 197 203
190 201 208
185 197 204
204 214 224
188 199 206
199 210 218
193 203 209
204 214 222
197 207 214
194 204 210
188 200 208
186 197 203
190 201 206
189 200 205
194 205 212
196 207 216
196 207 214
191 203 211
115 137 110
89 115 69
89 115 69
88 115 69
94 121 73
93 120 72
94 121 72
97 125 75
90 116 69
90 117 69
93 119 71
100 124 86
121 141 119
144 159 146
171 186 186
180 192 199
165 179 176
95 122 73
94 121 73
88 116 69
87 113 67
90 116 68
93 120 72
86 112 66
92 118 70
89 116 68
91 118 70
88 114 68
95 123 74
88 115 68
95 120 75
188 200 207
186 198 206
185 198 204
185 197 204
187 198 203
202 211 219
193 205 213
197 207 215
194 205 212
193 204 211
196 207 213
189 201 208
163 178 173
126 144 124
89 116 69
174 186 184
187 198 203
194 205 212
192 203 211
185 197 205
188 200 204
190 201 210
191 203 209
187 199 206
191 202 210
194 205 214
194 206 214
188 200 207
197 208 216
197 208 216
191 202 208
195 206 214
186 197 203
168 181 177
130 146 130
88 114 68
90 117 70
100 125 87
204 213 220
198 209 218
186 198 204
187 199 207
195 205 211
191 202 209
199 208 215
197 208 216
189 200 207
192 203 210
189 200 206
198 208 216
190 201 209
192 204 210
190 202 210
196 206 213
196 205 211
187 198 205
199 210 218
195 206 213
190 201 207
191 202 210
173 187 189
147 164 155
188 200 204
195 206 215
193 203 209
185 196 201
195 207 216
193 203 211
198 208 216
198 209 218
197 208 215
195 206 215
195 207 218
192 203 211
194 205 211
197 207 216
192 203 209
194 205 213
183 195 200
195 205 212
191 202 209
201 211 219
196 206 211
195 206 215
198 209 219
192 203 209
170 184 183
92 118 70
90 117 69
90 117 70
88 115 69
93 120 72
88 115 67
92 118 71
91 118 70
85 111 66
90 117 70
119 138 112
154 170 164
176 188 187
194 204 211
182 194 201
183 195 199
191 201 210
197 208 216
192 203 210
199 210 221
185 197 204
186 197 201
195 206 214
195 205 213
194 204 211
107 131 97
91 118 70
91 118 71
90 116 70
88 115 68
89 116 69
84 111 66
91 117 70
93 120 72
92 119 71
90 116 69
89 116 69
88 114 67
92 119 71
92 118 71
89 116 69
87 113 67
92 119 71
91 117 71
88 115 69
88 114 68
93 120 72
90 116 69
90 117 70
88 115 69
101 125 87
194 206 215
198 209 220
200 211 219
193 204 209
192 204 212
192 202 208
191 202 209
196 206 215
193 204 211
200 210 219
185 196 202
184 195 200
185 197 200
169 183 180
146 163 151
124 144 120
100 124 87
90 117 70
90 117 70
93 121 73
84 109 64
93 119 71
91 118 71
90 117 70
87 114 68
123 143 118
197 208 218
198 209 218
188 199 204
198 209 217
191 202 211
188 200 208
188 199 206
192 204 214
192 203 209
197 208 217
199 210 219
193 204 214
191 202 209
185 197 203
198 209 216
200 211 218
192 203 210
198 209 217
196 206 212
197 207 213
198 209 220
197 207 217
193 204 211
191 201 207
195 206 216
168 183 181
93 121 72
90 117 70
92 120 71
89 116 70
94 121 73
90 117 70
90 117 70
93 120 71
91 118 71
93 120 73
92 118 70
92 119 71
90 117 70
93 119 72
88 115 69
90 117 70
89 116 69
91 117 69
90 117 70
87 114 68
93 120 72
91 118 71
91 119 71
90 117 70
104 126 93
178 189 192
191 202 209
186 197 203
195 205 212
191 202 209
201 210 218
194 205 213
185 197 203
189 200 207
193 204 209
193 205 214
185 197 205
194 205 212
202 213 224
195 206 213
191 202 210
199 209 217
188 200 207
188 199 204
189 200 206
195 206 214
193 203 209
196 207 214
186 197 203
181 194 197
93 119 76
93 120 72
92 118 70
88 115 69
86 112 66
91 117 69
87 114 68
89 116 70
93 120 72
88 114 68
93 120 72
91 118 71
94 121 72
91 117 70
92 119 71
89 115 68
92 119 71
88 115 68
94 121 72
91 118 70
94 121 73
92 119 71
89 116 69
105 129 91
187 199 205
184 196 201
193 205 213
198 208 215
187 199 207
192 203 209
188 199 206
204 213 221
187 199 206
183 196 201
184 196 201
187 197 203
190 201 208
193 202 209
196 206 215
201 211 220
199 209 218
197 207 214
195 206 213
199 208 216
196 206 214
198 208 215
198 208 217
120 138 116
87 113 68
92 119 71
92 119 71
91 118 71
91 118 71
91 118 70
91 118 71
89 116 69
94 121 73
88 114 67
93 120 72
90 117 70
93 120 72
91 118 70
93 120 71
92 119 71
92 119 72
87 113 67
91 118 71
91 117 70
94 120 72
167 181 177
192 203 210
185 197 203
194 205 212
197 207 214
187 198 203
187 199 206
204 214 223
191 202 210
193 203 210
191 201 208
193 205 216
195 206 213
201 210 218
193 204 212
190 200 206
196 206 214
191 202 210
190 201 208
193 205 213
190 200 207
133 150 134
90 117 69
90 117 69
89 116 69
89 115 69
90 117 70
90 117 69
88 114 67
89 115 69
89 115 69
91 118 70
91 119 72
90 117 70
90 117 69
94 121 73
94 122 73
92 119 71
91 118 70
89 115 68
108 131 99
178 190 191
191 202 207
186 196 203
186 198 203
189 200 208
197 206 215
193 204 211
196 206 213
196 207 215
190 201 207
194 206 213
189 201 208
192 203 210
193 204 212
192 203 210
191 202 210
200 211 222
197 208 215
120 141 115
84 111 65
93 120 72
89 116 69
91 118 71
92 118 71
88 115 68
97 123 79
122 142 118
146 161 153
166 179 174
184 195 200
200 211 220
190 202 208
194 205 213
192 203 209
167 180 178
92 118 73
87 114 68
90 116 69
95 122 74
91 118 70
90 116 69
87 113 67
89 115 68
93 120 72
90 116 69
90 117 70
93 120 72
89 115 69
90 116 77
165 180 177
186 197 203
196 207 217
187 199 207
182 194 200
200 211 220
185 196 203
187 199 206
187 198 206
190 201 206
193 204 212
183 195 201
200 210 217
199 209 217
190 201 209
176 187 187
169 182 183
179 190 193
187 199 207
187 200 207
193 203 210
194 204 212
186 199 207
189 200 207
199 209 218
188 199 207
195 206 217
195 205 212
192 203 209
190 200 206
191 202 210
196 207 217
191 202 210
195 207 216
190 201 210
196 206 213
179 191 196
163 177 172
134 152 133
192 203 209
201 211 219
187 197 202
189 202 209
192 203 210
197 208 215
197 207 216
194 205 212
189 200 207
198 208 216
190 200 207
196 207 216
192 203 210
182 194 198
198 208 215
182 194 200
194 205 216
194 205 212
198 209 217
198 208 217
187 198 204
197 207 216
192 204 213
181 193 197
87 114 67
115 137 107
149 165 154
170 183 182
199 210 217
205 215 225
199 209 216
196 206 214
198 208 215
197 207 215
184 196 202
194 205 213
191 201 206
201 211 219
183 196 201
200 211 221
189 201 208
189 201 209
183 195 199
192 204 212
196 206 212
195 205 212
193 203 209
202 212 222
151 167 158
90 117 70
86 113 67
93 119 71
90 116 69
92 119 71
88 115 68
92 119 71
92 119 72
92 119 71
92 119 71
93 120 71
93 120 72
90 116 69
96 121 80
130 149 125
154 170 163
168 181 180
194 205 214
195 206 215
200 211 219
194 205 213
187 199 205
192 204 212
193 203 211
183 194 198
89 116 69
91 118 70
93 120 72
90 118 71
88 114 67
88 115 68
92 119 71
94 121 72
93 121 73
86 113 68
90 117 69
93 120 72
89 116 69
93 120 72
91 118 70
92 119 71
88 114 68
90 117 70
92 119 72
89 116 68
94 121 72
91 119 71
88 114 67
92 119 71
90 116 69
128 147 131
197 208 217
195 206 214
194 206 215
188 200 209
189 201 208
197 206 214
195 206 214
196 207 215
200 209 218
198 209 216
191 202 207
182 194 201
182 194 199
192 202 209
185 196 203
189 200 206
184 196 200
191 202 208
175 188 189
154 169 160
132 151 132
123 144 122
98 123 83
92 119 71
87 114 67
142 159 144
204 214 224
199 209 217
191 202 209
199 208 215
191 202 208
203 212 219
193 204 211
185 196 203
193 204 211
185 197 203
200 210 220
198 208 214
196 207 215
205 216 227
199 209 217
195 206 214
195 207 215
206 215 225
195 205 212
189 200 204
198 208 216
189 200 208
197 207 217
202 213 222
189 200 205
117 138 113
89 115 68
91 118 70
91 118 71
89 115 68
88 114 68
92 120 72
88 115 68
92 119 72
89 115 69
90 116 69
89 115 68
89 116 69
92 120 72
93 121 72
90 117 70
93 120 72
95 122 74
89 115 68
94 121 73
92 118 70
90 117 69
89 116 69
90 116 69
89 116 69
149 165 155
200 210 219
203 213 221
186 198 205
190 201 209
195 205 212
197 207 215
195 205 213
192 203 211
196 206 214
188 199 207
188 200 208
192 204 212
180 191 196
192 203 210
194 205 212
195 206 213
187 198 206
190 201 206
190 201 208
193 204 211
182 195 201
195 206 214
197 207 215
195 206 213
127 146 124
96 124 74
89 115 68
90 116 69
91 118 70
88 115 68
93 119 71
93 120 72
91 117 70
93 120 72
91 118 70
93 120 72
92 118 71
93 121 73
88 114 67
92 118 70
91 118 70
91 118 70
89 115 69
86 113 67
90 116 69
89 115 68
92 119 71
91 118 70
161 176 170
204 213 224
191 202 208
190 201 207
189 199 204
193 204 211
201 211 219
198 208 215
188 199 204
192 203 212
198 208 214
185 197 204
184 195 199
184 196 203
190 201 208
185 196 201
196 207 215
194 204 212
197 208 217
193 204 212
200 211 222
190 202 211
205 214 223
153 168 159
88 114 68
88 115 69
89 115 69
93 120 71
91 118 70
91 118 70
90 117 69
88 115 68
90 117 70
93 121 73
92 119 72
90 116 69
88 114 68
90 116 69
95 122 73
92 119 71
90 116 70
88 115 69
90 116 70
92 119 71
87 113 67
129 148 131
191 202 208
190 201 207
196 206 214
190 202 212
192 203 210
192 203 211
188 199 206
191 202 211
193 204 212
194 204 212
194 204 211
197 207 214
196 206 213
197 207 214
195 206 214
190 202 209
192 202 210
192 203 209
198 209 218
192 203 210
146 162 150
89 116 69
92 119 71
86 112 66
89 115 69
92 119 71
92 118 71
88 114 68
89 116 69
92 119 72
89 116 69
94 121 72
89 115 68
86 113 68
91 117 70
90 117 70
92 119 71
95 122 73
89 115 67
103 126 92
183 195 200
189 200 206
188 199 205
192 203 210
188 199 205
187 198 206
192 203 211
189 201 208
193 204 212
196 206 212
187 199 205
195 206 214
191 202 210
190 201 207
195 205 211
200 211 222
185 197 203
188 199 202
115 135 106
87 113 67
94 122 73
94 117 80
124 143 124
141 158 147
169 183 182
181 193 197
191 202 209
189 200 207
179 191 196
195 205 212
180 192 197
181 193 201
198 209 217
190 201 209
143 158 145
89 115 69
89 116 69
87 114 68
89 116 69
88 114 68
91 118 71
91 117 70
92 118 70
92 119 71
90 116 69
84 110 65
91 118 71
90 116 70
105 127 94
169 182 182
193 204 212
103 126 91
142 159 144
169 182 180
192 203 210
186 198 204
190 201 208
191 203 210
188 200 206
177 190 195
193 204 212
187 198 206
194 205 212
196 207 215
188 199 205
196 206 217
166 179 178
93 120 72
130 148 128
168 182 177
193 204 210
192 203 209
194 204 211
194 205 211
190 201 209
194 204 210
196 206 213
190 202 211
199 209 218
190 201 209
185 196 200
197 207 213
192 203 210
187 198 206
194 204 210
189 200 206
191 202 208
188 200 206
194 204 213
115 136 104
138 154 138
173 186 186
185 196 203
193 204 210
196 206 212
191 202 211
195 205 214
188 199 205
194 204 212
192 203 213
190 202 209
192 203 209
190 200 207
190 200 208
196 206 213
191 202 207
178 190 194
201 211 220
189 199 206
204 214 224
194 205 212
193 204 213
184 195 200
91 118 71
91 118 70
93 120 72
93 121 73
103 128 89
131 150 132
166 180 175
188 199 201
187 198 206
184 196 200
190 201 208
194 205 211
198 209 219
194 205 212
193 203 209
193 204 211
197 207 214
201 211 219
192 203 210
197 207 216
196 206 213
186 199 209
200 210 218
182 194 199
154 169 159
89 115 68
93 120 71
87 114 67
92 119 71
93 120 72
90 117 69
95 122 73
89 116 69
92 119 71
91 118 70
88 114 68
92 119 71
92 118 70
88 115 69
88 114 67
86 112 66
91 118 70
96 122 79
123 142 119
156 171 162
184 196 200
182 194 199
184 195 201
191 202 209
170 183 182
91 118 71
89 116 69
86 112 67
89 115 68
90 116 70
89 115 69
90 117 71
92 119 72
90 117 70
94 121 72
93 119 71
93 121 72
89 115 69
89 116 68
90 116 70
90 117 70
89 116 69
92 119 70
92 119 71
87 113 68
92 119 72
92 118 71
90 117 70
90 116 69
95 122 73
157 173 167
192 204 212
192 203 210
199 210 218
196 206 213
192 203 210
199 210 219
193 203 210
186 198 206
191 202 208
193 205 212
204 214 225
197 208 218
181 193 199
187 199 205
203 213 223
193 205 212
190 201 207
199 209 218
197 208 216
195 206 214
191 202 209
197 208 217
196 207 217
177 189 190
157 172 165
148 164 154
178 191 191
179 191 195
194 204 210
189 201 208
191 201 207
199 210 221
193 204 211
191 202 210
188 200 206
196 206 213
195 206 217
184 196 202
191 202 209
189 200 208
199 209 218
181 193 197
203 213 221
193 204 212
192 202 209
201 211 221
192 203 211
201 210 218
192 202 209
192 204 211
184 195 197
94 122 73
88 115 68
90 117 70
91 118 70
92 119 71
90 117 70
92 119 72
92 119 72
92 119 71
92 119 71
87 114 68
91 118 71
94 121 73
92 119 71
87 113 67
93 120 71
87 114 68
89 115 69
93 121 73
93 120 71
93 120 72
88 114 67
92 119 71
89 116 70
100 124 84
191 202 208
196 207 216
198 209 217
183 195 201
184 196 200
201 211 217
195 205 212
189 199 204
196 207 217
194 205 212
196 206 213
190 202 212
187 198 205
196 208 217
194 204 211
189 200 209
192 203 209
189 201 206
192 203 210
187 198 205
187 198 204
189 200 206
188 199 206
190 202 209
174 188 186
92 119 70
88 114 68
93 120 72
91 117 70
87 113 67
92 119 71
90 117 70
90 117 70
89 116 69
94 121 73
91 117 70
92 118 71
90 116 69
91 118 70
90 117 69
89 116 69
91 118 71
86 112 67
89 116 69
90 117 70
92 119 71
94 121 72
88 115 69
130 149 127
183 195 201
193 203 208
204 214 222
197 207 214
193 203 210
186 198 205
185 197 204
191 202 209
185 198 203
199 209 216
190 201 208
189 200 208
189 201 208
191 203 209
189 201 209
184 196 205
190 202 210
193 203 210
181 193 197
180 192 196
195 206 213
194 204 211
177 189 189
90 117 73
90 117 70
89 116 69
93 120 72
89 117 70
92 119 72
91 119 71
93 120 73
90 117 70
89 116 68
91 117 70
88 115 68
91 118 70
90 117 69
92 118 71
90 117 69
94 121 73
94 121 72
87 114 68
91 118 71
91 118 71
111 132 104
192 203 210
196 207 215
198 209 218
195 206 214
196 207 214
195 206 213
197 208 216
195 206 213
190 201 208
192 203 208
191 201 207
192 202 209
187 198 204
193 204 212
184 196 202
176 188 192
187 199 206
190 201 208
199 209 217
185 197 205
154 170 165
91 118 70
84 110 65
85 112 66
87 114 67
86 112 66
90 116 70
95 122 74
91 118 71
90 116 69
90 116 68
90 117 70
90 117 70
90 116 69
89 116 69
88 115 68
89 115 68
87 114 68
91 118 70
108 130 95
188 200 206
188 200 208
191 201 209
191 202 210
190 201 208
192 203 212
199 209 218
188 200 209
192 202 209
181 192 197
195 206 215
192 203 210
191 202 208
194 205 212
201 211 219
194 206 216
183 195 200
192 203 210
151 167 159
154 168 161
171 184 185
178 191 197
189 201 207
197 208 216
191 202 209
182 195 200
184 195 201
197 207 213
197 207 213
196 207 215
197 208 216
198 209 217
202 212 220
185 196 202
134 151 132
88 114 68
90 117 70
91 118 71
88 114 68
87 113 66
90 116 69
89 115 68
90 116 69
88 115 68
93 120 72
91 118 71
87 113 68
94 122 73
123 142 120
184 195 198
192 203 211
179 191 193
186 198 203
161 175 176
165 178 179
186 197 203
165 179 177
145 162 150
148 163 151
153 169 162
173 185 184
177 190 191
174 187 188
184 196 199
192 203 210
188 199 206
194 204 212
173 186 188
86 112 66
93 120 72
86 113 67
95 121 79
116 135 112
164 177 172
185 197 201
182 193 198
194 205 214
184 196 202
183 195 200
194 205 214
197 208 218
194 204 212
190 201 207
190 201 207
202 212 222
189 200 208
190 202 211
187 198 206
196 207 216
193 204 212
128 146 126
89 115 69
88 114 69
95 121 78
128 146 131
155 170 166
185 198 205
192 203 209
185 196 202
195 206 214
197 207 214
191 202 207
188 199 206
185 197 205
194 205 212
186 197 203
191 202 210
191 202 210
188 200 207
185 197 203
198 208 216
188 200 206
196 207 216
174 187 190
91 118 70
92 118 70
90 117 69
89 116 69
89 115 68
91 118 70
90 117 70
88 114 68
127 148 126
163 176 171
170 184 184
195 206 214
194 204 210
194 206 214
194 205 214
200 211 222
184 196 201
190 201 207
187 197 201
190 200 206
189 200 207
191 202 210
183 195 200
196 207 217
142 159 145
90 117 69
90 117 70
92 119 71
89 115 68
89 116 68
94 121 72
88 114 68
91 118 70
90 117 70
90 117 69
87 114 68
93 120 72
92 119 72
94 121 72
92 119 71
93 120 72
93 120 72
90 116 69
91 118 70
85 112 66
91 118 71
94 120 76
120 141 116
154 169 163
142 158 147
98 125 81
85 112 66
91 118 70
94 121 73
94 121 73
87 113 67
89 115 68
89 116 69
92 118 71
90 117 69
89 116 68
93 119 71
88 115 68
86 113 68
92 118 70
89 115 68
87 113 67
90 117 70
94 120 72
91 118 71
92 119 71
84 110 64
92 119 71
87 113 67
91 117 70
190 200 204
188 200 206
180 192 197
192 203 210
182 194 198
187 198 204
193 204 212
198 209 219
199 208 216
200 210 219
199 209 219
189 200 207
188 199 205
195 206 213
186 198 202
199 209 219
191 203 210
204 214 222
198 208 215
195 206 214
196 206 214
194 205 212
199 210 219
191 202 208
195 206 214
182 194 198
93 120 71
92 119 71
89 116 69
94 120 75
110 131 102
134 152 133
159 173 165
164 178 178
182 194 196
196 207 213
190 202 208
191 203 211
197 206 213
190 202 209
189 200 205
186 196 201
196 207 217
194 204 211
192 203 211
193 204 212
190 201 209
197 207 215
204 214 222
187 198 203
189 201 208
134 152 133
94 121 73
93 120 72
88 114 68
90 117 70
95 121 73
92 119 71
88 114 68
86 113 68
92 119 72
92 118 71
91 118 71
91 118 70
88 114 68
90 116 69
89 115 68
89 116 69
90 117 70
88 115 68
92 120 72
87 113 67
84 110 64
89 115 68
89 115 68
90 116 69
146 162 148
194 205 211
196 207 215
196 207 215
183 195 200
192 203 209
194 204 211
186 197 202
194 204 213
190 200 205
199 209 221
189 199 206
193 205 214
193 205 213
190 201 209
184 196 203
193 204 212
191 202 210
189 200 207
198 208 217
198 208 215
185 197 204
181 192 198
194 204 211
184 196 201
112 133 108
91 118 70
92 119 71
93 120 72
91 118 70
93 121 73
86 112 66
93 121 73
88 114 67
93 120 71
89 116 69
92 118 70
93 120 71
88 114 68
90 116 69
90 117 69
88 114 68
90 117 70
92 119 71
90 117 70
90 116 69
93 120 72
90 117 70
101 128 82
176 188 190
188 200 206
197 208 215
194 205 214
188 199 206
192 203 210
200 209 218
190 201 208
195 206 213
191 202 210
192 203 211
182 195 202
194 205 210
191 202 208
188 200 208
194 205 215
197 207 215
196 207 217
188 199 207
197 207 214
188 200 207
187 199 204
191 202 209
110 132 103
87 113 67
94 121 72
92 119 71
89 116 69
94 121 72
89 115 68
87 114 67
89 116 69
93 121 73
86 113 68
89 115 69
90 117 71
88 114 68
91 117 70
94 121 72
94 121 73
87 114 67
91 118 71
87 114 68
94 121 73
100 126 85
179 191 195
193 203 209
193 205 213
192 204 211
202 211 220
191 203 212
188 199 205
190 201 207
186 197 203
188 200 211
197 208 215
189 201 206
199 209 217
186 198 204
181 192 197
195 206 213
196 207 214
189 200 207
186 199 207
194 204 212
171 185 186
92 118 72
91 119 71
92 119 71
89 115 68
90 117 70
90 117 69
89 115 68
90 117 70
89 116 69
95 123 73
92 119 71
91 117 69
91 117 70
92 119 72
86 113 66
91 118 70
89 115 69
91 117 70
97 123 80
174 187 185
187 198 203
183 196 199
189 200 204
187 198 202
190 201 208
189 200 205
184 195 200
197 207 216
185 197 201
195 205 212
192 203 210
178 190 193
167 180 179
145 162 149
136 153 139
116 137 111
115 136 108
180 191 196
188 200 208
191 202 210
189 199 204
189 200 207
186 197 204
190 201 208
194 205 214
186 198 206
190 201 209
189 201 207
185 196 202
187 199 207
192 203 209
193 205 213
192 203 208
139 155 138
86 113 67
92 118 71
89 116 70
88 114 67
92 117 75
99 123 87
103 126 91
120 142 118
126 145 125
132 151 135
139 156 141
148 163 154
144 161 153
146 162 152
159 173 168
176 189 192
190 201 207
188 200 207
189 199 204
195 206 216
188 199 205
187 199 207
193 204 212
187 199 203
165 180 175
120 139 119
91 117 72
87 114 67
88 114 68
90 117 70
87 114 68
91 118 71
94 121 75
100 124 88
158 172 167
187 198 201
164 177 174
154 169 164
161 175 170
157 172 165
152 167 159
177 190 193
182 194 200
174 187 188
171 185 181
175 188 188
177 190 193
187 199 206
196 207 216
176 188 192
197 207 214
194 205 212
195 205 211
195 205 213
190 201 207
197 208 216
133 151 136
90 117 69
91 118 70
89 115 68
88 115 69
90 117 69
97 121 82
130 148 131
170 183 185
189 199 204
194 205 212
186 199 207
184 196 200
196 206 215
192 203 210
180 192 197
179 192 197
192 203 212
199 209 215
189 201 208
192 203 208
190 201 208
191 202 210
183 195 199
91 118 70
90 117 69
91 118 70
93 120 72
90 117 69
90 116 69
90 117 70
92 118 70
90 117 70
90 117 70
91 118 71
101 126 85
118 139 115
155 170 162
182 195 200
196 206 215
195 207 216
188 198 204
188 199 206
193 204 211
176 188 193
190 202 210
195 206 216
190 200 206
139 156 140
90 117 70
91 119 72
93 121 73
89 115 68
85 111 65
90 117 69
89 116 69
94 120 72
85 111 65
89 116 69
92 120 72
88 114 68
95 122 73
90 116 69
88 115 69
90 117 70
89 116 70
91 117 70
95 122 74
89 116 70
90 117 70
89 115 69
96 123 74
92 118 71
152 167 159
187 198 204
181 193 198
150 165 160
129 149 128
101 125 89
91 118 71
90 117 70
87 114 69
93 120 72
89 116 69
92 119 71
88 115 68
92 119 71
91 118 70
93 121 72
88 115 68
90 117 70
90 117 70
91 118 71
87 114 67
91 118 71
90 117 70
91 117 69
91 118 71
105 129 91
187 198 203
202 212 222
193 204 210
195 205 210
198 209 220
191 202 209
191 202 209
196 207 215
185 197 205
194 205 214
183 195 200
198 208 216
197 208 216
186 197 203
193 204 212
191 202 210
202 212 223
193 204 211
187 199 207
195 205 212
187 198 205
187 198 202
192 203 210
194 205 212
192 204 211
142 159 146
88 115 68
87 113 67
88 114 68
89 116 68
86 112 66
90 116 69
91 118 70
93 120 72
93 120 72
88 114 67
96 121 80
129 147 127
152 166 158
156 171 163
167 182 181
189 201 210
196 206 214
197 207 214
191 202 208
187 198 203
182 193 198
194 205 213
186 197 202
199 208 216
189 200 206
88 114 68
91 118 71
90 117 70
92 119 71
92 119 71
94 121 73
94 121 73
87 113 67
88 113 67
92 118 71
91 118 70
90 117 70
94 121 73
93 120 72
93 120 72
88 115 68
87 113 67
88 114 67
87 113 67
93 119 71
90 117 70
91 118 71
94 121 72
91 118 70
93 118 76
180 192 196
196 208 216
194 205 213
193 204 211
191 203 210
183 195 202
187 198 204
191 202 210
194 206 215
190 201 209
206 216 225
197 208 215
188 198 204
181 193 200
194 205 212
192 204 211
199 209 217
194 205 211
187 199 207
191 202 208
184 196 204
192 204 213
186 198 205
195 205 212
152 169 162
89 115 68
88 115 68
88 115 68
90 117 71
93 120 72
88 115 69
89 116 69
93 120 72
89 115 68
86 112 66
90 117 70
90 117 69
89 116 69
88 115 69
92 118 71
90 117 69
93 120 72
94 121 73
87 114 67
92 118 70
93 121 72
90 118 70
90 117 69
158 173 166
193 205 213
196 206 213
197 207 215
193 204 211
188 200 207
197 208 218
195 207 215
191 203 211
198 208 216
194 206 214
192 203 211
182 194 199
193 204 212
190 202 210
193 204 211
191 202 209
187 199 205
191 202 210
196 206 214
182 194 199
183 194 201
182 194 198
135 152 133
92 119 71
90 117 71
87 113 67
91 118 70
87 114 67
91 118 71
89 116 68
87 113 67
86 112 66
90 116 69
93 120 73
88 115 68
92 118 70
89 115 68
90 117 70
83 109 64
92 119 71
88 115 68
90 117 69
92 119 72
90 117 69
170 184 186
190 201 207
196 206 214
191 201 205
195 206 211
188 201 209
182 194 198
193 204 212
191 203 211
199 210 219
189 200 207
196 207 215
192 202 209
194 205 215
188 201 209
194 204 212
196 206 212
193 203 211
191 202 211
194 206 212
170 183 184
89 115 72
87 113 67
93 120 72
90 117 70
91 118 71
91 118 71
88 115 68
93 120 72
87 113 66
91 118 70
88 114 68
89 115 68
85 111 66
93 120 72
91 118 71
91 118 71
87 113 67
93 120 72
92 117 77
186 198 204
185 197 203
186 197 204
199 209 219
189 201 209
191 202 210
191 203 210
183 195 198
172 185 182
154 170 159
133 150 132
114 134 109
96 121 80
94 121 72
92 118 71
88 115 69
85 110 65
108 130 101
196 207 213
193 204 210
188 200 207
193 204 212
187 199 205
187 198 203
182 193 197
171 184 188
175 188 188
164 178 177
171 183 184
164 177 173
153 169 162
152 167 161
136 153 137
156 172 166
168 180 178
161 175 173
177 190 191
175 187 189
186 198 204
184 196 202
192 202 208
189 201 209
195 204 211
191 201 207
194 205 214
193 204 212
168 182 179
140 157 144
162 177 175
194 205 214
182 194 198
194 205 213
187 199 208
190 201 210
202 212 222
186 198 203
188 200 209
189 201 209
186 197 205
188 199 205
189 200 207
186 197 203
182 193 195
138 155 141
99 122 85
87 114 67
86 113 67
87 113 67
90 116 70
86 113 68
163 176 174
190 201 208
191 203 211
197 207 213
194 204 212
185 196 202
197 208 216
184 196 201
191 202 207
185 196 202
158 172 168
119 139 115
88 115 69
90 117 69
91 117 70
98 123 86
107 130 99
107 128 100
122 142 119
110 132 100
130 149 129
122 141 120
146 162 149
159 174 169
152 166 158
133 152 136
131 150 131
131 149 132
135 153 137
120 141 117
123 143 120
122 142 124
157 171 163
174 187 187
191 203 211
188 200 205
185 197 204
190 201 207
186 197 203
195 206 213
186 197 202
201 211 220
186 197 204
188 200 209
192 203 208
176 189 192
88 115 68
92 119 71
93 121 72
90 116 69
90 117 70
90 116 69
88 115 68
90 116 69
88 114 68
91 118 71
93 120 72
89 115 69
88 115 68
92 118 71
89 115 69
118 140 115
150 165 154
166 180 178
189 201 208
190 201 207
184 196 201
187 199 205
188 199 205
193 204 208
116 137 112
91 117 70
92 118 71
92 119 71
89 115 69
92 119 71
92 118 70
93 120 71
91 118 70
88 114 68
91 117 69
89 115 69
91 118 70
85 112 66
88 115 69
90 116 69
91 118 71
86 113 67
88 115 69
88 115 68
92 118 71
87 113 66
92 119 71
92 118 71
87 113 67
176 189 190
195 205 211
183 195 200
196 207 215
183 195 200
187 198 206
187 198 205
166 179 178
145 162 149
128 147 125
90 116 75
92 119 71
89 115 69
88 114 67
91 117 70
86 112 66
89 115 68
93 120 72
91 118 71
87 115 69
94 122 73
86 112 67
93 120 72
93 120 72
91 118 71
143 159 143
194 204 211
188 199 205
199 209 218
192 203 211
193 204 213
179 191 193
197 208 217
198 209 219
180 192 194
192 204 212
199 209 216
189 201 209
200 209 218
190 200 206
195 206 213
198 209 218
196 206 213
189 200 210
184 196 202
183 195 200
195 206 215
190 202 209
187 198 203
191 202 210
194 205 213
110 133 101
94 121 73
87 113 66
92 119 70
91 118 70
86 112 66
91 118 70
88 115 68
91 117 70
91 118 71
89 116 70
91 118 70
92 119 71
91 118 70
89 116 69
89 116 69
93 120 72
97 123 79
114 135 108
132 151 134
143 161 148
166 180 177
171 184 183
180 192 196
189 200 207
140 157 143
91 118 71
88 114 67
92 119 71
87 114 68
88 114 68
93 120 71
86 113 67
89 115 69
95 122 73
89 116 70
87 113 67
91 117 70
94 121 72
91 118 71
83 110 65
87 113 67
90 117 69
88 115 68
87 113 67
90 117 70
87 114 67
86 112 67
87 113 67
90 117 70
151 166 159
186 198 203
189 200 208
188 199 205
196 205 212
197 207 216
191 202 207
180 193 199
196 206 214
193 204 210
192 203 212
183 196 202
198 209 216
188 199 204
191 202 209
199 209 218
192 202 209
184 195 202
191 202 209
183 194 199
201 212 222
193 204 210
195 206 213
188 200 207
189 201 209
100 124 86
87 113 67
90 117 70
90 116 70
90 117 71
92 119 71
91 118 71
90 117 70
85 111 66
89 117 71
91 118 70
90 116 69
95 121 73
89 116 70
92 120 72
91 118 71
90 116 69
88 114 68
86 112 66
89 116 69
91 118 70
89 116 70
92 119 71
121 141 115
186 198 204
196 206 213
180 193 197
194 204 210
197 209 218
186 198 205
192 203 209
193 204 212
195 205 214
196 207 215
191 202 208
201 211 218
187 200 207
202 212 220
195 205 212
186 197 205
194 205 214
190 202 211
194 205 210
194 204 209
194 204 211
191 203 211
158 172 169
88 114 68
88 115 68
90 116 70
90 116 70
91 118 71
91 118 70
94 121 72
90 117 70
91 118 71
89 116 69
89 116 69
90 117 70
92 119 71
92 120 72
92 118 71
94 122 73
90 116 70
88 114 68
89 115 69
90 116 69
90 117 70
160 174 171
193 204 212
189 200 205
185 197 203
194 205 214
194 206 215
197 208 218
193 204 213
191 201 207
179 192 198
194 204 211
192 203 210
198 209 218
190 202 208
194 205 211
190 202 210
195 206 215
197 206 213
187 199 206
197 208 218
176 189 192
103 127 88
90 117 70
88 114 68
91 118 70
88 114 68
88 115 69
89 115 69
85 111 65
89 116 69
87 114 68
87 113 67
88 114 68
91 117 70
90 117 69
88 114 68
90 118 70
90 117 69
91 118 71
105 129 93
170 183 183
178 191 195
166 180 178
166 180 179
131 149 135
140 157 141
129 148 129
118 139 111
118 139 114
133 151 131
135 153 136
148 164 152
156 171 165
155 169 159
151 166 159
159 174 172
161 175 172
143 159 145
117 139 111
121 142 119
112 134 105
109 132 97
95 120 79
87 113 69
91 118 71
89 116 69
95 122 73
87 114 68
88 114 68
86 112 67
92 120 72
86 113 67
88 114 68
124 142 122
186 198 202
193 204 210
185 196 203
186 198 206
188 199 206
197 208 218
193 204 210
195 205 213
183 196 202
166 179 179
142 159 145
114 137 111
88 114 68
105 129 93
174 187 189
191 203 212
199 208 217
196 206 216
193 204 212
197 208 217
192 203 210
174 186 189
191 202 209
188 199 204
191 201 208
199 210 219
188 200 207
187 199 204
182 193 197
188 199 205
192 203 211
192 203 210
174 187 188
140 157 144
101 125 85
86 113 67
87 113 67
137 155 141
181 193 198
184 195 202
194 206 214
191 202 211
184 196 201
187 199 206
190 202 210
194 205 214
178 190 195
197 207 216
184 196 202
185 197 201
153 169 162
109 132 101
92 119 71
89 116 69
87 113 67
85 111 66
89 116 69
90 117 71
90 117 70
152 166 160
190 202 210
184 196 202
191 202 209
185 198 205
189 200 207
191 203 210
199 209 218
190 201 208
197 207 213
195 206 215
184 196 203
191 202 210
162 177 173
141 159 143
108 130 100
100 124 86
117 138 112
109 132 103
128 148 127
128 148 127
132 152 135
137 154 141
139 157 142
159 173 169
159 174 167
147 161 152
135 152 139
137 154 138
144 161 148
138 154 141
131 151 131
135 152 134
136 153 141
129 148 127
114 137 107
117 138 111
109 132 101
113 136 105
101 126 89
90 116 72
91 118 70
102 126 87
138 156 139
163 177 173
180 191 194
187 198 205
184 195 202
102 126 88
91 118 71
93 119 71
89 115 68
91 118 71
89 115 68
86 112 67
91 118 70
91 118 70
88 114 68
90 116 70
87 113 67
89 115 68
92 120 72
85 111 65
90 117 70
91 117 70
88 114 67
90 117 70
92 119 71
88 115 69
90 117 70
87 113 67
90 116 69
93 121 73
184 196 203
191 202 208
196 206 213
189 199 207
192 203 209
199 210 217
193 204 210
187 200 207
194 206 215
198 208 216
191 202 206
175 188 191
153 169 161
134 152 137
102 124 93
90 116 69
89 116 70
89 116 69
92 119 71
95 122 73
91 118 70
92 119 72
87 113 67
92 119 71
92 119 71
158 172 168
193 204 211
191 203 212
192 203 212
190 201 208
192 203 210
186 199 206
190 200 208
191 202 209
192 203 211
205 215 225
190 201 207
181 192 198
190 202 209
190 202 211
188 199 206
189 199 205
187 198 201
192 203 212
189 200 208
193 204 211
198 209 218
187 198 205
193 205 215
195 205 212
180 192 194
88 115 68
88 115 69
87 114 68
93 119 71
84 109 64
89 116 69
89 116 69
90 116 69
90 116 69
88 114 68
94 121 72
85 111 65
91 118 70
92 119 70
92 119 71
87 113 67
87 114 68
90 117 69
90 116 70
88 114 68
94 121 72
89 115 68
91 118 70
91 118 71
98 124 81
188 199 203
171 183 183
166 181 178
148 164 155
132 149 133
114 135 111
102 126 90
90 117 69
92 119 71
92 119 71
92 119 71
90 116 69
89 115 69
90 116 69
89 116 69
89 116 69
96 123 74
89 116 70
86 113 67
91 118 70
89 116 69
92 118 71
94 122 73
87 113 67
102 126 95
191 202 210
189 200 207
196 205 213
192 203 210
198 210 221
183 195 200
189 200 204
189 200 207
194 204 212
191 202 208
191 202 211
196 207 214
192 203 212
201 212 221
189 199 205
193 203 211
186 199 207
180 193 198
192 203 210
191 202 208
192 201 206
192 204 212
194 205 211
191 200 206
144 162 148
92 119 72
90 116 69
88 115 69
87 113 67
86 113 67
92 118 71
92 119 70
92 119 70
87 113 67
90 117 69
92 119 72
90 117 69
90 116 69
90 117 70
89 116 69
88 115 68
90 117 70
92 119 71
88 114 67
88 114 68
89 116 69
91 117 70
97 122 80
171 185 189
187 198 204
194 204 213
195 206 214
190 201 209
191 202 208
189 202 212
187 199 206
192 205 214
178 189 192
189 201 208
182 194 199
199 210 217
191 201 207
199 209 217
188 199 205
186 198 205
194 205 214
196 207 216
187 199 205
197 208 217
200 211 220
181 193 197
90 116 74
90 117 69
90 117 69
93 120 71
87 113 67
86 113 67
91 118 71
91 118 70
93 120 71
91 118 71
91 118 71
89 115 68
92 119 72
86 113 67
89 116 70
93 120 72
91 118 71
96 123 74
89 116 68
85 112 66
90 117 70
139 156 143
191 202 208
196 206 213
193 204 211
190 201 209
192 203 211
194 206 214
192 203 211
191 203 210
191 202 207
185 196 201
191 202 210
196 207 215
194 204 209
187 198 203
194 205 212
193 203 210
188 201 209
183 194 199
184 195 199
175 188 191
138 155 140
119 139 111
126 146 126
131 150 132
118 139 114
142 159 146
136 154 139
134 152 137
150 165 156
144 159 151
148 164 153
153 168 162
156 172 166
158 173 165
149 163 153
127 145 125
132 150 131
117 137 114
104 126 93
173 187 188
190 201 208
195 207 215
197 208 217
196 206 213
194 205 215
191 202 209
191 202 209
189 200 209
193 204 212
182 194 199
191 201 206
194 206 214
185 196 202
181 195 202
196 207 215
177 189 192
165 178 175
96 120 82
90 116 70
89 116 69
90 116 69
92 119 71
90 116 70
94 121 73
87 113 67
87 114 67
92 118 70
89 115 68
87 114 67
87 114 68
88 114 68
86 112 67
114 135 110
178 190 194
185 197 205
201 211 219
180 192 198
195 206 215
178 190 192
166 181 181
143 159 149
118 139 113
95 122 73
91 119 71
84 111 65
89 115 68
124 143 121
186 198 203
186 198 206
191 203 211
183 194 202
188 199 205
192 203 209
190 201 210
192 204 213
108 131 98
129 147 133
172 185 184
197 207 215
191 202 210
189 201 209
185 196 202
194 205 213
186 197 202
189 200 209
183 194 200
181 192 199
185 197 202
184 196 200
158 173 167
136 153 137
114 136 106
190 201 210
183 194 200
194 204 212
186 198 202
187 197 202
187 199 205
189 200 207
194 204 211
184 196 203
190 201 207
187 199 204
179 191 197
187 198 204
185 197 203
173 186 186
154 169 162
107 128 98
91 118 71
91 118 70
85 111 66
91 118 72
130 148 131
185 197 204
181 194 201
186 197 202
191 203 210
192 202 210
184 196 203
183 194 198
200 210 218
192 203 211
199 210 219
182 194 201
187 198 206
185 197 205
184 196 203
193 204 212
165 178 178
140 156 143
107 130 98
88 115 68
90 117 71
87 114 68
90 117 70
116 136 112
193 205 212
188 199 208
191 202 209
193 204 215
182 194 197
195 206 215
194 205 211
193 205 214
187 198 205
190 201 209
189 200 208
199 209 219
185 196 202
196 206 215
199 209 217
196 207 215
191 202 209
196 207 216
195 206 214
187 198 205
185 197 202
182 194 195
173 186 189
177 188 188
149 166 158
168 181 179
169 183 182
166 180 180
159 172 169
165 179 177
158 171 167
162 175 171
152 166 155
150 165 158
148 164 156
144 161 151
143 159 147
143 159 148
147 163 154
136 152 137
130 148 128
129 148 130
134 152 136
128 147 130
125 145 126
121 142 116
117 136 113
108 129 102
124 144 120
181 193 198
186 198 203
183 196 201
190 201 207
186 198 204
189 200 207
181 194 201
190 203 210
184 196 203
192 203 211
192 204 213
192 204 212
186 198 205
182 193 198
191 203 211
188 200 205
164 177 172
146 162 152
127 145 127
94 119 79
85 112 67
92 118 71
87 113 67
86 112 66
85 111 65
179 191 196
183 195 202
197 208 217
194 205 212
182 194 201
197 207 216
187 199 206
191 203 211
188 200 207
192 203 210
183 195 201
191 202 209
196 206 214
196 207 215
193 204 211
194 205 211
187 198 204
189 200 208
189 201 208
195 205 213
188 200 208
190 202 208
192 203 213
197 208 217
178 191 198
144 159 148
87 113 67
88 114 68
89 115 68
92 120 72
90 116 69
88 115 68
87 113 67
86 113 67
91 118 70
92 119 71
91 118 70
90 117 71
93 120 71
84 110 65
85 111 66
91 118 70
94 121 73
90 116 70
86 113 68
90 117 70
92 119 71
88 115 69
89 116 69
89 115 69
131 149 128
180 192 198
193 204 211
189 200 206
188 199 206
195 206 214
198 208 217
197 207 216
189 200 205
173 186 189
175 187 189
154 170 162
145 162 150
123 141 122
120 141 118
107 128 100
97 122 81
85 111 66
86 112 67
91 118 70
94 121 73
89 116 70
92 118 71
88 114 68
92 119 71
154 170 165
188 199 204
193 204 212
198 208 217
193 204 214
191 202 210
185 197 202
185 197 202
182 193 198
191 202 209
193 205 216
197 209 218
182 194 200
188 200 207
185 196 203
188 199 204
193 204 211
193 204 213
183 194 201
180 192 197
196 206 214
186 199 207
193 204 210
197 208 217
179 192 196
95 121 75
91 117 70
88 114 69
93 120 72
91 118 71
87 114 68
88 115 68
90 117 70
90 117 70
96 123 74
89 116 69
89 115 69
90 116 69
90 116 70
91 117 70
93 120 72
88 115 68
89 116 70
92 120 72
94 121 72
88 114 67
90 116 69
89 115 68
170 183 180
195 205 214
192 204 211
192 203 212
190 201 209
193 204 211
192 202 208
196 206 214
191 202 207
191 201 207
184 197 204
196 206 214
179 192 195
199 209 217
193 204 211
194 205 212
182 193 200
197 207 214
191 202 209
197 208 217
189 200 206
200 210 218
186 198 205
110 131 103
91 117 75
102 127 88
100 123 90
121 140 117
104 125 95
117 137 112
121 141 119
114 135 107
115 136 108
124 142 122
112 131 107
118 138 118
125 145 125
125 144 122
120 140 115
139 156 146
138 155 141
135 151 136
140 157 147
153 168 162
124 144 123
140 156 143
150 165 156
139 156 141
136 154 135
130 147 128
140 158 142
136 153 137
120 139 118
117 139 112
119 137 119
116 136 111
101 124 88
112 134 106
97 121 84
92 117 77
95 120 79
89 115 69
89 116 69
91 117 70
98 123 83
177 190 194
196 206 214
189 201 208
198 209 216
196 207 214
188 199 204
172 185 186
177 190 191
174 187 185
159 174 168
146 163 152
136 154 140
114 136 108
95 120 77
89 115 69
90 117 70
88 114 68
88 115 68
93 118 76
172 184 183
197 208 218
189 200 208
184 196 204
191 203 213
192 203 211
186 197 204
184 196 203
191 202 210
188 199 204
201 212 222
203 214 224
187 197 202
195 206 214
189 199 204
189 201 207
188 200 209
172 184 185
95 120 78
91 118 71
89 116 69
90 117 71
91 118 70
85 110 64
87 113 67
89 115 69
86 113 67
84 110 65
90 116 69
90 116 69
86 113 67
88 115 69
93 120 72
131 150 134
190 202 209
181 193 201
181 192 194
170 182 179
128 146 127
105 128 96
88 114 69
87 114 67
85 111 65
86 113 67
92 118 71
87 114 68
89 116 69
124 143 124
188 199 204
192 202 208
186 198 207
188 199 205
185 197 204
189 201 208
189 201 208
193 204 210
191 201 209
86 112 66
86 113 68
89 116 70
122 141 120
167 181 177
186 198 207
185 196 203
183 194 201
190 202 211
190 201 207
179 191 197
187 198 204
185 197 203
175 187 190
186 197 202
190 201 208
181 193 198
144 160 147
168 182 182
183 194 200
182 193 199
195 206 214
193 204 212
196 206 211
200 209 217
199 208 215
186 197 202
205 214 223
184 196 203
197 207 216
190 201 208
187 199 205
180 194 200
187 199 205
174 187 189
151 167 157
103 127 90
90 117 70
115 136 111
179 192 196
202 212 222
187 198 203
183 195 201
191 203 212
193 204 213
196 207 215
184 196 203
191 202 211
192 202 211
191 201 206
189 201 209
201 211 218
196 207 215
189 200 207
189 199 206
179 191 195
188 199 205
179 191 193
148 163 154
114 135 107
84 111 65
111 133 105
197 207 215
192 203 210
189 201 209
176 189 196
195 205 213
190 201 206
195 206 213
191 203 210
184 196 203
203 213 223
189 201 207
180 193 199
185 196 200
186 198 205
195 206 215
196 207 215
184 196 202
189 201 209
189 201 209
194 205 212
186 197 201
193 203 210
181 194 200
184 196 200
86 113 67
92 118 71
111 132 107
148 164 152
168 181 177
192 203 211
198 208 214
176 189 195
183 195 200
180 192 196
192 203 212
191 202 210
190 201 209
192 203 210
200 210 218
191 202 206
193 203 210
194 205 213
186 197 203
189 200 207
190 201 208
191 202 210
188 199 207
192 202 208
161 175 172
90 117 70
90 117 70
88 114 68
90 116 69
89 116 69
88 115 68
90 117 70
89 116 69
87 113 66
90 116 74
87 114 68
105 129 94
94 119 81
98 122 87
118 138 111
104 127 94
110 134 102
120 140 115
120 139 115
111 132 104
97 123 79
115 137 107
128 147 128
148 164 152
150 165 156
134 152 132
145 161 151
116 136 114
135 153 138
138 155 139
136 154 140
137 156 138
136 154 141
132 149 136
147 164 155
145 162 150
145 162 153
152 168 159
134 150 141
158 172 166
152 167 158
156 172 167
139 157 143
151 166 159
162 177 171
168 182 179
153 168 159
156 169 165
160 174 169
169 181 181
147 163 156
142 158 146
129 146 129
126 146 127
132 150 137
126 146 127
116 137 117
120 140 117
143 161 147
124 143 122
132 150 134
129 146 132
130 148 129
133 150 132
127 146 126
116 136 110
121 142 121
139 156 143
123 142 124
130 148 131
124 143 125
114 134 107
116 136 109
119 142 114
117 137 115
149 165 157
174 186 186
179 190 191
171 184 183
173 186 186
181 193 198
171 185 188
174 186 186
169 182 181
175 188 190
168 182 185
173 185 184
175 187 191
168 181 179
170 184 183
169 180 178
184 196 199
158 173 170
172 185 185
157 172 166
141 158 147
130 148 128
128 148 127
112 135 106
108 130 97
188 199 203
185 197 204
185 196 198
168 181 180
186 198 200
174 187 188
171 184 182
174 187 188
168 183 181
163 175 175
169 183 183
158 173 167
157 172 169
174 187 188
170 183 183
165 178 174
168 182 181
169 183 182
166 179 178
162 176 175
171 185 182
164 177 178
159 172 167
156 171 164
152 167 161
143 159 146
128 147 129
142 160 148
139 156 141
130 149 128
141 157 143
128 147 131
136 154 139
147 163 153
146 164 153
146 163 155
150 166 156
142 157 147
149 164 154
144 160 149
159 174 169
156 172 165
154 169 162
151 165 158
158 173 168
160 173 171
157 172 167
139 157 143
139 157 144
130 149 127
126 144 125
126 143 126
132 151 132
130 148 133
125 145 123
126 145 122
122 141 122
119 139 115
117 137 112
115 137 108
114 135 107
102 126 90
106 129 95
102 126 89
101 126 83
99 123 88
99 124 86
96 122 78
99 122 84
90 117 70
158 172 167
201 211 220
188 200 207
186 197 204
189 201 208
191 202 211
200 210 220
189 200 208
188 199 206
187 199 205
194 204 210
190 200 207
195 206 214
189 200 205
192 203 209
193 204 214
191 202 209
192 203 210
191 202 207
194 205 212
195 206 215
179 192 198
102 126 90
90 117 70
91 117 70
87 113 67
90 116 69
93 119 71
90 117 69
89 116 69
91 118 71
90 116 69
88 115 68
86 112 66
88 115 68
91 118 71
93 120 71
83 109 65
91 116 74
99 123 89
123 142 119
120 140 117
135 154 137
145 161 149
141 158 147
121 140 121
116 135 111
109 131 98
92 119 74
85 111 65
94 121 73
89 116 69
88 115 69
91 118 71
90 117 71
91 119 72
85 112 66
90 117 70
93 120 72
92 119 71
99 124 84
163 176 172
188 200 206
188 200 208
192 202 209
189 200 207
191 202 209
183 195 200
188 200 207
187 199 204
195 205 212
189 199 205
187 199 205
190 201 208
192 202 209
175 188 194
189 200 205
176 189 194
167 181 180
95 122 73
87 113 67
86 112 66
88 114 68
89 116 69
92 119 71
86 113 67
86 112 66
87 113 67
86 112 67
88 115 69
87 114 67
88 114 68
93 120 72
98 123 84
123 143 124
148 163 153
126 145 123
98 123 81
91 118 71
92 119 71
90 116 69
90 117 70
89 115 69
93 120 72
90 117 70
86 112 66
87 114 67
97 120 84
155 169 161
187 198 205
189 200 209
195 206 214
188 198 205
191 203 211
188 199 207
192 204 212
189 201 207
159 174 169
138 156 141
91 118 70
89 116 69
85 111 65
89 116 69
88 114 67
91 117 72
135 154 135
160 174 170
186 198 204
182 195 201
191 202 207
178 191 198
187 199 206
181 192 199
200 210 219
189 200 208
185 196 201
133 151 137
86 113 67
117 136 112
144 159 152
180 192 197
190 201 209
188 199 206
184 195 201
191 202 211
181 192 198
189 199 203
202 211 221
191 202 210
190 201 208
191 203 209
188 199 204
189 200 208
187 198 206
188 199 205
182 194 198
172 185 186
148 164 155
170 183 182
182 194 198
187 199 205
194 205 212
182 195 203
183 195 200
182 194 201
186 198 204
188 199 205
184 196 203
194 206 214
190 202 208
193 204 211
190 201 207
187 198 203
184 195 199
187 198 202
191 202 208
190 201 207
178 190 195
193 204 211
183 195 200
153 166 161
167 181 179
184 196 200
178 190 196
184 195 200
187 199 208
195 206 212
192 204 212
185 196 202
184 196 201
196 206 215
189 200 208
191 202 210
192 203 208
190 202 209
193 203 209
185 196 205
182 193 196
198 208 218
188 198 203
187 197 204
194 205 212
193 205 214
195 206 214
182 193 195
90 117 70
90 117 70
90 116 70
94 121 72
88 115 69
90 115 74
130 149 129
131 151 135
176 188 189
187 199 206
194 204 212
191 203 211
186 197 202
193 204 211
193 204 213
186 199 207
195 205 213
190 201 207
195 206 212
190 202 210
191 202 209
193 205 212
182 194 201
188 200 210
146 162 148
88 115 69
90 116 69
90 117 70
94 120 72
88 115 69
87 114 67
87 113 67
89 116 69
87 114 68
88 113 67
90 116 69
89 116 69
91 118 71
89 116 70
91 118 71
90 116 70
90 117 70
93 119 71
91 118 70
87 114 68
86 112 66
87 114 67
92 118 71
90 116 69
136 154 137
173 186 187
158 172 168
140 157 145
112 134 100
94 120 74
90 117 70
91 118 70
88 114 67
90 117 69
89 116 69
93 120 72
87 113 67
90 117 70
89 116 68
89 115 69
90 116 69
92 119 71
90 117 70
91 117 70
92 119 71
91 118 70
92 120 72
90 117 70
81 108 64
128 146 126
187 198 206
189 200 207
189 200 205
195 207 216
190 202 206
182 194 200
189 199 206
187 198 205
192 202 209
195 207 215
196 207 215
186 197 204
194 205 211
189 199 205
184 195 200
183 193 197
190 202 209
199 209 217
193 204 211
195 206 213
183 196 201
192 203 210
198 208 216
180 193 197
182 193 193
85 111 66
89 115 69
90 117 70
91 118 70
87 112 67
86 112 66
94 121 72
90 116 68
88 114 67
93 119 71
90 117 69
89 115 69
93 120 72
88 115 69
88 115 69
90 117 70
88 114 68
86 112 67
90 117 70
93 120 72
86 112 67
93 120 72
90 117 70
86 112 66
151 166 157
180 192 197
190 202 211
187 200 207
179 191 196
172 185 185
166 180 179
165 179 175
161 176 172
158 172 164
147 163 151
135 152 140
113 134 107
112 134 103
107 130 101
96 123 76
87 113 67
90 117 70
91 118 70
89 115 68
92 119 72
92 119 71
87 113 66
88 115 69
142 159 148
189 200 209
196 207 215
196 207 216
193 204 211
194 205 212
186 197 204
194 205 211
188 199 205
184 195 202
186 198 205
202 211 222
191 202 210
192 203 211
184 195 201
196 206 212
186 197 202
193 204 213
181 192 196
190 201 208
192 204 213
198 208 217
181 193 198
192 202 209
115 136 111
89 115 68
84 110 64
92 118 71
87 114 67
86 113 67
87 113 67
90 116 69
89 116 69
88 115 69
92 118 70
88 115 69
86 112 66
89 116 69
85 111 65
88 115 69
92 118 70
87 112 66
89 115 68
86 112 66
92 119 71
87 114 69
137 152 140
185 197 202
186 197 202
196 206 212
192 203 211
189 200 206
198 208 217
194 205 214
198 208 216
188 199 206
185 197 202
185 196 201
195 205 212
187 199 205
183 195 202
195 206 213
195 205 213
180 192 196
188 200 208
185 197 203
194 205 213
182 194 198
107 129 97
91 117 70
88 114 68
89 116 69
87 114 68
92 118 74
101 125 87
122 142 119
130 148 130
124 142 122
145 160 151
144 161 147
150 165 158
157 171 167
158 172 167
161 174 174
175 188 194
186 197 201
187 198 204
178 190 195
134 152 139
87 112 67
95 122 73
90 117 70
91 118 70
88 114 67
85 111 66
86 112 66
85 112 67
86 112 67
89 116 69
88 115 68
89 116 69
88 115 69
89 116 68
89 116 68
88 115 69
92 118 70
97 123 81
165 179 176
188 200 206
189 200 207
190 202 209
193 204 211
190 202 209
188 199 207
189 201 211
190 201 206
195 206 214
188 199 206
175 187 192
188 199 205
184 197 206
182 194 201
190 201 210
192 202 210
157 172 167
88 114 67
89 116 69
84 111 65
88 115 68
85 111 66
91 117 70
88 115 68
88 114 68
87 113 67
85 111 65
103 126 87
128 146 127
133 150 136
166 179 178
181 193 195
136 152 136
90 116 70
89 116 69
89 115 68
87 114 68
88 114 68
86 112 67
87 114 68
83 109 65
88 114 67
86 112 67
87 114 68
90 116 69
108 132 101
175 188 192
186 198 207
187 198 206
179 191 195
183 195 200
180 192 198
168 181 183
156 172 164
129 147 128
92 116 75
88 114 68
128 147 130
97 121 85
91 117 70
88 116 70
87 114 68
90 117 69
85 111 65
90 117 70
89 116 70
97 120 88
143 159 151
178 189 192
182 194 199
189 200 206
185 197 204
185 197 203
180 192 198
184 195 202
154 168 159
83 109 65
87 114 68
85 111 66
88 114 68
100 125 88
140 157 148
176 188 189
182 194 200
177 189 194
189 201 209
192 203 210
186 197 202
187 198 204
188 199 206
185 197 203
180 192 195
186 199 205
191 201 207
182 194 199
185 196 201
179 191 195
90 117 71
107 129 99
146 162 152
171 184 186
187 199 208
197 208 216
178 191 197
192 202 207
193 204 211
180 192 197
182 195 200
181 193 199
190 201 209
189 200 205
182 194 201
184 196 202
190 201 206
194 204 212
190 201 209
194 205 213
199 209 218
192 203 209
170 185 183
91 118 70
91 118 71
127 145 129
155 170 166
168 182 181
176 189 192
191 202 210
183 195 199
185 197 205
185 197 204
193 205 213
183 196 203
187 198 203
190 200 208
187 199 207
185 196 204
194 205 212
189 200 206
195 206 215
183 195 201
194 205 214
187 199 206
190 201 208
169 183 182
88 114 68
88 115 68
87 113 68
93 120 72
90 116 69
88 115 69
89 116 69
91 117 70
93 120 72
101 125 91
128 146 127
151 166 160
176 189 189
185 197 204
193 203 209
195 206 214
196 207 215
182 194 201
192 203 210
197 207 216
184 196 202
189 200 206
193 204 211
187 199 207
112 136 103
92 120 72
88 115 68
85 111 66
89 115 69
93 120 72
88 115 68
91 117 69
87 113 67
88 114 68
93 120 72
88 114 67
88 115 68
83 109 64
88 115 68
92 118 70
88 114 68
90 117 69
92 120 72
85 112 66
92 118 70
91 118 70
90 116 70
90 116 69
89 115 69
171 183 183
193 203 211
188 201 209
191 202 210
198 208 214
184 196 201
168 180 182
160 174 169
143 159 148
118 137 112
105 128 94
90 117 70
86 113 67
93 120 72
90 117 69
89 116 69
91 118 71
91 118 71
86 113 67
86 112 66
88 114 68
88 114 67
87 113 68
89 116 69
89 115 68
170 182 182
185 197 204
199 210 220
187 198 204
190 201 207
191 202 210
189 201 209
196 206 216
187 199 205
184 196 203
184 196 203
197 207 215
186 198 206
190 201 206
195 205 211
189 200 207
198 209 218
196 207 217
201 211 219
195 205 214
192 203 212
196 207 216
189 200 207
189 201 207
190 201 207
127 145 127
90 116 69
93 119 71
87 113 67
89 116 69
88 114 68
90 117 69
87 113 67
90 117 69
89 115 69
86 113 67
89 116 69
87 114 68
90 116 69
93 120 72
90 116 70
85 111 65
85 112 66
85 111 66
86 111 66
93 121 73
94 121 73
90 117 71
90 117 69
105 127 94
185 196 201
188 199 207
191 202 210
186 198 204
180 193 199
190 201 208
190 201 208
197 207 216
181 194 198
192 204 212
190 202 211
182 194 201
181 193 198
192 203 211
189 200 208
185 197 206
186 198 207
184 195 199
181 193 194
162 175 174
156 171 167
171 184 184
159 174 168
145 159 148
133 151 134
158 173 167
154 169 164
162 176 173
168 181 181
172 184 183
175 188 191
184 197 200
189 200 206
175 188 191
191 202 207
180 193 198
182 194 201
198 208 216
194 205 212
196 207 214
190 201 210
188 200 208
186 199 207
191 202 208
187 200 210
189 200 205
190 201 208
135 153 135
82 108 64
87 113 68
91 117 70
88 115 69
88 115 68
92 119 72
90 117 69
90 117 70
87 113 67
89 115 68
90 117 70
90 116 69
93 120 72
87 113 66
92 119 71
92 119 71
88 115 68
91 118 70
89 116 69
85 111 65
90 117 70
110 133 102
188 198 204
192 204 214
180 192 199
189 200 206
185 196 205
188 199 207
187 198 202
188 201 208
195 206 214
186 198 204
192 203 209
189 200 206
173 186 188
179 191 196
168 182 184
167 180 181
157 172 167
149 165 155
142 159 148
154 169 163
141 157 147
179 190 191
172 184 184
172 186 185
170 182 184
175 188 190
182 195 203
190 201 207
187 199 206
194 204 210
188 199 204
194 205 213
187 198 202
193 203 209
194 205 215
183 195 202
192 203 209
192 202 209
193 204 214
193 204 213
188 200 207
151 167 160
88 115 69
85 112 66
91 118 71
90 117 70
84 110 65
88 114 68
87 114 68
87 114 68
85 111 66
86 112 67
89 116 69
88 114 68
91 118 71
88 115 69
87 113 68
86 112 66
84 110 65
98 125 80
181 193 196
186 197 205
196 206 214
195 206 214
186 198 205
187 198 206
189 200 207
190 201 207
188 199 205
194 204 211
182 194 199
189 200 207
182 193 199
189 200 207
181 193 198
189 201 208
190 201 207
132 149 131
87 114 68
90 116 69
87 113 67
84 111 66
86 112 66
86 112 66
98 121 84
125 144 122
144 160 151
156 170 165
169 182 179
183 195 199
190 201 211
187 199 206
178 191 194
102 124 94
87 114 68
90 116 69
88 114 68
89 116 69
89 116 69
88 114 69
92 119 71
88 115 69
86 112 66
85 111 65
84 111 66
86 113 67
123 142 119
186 197 205
194 205 213
188 199 205
170 183 185
168 181 179
136 153 140
100 122 89
84 110 66
84 110 66
90 116 69
99 124 86
152 167 160
193 204 211
184 196 200
155 169 164
112 133 107
86 112 66
92 118 71
89 115 68
86 113 67
88 114 68
86 112 66
87 113 68
90 116 72
122 140 120
155 169 163
175 188 193
186 197 202
187 199 208
183 196 202
168 180 178
84 110 65
86 112 67
89 116 70
87 114 68
91 117 70
88 114 68
90 115 71
123 143 122
153 168 163
189 199 205
182 193 196
185 197 202
184 197 203
194 205 211
185 196 202
179 191 198
185 198 206
193 204 211
192 202 209
178 190 196
183 195 200
98 122 85
89 115 68
88 115 68
90 117 70
103 125 97
134 152 136
172 184 183
187 199 208
186 198 206
191 203 213
186 198 205
191 203 211
185 197 201
196 207 214
186 197 203
189 201 209
194 204 214
183 195 203
201 211 219
190 202 209
185 196 205
194 205 214
167 180 179
88 115 69
90 116 69
89 116 69
91 118 70
85 112 66
110 132 103
133 151 134
160 174 172
181 192 194
196 206 213
188 200 208
180 192 196
197 207 215
191 201 210
189 200 206
192 203 211
187 199 207
180 193 201
183 195 202
194 206 214
192 203 210
182 194 199
183 195 200
162 176 170
88 115 68
86 111 65
89 115 69
89 116 68
89 115 69
89 116 70
86 112 66
86 112 66
89 116 69
87 114 67
90 117 69
83 110 65
91 118 70
98 123 83
123 142 122
145 161 151
169 183 182
192 203 210
191 204 215
181 193 198
189 201 209
180 191 196
184 196 201
183 194 199
98 122 85
87 114 67
87 113 66
91 117 70
87 113 68
85 112 66
86 112 66
87 114 67
86 112 66
90 116 69
89 116 69
88 115 69
90 117 70
88 114 68
90 116 70
85 111 66
88 114 67
87 113 67
91 117 70
88 115 68
89 116 68
87 113 67
86 111 65
85 111 65
97 122 80
186 198 206
187 199 205
189 199 207
191 202 210
188 199 206
192 203 208
187 198 203
185 196 204
188 199 207
192 204 212
184 196 203
184 196 201
162 176 170
159 173 167
128 147 126
112 133 107
97 124 82
91 117 70
87 113 68
85 110 66
88 115 68
92 119 72
87 114 67
90 116 70
94 120 77
186 197 202
187 198 206
198 210 220
183 195 201
193 205 212
191 202 209
192 203 210
191 202 210
197 208 218
190 201 206
187 199 205
188 200 209
188 199 205
185 197 205
189 201 209
193 203 210
190 202 210
190 201 209
191 202 210
186 197 206
197 207 216
189 200 209
181 194 200
191 203 210
174 186 188
86 112 66
84 109 65
86 113 67
86 112 66
87 114 67
90 116 69
89 115 69
91 118 71
85 111 66
88 115 68
91 118 70
88 115 68
91 119 71
94 121 73
90 118 70
91 117 70
90 117 70
90 117 69
86 114 68
88 114 68
88 115 68
89 116 69
89 116 69
91 117 71
165 178 178
189 200 208
194 205 213
187 198 204
191 203 212
193 203 210
189 200 207
192 203 210
180 192 197
184 196 203
186 197 204
196 206 215
190 201 209
188 200 205
192 203 210
183 195 202
196 207 216
189 201 208
194 205 213
189 199 206
196 207 214
200 209 217
191 202 207
193 204 213
137 153 138
83 109 65
89 115 68
88 115 70
88 115 69
88 115 68
87 113 67
90 116 69
87 113 67
90 117 70
90 117 69
89 116 69
84 110 64
97 122 80
103 127 88
97 122 81
103 126 95
115 137 109
119 139 115
123 143 118
119 138 118
125 145 125
130 148 129
149 164 156
161 176 172
157 172 169
158 173 168
145 161 153
166 179 177
149 164 160
157 173 168
162 176 171
146 162 153
149 164 154
155 169 163
155 170 165
157 172 167
147 163 155
161 176 170
164 177 174
162 176 172
158 173 165
175 186 185
161 176 176
171 184 184
153 168 162
130 148 129
128 148 127
114 134 109
120 141 119
110 131 104
109 131 100
101 124 88
97 121 84
95 119 79
87 114 67
93 120 73
89 116 70
85 111 66
86 112 67
85 111 65
89 115 69
88 115 68
85 110 65
87 114 68
90 116 69
93 120 71
154 170 167
191 203 211
193 204 213
179 191 195
191 203 213
188 199 206
185 197 206
186 197 202
180 192 198
190 201 211
193 203 210
184 196 201
188 199 205
189 200 207
190 200 205
182 194 200
185 197 205
190 201 207
191 202 210
194 204 212
145 161 152
91 118 70
91 118 71
89 115 69
89 115 68
88 115 68
88 114 68
84 110 65
88 114 67
88 115 69
86 112 67
91 118 70
87 114 67
83 108 63
88 115 68
85 111 65
87 114 67
90 116 69
89 114 72
181 192 196
186 197 204
189 199 204
180 193 199
177 189 193
185 197 202
186 198 206
181 193 198
191 203 209
195 206 214
193 205 212
186 198 207
186 196 201
181 192 196
190 200 206
188 200 205
175 187 190
124 142 124
86 113 68
88 115 69
97 121 84
111 133 103
143 159 149
153 168 164
170 183 186
188 199 205
191 203 211
189 201 209
181 193 198
187 199 206
183 194 201
192 203 212
176 189 191
94 120 78
86 113 67
88 115 69
90 117 70
85 111 65
88 114 68
88 115 69
91 117 70
88 115 68
89 116 69
85 111 65
93 120 71
90 116 71
152 167 157
184 195 201
160 175 175
134 150 135
106 127 100
91 118 70
87 113 67
87 114 67
88 115 68
89 116 69
90 117 70
123 142 124
171 185 190
183 195 202
184 195 199
174 187 192
181 192 197
189 199 204
171 184 184
131 147 135
113 133 110
82 107 63
88 114 68
87 114 68
85 111 65
89 116 70
88 115 69
90 116 69
87 113 67
126 144 126
154 169 163
196 207 216
177 189 194
93 117 78
88 115 68
87 114 68
90 117 71
89 116 69
88 115 69
85 111 65
86 112 67
95 122 73
86 112 66
112 132 109
159 173 167
182 194 197
185 197 203
186 198 203
192 203 207
189 200 206
185 196 203
184 195 199
186 198 207
184 196 202
102 126 93
88 114 67
87 114 67
89 116 70
88 114 68
89 116 70
88 114 68
108 131 104
135 152 139
160 175 171
185 196 203
184 197 204
183 194 199
188 199 206
184 195 199
194 205 214
181 193 199
182 193 199
186 198 204
193 203 211
188 200 209
184 196 202
169 182 182
89 115 69
85 111 65
85 112 66
89 115 69
87 114 68
91 117 70
87 113 68
83 110 66
90 115 74
125 143 128
154 169 163
162 175 172
184 195 201
195 206 213
186 197 203
176 188 193
189 201 211
190 201 207
183 196 203
189 199 205
189 202 212
200 210 218
192 203 211
148 164 155
89 116 70
87 114 67
92 119 71
89 115 68
91 118 71
86 113 67
89 116 69
83 110 65
93 120 72
84 110 65
88 115 68
87 114 67
85 111 65
86 112 66
88 114 68
89 115 69
89 116 70
93 119 76
111 133 104
153 168 162
168 182 180
184 195 201
184 196 202
181 193 196
90 116 70
82 108 64
88 115 69
87 113 67
88 115 69
86 113 68
89 115 68
90 117 69
89 116 69
86 113 67
92 119 71
89 116 69
92 119 72
87 113 68
90 117 70
90 117 70
87 114 68
87 113 66
87 113 67
86 112 65
89 116 70
90 117 70
91 118 71
92 119 71
138 156 139
189 200 207
194 204 212
188 199 206
192 203 210
174 186 188
184 196 201
189 199 206
188 199 204
185 196 204
182 193 198
187 198 202
191 202 211
172 185 189
194 205 214
194 204 211
186 198 205
191 202 210
173 185 187
172 184 183
145 160 151
127 146 129
110 134 100
86 112 66
90 116 69
135 152 140
180 192 195
182 195 202
190 201 208
186 198 207
197 207 212
196 206 214
182 195 202
189 201 208
187 198 203
188 200 206
202 212 220
190 201 209
202 211 219
186 198 205
191 202 209
184 196 202
201 211 218
189 200 207
196 206 213
188 200 207
196 206 214
188 199 204
191 202 210
188 200 207
135 152 135
88 115 69
87 113 68
88 114 68
90 117 70
86 112 66
87 113 67
94 121 73
88 115 69
87 113 68
90 117 70
88 114 68
92 119 71
90 117 70
92 119 71
91 118 71
84 110 65
87 114 68
88 114 68
90 116 69
88 115 68
89 115 69
86 112 66
93 120 72
113 135 107
184 196 203
197 208 217
181 192 196
186 197 203
182 194 197
191 202 210
192 204 212
194 204 209
195 206 215
190 201 207
185 197 203
189 200 206
188 199 205
181 193 201
193 202 209
190 201 208
194 205 213
177 189 196
180 192 196
195 206 214
182 195 201
189 201 208
180 191 197
169 182 183
90 116 70
86 112 67
86 112 67
90 116 69
84 111 66
90 116 69
89 115 68
89 115 69
90 117 70
90 117 70
95 122 74
89 115 69
91 118 71
89 116 69
86 112 66
89 115 68
88 115 69
88 115 69
85 112 67
88 114 68
90 116 69
93 120 71
101 124 89
174 186 190
188 199 204
196 207 216
189 201 209
188 200 207
198 210 221
182 194 202
186 197 204
186 197 201
200 210 218
198 208 217
190 201 209
188 200 207
187 199 205
194 204 211
187 200 207
197 207 214
189 200 205
189 200 206
188 200 207
197 208 219
191 202 209
131 150 132
92 120 72
88 114 68
87 113 66
88 114 68
89 115 69
92 120 72
89 116 69
89 115 68
88 115 69
90 117 69
89 116 68
87 113 67
92 119 71
87 113 66
87 113 67
87 113 68
90 117 69
92 119 71
92 119 71
89 117 71
144 161 151
194 205 214
188 200 207
183 195 203
193 204 213
195 205 212
179 190 195
181 193 200
187 198 204
193 204 212
185 197 206
183 195 202
192 202 210
187 198 204
193 203 209
187 198 204
200 210 220
193 204 212
185 196 202
196 206 212
150 166 159
92 118 71
90 116 69
90 117 70
86 111 65
85 111 66
88 115 68
85 112 66
89 115 69
91 118 71
86 113 67
86 113 67
92 119 72
84 110 64
88 115 68
82 107 62
89 116 70
92 119 71
96 121 82
172 185 187
189 200 207
181 193 202
182 194 199
186 198 205
189 200 208
195 206 213
183 194 199
204 214 224
191 202 210
194 204 211
179 190 194
183 194 201
189 200 208
193 203 209
186 197 203
175 188 189
151 166 158
153 167 159
159 173 174
170 184 186
175 186 188
186 199 208
183 195 200
192 202 208
184 196 204
192 204 212
190 201 209
186 196 202
191 203 211
190 202 212
190 200 205
145 161 150
89 116 69
91 118 71
88 115 69
92 119 72
85 110 65
87 113 68
92 118 71
89 116 69
88 114 68
92 120 72
92 118 71
93 117 77
102 126 89
113 133 111
135 152 136
93 116 79
89 115 69
83 109 65
86 113 67
84 110 64
87 113 67
86 112 66
90 117 70
98 123 84
171 184 185
183 194 199
191 202 211
167 180 180
136 153 137
176 188 191
174 187 193
183 196 203
184 195 200
186 198 204
188 199 206
170 183 187
129 146 131
91 116 74
90 116 69
85 111 65
86 112 66
91 118 71
89 116 69
86 112 66
83 110 65
92 117 77
130 147 131
130 146 127
86 112 70
86 112 67
89 115 68
86 113 67
91 117 70
86 112 67
86 112 66
88 115 68
88 114 68
86 112 67
87 113 67
88 114 71
115 136 108
152 167 160
170 183 186
190 202 211
186 198 205
189 200 207
186 197 204
192 203 210
123 142 121
88 115 69
85 111 65
85 112 66
86 113 67
89 115 68
81 107 63
90 116 69
87 114 68
86 113 66
98 123 81
144 160 149
161 175 169
188 200 207
184 196 202
193 204 211
188 200 205
182 195 201
192 202 209
179 190 194
193 203 210
191 202 208
180 191 194
90 117 70
87 114 67
86 112 66
90 117 70
90 117 70
88 115 68
86 113 67
90 117 70
85 111 66
87 113 67
91 117 70
90 116 69
90 114 74
125 143 127
172 185 188
186 198 202
187 199 206
181 193 197
184 194 198
191 202 210
191 202 211
188 200 208
195 205 213
136 153 138
87 113 66
89 115 69
87 113 67
89 116 69
87 113 67
90 116 70
87 113 67
87 113 68
90 116 69
88 115 68
86 112 67
92 119 72
81 106 62
90 117 70
87 113 66
87 113 67
88 115 69
84 110 65
93 120 72
85 110 65
84 109 64
89 114 71
116 136 111
139 157 146
131 149 134
93 117 81
91 118 70
85 111 65
84 110 65
85 111 65
90 116 70
85 111 65
90 117 71
88 114 68
89 116 69
91 118 71
86 112 67
86 112 66
89 116 69
89 115 68
89 115 69
91 117 70
90 116 69
87 113 68
89 115 68
90 117 71
90 117 70
90 116 70
146 162 152
195 206 215
184 195 201
194 204 212
192 203 211
192 203 212
193 205 214
186 198 203
192 203 212
186 197 203
188 200 206
176 188 190
180 192 197
186 196 200
194 205 212
191 202 209
192 204 213
193 205 213
177 189 192
186 198 205
195 206 213
182 194 199
198 208 217
189 200 205
172 184 183
128 146 130
154 170 164
171 183 182
181 193 198
195 206 213
188 198 204
189 200 207
184 195 201
189 199 206
187 198 205
198 208 216
191 203 211
189 201 210
182 193 200
183 194 201
189 200 206
175 188 189
190 202 209
193 204 212
190 202 210
184 197 203
175 188 191
184 197 206
194 206 215
174 186 189
93 119 73
87 113 66
89 116 69
92 118 70
89 116 69
91 118 70
88 114 68
86 113 68
83 109 64
91 118 71
85 111 65
88 115 68
90 116 69
90 117 69
88 114 68
89 116 69
90 116 69
87 113 67
87 114 68
88 114 69
91 118 70
89 115 68
91 118 71
90 117 70
159 173 168
189 200 206
189 201 208
186 197 204
185 196 202
178 191 196
187 198 204
185 196 201
193 204 210
180 192 196
182 194 198
185 196 200
188 199 206
181 192 195
184 196 201
191 202 210
188 199 206
183 195 201
182 194 199
195 205 212
186 198 205
189 200 206
193 203 212
189 200 206
117 139 110
88 114 68
89 115 68
84 110 66
88 114 67
86 112 66
88 115 68
84 110 64
89 116 69
88 115 68
84 110 65
86 112 67
88 115 69
92 119 71
91 118 71
88 115 69
89 116 69
89 115 69
89 116 69
90 117 70
89 115 68
91 117 70
87 114 69
162 176 173
189 200 207
190 201 209
188 200 208
196 206 213
188 199 207
174 187 192
197 208 217
192 203 211
195 206 215
184 196 202
190 201 209
192 203 211
186 197 203
196 206 214
180 191 198
193 203 210
185 197 204
188 199 205
192 202 209
186 197 202
188 199 206
148 164 155
89 116 69
89 115 69
90 117 69
89 116 69
93 120 72
88 115 68
86 112 66
89 116 70
91 119 72
91 117 70
84 110 65
89 116 69
87 113 67
83 110 65
90 116 69
87 113 67
85 111 66
87 113 67
89 116 69
88 115 69
123 143 122
190 201 207
186 197 201
188 200 209
191 203 213
186 197 204
187 198 205
195 206 214
177 191 196
192 203 211
188 200 206
183 195 199
187 197 202
194 204 211
184 196 200
186 198 205
192 203 210
182 194 198
195 206 215
184 195 200
147 163 155
89 115 69
92 119 72
91 117 70
86 112 66
90 117 69
87 113 67
88 114 69
88 115 68
87 113 68
93 120 71
82 108 63
88 114 68
88 115 68
90 116 69
86 112 66
94 120 72
89 115 69
103 126 92
170 182 184
188 198 204
196 206 213
183 195 201
181 193 199
187 198 205
191 202 209
178 191 197
185 196 202
188 200 206
177 190 193
180 192 196
165 179 176
152 166 159
133 150 137
116 137 110
115 135 107
172 185 187
185 197 202
188 199 206
187 199 205
178 191 198
188 199 205
186 197 204
186 196 202
192 202 208
192 202 210
188 199 205
173 185 189
191 203 213
190 201 209
169 182 183
118 138 119
85 111 66
87 114 68
85 112 67
86 112 66
87 113 68
88 115 68
89 115 68
87 113 67
90 116 71
120 139 118
141 157 147
155 169 164
141 158 146
91 117 76
87 113 67
85 111 66
81 106 62
86 112 67
90 117 70
87 113 66
88 114 68
89 115 68
83 109 65
126 144 127
170 181 183
165 179 181
130 148 134
96 120 83
87 113 67
89 116 69
134 152 141
114 136 110
159 173 169
179 190 196
184 196 204
171 183 187
177 188 192
187 199 205
171 184 185
164 178 176
122 142 119
91 117 76
85 111 66
87 113 67
88 115 69
82 108 64
89 116 70
88 114 68
139 155 143
162 176 177
155 170 163
103 125 97
83 109 64
85 112 66
90 117 69
77 102 60
85 111 65
84 110 65
86 112 67
86 112 66
88 115 68
85 111 66
85 111 65
88 113 70
138 155 141
158 172 168
168 182 184
183 195 199
185 197 203
128 145 131
87 113 67
86 113 68
87 114 68
84 110 64
88 115 68
90 116 70
87 113 67
87 114 67
89 116 69
89 115 69
86 113 67
88 114 67
91 117 74
110 133 105
148 164 155
175 188 190
192 203 210
185 198 204
178 191 196
193 202 210
189 200 205
171 184 185
88 114 68
91 117 70
88 114 67
87 113 67
87 114 68
87 112 67
86 113 67
85 112 67
86 112 67
86 112 67
87 113 67
89 115 69
88 115 68
89 116 69
83 108 63
89 115 69
121 140 116
143 159 151
157 171 168
194 205 212
188 199 206
187 200 208
189 201 208
121 141 119
87 113 67
88 115 69
83 109 64
83 110 66
87 113 68
89 116 69
89 115 68
89 115 68
93 120 72
92 119 72
84 110 65
88 114 67
87 113 67
87 113 68
88 114 68
88 114 68
87 113 68
87 113 66
88 114 68
88 115 69
85 110 65
90 117 71
88 114 67
153 168 161
189 200 207
188 198 204
185 196 201
158 172 170
137 154 142
116 136 113
91 116 74
89 115 68
91 117 69
83 110 65
86 112 67
87 113 67
89 116 70
88 114 67
85 111 65
90 117 70
88 114 68
83 109 64
85 112 67
91 118 71
85 112 66
87 113 67
85 111 66
92 119 71
175 188 193
183 194 199
191 203 209
186 198 204
195 206 215
193 203 212
174 187 194
184 196 202
191 202 209
184 196 202
194 204 212
188 199 205
193 204 212
196 207 216
188 198 204
190 201 207
190 201 208
187 198 205
194 205 214
187 198 204
192 203 210
182 194 197
194 204 213
188 199 205
174 187 189
90 116 69
89 116 69
89 115 69
88 115 69
95 120 76
120 140 116
124 142 121
141 157 146
160 174 169
163 177 178
174 187 190
190 201 209
190 201 207
185 196 200
187 199 205
190 201 208
184 195 202
179 191 197
188 200 206
188 200 207
191 202 211
181 193 196
189 200 207
186 197 201
142 158 145
85 110 65
88 115 69
93 120 71
83 109 65
83 109 64
85 110 65
92 119 72
89 116 69
88 115 68
89 115 70
88 114 67
91 118 71
88 115 69
92 120 72
86 112 66
87 114 68
89 116 70
90 117 69
90 117 70
87 114 68
88 115 68
88 113 67
86 113 67
119 139 116
194 206 214
184 196 203
183 194 198
187 199 206
191 202 210
181 193 198
183 194 201
191 202 210
186 197 205
184 196 204
182 193 197
194 204 208
177 189 193
192 203 213
187 199 204
188 199 206
184 195 200
182 195 202
176 188 191
189 200 208
184 195 202
190 202 210
175 187 190
167 181 179
85 111 65
88 114 68
83 109 64
85 111 66
87 114 68
91 118 71
90 117 70
88 115 69
86 112 67
85 112 66
93 121 73
86 112 66
88 115 68
91 118 70
89 115 68
83 108 63
87 113 67
86 113 68
90 117 70
91 118 71
87 114 68
86 112 66
126 145 125
187 198 205
186 197 204
187 197 204
197 207 214
188 200 207
190 201 207
192 203 210
192 203 210
183 195 202
183 195 200
190 200 205
188 199 206
180 192 197
193 204 211
179 190 194
195 205 212
182 194 201
187 198 208
190 201 209
181 192 197
189 201 210
168 181 180
89 115 70
89 115 69
88 114 68
88 115 69
85 112 67
88 114 68
88 114 67
91 118 70
89 115 69
86 112 66
88 114 68
86 113 67
86 112 66
83 108 64
88 114 68
92 119 72
88 114 68
88 115 69
82 107 63
93 119 71
115 135 113
190 200 207
184 197 203
191 202 209
194 205 213
190 200 207
195 206 214
182 195 200
183 195 203
187 198 206
192 203 212
182 193 199
186 198 207
194 204 211
184 195 201
178 190 194
195 206 215
180 192 200
180 192 200
180 192 196
157 172 167
85 112 66
89 116 69
92 118 70
85 112 67
88 114 68
92 118 71
90 116 69
81 107 63
89 115 69
87 114 67
86 112 66
87 114 67
88 114 68
89 115 69
87 114 67
90 116 70
86 112 66
103 126 91
175 187 189
174 187 192
176 189 196
186 197 203
192 203 210
185 196 204
175 187 190
160 174 172
153 168 161
143 160 148
115 134 110
89 116 71
86 112 67
88 114 69
91 118 71
84 110 65
113 134 108
173 185 185
185 197 205
187 198 204
183 194 199
182 194 202
168 182 186
182 194 198
188 199 208
173 186 190
178 190 196
188 199 205
180 192 197
192 203 211
179 191 195
176 189 193
103 125 93
84 110 65
87 113 67
88 115 69
87 113 67
87 112 66
90 117 70
110 131 105
146 162 151
170 183 185
186 197 203
187 199 208
177 189 194
123 142 123
89 116 69
85 111 66
88 115 68
86 113 68
91 118 71
88 115 68
80 106 63
87 114 68
87 113 68
88 113 69
122 141 122
117 136 117
93 118 78
84 109 65
86 112 66
88 114 67
85 111 65
87 113 67
159 173 174
107 128 100
88 114 68
98 121 86
140 157 146
170 184 185
184 196 202
172 184 188
176 188 193
180 192 197
180 192 199
162 176 179
142 159 150
110 130 105
92 119 71
89 115 69
84 111 65
86 113 67
103 126 94
171 183 186
178 189 193
192 203 211
180 193 197
156 170 165
106 127 100
84 110 65
87 113 67
84 111 65
85 111 66
83 109 65
89 116 69
91 118 70
86 112 66
84 110 65
86 112 67
86 111 66
85 111 66
115 137 110
158 173 172
139 156 144
91 118 70
87 113 68
81 107 62
82 107 63
84 110 66
88 114 68
86 112 67
89 115 68
86 112 67
84 109 65
86 112 66
85 111 67
86 112 66
87 113 67
86 112 67
91 118 70
122 141 124
144 159 148
162 176 175
174 186 191
195 206 217
167 182 182
88 114 68
87 113 67
87 113 67
86 112 66
90 116 69
88 115 68
88 114 67
89 116 69
86 112 67
84 110 65
88 115 69
85 110 65
88 115 68
89 115 69
81 106 63
91 118 70
88 115 68
81 107 63
87 114 67
89 115 71
130 150 129
145 160 149
171 183 184
117 138 114
86 112 68
86 112 67
89 115 69
87 113 67
89 116 70
90 116 69
85 112 66
87 113 68
90 116 69
80 105 62
91 118 70
89 115 69
87 113 68
89 116 70
81 107 63
83 108 64
91 117 70
89 115 69
79 105 61
87 113 68
85 111 66
85 111 66
87 113 67
168 182 180
186 197 203
189 200 206
180 191 198
185 196 200
183 195 201
185 197 204
177 190 194
171 185 187
151 165 157
122 141 121
104 126 96
86 112 66
88 114 68
88 114 68
89 116 68
90 117 70
87 113 67
88 115 68
85 112 67
89 116 69
88 114 68
88 114 67
91 118 70
116 137 111
177 189 192
182 195 200
185 195 202
184 195 198
189 201 209
195 205 214
192 202 207
188 200 206
188 199 206
185 196 201
183 195 201
194 205 213
183 194 200
187 198 206
187 199 206
192 203 211
191 202 209
190 201 206
191 203 211
194 204 210
189 201 208
193 203 209
188 200 209
182 194 199
147 163 154
87 113 67
95 122 73
91 117 70
90 116 69
86 113 67
88 114 68
90 117 70
88 115 69
91 117 70
89 116 69
89 115 68
94 119 76
112 133 109
131 148 133
143 160 150
156 171 164
171 184 184
183 195 196
178 191 196
192 202 209
185 196 200
192 203 211
188 201 208
183 195 201
93 118 76
86 113 67
91 117 70
91 118 70
88 114 68
89 116 69
89 115 69
89 115 69
90 116 70
87 113 67
90 117 69
86 113 67
88 115 67
86 113 68
83 108 64
87 113 67
85 111 65
87 114 68
84 109 64
86 112 66
89 115 69
85 112 67
87 114 68
89 115 69
168 182 181
184 197 203
188 199 205
184 196 201
184 197 203
191 202 211
186 198 205
193 205 213
193 203 209
192 203 211
180 192 197
191 202 209
181 193 198
184 196 201
193 203 212
176 189 194
179 191 197
179 191 198
193 204 210
188 200 206
189 200 206
192 203 210
197 207 215
172 186 189
93 119 74
86 112 66
89 116 69
90 116 70
86 112 67
89 115 69
89 116 70
89 116 69
89 116 69
90 116 69
87 114 67
89 115 69
89 115 69
88 115 69
87 114 68
86 112 67
87 114 68
85 111 65
90 117 70
86 112 67
86 112 67
88 115 68
113 135 110
181 193 198
177 189 193
183 194 201
193 204 211
186 197 203
190 201 209
185 196 204
184 195 201
186 197 202
180 192 198
182 193 199
170 183 186
187 199 205
189 199 207
180 192 197
186 197 205
194 204 212
195 205 214
178 191 197
189 200 206
189 200 208
173 185 189
99 123 86
86 113 67
92 118 71
93 120 72
87 114 68
89 116 69
86 113 67
84 110 66
91 118 70
92 119 71
85 112 66
89 115 68
89 116 70
86 112 67
89 115 69
85 112 66
91 117 71
88 115 68
88 114 67
93 120 73
112 132 109
174 187 191
188 199 208
190 201 208
188 200 204
179 191 195
184 195 202
178 190 194
185 195 201
184 196 204
186 198 207
187 199 206
185 197 204
179 190 194
183 195 202
187 199 207
176 187 193
186 198 204
175 189 195
198 208 215
158 173 170
89 115 69
85 110 65
85 111 66
89 115 69
88 114 68
88 114 67
87 113 67
89 116 68
85 111 66
86 112 67
91 118 71
83 109 64
84 111 66
86 113 68
90 116 69
87 113 67
90 118 70
104 128 94
178 191 195
161 175 177
151 165 160
135 152 139
135 154 138
105 127 96
88 115 68
81 106 61
84 110 65
86 113 67
89 116 68
86 113 67
87 114 67
85 111 66
88 115 69
87 113 67
127 146 126
184 196 203
186 199 204
191 203 210
179 192 199
187 199 204
181 192 196
197 207 215
171 185 187
182 194 200
189 200 205
186 197 203
184 196 203
177 189 193
191 203 211
164 177 178
93 118 75
93 120 72
88 114 68
108 131 100
135 152 140
155 169 166
166 180 180
186 198 203
179 190 193
172 184 189
189 200 206
185 196 202
162 176 175
93 118 78
85 111 66
87 113 67
90 117 69
88 114 68
83 109 64
85 111 67
90 117 71
117 137 116
156 171 165
141 157 147
91 117 75
91 117 70
86 111 65
88 114 68
87 113 68
86 112 66
104 126 95
113 133 112
94 117 82
149 164 158
131 147 135
95 120 83
87 113 70
87 113 68
89 116 69
108 131 100
142 158 151
170 182 186
193 205 215
182 194 200
178 189 194
177 188 193
173 185 188
171 184 184
140 155 147
100 123 90
86 112 67
89 115 68
162 175 173
178 190 196
180 193 197
182 194 200
180 193 200
192 202 211
167 181 184
155 170 165
113 133 110
88 114 67
88 115 69
87 113 67
89 115 69
84 110 65
87 114 68
88 114 68
88 114 68
86 112 67
88 114 68
86 112 66
140 156 144
160 175 176
132 150 136
106 128 98
88 114 68
90 116 69
86 111 66
85 111 66
88 115 69
86 111 66
85 112 66
83 109 64
88 115 69
85 112 66
85 111 66
93 121 73
84 109 64
87 113 68
87 113 67
90 116 69
96 119 83
132 149 135
149 164 157
95 119 84
90 116 69
87 113 68
89 115 68
88 115 69
87 113 67
89 116 70
92 119 71
89 115 68
87 114 67
88 114 67
87 113 67
90 117 70
87 114 68
86 112 66
85 111 66
86 112 67
88 114 67
88 114 68
84 110 65
84 111 65
90 117 70
90 117 70
177 189 194
172 184 186
142 157 147
104 127 96
89 115 68
90 117 70
85 111 66
90 117 69
91 118 70
84 110 65
89 115 68
93 119 71
84 109 65
86 112 67
91 117 70
88 114 68
88 115 69
89 117 70
89 116 69
88 114 68
86 112 67
79 104 61
86 112 66
86 112 69
183 195 201
180 192 198
176 188 192
180 192 198
193 204 213
192 203 210
189 200 208
182 194 199
185 197 202
184 197 205
179 191 194
190 201 209
183 195 200
182 194 196
147 163 154
123 143 123
96 120 82
82 108 64
86 112 67
84 110 65
88 114 68
88 114 68
88 114 68
86 112 66
158 174 170
191 202 209
184 196 201
187 198 202
181 193 200
188 200 206
175 187 191
182 193 199
190 202 210
177 189 192
187 198 204
182 194 202
181 194 198
194 205 213
189 200 208
191 202 210
185 196 203
196 206 215
173 186 191
181 193 197
184 195 202
177 188 193
185 198 203
185 197 203
181 194 199
98 123 83
88 114 68
86 112 66
88 115 69
92 120 72
93 119 71
87 113 67
87 113 66
90 116 69
90 117 70
90 117 70
90 117 70
89 115 69
84 110 65
84 110 65
88 115 68
89 115 69
87 114 68
86 112 66
89 116 69
115 136 110
118 138 114
134 152 138
152 168 162
159 173 168
127 146 127
110 132 101
93 120 74
91 118 71
85 111 67
87 113 67
92 120 72
88 115 68
88 114 68
88 115 68
91 117 70
91 118 70
88 113 67
89 116 69
87 113 67
93 119 71
90 117 70
91 118 71
91 118 70
90 117 70
87 113 67
89 115 68
81 107 63
135 152 136
183 195 199
184 196 201
179 191 197
179 190 194
174 186 190
188 199 208
186 198 205
197 207 214
185 196 202
188 199 206
179 190 194
179 191 196
185 196 201
190 201 208
188 200 209
182 194 198
177 189 192
182 194 201
186 197 202
199 209 217
186 198 206
179 192 201
188 199 205
124 143 125
91 118 70
88 115 69
89 115 68
90 117 70
87 113 66
88 115 69
89 116 69
88 114 68
87 113 68
90 116 69
83 109 65
85 111 67
84 110 65
89 116 69
89 116 70
86 112 66
83 108 63
85 111 66
90 117 70
89 115 69
86 112 67
89 115 73
170 184 184
180 192 200
183 194 198
181 193 200
191 201 208
186 196 202
193 203 211
194 204 211
176 188 195
186 197 204
184 195 201
199 210 219
191 201 205
188 200 205
187 198 205
189 201 209
183 194 202
190 201 209
190 201 211
182 195 202
192 203 213
180 192 197
103 125 97
85 111 66
89 116 69
90 117 70
87 113 66
87 113 67
90 116 70
90 116 70
86 112 67
89 116 69
86 113 68
84 111 65
90 116 69
89 116 69
88 114 68
84 111 66
85 112 66
89 116 69
90 116 69
88 114 68
104 128 95
170 182 184
187 198 201
190 202 210
186 198 204
181 193 198
187 198 205
185 197 200
189 200 205
187 198 204
188 200 207
183 194 200
171 184 190
189 201 207
189 201 208
181 194 199
185 197 204
176 188 193
184 195 201
192 204 212
151 166 158
89 115 69
85 112 67
86 112 67
87 113 67
87 113 67
87 113 67
83 109 65
88 114 68
87 113 67
92 119 71
92 119 71
92 118 79
103 125 95
122 140 119
137 153 142
156 170 167
168 182 183
150 164 161
101 126 85
89 115 69
86 112 66
89 115 68
89 116 70
85 111 66
86 112 66
86 113 68
83 110 65
88 115 68
86 112 67
86 113 68
89 115 69
86 112 66
88 115 68
86 113 68
142 156 148
185 197 205
185 197 203
180 193 198
185 198 205
189 200 208
182 193 197
182 194 199
182 193 199
176 188 192
177 189 193
185 198 204
175 187 192
179 191 197
179 192 197
119 137 118
108 130 103
133 150 137
158 171 167
173 185 188
187 199 206
186 198 207
189 201 209
169 183 186
180 191 195
165 179 185
182 193 198
178 191 195
140 157 146
89 116 70
84 109 65
83 109 65
85 112 67
87 114 68
112 133 105
132 150 136
156 170 165
182 193 199
169 182 183
104 127 96
90 116 70
84 110 65
87 114 68
89 115 69
100 123 88
125 144 123
144 160 149
153 168 161
135 152 139
138 154 149
150 166 158
150 166 163
131 146 135
102 124 94
123 141 124
149 164 159
154 169 164
133 150 135
106 128 97
135 152 140
156 171 168
184 196 203
180 192 198
190 200 206
178 190 195
176 189 195
180 192 198
172 185 186
139 156 147
144 159 154
187 199 206
182 194 199
182 194 200
183 195 202
183 194 201
174 186 187
193 204 212
185 196 203
165 179 179
141 156 145
98 121 91
84 110 64
84 110 65
85 111 66
85 111 66
87 112 66
84 110 65
88 115 69
81 106 62
116 136 112
186 198 204
183 194 199
185 196 204
162 176 175
146 162 153
108 129 103
85 111 65
82 109 64
85 111 65
83 108 64
88 114 68
86 112 67
88 114 67
92 119 72
85 111 66
90 117 70
86 113 67
90 116 69
90 117 70
84 111 65
87 113 67
117 136 115
183 194 199
166 180 177
138 154 144
106 128 94
88 113 70
89 115 68
80 105 61
85 112 67
84 111 66
84 110 64
87 113 67
86 112 67
84 111 66
88 115 69
86 113 67
90 117 69
87 114 68
86 112 66
89 115 68
89 115 69
88 115 68
89 116 70
92 116 79
186 197 205
186 198 204
182 195 202
175 187 192
179 192 197
153 168 163
128 147 127
111 132 106
92 118 73
89 116 69
86 112 66
89 116 69
82 109 64
89 116 69
89 116 69
85 111 66
87 113 68
92 119 71
87 113 67
92 119 71
85 111 66
86 112 67
84 109 65
109 129 101
185 196 203
181 192 197
185 196 202
175 186 188
187 199 207
188 199 205
182 194 199
183 194 200
182 193 198
186 198 206
184 195 202
191 201 208
183 194 200
190 201 206
181 194 201
196 206 216
177 189 194
172 184 187
172 185 190
147 163 154
121 140 119
100 122 91
87 114 68
85 111 65
178 190 196
184 196 201
183 194 202
185 197 204
197 208 217
185 196 202
177 190 195
182 194 199
196 207 218
196 207 214
190 201 209
188 199 205
198 208 217
195 207 216
179 190 195
184 197 202
190 201 206
188 199 209
189 200 208
192 203 211
188 199 206
180 192 196
186 198 204
188 200 207
164 178 175
86 112 66
85 111 66
82 107 63
88 114 69
83 109 65
84 111 67
85 110 64
91 118 70
89 115 68
86 112 66
89 116 70
88 114 67
86 112 66
86 112 66
86 112 67
90 117 69
81 107 63
82 108 63
91 118 71
90 117 69
87 114 68
87 114 68
89 116 69
100 125 85
185 196 203
175 188 194
191 202 209
182 194 200
169 182 184
172 185 186
149 165 158
161 176 173
135 153 138
110 131 103
107 129 100
99 122 85
84 109 67
85 111 67
89 116 69
90 117 70
84 110 65
88 114 68
86 112 67
89 116 69
85 111 65
87 114 68
86 112 67
97 122 83
174 187 190
180 192 199
196 206 215
180 192 195
182 193 199
187 198 206
178 190 194
185 197 205
183 194 199
184 196 202
186 197 205
182 194 199
193 204 211
194 205 213
188 199 204
184 195 202
188 199 207
175 188 194
187 198 205
193 204 212
193 204 210
196 207 216
177 190 196
153 168 163
89 115 68
82 108 64
89 115 69
85 111 65
87 114 67
87 113 68
85 112 66
90 117 70
90 116 69
89 116 69
85 111 66
90 117 70
87 113 67
84 111 65
85 110 65
89 116 70
87 113 68
89 116 69
91 119 72
89 116 69
86 112 67
84 110 65
135 153 139
183 195 201
191 202 212
189 201 207
188 198 205
177 189 193
189 200 206
187 198 206
192 202 210
192 202 209
178 190 194
186 198 206
191 202 211
180 192 198
179 191 196
183 195 202
186 197 203
185 197 203
188 200 208
177 188 193
185 197 204
192 203 211
122 140 121
84 110 65
87 113 67
89 115 69
83 110 65
86 112 67
84 110 65
90 116 69
90 117 70
90 117 70
89 115 69
81 107 63
86 112 66
89 115 69
87 113 67
85 111 66
90 116 70
87 114 68
87 113 67
85 112 66
96 120 84
164 178 178
183 194 199
189 199 206
189 201 210
196 207 216
178 190 196
199 208 215
184 196 202
179 191 195
191 202 211
189 200 207
194 204 212
194 204 213
186 197 203
185 198 205
182 194 199
188 200 208
185 196 202
195 206 214
162 176 172
88 113 70
86 112 67
85 111 66
93 118 76
96 121 84
117 137 113
123 142 124
136 152 141
160 173 169
154 169 165
164 177 176
175 188 194
185 197 204
178 190 195
194 205 213
191 202 211
183 194 201
169 182 182
93 118 78
90 116 70
86 112 67
87 113 67
91 117 70
81 106 62
90 116 68
88 115 68
87 113 67
85 111 66
86 113 67
88 114 68
91 117 70
88 115 68
89 115 69
94 119 78
158 172 170
184 195 201
186 197 205
185 197 204
179 191 197
185 196 204
182 194 201
178 189 195
184 197 203
188 199 206
189 201 210
180 191 195
171 183 185
169 182 184
147 163 157
163 177 176
170 183 186
186 198 206
180 193 200
183 196 204
187 197 206
182 194 201
192 202 209
187 198 204
172 186 190
181 193 200
188 199 207
157 172 170
105 127 96
85 110 65
86 112 67
96 120 83
115 135 111
146 162 157
168 180 180
179 191 194
183 193 198
179 191 196
133 150 137
83 109 65
87 113 69
93 115 82
90 114 76
87 113 70
121 139 123
139 155 145
167 179 180
180 192 196
149 164 158
123 141 126
137 154 145
225 238 255
212 225 239
180 195 200
129 146 136
113 133 113
86 112 69
111 131 107
147 161 156
160 173 173
182 194 200
175 188 193
159 172 172
170 183 187
183 195 200
144 160 157
176 189 194
178 190 197
186 198 206
191 202 210
166 180 179
124 143 123
145 160 150
176 187 189
188 200 207
183 195 202
179 191 195
174 186 191
186 197 204
187 198 206
180 191 196
184 196 203
165 178 177
146 161 154
107 127 104
85 110 65
84 110 64
88 114 68
83 109 64
83 109 64
99 122 87
181 193 199
181 193 199
175 186 190
189 200 208
175 188 191
182 194 200
173 186 191
147 163 156
125 143 124
82 108 64
83 109 65
86 113 67
89 115 68
91 118 71
86 112 67
86 112 66
88 115 69
89 116 69
90 117 69
87 114 68
86 112 66
115 134 108
181 194 201
189 201 209
174 187 190
188 199 205
174 186 189
149 164 158
147 164 154
91 116 75
85 112 67
84 110 65
88 114 68
85 110 65
84 110 65
91 118 70
83 109 63
89 116 70
90 116 70
79 105 62
88 114 68
89 115 68
87 113 67
88 114 68
120 139 116
180 191 196
185 196 203
184 195 201
175 189 196
189 201 209
190 201 209
184 196 202
180 191 196
172 185 189
163 177 175
141 157 146
111 131 108
86 111 66
87 113 67
83 108 64
90 117 70
83 109 64
89 115 69
85 111 65
86 112 67
87 113 68
86 112 66
91 118 71
125 143 126
181 193 198
184 196 201
193 205 210
191 203 211
185 197 203
185 196 203
187 198 203
186 198 205
179 190 193
191 203 212
188 200 207
188 199 208
192 203 209
192 202 210
187 199 206
187 198 203
182 193 197
174 186 190
188 198 206
191 202 210
179 192 198
169 181 183
184 196 203
143 159 150
144 162 152
161 174 172
174 186 187
187 198 204
185 197 202
183 194 199
191 202 208
182 193 198
194 206 213
192 204 212
185 197 205
186 197 203
195 205 213
177 189 193
177 188 193
190 200 209
190 202 212
177 189 194
187 198 204
181 193 198
197 207 214
193 204 211
189 201 211
187 198 205
115 136 111
92 119 71
89 115 68
91 117 70
85 111 66
85 110 65
88 114 68
88 114 68
88 114 69
90 116 69
87 113 67
91 118 71
86 112 65
86 112 67
84 110 66
87 113 67
87 114 68
86 112 66
84 110 65
85 112 67
87 113 67
85 111 65
89 116 70
90 117 70
141 156 147
188 199 207
193 204 213
190 202 209
193 205 213
186 197 202
192 203 210
185 197 204
194 205 214
168 181 185
188 199 206
183 194 199
188 200 208
189 201 208
170 184 189
168 181 181
151 167 163
148 163 155
149 164 155
137 154 142
111 133 103
110 131 105
104 128 93
87 112 66
139 156 142
185 197 206
198 208 218
183 194 200
185 196 203
189 200 206
184 195 199
178 190 194
183 195 202
188 200 209
185 197 205
189 199 204
184 195 202
174 186 191
184 196 202
189 201 208
184 196 203
187 200 211
187 198 206
177 189 191
183 195 203
183 196 203
186 198 205
172 184 185
97 121 82
92 119 72
90 117 70
91 119 72
89 115 69
89 115 69
87 114 68
85 111 66
88 114 68
87 114 68
86 112 66
83 109 64
85 111 65
87 114 68
91 117 70
88 113 67
91 117 70
82 109 65
90 117 71
88 114 69
87 114 68
92 119 71
126 143 124
184 195 201
180 191 195
183 195 204
181 193 200
187 198 206
187 198 205
182 194 198
188 199 206
185 197 204
187 198 204
190 201 207
192 204 214
178 189 195
186 197 202
189 200 207
180 192 198
185 197 205
184 195 200
185 197 202
194 206 215
182 194 200
142 158 148
86 113 67
80 107 63
85 111 66
87 113 67
90 116 69
88 114 67
82 108 64
89 115 69
85 112 67
88 115 68
90 116 69
85 111 66
88 114 67
84 110 65
83 109 66
84 110 65
87 113 67
89 115 69
86 112 67
99 124 81
168 181 181
180 193 200
183 195 201
180 191 196
186 198 205
180 193 200
188 200 208
177 189 193
194 205 212
192 203 213
178 190 195
183 196 203
186 197 204
188 200 206
184 196 206
171 184 188
163 176 178
165 178 178
145 162 156
175 188 190
151 165 158
164 178 177
161 175 175
182 193 196
176 189 195
183 194 200
184 196 202
188 200 210
193 204 210
187 198 204
181 193 199
177 189 193
182 194 201
180 191 196
199 209 216
178 191 196
184 195 201
152 167 162
88 114 71
84 110 65
85 111 66
90 117 70
87 114 68
88 114 68
87 113 67
84 110 66
85 111 65
85 112 67
88 115 68
83 109 64
87 112 66
88 115 69
85 112 67
106 129 99
172 185 186
179 191 197
188 200 207
176 188 193
186 198 207
185 197 204
181 194 201
180 192 199
177 189 192
162 176 173
135 151 140
140 156 146
105 127 98
88 114 68
135 152 138
179 192 197
190 201 208
178 190 194
184 196 203
178 191 198
185 196 202
189 200 208
182 193 199
186 198 207
178 189 194
180 192 198
171 184 186
148 164 154
88 114 73
105 129 99
144 160 152
161 175 174
176 188 193
186 197 206
180 192 197
175 187 195
177 190 196
163 177 179
139 155 148
156 169 166
143 159 151
127 145 127
107 127 100
80 106 62
98 121 88
148 164 161
148 163 164
131 147 136
122 142 125
165 180 182
210 223 238
225 238 255
225 238 255
225 238 255
225 238 255
225 238 255
208 222 236
195 208 217
147 162 160
105 127 100
86 109 72
123 142 123
154 168 163
174 187 191
183 195 204
177 190 196
166 179 181
140 155 149
110 131 107
103 126 93
110 130 105
132 149 133
129 146 131
133 149 136
104 126 99
131 149 135
148 163 159
184 195 201
185 196 203
174 187 192
176 188 193
182 193 199
188 199 207
186 197 204
184 196 202
192 204 212
167 180 181
142 157 151
119 139 116
87 113 68
87 113 67
94 118 79
181 193 202
180 191 198
172 183 186
171 183 185
172 185 189
175 186 191
185 197 202
182 193 198
171 184 188
174 186 192
155 169 163
124 143 126
91 116 76
88 114 68
83 109 64
87 114 67
89 116 69
85 111 65
90 117 69
87 113 67
86 113 67
111 133 108
179 190 193
175 187 192
181 194 202
187 198 204
179 191 196
184 195 201
180 192 197
182 196 203
178 190 193
137 154 141
110 132 104
88 115 69
85 111 66
86 113 68
87 114 68
86 112 67
90 117 69
87 113 67
85 111 66
85 112 66
87 114 68
83 109 64
117 137 116
182 194 201
186 198 205
184 196 201
177 189 194
181 193 199
180 192 199
190 203 213
179 191 195
192 203 210
188 199 205
178 191 196
189 200 207
190 201 207
149 164 157
135 152 141
119 139 116
89 115 73
85 111 65
87 113 67
86 113 68
86 113 68
88 114 68
85 112 66
171 183 182
186 197 204
187 199 205
185 198 207
190 201 208
189 201 210
184 196 203
191 202 208
186 198 205
194 205 216
192 204 214
185 196 202
181 193 199
178 189 192
186 197 201
188 199 207
187 197 204
169 182 183
188 198 204
184 196 203
175 188 192
184 195 201
190 202 211
192 203 212
138 154 146
88 114 68
86 112 66
87 114 67
95 119 84
123 142 122
141 156 147
159 173 168
161 175 172
179 192 197
196 207 215
186 197 203
183 195 202
182 194 200
177 189 194
178 190 192
184 195 202
191 202 209
185 197 205
186 198 204
192 203 211
188 199 206
185 196 202
186 198 204
170 182 184
86 112 67
83 110 65
85 111 66
90 117 70
85 111 66
88 114 68
84 110 65
88 116 70
84 110 65
88 115 69
83 109 65
91 117 70
89 115 68
86 113 67
88 114 68
89 115 68
87 113 67
92 119 72
86 112 66
86 113 67
86 113 68
91 117 70
86 113 67
99 124 86
186 197 205
188 201 207
191 202 209
188 199 208
186 198 204
186 197 202
177 190 194
189 200 206
184 196 202
184 196 201
181 194 201
186 197 206
189 200 208
184 195 202
194 205 214
186 198 204
191 202 211
186 198 205
184 195 201
184 196 200
167 181 183
186 198 204
175 187 188
182 194 200
104 127 91
99 123 90
108 130 100
122 142 118
127 145 130
151 166 160
154 168 159
162 174 173
164 177 177
173 187 189
174 186 188
185 195 200
184 197 204
181 193 199
186 198 205
190 202 210
179 191 197
186 197 203
185 196 200
175 188 193
191 202 210
188 200 206
188 199 207
130 148 133
89 115 69
87 113 66
91 118 71
82 107 64
89 115 68
89 115 68
85 111 66
86 112 67
87 113 67
88 115 69
85 111 66
91 117 70
86 111 66
90 116 69
88 115 68
83 109 64
89 115 69
85 111 65
91 118 71
87 114 67
95 122 74
107 126 101
169 182 185
181 193 200
192 203 211
189 201 207
186 197 203
182 194 200
182 194 197
182 193 198
187 200 207
183 195 201
190 202 211
185 195 202
187 198 205
180 193 196
189 200 207
190 201 208
186 197 201
201 211 220
178 191 197
185 196 204
183 194 199
167 181 181
90 115 71
89 116 69
85 111 65
95 122 74
85 111 66
88 114 67
86 112 66
86 112 66
87 113 67
90 116 69
85 111 65
85 112 66
89 116 70
87 114 67
87 113 67
88 114 67
86 112 66
85 111 65
88 115 68
91 116 77
157 172 171
193 204 211
176 189 192
185 197 203
175 187 192
158 171 168
178 190 192
161 176 173
149 164 156
152 168 161
139 156 141
134 153 138
101 123 92
120 140 115
96 120 81
90 116 69
89 116 69
86 111 66
87 112 67
142 158 147
181 193 199
177 189 193
188 200 206
180 192 196
187 199 205
181 193 200
191 202 209
182 194 200
181 194 199
178 191 198
190 201 208
181 194 201
182 194 200
180 192 197
185 196 203
186 197 202
186 198 204
148 163 155
86 113 67
85 111 66
86 112 66
86 112 67
85 111 66
85 111 66
83 109 64
82 108 63
87 114 68
85 111 66
90 117 70
86 113 67
91 117 70
87 113 67
80 105 62
122 141 123
182 194 199
182 193 200
180 192 197
185 197 203
171 184 186
155 169 164
139 155 144
118 137 117
102 124 92
86 112 66
88 115 68
83 109 64
83 109 64
94 118 78
142 157 150
179 190 194
182 194 201
169 182 188
177 189 193
182 195 202
186 197 204
179 191 196
182 194 202
168 181 184
174 187 192
186 198 204
162 176 177
144 159 153
152 166 164
174 188 191
169 182 183
153 166 164
140 157 144
128 145 128
105 126 99
102 124 95
120 138 119
160 174 172
158 171 171
125 143 131
108 130 102
84 110 65
89 115 69
101 124 90
130 148 132
126 142 130
106 127 101
156 173 168
188 202 208
222 235 252
225 238 255
225 238 255
225 238 255
225 238 255
225 238 255
225 238 255
225 238 255
225 238 255
225 238 255
221 234 251
206 218 230
180 193 196
132 148 136
91 113 80
95 119 83
131 147 135
154 168 165
176 189 193
190 201 208
176 189 194
173 187 191
139 154 145
100 122 93
139 155 147
194 205 213
178 190 194
176 188 193
175 188 193
170 182 184
173 186 190
145 161 154
130 146 137
147 162 153
156 170 167
151 165 162
151 166 164
171 183 187
169 181 185
179 191 197
186 197 205
170 182 185
136 152 141
115 135 113
180 191 194
189 199 206
179 191 197
174 187 190
180 192 196
192 202 209
182 193 198
180 192 198
183 194 199
180 192 195
185 196 202
185 196 203
175 187 191
168 181 179
144 159 151
96 119 83
86 113 68
80 106 62
88 115 68
87 113 67
88 114 68
119 138 118
189 199 204
184 196 201
174 185 189
180 192 197
181 192 196
183 195 200
181 192 199
176 188 193
186 197 204
182 194 200
190 202 209
181 194 200
156 171 170
133 148 138
106 128 99
86 112 66
87 113 67
86 112 66
88 114 68
87 114 67
86 112 68
85 112 67
143 161 153
180 193 199
182 194 199
189 201 209
178 191 196
181 193 200
189 201 207
186 197 202
184 195 201
183 194 199
175 188 193
172 184 186
187 198 207
182 194 200
187 199 205
190 201 208
186 198 206
178 190 197
157 171 171
145 161 154
124 143 125
100 123 90
82 108 64
89 115 69
178 190 193
187 197 204
193 204 215
186 197 203
192 203 210
184 196 203
183 195 200
192 204 212
187 198 202
185 197 206
194 206 215
182 194 197
189 200 207
183 195 202
194 204 212
187 198 205
181 192 199
179 191 195
184 195 200
176 188 194
181 194 198
181 193 200
197 207 214
187 198 205
103 126 92
86 112 66
86 112 66
87 114 69
86 112 66
81 107 64
84 110 66
85 110 65
85 112 66
88 114 68
105 127 97
139 155 144
136 153 141
163 176 174
176 188 192
180 192 198
181 193 197
184 195 199
196 206 214
183 194 199
184 196 202
181 193 200
184 196 205
188 199 206
129 147 130
85 111 66
86 112 67
87 114 68
85 111 66
86 113 66
84 111 65
86 112 66
90 117 70
87 113 68
88 114 68
86 113 68
85 111 65
87 113 67
88 115 69
87 113 67
86 112 66
90 116 69
89 115 69
81 106 62
89 115 67
85 111 65
88 114 69
86 112 67
126 144 126
185 196 202
194 205 214
180 192 199
181 193 199
180 192 199
189 200 206
181 193 197
179 191 195
178 191 195
184 196 202
186 197 203
183 195 200
180 192 196
192 203 208
174 187 191
182 193 200
180 193 200
186 198 207
194 205 213
191 202 209
183 195 203
181 191 197
185 196 201
137 155 141
87 113 67
89 116 70
89 116 68
87 113 68
85 111 66
87 113 67
88 114 68
86 112 66
86 113 67
88 114 67
88 114 68
89 115 69
85 110 67
101 124 87
103 125 92
115 135 111
113 133 108
117 136 115
119 138 116
131 147 132
152 168 160
158 173 168
161 175 172
131 149 133
126 144 127
123 141 120
116 136 112
100 121 92
105 128 99
106 129 100
100 123 90
91 117 73
80 106 62
88 114 68
85 111 66
87 113 67
85 112 66
84 110 66
90 117 70
86 111 66
82 108 63
87 113 67
91 117 70
85 111 65
86 112 67
171 185 185
188 198 205
184 196 203
179 192 201
188 200 207
184 196 202
185 197 204
171 184 188
177 190 196
186 197 205
175 187 192
190 201 207
189 200 207
182 193 197
183 195 201
184 195 202
186 197 203
190 200 207
175 188 193
191 201 207
181 193 197
167 180 179
89 115 74
87 113 67
87 113 67
85 111 66
88 115 69
99 124 84
97 120 84
114 136 105
107 129 99
108 130 102
116 136 113
109 130 107
122 141 124
138 155 141
135 152 136
138 154 142
152 166 160
149 163 155
159 174 170
167 180 177
123 142 121
101 124 93
91 115 74
89 114 71
88 115 69
87 113 66
87 113 67
84 111 66
90 118 71
86 113 67
84 110 65
85 111 66
85 111 65
84 110 65
87 113 67
88 115 68
86 112 66
81 107 63
88 114 68
139 155 145
183 195 201
192 203 211
180 191 196
170 182 183
192 203 211
186 198 206
185 196 203
189 199 205
178 189 193
185 197 203
178 190 194
181 193 198
181 193 198
188 200 211
184 195 201
182 194 200
174 185 189
139 155 146
85 111 66
84 110 65
87 113 67
89 116 69
82 108 63
87 113 67
82 108 63
80 105 62
88 115 69
89 116 69
85 111 66
80 106 62
86 112 67
87 113 67
85 112 66
131 149 131
159 173 170
150 165 157
135 152 143
115 136 115
93 117 81
88 115 69
87 114 68
87 113 68
80 105 63
84 109 64
85 111 65
89 116 70
86 112 67
102 124 99
179 192 197
180 192 197
186 199 207
180 191 195
182 193 200
184 196 205
179 191 195
169 183 183
165 178 180
166 179 180
184 195 202
170 182 182
114 133 115
120 139 120
97 120 86
84 110 68
87 113 67
83 109 64
85 112 66
86 112 66
84 110 66
91 115 79
116 136 117
129 146 135
89 113 77
83 109 65
85 112 66
87 114 68
85 108 75
91 114 77
99 120 91
142 159 150
191 205 213
220 233 250
225 238 255
225 238 255
225 238 255
225 238 255
225 238 255
225 238 255
225 238 255
225 238 255
225 238 255
225 238 255
225 238 255
225 238 255
225 238 255
225 238 255
225 238 255
214 227 242
192 205 214
159 173 172
124 142 126
90 114 76
107 128 101
128 145 135
161 174 175
174 187 193
182 195 202
178 190 195
157 171 168
130 147 139
159 171 171
181 193 199
171 185 189
182 193 199
185 197 204
183 195 203
178 191 197
164 177 176
121 139 119
94 117 82
82 108 63
83 109 65
94 118 80
113 132 111
120 139 121
134 152 137
129 147 128
152 167 160
135 152 139
157 172 168
171 183 188
176 188 189
181 193 199
173 185 188
180 193 201
188 200 207
179 190 195
186 198 206
170 183 186
184 197 204
183 194 199
182 193 199
177 189 195
175 187 191
166 179 181
139 155 145
117 136 118
91 117 73
84 109 64
130 148 132
179 190 195
188 199 209
187 198 205
183 195 203
179 192 200
170 182 186
178 190 192
183 195 204
170 184 189
182 195 200
174 187 190
197 207 216
177 189 193
173 185 187
182 193 200
174 185 190
148 162 157
129 147 131
96 120 82
87 114 68
83 108 63
84 110 65
151 166 161
174 187 192
181 193 198
175 187 190
182 195 201
184 195 200
179 190 193
186 197 202
182 194 201
181 193 197
186 198 204
188 199 205
182 193 199
178 190 197
184 195 201
174 187 191
181 192 199
190 202 211
193 204 212
185 197 205
179 190 195
185 196 202
176 188 190
148 162 155
155 170 166
183 194 199
188 199 205
183 195 202
187 198 205
182 194 200
180 192 198
179 191 196
191 202 211
187 197 207
183 195 202
176 188 192
189 201 209
186 196 203
197 207 216
187 198 205
187 197 203
189 199 206
187 199 207
183 195 203
186 197 202
186 198 203
188 199 205
178 190 194
86 113 67
84 110 65
85 110 66
85 111 66
84 110 65
87 113 67
82 107 63
85 111 66
87 114 68
86 112 67
82 108 63
88 115 70
83 109 64
86 113 67
86 112 66
87 112 72
116 134 112
126 145 126
137 155 145
164 177 174
172 186 189
183 195 200
188 199 207
180 193 199
85 111 68
82 108 64
87 114 68
90 117 70
92 119 71
86 112 65
87 113 67
88 115 69
85 110 66
89 116 69
84 110 66
89 116 70
91 118 71
83 109 64
85 111 66
88 114 67
86 111 66
91 118 69
79 104 61
90 117 70
88 114 68
86 112 66
87 114 67
93 118 76
173 186 188
180 192 199
187 198 206
181 194 201
187 199 204
189 200 208
176 188 193
186 197 202
186 197 205
183 194 198
182 194 200
186 197 202
184 195 203
184 195 202
176 188 191
190 201 208
185 197 205
186 197 204
192 202 210
182 194 202
185 197 204
178 190 195
185 196 203
168 181 183
83 109 64
88 114 68
86 112 67
83 108 63
89 116 69
88 114 69
88 114 68
87 113 67
87 113 67
90 116 69
89 115 69
89 115 69
86 112 66
86 113 67
84 109 64
88 115 68
87 114 68
91 117 70
90 117 71
89 116 69
87 113 68
85 112 67
98 121 87
180 192 197
175 187 192
184 195 201
185 196 202
185 197 204
189 200 207
180 192 199
179 191 197
187 198 204
202 213 222
181 192 198
181 192 196
180 192 196
178 191 194
159 173 174
175 189 193
182 195 197
172 185 187
172 185 187
172 184 184
165 178 175
157 171 168
129 147 127
125 143 123
113 134 109
133 149 139
115 134 115
124 142 124
119 138 117
134 152 137
133 152 136
138 154 142
116 136 116
134 151 137
127 146 129
127 145 128
125 143 125
127 146 126
125 144 125
121 141 119
121 140 116
100 122 96
107 130 100
134 150 139
173 185 187
181 192 196
176 190 196
179 192 197
190 201 209
186 197 203
171 184 188
194 205 214
176 188 193
184 196 207
182 193 198
176 188 192
179 192 199
184 196 205
182 193 200
177 191 199
179 191 198
178 191 197
179 191 197
178 190 194
128 146 132
88 115 69
86 113 67
84 110 66
85 111 66
87 113 67
90 117 70
85 111 66
88 115 69
86 111 67
89 116 70
85 112 67
87 113 67
87 113 68
86 113 67
82 109 64
82 108 64
87 113 67
87 113 68
137 153 144
182 194 200
189 200 206
193 204 213
180 191 196
183 195 201
185 197 205
179 191 194
191 202 209
171 185 190
183 195 202
179 190 195
185 196 204
188 201 209
171 184 189
174 187 191
184 196 202
172 185 189
116 136 114
88 114 68
86 112 67
86 112 66
83 109 64
88 114 67
83 108 63
82 108 64
84 110 65
83 109 65
83 109 64
88 114 70
107 131 102
125 143 127
134 150 139
144 160 150
108 129 105
90 116 75
85 111 66
86 112 67
87 114 68
83 109 64
88 115 68
84 110 66
81 107 63
88 114 68
85 112 67
85 111 68
97 120 86
113 134 108
117 137 114
158 173 170
142 157 150
140 157 147
132 149 134
109 130 106
105 126 101
118 137 118
139 155 142
148 163 158
174 185 187
179 191 196
140 157 146
93 118 76
89 116 69
85 112 66
83 109 64
85 111 67
84 109 65
91 116 72
114 134 111
118 138 122
111 131 106
84 109 65
83 109 65
83 108 64
82 107 66
111 132 110
118 136 117
100 122 94
126 145 132
168 183 186
212 225 239
225 238 255
225 238 255
225 238 255
225 238 255
225 238 255
225 238 255
225 238 255
225 238 255
225 238 255
225 238 255
225 238 255
225 238 255
225 238 255
225 238 255
225 238 255
225 238 255
225 238 255
225 238 255
225 238 255
225 238 255
225 238 255
212 225 239
181 195 201
165 178 179
125 144 123
84 108 69
99 121 89
148 162 158
167 180 181
172 184 188
126 144 130
84 110 66
99 121 90
155 168 165
181 193 200
188 199 206
174 186 192
176 188 196
183 194 201
173 185 189
174 186 190
152 166 163
114 134 112
99 122 90
80 106 62
85 110 65
83 109 64
84 110 65
85 111 66
135 150 142
184 197 203
180 193 199
167 180 180
162 175 175
126 144 127
117 135 116
104 125 99
112 134 107
126 144 129
138 155 144
149 164 157
153 167 164
161 175 175
158 171 169
166 180 182
182 194 199
176 189 194
184 195 201
182 194 199
162 176 176
149 164 155
175 188 192
183 195 201
176 190 196
183 194 202
192 202 209
175 187 192
186 199 208
173 186 189
180 193 199
184 197 205
175 188 195
189 201 208
169 182 185
190 201 209
184 195 200
177 190 197
178 190 194
187 198 206
187 199 206
168 181 182
146 162 154
127 145 129
150 166 165
190 202 208
183 194 199
181 193 197
190 200 208
184 197 206
187 198 202
183 194 199
186 198 204
173 186 190
181 193 198
177 188 196
181 192 198
187 198 203
179 191 196
191 203 211
181 192 197
180 192 197
172 185 189
179 191 199
175 187 191
179 191 198
176 188 192
158 172 167
86 112 66
87 114 67
88 112 74
125 143 128
142 158 145
162 175 177
175 187 190
181 192 197
182 194 200
177 189 196
187 199 207
185 197 202
177 190 196
177 190 197
184 196 202
187 199 207
180 193 199
187 198 205
180 192 199
194 204 210
183 195 202
181 192 199
183 195 201
153 167 164
89 116 69
85 111 65
91 117 70
84 110 65
83 108 64
83 108 63
86 112 67
86 111 66
88 113 67
81 107 63
87 114 67
87 113 67
88 114 67
83 108 63
87 114 68
86 112 66
84 111 65
91 118 70
84 110 66
83 108 64
89 115 69
88 114 69
107 129 100
162 176 171
143 159 153
140 157 146
123 142 121
102 126 89
90 115 72
88 115 68
89 115 69
86 113 67
88 115 68
83 109 65
86 113 67
85 111 65
86 112 67
89 115 68
88 115 69
86 112 66
88 114 67
85 111 66
90 117 70
84 110 64
87 113 67
88 114 68
87 113 66
132 149 136
182 193 198
184 195 201
186 197 203
181 193 199
188 200 207
181 193 200
181 193 200
180 192 199
193 204 212
162 176 180
180 191 195
188 200 208
182 195 201
173 185 188
190 202 212
194 205 214
186 198 206
181 193 201
190 201 206
180 192 196
180 192 197
179 192 197
190 202 212
108 131 102
86 112 67
87 113 67
87 113 67
83 110 65
87 113 68
89 116 69
88 114 68
87 113 68
88 115 68
80 106 62
85 111 66
83 109 64
86 111 66
85 112 67
84 110 65
85 111 65
90 117 70
84 110 66
87 113 67
85 111 66
84 110 65
88 114 67
148 163 158
189 200 206
189 200 207
188 199 204
183 195 201
190 201 209
179 191 194
183 195 199
185 196 201
172 184 188
173 185 186
189 200 208
185 196 202
196 207 216
180 192 199
188 199 204
176 189 194
182 194 197
188 199 206
193 204 213
180 194 201
180 192 197
156 171 168
85 111 66
89 116 69
87 113 67
87 113 67
85 111 66
87 113 67
85 111 66
88 114 68
88 114 68
85 110 65
85 111 66
86 112 66
88 115 68
88 114 68
80 105 62
84 110 65
87 113 67
86 112 66
89 115 68
87 114 68
92 117 78
172 185 191
180 192 197
181 193 199
182 194 200
188 199 209
180 192 198
182 194 199
181 193 200
191 201 207
177 189 191
182 194 200
188 200 208
174 186 190
192 202 211
192 203 210
180 192 197
192 203 213
180 191 195
173 186 192
179 190 196
135 152 141
87 113 67
85 112 66
84 110 64
90 117 70
81 106 62
88 115 68
84 110 65
87 112 66
91 117 70
89 116 70
88 114 68
84 110 66
85 111 65
87 114 68
85 112 66
81 107 63
82 108 64
87 113 67
138 153 142
173 186 190
177 190 197
186 197 203
189 201 209
178 190 194
178 190 196
175 187 190
175 188 194
178 190 196
182 193 199
186 198 206
188 199 207
183 195 203
184 196 202
180 192 199
178 190 193
175 188 189
105 127 96
88 114 68
88 115 68
89 115 68
80 105 62
85 112 66
92 117 75
91 114 80
137 153 142
122 140 123
152 168 164
176 189 192
182 193 200
180 192 199
181 192 199
176 187 190
125 143 125
104 127 94
117 137 114
121 139 121
128 146 132
143 159 151
136 151 139
140 156 150
163 177 176
152 167 163
168 181 183
181 193 200
177 190 197
167 180 181
108 129 105
88 115 68
84 110 65
90 114 75
109 129 105
140 155 149
150 164 160
183 195 202
180 192 198
179 192 199
179 191 196
170 183 185
117 136 115
84 110 65
88 115 69
86 113 67
82 108 64
99 121 86
135 152 138
155 170 163
162 175 177
131 147 136
92 116 79
85 112 67
91 115 77
129 146 132
150 165 159
153 167 165
130 146 135
171 185 188
210 223 237
225 238 255
225 238 255
225 238 255
225 238 255
225 238 255
225 238 255
225 238 255
225 238 255
225 238 255
225 238 255
225 238 255
225 238 255
225 238 255
225 238 255
225 238 255
225 238 255
225 238 255
225 238 255
225 238 255
225 238 255
225 238 255
225 238 255
225 238 255
225 238 255
225 238 255
225 238 255
223 236 253
211 223 237
172 186 190
137 152 144
120 139 121
79 104 60
112 133 110
117 135 118
106 127 98
81 106 62
78 103 61
85 111 65
103 123 98
141 156 148
171 183 186
173 186 192
186 197 203
174 186 191
168 181 187
175 187 194
179 192 198
168 181 180
117 135 115
106 126 99
89 116 69
84 109 64
119 137 120
173 184 191
180 193 199
181 193 200
182 194 201
180 192 198
177 189 196
146 161 154
138 154 143
103 124 97
81 106 62
84 110 65
82 108 63
84 110 65
81 106 62
86 113 68
85 111 65
90 115 74
92 115 83
102 124 96
122 141 123
138 155 143
156 170 169
148 162 160
176 188 193
170 184 185
143 157 150
150 165 160
162 175 176
165 179 180
163 177 178
168 181 183
184 196 203
173 187 192
177 188 192
185 196 202
182 195 199
186 197 202
170 182 185
176 189 195
184 196 203
173 184 188
172 185 189
179 191 196
96 118 88
115 134 111
136 152 142
157 171 168
181 193 200
179 191 195
185 196 204
175 188 192
187 198 207
182 194 199
177 189 195
175 188 192
186 197 203
170 183 187
182 194 199
186 197 203
175 188 193
180 191 198
178 190 195
185 196 201
164 177 181
177 190 197
174 185 189
143 159 148
83 109 64
89 115 68
84 109 65
84 110 65
87 113 67
85 111 66
87 114 68
102 124 92
128 148 130
150 165 159
163 177 175
179 191 195
177 189 195
183 195 203
180 192 196
182 194 202
182 194 200
171 184 186
181 192 197
186 198 204
185 197 203
183 194 200
176 189 195
110 131 108
87 113 68
86 112 66
87 113 67
81 106 62
86 112 67
85 111 67
85 111 66
84 110 65
85 111 66
83 109 64
85 111 65
81 106 63
82 108 65
82 108 64
81 107 63
82 108 63
89 115 69
84 109 65
87 113 67
85 110 65
88 115 69
85 111 65
83 108 64
169 181 183
167 180 184
182 193 199
186 198 205
185 198 205
182 193 199
172 185 186
147 162 156
144 160 149
130 147 132
118 139 112
94 116 83
90 116 72
89 115 68
86 112 67
87 114 68
83 110 65
82 108 64
86 113 67
90 117 70
88 114 67
90 117 69
86 111 65
94 119 80
174 188 191
186 197 204
178 191 195
174 186 189
178 190 196
185 197 205
176 188 191
184 196 204
194 205 213
181 194 199
180 192 196
189 200 207
185 197 204
186 198 207
185 197 205
182 194 202
185 195 202
186 197 205
176 190 195
187 199 205
186 198 203
179 191 197
176 189 194
140 155 145
82 108 64
86 112 66
85 111 66
85 111 66
88 115 69
90 116 69
86 112 67
82 108 63
88 114 68
85 111 67
85 111 66
85 111 66
88 114 68
84 110 66
88 114 68
84 110 65
87 114 68
89 115 69
85 111 66
88 115 69
84 110 66
89 115 69
132 150 134
183 196 203
194 205 213
177 189 196
182 194 199
184 196 204
175 189 194
181 191 198
174 187 190
186 198 205
186 197 202
184 196 204
181 193 200
186 197 204
180 192 199
184 196 203
190 202 210
181 192 199
183 194 197
187 198 206
182 193 199
185 196 202
180 192 194
86 111 72
88 114 68
84 110 65
87 113 67
81 107 63
85 111 67
85 112 66
82 108 64
89 115 69
89 116 70
90 117 70
87 114 68
90 116 70
84 110 65
86 112 66
86 112 66
82 107 63
88 114 68
85 111 66
84 110 65
90 115 74
157 171 168
184 195 200
188 199 206
187 199 208
192 203 212
185 196 202
186 198 203
173 185 189
174 187 192
181 192 199
180 190 194
179 191 199
187 197 205
184 197 202
174 186 189
182 193 200
177 189 193
178 190 196
176 188 191
192 203 212
135 151 140
87 113 67
84 109 65
90 117 70
82 108 64
86 113 67
86 112 67
88 115 69
87 113 68
87 114 68
83 109 64
83 108 64
84 110 65
82 107 63
81 106 62
82 108 64
89 115 69
84 110 65
83 109 64
149 165 156
186 198 205
180 192 197
177 188 194
190 200 208
186 198 204
176 188 193
177 189 191
181 194 203
183 194 199
177 188 194
185 196 204
186 197 205
185 198 205
192 203 210
178 190 194
177 190 193
166 178 177
105 126 97
96 121 80
103 126 94
111 131 106
127 145 129
125 143 127
134 149 137
154 171 166
150 165 162
146 161 152
132 149 138
134 152 136
116 135 114
111 132 106
101 122 93
120 138 119
183 194 199
184 196 202
184 196 201
169 180 182
182 193 200
181 193 198
179 192 199
191 202 211
180 192 199
179 192 198
182 194 199
185 197 201
178 191 195
146 162 157
97 120 90
133 150 142
159 172 170
159 173 174
183 195 202
174 187 191
179 190 194
175 187 192
185 196 203
181 193 200
180 192 197
141 157 149
85 111 66
85 111 66
82 106 65
129 148 132
152 166 161
174 186 189
181 193 199
169 180 184
133 150 137
93 117 82
99 121 90
127 144 133
150 164 161
170 183 186
165 178 178
172 187 189
205 218 231
224 237 254
225 238 255
225 238 255
225 238 255
225 238 255
225 238 255
225 238 255
225 238 255
225 238 255
225 238 255
225 238 255
225 238 255
225 238 255
225 238 255
225 238 255
225 238 255
225 238 255
225 238 255
225 238 255
225 238 255
225 238 255
225 238 255
225 238 255
225 238 255
225 238 255
225 238 255
225 238 255
225 238 255
225 238 255
225 238 255
225 238 255
225 238 255
224 237 254
205 218 230
184 198 206
142 158 149
105 126 100
153 168 163
153 166 164
118 137 120
105 125 99
85 111 67
84 110 65
87 113 70
113 133 113
143 158 150
154 167 163
179 191 198
177 189 193
175 187 191
172 183 187
173 185 191
180 192 199
155 170 170
133 149 137
133 149 137
181 192 198
182 193 198
171 184 189
180 193 199
180 191 196
177 189 193
178 190 195
184 194 202
175 187 192
171 183 185
140 156 147
116 136 114
85 110 68
85 111 65
81 106 62
88 114 68
83 108 63
81 107 63
84 109 65
80 105 62
116 136 120
169 181 182
187 197 204
171 184 186
183 195 200
177 188 191
172 185 187
127 143 126
102 122 96
89 115 72
87 113 67
86 113 68
99 122 89
96 118 85
117 138 113
114 135 110
129 146 133
130 147 136
138 155 143
143 159 150
133 150 138
143 160 153
146 162 156
116 137 112
112 132 108
111 131 106
102 125 92
101 122 97
116 137 114
134 151 138
152 166 161
171 184 187
184 195 199
181 193 198
184 196 202
182 194 201
181 193 199
173 185 191
162 175 176
169 181 183
176 189 196
175 187 193
189 201 209
184 197 205
182 194 202
183 194 199
112 133 109
90 117 70
82 108 64
85 112 66
85 112 67
85 111 65
86 112 67
82 107 63
90 116 70
84 110 65
89 115 68
90 117 70
85 110 66
108 130 103
125 144 124
154 170 165
160 174 174
180 193 199
176 190 196
173 186 190
183 195 202
189 199 207
196 207 216
168 181 182
89 115 69
84 110 65
77 102 59
89 116 69
80 105 61
85 111 66
84 110 66
86 113 68
85 112 67
87 113 67
85 111 66
80 105 62
86 112 67
88 114 68
88 114 68
87 114 68
85 111 66
86 112 66
88 115 69
84 110 65
81 106 63
84 110 65
86 113 67
125 143 126
176 189 193
177 191 197
182 194 200
191 201 209
175 187 189
186 197 203
171 184 190
182 193 198
187 199 207
184 196 200
180 192 197
187 198 205
181 194 200
166 179 181
166 180 179
145 162 156
148 164 153
124 142 125
102 124 93
87 113 67
87 113 67
88 115 68
89 115 68
141 157 148
183 195 202
175 188 195
186 197 204
175 188 190
188 199 206
182 194 201
182 194 200
184 196 203
184 195 202
175 188 194
182 194 204
186 198 207
180 192 196
187 199 208
175 186 188
177 189 193
178 190 195
182 194 203
180 192 198
186 198 206
189 200 207
175 188 193
185 197 204
91 115 78
84 110 65
88 115 68
91 118 71
87 114 67
87 113 67
84 111 66
88 114 68
87 113 67
86 112 66
93 120 72
81 107 64
84 110 65
85 111 66
87 114 68
84 110 66
84 110 65
91 117 70
86 112 67
82 108 64
84 110 65
86 112 66
106 127 97
178 190 196
178 190 196
188 199 206
187 198 204
174 186 191
173 185 188
183 194 200
186 198 206
184 195 201
186 198 205
188 199 206
177 188 193
187 198 205
184 196 203
175 187 191
177 189 194
178 191 195
188 200 207
175 187 192
179 190 196
180 192 200
174 186 188
100 122 91
84 111 66
86 112 66
82 107 64
87 113 68
87 113 67
83 109 64
81 107 63
88 114 68
87 114 68
85 111 66
84 109 65
86 112 67
84 110 66
81 107 63
89 115 68
88 114 67
86 112 66
87 113 68
87 113 68
85 111 66
155 169 166
183 195 203
176 188 193
181 191 198
170 183 185
174 186 192
181 193 198
172 183 188
191 202 209
184 194 200
184 195 201
173 186 189
181 193 198
173 186 193
177 189 193
191 203 213
189 201 209
184 196 203
189 201 208
186 198 205
140 156 145
80 105 61
82 108 65
85 111 66
85 111 66
86 112 66
88 115 68
82 107 63
87 114 68
83 109 65
84 110 65
86 111 66
85 110 65
81 107 63
87 114 67
88 115 69
84 110 66
89 115 69
92 117 80
152 166 160
181 192 200
180 191 197
178 190 195
165 178 178
165 178 180
163 177 178
169 181 183
164 178 177
161 175 174
148 163 156
125 144 126
140 156 146
148 162 157
145 161 155
165 178 175
161 174 173
138 155 147
101 122 91
96 121 79
89 114 70
83 109 64
81 107 63
86 113 68
86 112 66
80 106 62
82 107 63
86 112 67
86 112 66
88 114 68
85 111 67
84 110 65
94 118 81
153 169 165
172 184 188
178 190 195
176 189 195
174 186 188
183 194 201
179 191 197
192 203 210
173 185 190
178 191 196
180 192 198
176 188 192
162 175 174
164 178 179
168 181 183
153 167 168
174 187 191
176 188 193
179 191 196
182 193 199
171 183 187
182 194 200
172 184 188
180 192 197
182 194 197
146 162 155
90 114 78
112 131 109
132 149 138
158 171 172
172 185 190
167 180 185
176 188 194
159 172 175
133 149 139
115 135 114
141 157 149
156 170 170
181 193 201
175 187 192
198 209 218
205 217 231
223 236 253
225 238 255
225 238 255
225 238 255
225 238 255
225 238 255
225 238 255
225 238 255
225 238 255
225 238 255
225 238 255
225 238 255
225 238 255
225 238 255
225 238 255
225 238 255
225 238 255
225 238 255
225 238 255
225 238 255
225 238 255
225 238 255
225 238 255
225 238 255
225 238 255
225 238 255
225 238 255
225 238 255
225 238 255
225 238 255
225 238 255
225 238 255
225 238 255
225 238 255
225 238 255
225 238 255
225 238 255
225 238 255
220 233 249
210 223 237
189 202 212
144 160 153
148 163 159
183 194 202
145 157 157
142 157 150
100 122 91
81 106 63
80 106 63
82 107 63
106 127 100
137 152 145
171 184 187
173 186 190
185 197 205
173 185 189
177 189 194
184 196 202
163 176 178
104 125 100
125 143 127
162 175 174
169 182 186
173 187 193
169 181 184
173 186 190
168 181 184
176 188 194
170 182 185
168 181 185
179 191 198
182 194 200
151 165 162
130 148 133
92 116 78
82 108 64
84 110 66
86 112 67
79 104 62
130 146 135
175 187 192
174 186 192
183 194 200
179 190 194
185 196 201
178 190 197
181 192 198
167 180 181
173 185 189
161 177 175
124 141 127
96 117 87
81 107 62
79 105 61
79 104 61
82 108 64
84 110 65
83 108 64
85 111 65
81 106 62
84 110 66
100 121 91
168 181 185
171 184 189
177 188 193
178 190 193
175 187 194
190 201 211
171 183 184
181 192 198
172 183 184
181 194 202
162 175 173
149 164 160
131 149 133
125 144 128
128 146 127
116 136 115
130 146 132
142 159 150
143 158 152
144 159 152
143 159 150
155 169 163
162 175 175
116 136 112
116 135 113
115 135 111
112 133 106
106 128 94
100 124 89
92 114 81
85 109 70
87 113 67
81 106 62
83 109 65
87 114 69
78 104 61
88 114 68
87 113 67
84 110 65
86 112 67
87 114 68
101 123 96
120 139 122
142 159 151
155 169 167
176 189 193
138 155 145
83 109 64
83 109 64
87 113 67
84 110 66
85 112 66
81 106 62
82 108 64
82 108 64
83 109 64
89 116 69
87 113 68
87 113 67
84 110 65
86 113 68
81 106 62
90 118 71
85 111 66
85 112 67
90 117 70
87 113 67
84 111 67
85 111 67
89 116 69
172 185 186
183 196 205
188 199 207
178 191 198
174 187 190
178 190 196
183 196 204
180 191 198
178 190 196
190 201 208
179 192 195
181 193 198
178 190 196
189 200 209
183 196 203
189 200 207
185 197 206
184 196 201
179 191 196
187 199 209
181 192 197
180 190 196
169 182 183
144 159 154
134 151 138
148 163 155
163 177 175
158 171 166
175 188 192
190 201 210
175 187 192
180 192 197
179 190 198
185 197 204
175 188 193
178 189 193
178 189 193
180 193 201
175 188 192
181 193 200
180 192 199
187 198 203
192 203 211
180 191 195
178 190 195
185 195 202
171 184 189
130 148 132
90 117 70
87 113 68
88 115 70
85 110 65
83 108 64
88 115 68
83 109 65
85 111 66
84 109 64
90 116 70
86 112 66
82 107 63
84 110 65
86 112 67
83 109 64
87 113 68
81 106 62
89 115 68
85 111 66
88 114 67
85 111 66
88 114 71
165 178 178
167 182 186
181 192 196
182 194 198
178 190 194
179 191 198
177 189 195
176 187 191
187 198 205
183 195 204
184 196 202
184 196 203
191 202 209
183 195 203
180 191 195
194 204 214
176 188 196
179 191 195
179 191 197
180 193 200
175 187 191
180 193 201
121 139 121
82 108 63
87 114 69
87 113 67
85 111 66
80 106 62
89 116 70
85 112 66
83 108 63
89 116 69
86 112 66
86 112 67
84 110 65
84 110 66
79 103 60
87 114 68
85 110 65
83 109 64
84 109 64
80 106 62
83 108 64
156 170 166
190 201 208
180 190 195
180 192 198
180 192 199
181 193 198
174 186 190
187 199 205
180 192 197
184 196 201
184 196 201
182 194 201
175 188 192
177 189 193
180 193 198
170 182 186
174 186 189
178 190 198
171 183 186
178 190 195
147 162 153
107 129 97
112 132 106
107 128 100
113 133 108
125 142 126
115 134 116
134 150 137
129 146 132
144 161 153
139 155 147
143 159 149
154 169 163
152 167 164
155 169 168
147 162 158
170 183 181
167 181 183
168 180 182
106 126 104
88 112 72
89 114 74
83 109 64
86 111 66
87 111 71
97 119 87
120 137 120
129 148 130
141 157 145
151 166 160
167 181 184
171 184 187
176 188 192
172 184 189
172 185 189
175 187 192
134 150 137
84 110 65
84 110 66
84 110 66
82 107 63
81 107 63
86 112 66
87 113 68
77 103 60
86 113 67
86 112 66
81 107 62
82 109 65
84 111 67
81 107 63
109 130 103
172 185 189
176 189 195
181 191 197
185 197 204
180 192 197
182 193 197
184 195 200
171 184 185
172 184 187
145 161 155
123 141 123
101 123 94
86 111 71
141 156 146
181 192 197
173 185 190
175 187 192
171 184 188
186 198 205
185 196 202
176 189 194
167 180 183
181 193 198
178 190 194
177 188 193
157 172 167
161 174 173
165 178 179
178 190 197
172 186 193
185 195 202
166 177 181
169 182 187
161 176 176
146 161 156
161 175 176
162 175 177
161 175 179
181 194 200
209 222 236
223 236 253
225 238 255
225 238 255
225 238 255
225 238 255
225 238 255
225 238 255
225 238 255
225 238 255
225 238 255
225 238 255
225 238 255
225 238 255
225 238 255
225 238 255
225 238 255
225 238 255
225 238 255
225 238 255
225 238 255
225 238 255
225 238 255
225 238 255
225 238 255
225 238 255
225 238 255
225 238 255
225 238 255
225 238 255
225 238 255
225 238 255
225 238 255
225 238 255
225 238 255
225 238 255
225 238 255
225 238 255
225 238 255
225 238 255
225 238 255
225 238 255
225 238 255
225 238 255
225 238 255
216 229 245
187 201 209
138 153 149
137 152 145
156 170 170
170 182 187
164 178 183
134 150 139
109 128 104
76 101 59
80 105 62
77 102 60
93 114 83
139 155 144
143 158 152
174 187 192
177 189 194
175 187 190
86 111 68
80 105 61
85 111 66
99 120 91
123 143 127
150 164 158
170 182 186
176 189 194
181 192 198
180 193 201
189 200 210
171 184 189
175 188 193
189 201 209
179 191 196
184 197 207
151 166 164
142 158 151
112 133 106
90 116 71
137 154 140
180 192 200
175 188 194
188 199 206
179 191 197
180 191 196
174 187 194
175 188 193
181 193 202
183 194 199
180 192 198
185 196 202
188 199 207
168 181 181
149 162 159
112 132 111
96 118 85
79 105 61
89 115 68
82 108 64
85 111 65
81 106 62
125 141 129
177 189 195
176 187 190
173 187 192
174 186 188
176 189 191
173 186 192
180 191 199
182 194 199
181 192 198
182 193 199
173 185 190
187 198 205
187 198 205
171 183 184
157 171 169
129 146 137
112 131 111
89 114 74
79 105 61
84 110 64
81 106 63
85 111 65
130 147 132
178 190 197
175 188 193
175 186 191
177 189 195
184 195 201
173 186 193
182 194 202
179 191 195
182 194 201
176 188 193
169 182 186
181 193 197
169 182 185
169 182 183
173 185 186
160 175 175
161 175 173
155 169 167
147 162 155
145 160 155
151 166 158
157 171 168
147 161 156
129 146 129
109 130 103
103 123 96
100 123 87
114 135 111
123 141 124
128 146 129
129 147 132
130 146 130
124 143 122
111 131 106
112 133 107
116 135 116
106 128 102
109 130 106
104 127 94
98 121 87
97 121 84
103 126 94
94 120 77
92 117 78
91 115 76
88 115 69
104 125 98
179 191 198
186 197 206
177 189 193
178 190 195
180 192 199
185 197 205
176 188 194
183 195 202
173 186 192
183 194 202
173 186 191
183 195 201
190 201 210
183 195 201
188 200 207
180 192 199
177 189 192
180 191 196
190 201 209
173 187 191
182 194 201
190 200 206
180 192 197
133 149 137
86 112 66
88 114 69
90 117 69
82 108 64
85 111 65
90 116 74
109 131 101
121 140 119
126 143 127
148 164 158
139 155 144
152 167 161
178 190 190
170 184 186
179 191 195
178 190 196
182 194 199
186 197 202
185 197 203
173 185 188
180 192 198
186 197 205
153 166 162
83 108 64
92 119 71
84 110 65
84 110 65
88 114 67
84 111 65
85 111 66
84 110 65
89 116 69
87 114 68
87 113 68
85 112 67
85 111 65
84 110 65
84 110 65
86 113 67
84 110 65
86 112 67
88 115 68
92 119 71
90 117 70
85 111 67
137 154 147
178 191 195
186 196 203
183 194 201
180 191 196
181 192 199
179 191 197
180 192 198
174 188 193
176 187 191
186 197 203
182 194 202
182 194 201
172 184 188
166 180 184
179 191 197
186 197 205
173 186 190
182 193 199
181 192 199
182 194 201
170 184 188
134 151 139
85 111 66
85 112 67
87 111 72
91 116 77
106 129 98
95 118 83
102 124 93
105 127 97
100 122 94
109 130 106
121 139 116
101 126 92
109 130 104
127 145 132
123 142 125
125 144 131
125 142 124
129 148 132
137 154 145
143 158 146
114 135 111
140 157 148
142 159 149
141 157 145
133 150 138
132 148 136
130 146 132
131 149 133
123 141 126
124 141 125
118 138 114
123 142 119
120 137 118
107 128 104
106 126 101
98 121 89
99 124 84
91 116 77
88 114 71
89 115 68
140 156 145
180 192 197
178 190 195
173 185 190
175 187 190
190 201 207
178 190 197
171 184 187
181 193 201
178 191 198
180 192 195
166 179 183
176 188 193
174 186 188
187 198 205
165 179 182
175 187 190
163 177 178
164 177 174
152 167 164
138 155 141
148 164 162
147 163 155
159 173 172
172 185 187
181 193 199
189 199 207
162 174 176
185 196 202
181 194 199
177 189 194
176 188 195
179 191 197
183 195 202
180 192 199
172 184 189
108 128 106
87 114 68
79 104 61
84 110 65
83 109 65
83 108 64
88 114 68
79 105 62
83 109 65
85 111 67
82 108 64
84 110 66
79 104 62
86 112 67
87 113 67
127 144 131
184 195 201
173 186 189
180 193 199
171 184 190
151 165 159
143 158 149
130 147 131
109 129 103
86 112 66
81 106 62
82 108 64
83 108 64
106 125 103
161 175 172
175 188 194
175 187 193
173 186 192
171 183 185
170 183 186
177 189 194
180 191 197
154 169 167
146 162 157
136 153 142
155 168 168
181 191 197
157 171 173
177 189 198
175 188 194
178 191 196
159 173 176
140 156 148
165 178 177
171 183 187
169 183 187
161 174 176
174 187 190
202 215 226
225 237 255
225 238 255
225 238 255
225 238 255
225 238 255
225 238 255
225 238 255
225 238 255
225 238 255
225 238 255
225 238 255
225 238 255
225 238 255
225 238 255
225 238 255
225 238 255
225 238 255
225 238 255
225 238 255
225 238 255
225 238 255
225 238 255
225 238 255
225 238 255
225 238 255
225 238 255
225 238 255
225 238 255
225 238 255
225 238 255
225 238 255
225 238 255
225 238 255
225 238 255
225 238 255
225 238 255
225 238 255
225 238 255
225 238 255
225 238 255
225 238 255
225 238 255
225 238 255
225 238 255
225 238 255
225 238 255
225 238 255
225 238 255
225 238 255
225 238 255
223 236 253
183 196 204
149 165 161
135 151 145
150 164 161
160 174 175
168 180 185
136 153 145
111 131 108
82 108 64
78 104 62
83 109 64
88 112 76
127 145 128
152 167 163
105 126 100
81 107 64
80 105 61
76 101 58
82 107 63
87 114 68
85 108 73
115 135 113
139 155 147
171 184 185
179 190 194
175 187 194
177 190 194
175 187 193
178 190 197
178 189 194
169 181 183
170 183 187
178 191 200
164 178 179
132 149 139
151 166 159
166 179 179
176 188 191
171 184 188
175 187 192
172 184 188
183 194 198
168 181 185
175 187 189
174 185 190
173 185 189
187 199 208
181 193 198
174 186 194
177 189 193
181 192 197
151 167 165
154 168 167
120 138 123
88 113 73
84 110 65
121 140 124
179 192 198
164 177 178
177 189 193
175 188 192
179 191 198
177 190 195
182 193 198
173 187 192
177 188 192
169 182 185
182 195 202
180 192 196
170 182 187
179 191 196
172 185 188
177 189 196
175 186 192
184 197 205
167 181 183
140 156 148
137 155 141
108 129 103
159 174 171
178 190 197
180 192 197
187 199 207
183 195 201
186 197 204
180 192 198
172 186 191
175 187 194
181 193 201
176 188 195
176 187 194
180 191 197
174 186 191
180 193 200
166 179 183
180 191 196
180 192 197
173 185 188
180 193 200
176 189 194
174 187 192
181 192 197
159 172 171
86 113 67
85 112 67
85 111 65
86 113 68
82 108 63
91 115 78
106 128 98
131 149 133
148 164 155
150 165 162
165 178 180
172 185 189
183 195 198
187 198 205
185 197 204
180 192 196
181 194 201
174 186 191
189 200 209
187 198 205
182 194 199
172 185 191
179 191 194
127 147 129
92 116 77
98 121 87
98 122 85
93 119 76
88 110 75
101 124 93
104 125 99
106 127 96
107 128 102
108 129 102
111 132 108
106 125 101
108 129 103
114 135 113
116 136 114
112 132 108
124 143 123
115 134 115
120 139 121
116 133 119
127 146 127
136 153 140
126 144 134
157 172 166
151 165 162
162 175 174
158 172 171
160 174 172
144 160 154
152 167 162
153 167 163
154 168 165
151 166 161
158 172 171
149 164 157
145 162 155
150 167 162
147 163 157
153 167 161
157 171 166
158 172 170
165 179 183
157 171 170
175 188 192
180 192 197
161 175 176
120 139 119
114 135 109
132 149 136
138 155 143
149 164 157
159 174 171
155 169 166
148 164 159
143 159 149
142 157 148
144 160 153
155 169 165
141 157 147
150 166 160
151 167 163
154 168 164
156 170 166
143 159 150
149 163 158
150 166 160
154 169 166
147 163 156
128 146 130
121 140 122
118 138 114
122 139 121
123 141 124
114 134 114
128 145 126
120 139 121
114 131 112
110 131 104
99 122 91
111 133 106
99 121 91
122 142 123
106 127 100
102 125 93
107 129 100
110 130 105
107 129 99
93 117 84
98 121 87
89 112 77
131 148 132
186 197 204
174 186 191
183 195 202
183 194 200
168 181 184
181 192 198
174 186 191
180 192 197
190 200 207
184 196 205
178 190 195
178 189 196
185 197 202
170 182 184
177 189 193
178 191 196
175 188 194
178 189 194
182 193 199
181 193 202
136 154 146
83 109 65
89 116 69
83 109 64
82 108 63
84 110 64
86 113 67
84 111 66
81 106 63
85 110 65
83 108 64
84 110 65
89 115 69
85 111 66
79 103 60
82 107 64
79 104 60
81 107 63
86 112 66
88 114 68
155 169 165
178 190 196
179 191 196
177 189 197
180 192 198
167 181 185
171 184 187
166 180 181
155 169 165
154 169 163
144 160 154
138 154 145
130 148 133
113 132 112
103 125 97
107 129 100
79 105 61
85 111 66
104 123 98
180 192 198
176 188 192
176 188 190
181 192 196
177 189 194
170 182 186
176 188 194
182 194 200
170 182 185
172 185 189
175 188 194
187 198 203
171 183 189
180 193 200
176 188 195
186 198 208
164 178 180
99 122 90
83 109 64
80 105 62
87 113 67
87 114 69
82 108 64
80 105 62
84 111 65
82 108 64
84 110 65
86 112 67
81 106 62
84 110 65
84 109 64
101 123 92
158 170 170
141 158 150
141 157 144
132 148 137
105 126 97
85 111 66
81 106 63
87 113 67
85 111 66
84 110 66
84 111 66
83 108 64
90 114 75
144 160 152
179 190 195
176 188 195
170 183 187
167 180 185
172 184 187
149 164 159
134 150 142
114 133 115
93 115 81
88 112 76
142 157 151
176 189 196
178 191 198
174 187 191
169 180 183
143 158 155
123 141 129
128 145 133
124 140 129
153 167 168
151 165 161
147 163 160
182 195 202
219 232 248
225 238 255
225 238 255
225 238 255
225 238 255
225 238 255
225 238 255
225 238 255
225 238 255
225 238 255
225 238 255
225 238 255
225 238 255
225 238 255
225 238 255
225 238 255
225 238 255
225 238 255
225 238 255
225 238 255
225 238 255
225 238 255
225 238 255
225 238 255
225 238 255
225 238 255
225 238 255
225 238 255
225 238 255
225 238 255
225 238 255
225 238 255
225 238 255
225 238 255
225 238 255
225 238 255
225 238 255
225 238 255
225 238 255
225 238 255
225 238 255
225 238 255
225 238 255
225 238 255
225 238 255
225 238 255
225 238 255
225 238 255
225 238 255
225 238 255
225 238 255
225 238 255
225 238 255
225 238 255
225 238 255
225 238 255
218 230 247
186 201 208
149 165 161
125 142 132
146 160 159
169 182 186
154 168 170
140 155 147
111 129 110
85 109 70
80 106 63
73 98 57
148 162 157
151 164 162
125 142 128
89 112 77
78 103 60
78 103 60
81 107 64
80 105 63
80 106 62
77 103 61
112 132 111
121 139 126
157 171 170
170 182 184
178 191 198
169 182 186
165 176 178
170 182 187
179 191 197
171 183 188
148 162 155
78 103 60
83 109 65
97 120 89
138 154 143
156 170 166
171 184 186
176 188 193
182 194 200
172 183 187
175 187 193
183 195 202
177 189 193
174 186 191
182 193 200
177 189 196
175 188 194
184 194 200
184 196 202
177 189 193
173 185 187
155 169 168
130 146 134
167 180 182
164 176 177
177 190 196
181 193 198
164 176 179
180 192 197
171 183 187
175 186 190
179 191 196
163 176 176
182 193 198
178 191 196
184 196 204
179 191 197
185 196 201
184 194 200
177 189 195
182 195 202
179 192 198
180 192 200
174 187 193
178 190 195
113 132 111
107 128 104
140 156 148
157 171 168
169 182 185
182 195 200
189 201 208
180 191 196
177 189 194
172 184 190
185 197 204
179 190 194
172 184 187
175 188 191
175 186 191
173 185 188
175 187 193
164 177 182
175 188 192
172 184 188
177 189 194
178 191 196
177 189 193
135 152 137
88 115 68
84 110 66
87 114 68
84 110 65
87 114 69
86 112 67
82 106 62
85 111 66
83 110 65
81 106 62
84 110 65
86 110 71
117 137 112
124 143 128
144 159 152
158 172 171
166 178 180
175 187 193
182 194 200
178 190 195
184 196 205
183 194 200
179 190 194
78 103 63
88 115 69
90 117 70
86 112 67
79 104 61
86 113 68
85 111 66
81 107 63
80 106 61
79 105 61
78 104 61
83 109 64
81 107 63
82 107 63
88 115 69
87 114 68
85 110 65
83 109 64
81 106 62
82 108 63
81 107 63
82 107 63
88 114 68
161 175 174
183 193 199
183 194 202
184 195 201
172 185 188
177 188 194
182 193 198
182 194 200
193 205 214
175 187 192
171 183 188
188 200 209
182 194 200
178 191 197
180 192 199
182 193 199
183 196 205
180 193 197
184 194 201
179 190 196
186 198 207
174 186 192
185 197 202
134 151 135
85 111 67
80 105 61
88 115 69
81 106 62
91 118 71
84 111 65
87 112 73
112 132 108
114 134 112
126 143 129
126 143 130
122 140 125
123 140 125
139 155 146
150 165 160
150 165 160
166 179 178
176 188 192
168 181 182
163 176 174
180 193 198
177 189 194
92 116 81
81 107 63
80 106 62
86 113 67
85 110 65
85 112 67
85 112 66
80 106 62
84 110 66
85 110 65
87 114 68
85 111 66
82 108 64
87 113 67
84 110 66
85 111 66
84 110 65
78 103 60
81 106 63
81 107 64
83 108 64
108 130 105
175 187 192
177 189 192
168 180 183
167 180 183
179 192 199
179 192 200
172 184 189
183 194 202
187 198 205
175 187 194
185 196 203
181 192 198
178 190 195
182 194 201
179 192 198
184 195 203
179 191 196
182 195 201
175 187 192
178 192 198
153 168 166
84 110 65
85 112 68
83 108 63
85 112 67
85 110 66
79 104 61
84 110 65
85 111 66
86 111 68
87 113 67
104 126 92
96 118 89
111 132 104
123 143 122
124 142 123
119 140 118
123 140 124
134 150 139
144 160 153
108 131 105
121 140 123
107 129 101
109 131 103
99 121 89
93 118 75
80 106 62
84 111 66
86 112 67
83 109 64
82 107 63
85 111 66
85 111 66
89 116 69
86 112 67
81 106 62
88 114 68
87 114 67
128 146 132
166 179 181
179 191 197
183 194 200
179 191 195
183 195 202
179 190 198
182 193 199
168 179 184
176 189 194
173 186 191
163 176 178
182 193 200
181 192 198
181 193 200
172 185 190
173 185 190
150 163 161
79 104 61
84 109 65
86 112 66
88 114 68
85 110 66
79 104 61
80 105 62
82 108 64
87 113 68
81 106 63
109 131 103
112 131 111
113 132 112
139 156 149
131 149 133
93 117 77
82 107 63
83 109 66
82 108 64
84 109 65
83 109 64
83 109 64
79 104 62
80 106 63
80 105 62
77 103 61
81 106 62
119 137 118
177 189 191
177 189 193
171 184 187
159 173 173
132 149 138
119 136 121
85 111 72
78 104 61
77 102 60
87 111 77
134 150 138
175 186 192
178 190 197
150 165 160
130 145 134
99 120 90
81 107 63
122 141 123
135 150 142
142 158 152
148 164 157
187 201 209
216 229 244
225 238 255
225 238 255
225 238 255
225 238 255
225 238 255
225 238 255
225 238 255
225 238 255
225 238 255
225 238 255
225 238 255
225 238 255
225 238 255
225 238 255
225 238 255
225 238 255
225 238 255
225 238 255
225 238 255
225 238 255
225 238 255
225 238 255
225 238 255
225 238 255
225 238 255
225 238 255
225 238 255
225 238 255
225 238 255
225 238 255
225 238 255
225 238 255
225 238 255
225 238 255
225 238 255
225 238 255
225 238 255
225 238 255
225 238 255
225 238 255
225 238 255
225 238 255
225 238 255
225 238 255
225 238 255
225 238 255
225 238 255
225 238 255
225 238 255
225 238 255
225 238 255
225 238 255
225 238 255
225 238 255
225 238 255
225 238 255
225 238 255
225 238 255
225 238 255
225 238 255
225 238 255
223 236 253
200 214 225
152 168 163
138 153 148
147 162 159
159 173 176
175 188 192
137 153 149
112 130 112
141 156 149
171 183 184
175 187 194
168 181 185
155 169 166
134 149 142
109 131 103
79 104 61
79 104 61
84 110 66
83 108 64
77 102 60
82 108 64
98 121 84
113 134 114
141 156 150
164 176 178
178 190 196
176 188 191
177 189 193
138 154 147
81 107 64
82 107 62
76 101 60
80 105 62
83 108 64
75 100 58
100 121 93
123 142 126
149 164 162
172 185 190
173 186 190
175 187 190
174 187 190
170 182 186
178 190 196
172 185 189
178 190 194
181 193 199
172 184 187
178 189 196
179 191 196
106 126 101
86 112 67
73 98 57
112 132 106
123 139 127
152 167 164
174 187 191
180 192 199
169 182 185
184 196 204
164 177 181
182 194 200
185 197 204
183 195 200
180 192 202
180 192 197
175 187 193
189 199 209
185 196 203
181 192 197
176 188 194
171 184 189
171 184 185
86 112 66
81 107 63
86 112 67
83 109 65
84 110 66
111 131 105
127 145 129
136 153 143
159 173 174
169 182 185
172 184 187
180 192 198
175 187 191
180 192 198
173 185 190
187 197 203
178 189 194
176 188 196
188 199 205
184 196 203
186 197 204
169 182 184
176 189 196
86 112 72
84 110 65
83 109 64
82 108 64
87 112 67
86 112 67
83 109 64
88 115 70
81 107 63
80 106 62
79 104 60
87 112 67
80 105 63
82 108 64
83 109 64
83 108 64
81 107 63
88 114 68
80 105 61
98 121 88
127 145 127
128 146 134
148 163 156
134 151 139
96 120 86
82 109 65
82 108 64
86 112 67
83 108 64
81 106 62
86 111 67
84 109 64
81 106 62
86 111 65
85 111 66
75 101 59
83 109 65
81 106 63
82 108 64
87 113 67
85 111 65
85 111 66
82 108 64
82 108 64
86 113 67
86 112 66
119 138 118
181 192 196
174 185 189
181 192 197
177 190 194
182 193 200
176 189 195
183 194 201
171 184 188
175 187 193
184 196 203
171 184 188
188 199 207
178 191 196
179 192 198
175 187 192
180 192 197
169 182 186
180 192 200
185 197 203
174 187 192
178 190 196
176 189 195
152 167 164
83 110 65
86 113 67
86 112 66
83 108 64
85 111 66
81 106 63
85 111 66
87 114 68
86 112 67
86 112 66
87 113 67
86 112 67
82 108 64
82 108 64
90 117 70
86 112 67
89 115 69
83 108 64
82 107 63
85 111 66
83 109 64
86 111 69
153 167 166
183 194 201
179 191 196
177 190 195
176 188 192
166 179 179
163 176 176
166 178 180
147 163 157
157 171 171
157 170 170
157 173 167
144 160 152
158 173 172
153 168 162
140 155 148
152 169 161
139 155 146
138 155 147
138 154 144
140 156 143
117 135 117
135 151 142
137 152 142
145 160 151
139 155 145
136 151 142
148 163 157
154 170 164
146 161 156
149 165 159
146 161 153
142 158 150
134 151 142
136 152 140
125 142 129
132 149 135
141 157 146
143 159 150
135 151 141
116 135 114
125 142 128
155 168 163
148 163 157
167 181 182
153 167 165
150 165 163
165 178 182
154 169 165
168 181 184
182 195 200
189 199 206
176 189 196
176 188 194
176 188 193
185 197 204
173 184 190
180 193 199
181 194 200
166 178 182
187 198 205
172 185 188
136 152 142
84 110 65
81 107 64
83 109 64
86 112 66
85 111 66
86 113 67
87 113 68
78 104 62
82 107 63
87 113 67
80 105 62
82 108 64
84 110 66
84 110 65
81 107 63
80 105 61
82 107 63
129 146 135
169 183 187
166 180 183
166 179 186
183 195 203
175 187 192
173 186 190
175 188 193
180 192 199
180 192 198
173 185 190
181 193 200
166 180 184
172 185 190
177 189 197
167 180 184
175 187 191
119 139 121
81 106 63
82 107 64
86 112 66
81 107 63
86 110 71
93 115 86
110 130 104
136 153 140
149 163 157
155 169 169
176 188 194
181 193 200
169 181 186
165 176 179
112 133 110
82 108 63
85 110 66
83 108 64
80 105 61
81 106 62
79 105 62
76 101 60
78 103 61
81 107 63
85 111 66
79 105 62
95 117 86
133 149 140
149 164 159
129 147 130
90 114 76
85 111 67
83 109 65
79 105 62
80 106 63
77 102 60
103 124 95
138 153 148
163 176 180
139 156 147
117 137 115
88 112 76
81 106 63
80 105 62
94 116 86
124 143 126
173 187 189
197 211 221
223 236 253
225 238 255
225 238 255
225 238 255
225 238 255
225 238 255
225 238 255
225 238 255
225 238 255
225 238 255
225 238 255
225 238 255
225 238 255
225 238 255
225 238 255
225 238 255
225 238 255
225 238 255
225 238 255
225 238 255
225 238 255
225 238 255
225 238 255
225 238 255
225 238 255
225 238 255
225 238 255
225 238 255
225 238 255
225 238 255
225 238 255
225 238 255
225 238 255
225 238 255
225 238 255
225 238 255
225 238 255
225 238 255
225 238 255
225 238 255
225 238 255
225 238 255
225 238 255
225 238 255
225 238 255
225 238 255
225 238 255
225 238 255
225 238 255
225 238 255
225 238 255
225 238 255
225 238 255
225 238 255
225 238 255
225 238 255
225 238 255
225 238 255
225 238 255
225 238 255
225 238 255
225 238 255
225 238 255
225 238 255
225 238 255
225 238 255
225 238 255
225 238 255
225 238 255
203 216 228
154 170 167
134 150 142
137 153 146
152 167 164
162 176 179
118 136 123
133 150 143
158 171 172
164 176 178
166 179 182
172 185 192
165 178 179
151 166 163
116 134 120
84 108 69
82 108 64
79 105 63
81 107 63
79 103 61
82 108 64
82 107 67
96 118 87
127 144 137
158 171 171
123 142 125
76 101 59
82 107 63
82 108 64
85 111 65
76 101 58
80 105 62
82 107 64
84 109 65
85 111 66
95 118 85
126 143 128
136 151 139
160 174 175
173 186 192
167 180 181
155 169 170
173 185 191
165 178 181
176 188 193
172 184 191
179 190 197
91 115 77
86 112 67
83 109 64
85 110 66
85 112 66
90 116 70
83 108 66
100 122 94
126 144 130
146 159 159
176 188 192
161 173 174
173 185 188
172 185 190
177 189 194
180 192 200
177 189 194
169 181 186
166 180 184
168 180 181
179 191 196
175 187 192
142 159 152
81 107 63
81 106 62
86 112 67
84 110 65
89 116 69
85 111 67
85 111 66
83 109 64
80 105 62
84 110 65
104 124 98
114 132 115
141 156 152
160 173 174
161 175 175
179 190 196
159 172 173
167 180 182
179 191 197
185 197 205
179 191 196
176 188 194
155 168 168
83 109 65
84 110 66
82 108 64
77 103 60
82 108 63
83 109 64
83 108 64
84 110 65
87 113 68
82 107 63
84 111 66
83 109 65
85 110 65
86 113 67
81 107 63
83 108 63
79 104 61
83 110 66
79 104 61
84 110 65
88 115 69
86 112 67
92 115 81
180 192 195
178 190 194
176 189 194
158 172 169
151 167 167
131 148 133
127 145 127
105 126 102
104 125 96
79 105 62
78 104 61
86 112 66
85 112 67
81 107 63
85 111 66
75 99 57
80 105 62
85 111 65
86 113 68
78 103 60
84 110 66
83 109 65
94 120 80
163 177 179
168 181 183
178 191 197
167 180 185
174 187 192
177 188 192
170 183 186
179 191 197
178 190 195
172 186 192
179 191 197
176 187 195
173 186 190
170 183 187
177 189 194
180 192 199
179 190 196
183 196 203
172 185 189
170 182 186
174 186 191
177 187 193
173 185 191
95 117 84
84 110 65
84 110 66
84 110 66
79 104 60
81 107 63
85 111 65
87 113 68
81 106 62
82 107 63
82 108 63
78 103 59
87 114 68
83 108 64
84 109 65
83 109 65
79 104 61
82 108 63
86 112 66
83 108 63
87 113 68
78 103 60
137 153 142
180 192 198
176 188 193
175 187 193
179 191 197
172 185 189
177 189 194
175 188 194
181 193 199
177 190 196
180 192 197
187 198 206
176 188 192
169 182 185
182 195 201
172 184 189
182 194 200
180 192 197
177 190 197
161 175 179
183 195 200
167 179 179
104 125 99
82 108 64
82 108 64
84 110 65
84 110 66
85 111 66
88 114 68
82 107 64
85 111 66
85 111 66
81 107 63
82 107 63
82 108 65
84 110 66
83 108 64
87 113 67
81 107 63
88 114 68
83 108 64
88 114 68
124 142 127
180 192 197
165 178 181
172 186 192
170 182 186
187 197 206
182 193 201
180 193 198
176 188 193
183 194 202
187 198 204
175 188 192
174 187 193
192 203 210
179 191 197
182 193 198
176 189 196
172 185 189
171 183 189
175 187 192
123 143 120
78 104 61
83 110 65
82 108 64
81 107 64
82 107 63
82 107 64
80 106 63
81 107 63
83 109 65
83 108 63
82 108 64
82 108 63
81 107 64
84 109 64
77 102 59
79 105 62
75 100 58
153 168 164
180 193 200
170 183 191
170 183 187
184 195 200
169 182 188
177 190 199
185 197 203
181 193 200
168 181 188
172 184 190
178 190 195
168 181 184
174 186 192
177 189 197
179 191 196
155 168 167
106 127 102
115 133 112
127 144 133
127 145 133
146 160 156
165 178 178
165 178 180
176 188 192
170 183 186
179 191 198
178 190 194
180 192 198
182 194 199
179 191 197
152 165 160
98 120 89
80 105 61
82 107 63
82 107 63
78 103 60
88 114 68
80 105 62
83 109 64
76 101 59
104 125 98
115 133 115
119 136 123
105 123 103
90 114 78
76 102 60
86 112 67
79 104 62
81 106 62
82 107 64
79 104 62
82 107 64
81 105 71
100 120 97
109 128 108
97 116 88
80 105 62
84 110 69
99 120 93
96 116 89
127 145 132
168 183 184
206 219 231
225 238 255
225 238 255
225 238 255
225 238 255
225 238 255
225 238 255
225 238 255
225 238 255
225 238 255
225 238 255
225 238 255
225 238 255
225 238 255
225 238 255
225 238 255
225 238 255
225 238 255
225 238 255
225 238 255
225 238 255
225 238 255
225 238 255
225 238 255
225 238 255
225 238 255
225 238 255
225 238 255
225 238 255
225 238 255
225 238 255
225 238 255
225 238 255
225 238 255
225 238 255
225 238 255
225 238 255
225 238 255
225 238 255
225 238 255
225 238 255
225 238 255
225 238 255
225 238 255
225 238 255
225 238 255
225 238 255
225 238 255
225 238 255
225 238 255
225 238 255
225 238 255
225 238 255
225 238 255
225 238 255
225 238 255
225 238 255
225 238 255
225 238 255
225 238 255
225 238 255
225 238 255
225 238 255
225 238 255
225 238 255
225 238 255
225 238 255
225 238 255
225 238 255
225 238 255
225 238 255
225 238 255
225 238 255
225 238 255
225 238 255
225 238 255
212 225 239
176 190 193
151 167 166
96 116 94
99 120 92
82 107 63
98 117 93
134 149 142
164 177 178
162 175 177
162 174 176
169 181 185
169 180 184
158 172 174
133 148 140
109 128 108
79 104 61
80 106 62
85 111 66
80 105 62
81 107 63
77 102 60
134 150 140
142 157 153
127 145 131
116 136 115
79 105 62
79 104 61
80 105 61
80 106 63
78 102 60
77 102 60
79 104 61
75 100 58
82 107 64
80 104 62
89 113 75
111 130 111
134 149 140
155 168 170
170 183 188
178 189 193
167 179 182
168 181 183
81 107 63
80 105 62
81 107 63
80 105 62
83 109 65
83 109 65
77 102 60
80 105 61
76 101 60
84 109 65
82 109 64
93 115 83
113 133 109
128 147 133
164 178 178
168 181 184
166 178 181
181 193 200
174 186 189
168 180 184
168 180 183
170 182 187
123 141 122
82 108 64
80 105 62
82 108 64
83 107 63
80 105 61
83 109 64
86 112 67
83 109 64
87 113 67
86 112 67
81 106 62
83 109 64
80 106 61
81 107 63
84 110 65
96 118 86
106 127 99
131 147 135
148 164 160
172 185 188
182 194 201
175 187 191
115 134 113
79 103 61
83 109 64
85 111 66
81 107 63
82 108 64
82 107 64
83 109 64
85 111 66
82 107 63
86 112 66
82 107 63
78 104 61
83 109 64
85 112 66
79 104 61
82 108 64
82 107 63
84 110 65
87 113 67
89 115 69
83 109 65
83 109 64
136 153 144
176 188 193
173 186 193
181 193 198
178 191 197
171 182 187
181 192 197
169 182 189
182 193 198
172 184 189
160 174 176
152 166 164
148 163 159
142 158 150
131 148 134
120 140 119
101 121 97
95 118 83
79 104 62
78 103 60
84 110 65
83 109 65
81 107 62
135 150 140
187 198 205
184 196 201
168 181 183
171 184 188
170 182 186
175 188 194
181 193 199
169 181 187
178 191 197
169 181 185
177 189 197
180 192 198
174 187 191
178 189 193
182 195 202
177 190 195
186 196 203
182 193 196
180 192 202
174 186 190
188 199 207
181 193 202
127 145 131
79 103 60
81 107 63
78 103 61
82 108 63
82 107 63
83 109 64
83 109 64
83 109 64
85 112 66
79 104 61
84 110 65
82 107 63
80 106 62
79 104 60
85 111 66
84 111 66
82 107 63
82 108 64
83 109 64
88 115 69
83 109 64
131 148 137
177 189 194
177 189 195
181 193 200
176 188 192
171 185 189
181 192 198
187 198 206
180 192 199
185 196 203
178 191 196
180 192 197
185 196 203
167 180 183
167 180 182
170 184 189
174 186 190
180 191 197
169 183 187
169 181 185
172 184 188
172 185 187
112 131 113
87 113 67
87 113 67
80 106 61
88 114 68
85 111 65
83 108 64
78 103 60
79 104 61
82 108 64
87 113 68
83 108 64
87 113 67
85 111 67
81 107 63
82 108 64
82 108 63
81 107 64
86 113 67
82 108 63
128 145 133
177 189 192
166 178 181
169 181 185
181 193 198
183 195 203
179 190 197
165 178 180
173 186 190
177 189 194
166 180 183
181 193 200
174 186 190
182 194 202
173 185 191
183 195 203
176 188 194
175 187 193
174 186 192
178 190 198
107 126 103
82 108 64
85 111 66
82 107 63
84 109 65
79 104 60
78 103 61
82 108 64
79 104 61
82 108 64
81 106 62
85 111 66
80 105 62
82 108 63
82 108 64
80 106 62
85 111 66
91 114 78
162 175 175
171 184 190
164 177 183
173 185 188
178 190 199
173 185 191
176 187 192
183 195 201
182 194 201
169 181 184
172 185 189
172 184 187
137 152 146
154 168 167
132 150 139
121 139 123
139 155 146
179 191 197
177 189 195
159 173 177
168 181 184
165 178 180
180 192 200
180 192 200
170 183 188
168 181 186
173 186 192
162 175 176
166 178 182
182 193 199
156 170 170
113 132 113
75 100 57
83 109 65
82 108 65
82 108 65
84 108 69
89 113 81
113 131 113
131 147 138
149 164 158
159 172 171
164 177 180
137 153 143
88 113 73
82 108 65
87 114 68
86 112 66
78 103 61
84 110 66
96 117 88
131 147 135
143 158 153
127 145 129
88 112 74
74 99 58
91 115 79
114 130 113
118 136 124
175 188 196
189 203 212
214 227 241
225 238 255
225 238 255
225 238 255
225 238 255
225 238 255
225 238 255
225 238 255
225 238 255
225 238 255
225 238 255
225 238 255
225 238 255
225 238 255
225 238 255
225 238 255
225 238 255
225 238 255
225 238 255
225 238 255
225 238 255
225 238 255
225 238 255
225 238 255
225 238 255
225 238 255
225 238 255
225 238 255
225 238 255
225 238 255
225 238 255
225 238 255
225 238 255
225 238 255
225 238 255
225 238 255
225 238 255
225 238 255
225 238 255
225 238 255
225 238 255
225 238 255
225 238 255
225 238 255
225 238 255
225 238 255
225 238 255
225 238 255
225 238 255
225 238 255
225 238 255
225 238 255
225 238 255
225 238 255
225 238 255
225 238 255
225 238 255
225 238 255
225 238 255
225 238 255
225 238 255
225 238 255
226 238 255
225 238 255
225 238 255
226 238 255
226 238 255
226 238 255
226 238 255
226 238 255
226 238 255
226 238 255
226 238 255
226 238 255
226 238 255
226 238 255
226 238 255
226 238 255
226 238 255
226 238 255
226 238 255
226 238 255
219 231 248
182 195 202
149 164 161
100 121 95
77 101 65
102 123 98
93 115 83
108 125 110
138 154 149
161 174 177
174 187 194
171 184 188
161 175 178
144 158 154
132 148 140
116 135 117
82 105 67
78 103 60
82 107 63
131 148 136
172 184 191
159 173 175
180 192 199
161 174 174
152 166 162
129 146 133
97 118 89
85 111 66
85 111 65
80 105 62
76 100 59
81 106 62
78 102 60
85 110 66
77 101 59
83 109 64
77 102 60
96 117 88
110 129 112
138 153 146
145 160 153
82 106 68
84 110 65
80 106 63
82 108 64
82 108 64
82 109 65
79 105 62
79 104 61
82 107 63
82 107 63
81 106 62
78 104 61
80 106 62
81 107 63
74 98 56
87 112 70
98 122 88
133 150 137
149 164 162
153 167 166
176 189 194
173 186 192
78 103 60
82 108 64
86 113 67
83 109 65
79 104 60
81 106 63
76 102 59
84 110 65
79 103 60
80 105 63
81 107 64
82 108 64
80 105 62
81 107 63
80 105 63
84 110 65
82 107 63
81 106 62
83 109 65
78 104 61
82 108 64
91 115 76
119 137 120
142 158 153
125 142 133
115 134 112
89 115 68
81 106 62
82 108 63
84 110 65
80 105 62
77 101 60
80 106 63
87 112 66
81 106 63
83 109 65
78 103 60
81 107 63
87 113 67
85 111 67
80 105 61
82 108 64
83 108 64
79 105 62
78 103 61
90 112 82
175 187 192
172 185 189
179 191 196
171 184 190
167 181 184
181 193 201
175 187 191
180 193 200
176 188 191
174 187 191
169 182 184
175 187 193
171 184 186
174 186 191
160 173 175
176 188 194
177 189 195
188 200 208
171 183 184
171 184 189
149 162 158
133 150 138
116 134 117
132 148 139
151 167 164
170 182 184
175 187 193
170 182 188
175 188 193
183 195 204
182 194 200
177 188 192
180 191 197
180 192 199
178 189 195
178 190 196
177 188 192
179 190 198
179 191 196
167 180 183
183 195 200
181 192 200
178 191 197
172 185 191
169 182 187
156 170 166
83 108 64
90 117 70
84 110 66
86 112 67
79 104 61
87 113 67
85 111 66
83 109 64
78 103 61
86 112 67
83 109 64
76 101 59
80 106 62
77 102 60
85 111 66
80 105 62
85 111 66
84 110 65
82 107 63
83 108 64
80 106 62
96 119 86
175 187 191
172 185 189
169 181 186
185 197 204
188 199 206
171 183 186
176 188 195
178 190 195
179 190 196
176 188 193
175 188 192
183 195 201
171 183 189
179 192 198
171 184 188
167 181 184
169 182 185
162 176 181
164 178 181
167 180 181
174 186 190
130 149 133
84 110 66
81 106 63
81 107 63
82 107 63
81 107 64
83 108 64
86 112 67
85 111 65
84 109 65
84 109 65
83 109 64
82 108 64
82 107 64
83 109 64
84 111 66
80 106 63
86 112 67
83 109 64
84 110 66
117 137 118
177 189 195
179 192 199
178 190 197
178 191 198
172 185 190
174 187 193
173 185 191
175 187 193
163 177 180
173 186 190
171 184 188
169 181 186
175 187 194
173 185 189
182 194 200
172 184 188
171 183 190
175 187 193
163 176 178
105 126 102
83 108 64
81 107 64
84 110 65
76 101 59
86 112 67
82 108 64
86 112 67
83 109 65
79 104 61
84 110 66
81 106 63
81 106 63
83 109 65
85 111 66
82 108 65
82 108 64
114 133 113
158 171 172
177 188 193
172 185 189
162 175 178
161 174 173
144 159 157
144 158 153
144 158 152
120 137 121
108 128 104
98 120 89
82 107 64
79 104 61
79 104 62
83 108 64
97 117 91
153 167 164
182 194 200
175 187 191
164 177 181
169 182 187
173 186 191
177 188 193
173 186 191
168 181 184
187 198 207
170 182 187
166 180 185
172 183 189
178 191 199
136 153 145
90 112 80
75 99 58
104 123 102
110 129 106
133 150 140
154 169 166
159 171 174
164 178 182
167 180 184
172 185 189
173 185 191
142 157 154
98 119 90
80 104 61
79 105 62
84 109 68
109 127 108
133 149 139
143 158 155
163 176 176
163 176 178
116 134 117
87 111 73
101 122 98
101 121 96
123 140 124
173 188 192
193 206 218
220 233 249
226 238 255
226 238 255
226 238 255
226 238 255
226 238 255
226 238 255
226 238 255
226 238 255
226 238 255
226 238 255
226 238 255
226 238 255
226 238 255
226 238 255
226 238 255
226 238 255
226 238 255
226 238 255
226 238 255
225 238 255
225 238 255
225 238 255
225 238 255
225 238 255
225 238 255
225 238 255
225 238 255
225 238 255
225 238 255
225 238 255
225 238 255
225 238 255
225 238 255
225 238 255
225 238 255
225 238 255
225 238 255
225 238 255
225 238 255
225 238 255
225 238 255
225 238 255
226 238 255
226 238 255
226 238 255
226 238 255
226 238 255
226 238 255
226 238 255
226 238 255
226 238 255
226 238 255
226 238 255
226 238 255
226 238 255
226 238 255
226 238 255
226 238 255
226 238 255
226 238 255
226 238 255
226 238 255
226 238 255
226 238 255
226 238 255
226 238 255
226 238 255
226 238 255
226 238 255
226 238 255
226 238 255
226 238 255
226 238 255
226 238 255
226 238 255
226 238 255
226 238 255
226 238 255
226 238 255
226 238 255
226 238 255
226 238 255
226 238 255
226 238 255
226 238 255
226 238 255
226 238 255
225 238 255
211 224 238
166 180 183
132 149 139
125 142 129
120 136 124
116 133 121
116 134 121
144 157 151
146 160 154
164 177 178
162 175 176
159 173 177
171 183 187
153 168 164
129 145 136
141 157 150
156 170 172
156 170 171
166 179 182
160 173 176
165 177 179
170 183 186
171 183 190
153 167 167
142 157 151
122 139 123
90 112 81
83 109 64
80 106 62
82 107 64
83 109 65
81 106 62
85 111 67
81 107 63
82 108 63
80 106 62
129 146 135
169 180 184
154 167 166
142 158 150
108 127 105
87 110 73
79 105 62
76 101 58
83 109 64
81 107 63
79 104 61
85 110 66
79 104 62
78 104 62
82 108 63
82 108 63
82 107 64
78 103 60
76 100 58
79 104 61
84 110 66
80 103 66
129 146 135
126 144 129
110 129 107
97 117 87
80 106 62
81 107 64
81 106 63
85 111 65
83 109 65
84 110 65
80 106 62
80 105 62
80 105 62
81 106 63
77 102 60
81 106 63
83 109 66
81 107 64
84 110 66
78 103 60
83 108 64
83 109 64
83 108 64
147 162 157
169 181 186
163 177 179
168 181 185
173 184 189
155 168 170
147 162 158
147 162 156
120 138 124
104 127 98
92 117 80
80 106 63
87 113 68
84 110 66
82 107 63
84 109 64
83 108 64
79 105 62
85 111 66
79 104 61
80 105 62
81 107 63
83 108 63
145 160 151
177 189 195
162 175 179
186 198 205
173 185 190
176 188 193
170 184 189
175 187 191
189 201 208
168 182 185
180 192 199
173 185 189
164 177 179
182 193 201
175 187 192
169 181 185
170 182 188
169 182 184
170 183 185
172 184 188
190 201 211
180 191 195
168 181 186
116 135 119
81 107 64
75 100 58
78 103 60
80 106 63
90 115 76
103 124 99
104 126 99
115 133 111
134 150 137
147 163 156
158 171 173
162 175 174
171 184 189
161 174 175
177 190 195
175 188 195
166 180 186
172 184 191
177 189 193
173 186 189
172 184 190
167 180 182
89 113 77
80 105 62
81 107 63
82 108 64
84 110 66
84 110 66
83 109 65
82 108 64
79 104 62
81 107 63
77 102 60
83 109 65
85 111 65
84 109 65
80 105 63
80 105 61
85 111 66
79 104 61
77 101 59
83 109 65
87 113 67
91 114 81
171 184 190
172 184 188
177 189 193
170 182 186
171 183 189
186 198 206
183 194 199
169 182 185
177 188 192
180 192 197
172 183 187
170 181 185
172 184 191
171 183 188
162 175 178
175 186 191
183 194 200
177 189 194
171 182 185
183 195 202
173 185 190
110 130 109
90 117 70
83 108 64
87 113 67
83 108 64
85 111 66
84 110 65
79 105 61
76 101 59
84 111 66
80 105 62
81 107 63
80 105 62
86 112 67
85 111 67
78 104 62
81 107 63
84 110 65
82 107 63
84 110 65
113 133 109
174 186 193
175 188 193
170 182 184
165 179 182
185 197 205
184 195 203
162 175 176
172 184 189
176 188 193
174 185 191
184 196 202
181 192 200
154 167 168
172 183 187
164 177 180
176 188 193
173 185 189
169 182 186
150 165 164
91 114 79
77 102 59
78 102 60
81 106 63
83 109 64
84 110 65
81 106 62
82 108 64
83 109 64
83 108 64
84 109 64
83 108 64
83 108 67
86 110 73
107 127 105
121 139 123
127 144 131
103 124 96
121 139 125
118 135 119
104 125 99
89 113 75
77 102 60
78 104 61
80 105 62
80 106 62
77 102 59
81 106 62
83 108 64
82 107 64
82 108 64
83 108 63
79 104 61
129 146 135
165 179 180
172 184 190
176 187 192
169 182 186
167 179 182
173 184 189
167 180 182
168 181 186
171 183 189
170 183 187
176 187 194
168 180 183
168 181 184
157 169 167
135 149 143
139 154 146
161 174 176
167 179 182
164 177 181
165 179 184
158 172 176
169 181 184
171 184 189
170 182 187
171 184 188
148 161 159
110 129 106
88 109 78
114 133 114
126 141 131
136 153 145
166 179 183
169 182 190
169 182 187
150 165 165
130 147 138
87 109 76
84 107 72
122 141 125
178 192 196
193 206 216
226 238 255
226 238 255
226 238 255
226 238 255
226 238 255
226 238 255
226 238 255
226 238 255
226 238 255
226 238 255
226 238 255
226 238 255
226 238 255
226 238 255
226 238 255
226 238 255
226 238 255
226 238 255
226 238 255
226 238 255
226 238 255
226 238 255
226 238 255
226 238 255
226 238 255
226 238 255
226 238 255
226 238 255
226 238 255
226 238 255
226 238 255
226 238 255
226 238 255
226 238 255
226 238 255
226 238 255
226 238 255
226 238 255
226 238 255
226 238 255
226 238 255
226 238 255
226 238 255
226 238 255
226 238 255
226 238 255
226 238 255
226 238 255
226 238 255
226 238 255
226 238 255
226 238 255
226 238 255
226 238 255
226 238 255
226 238 255
226 238 255
226 238 255
226 238 255
226 238 255
226 238 255
226 238 255
226 238 255
226 238 255
226 238 255
226 238 255
226 238 255
226 238 255
226 238 255
226 238 255
226 238 255
226 238 255
226 238 255
226 238 255
226 238 255
226 238 255
226 238 255
226 238 255
226 238 255
226 238 255
226 238 255
226 238 255
226 238 255
226 238 255
226 238 255
226 238 255
226 238 255
226 238 255
226 238 255
226 238 255
226 238 255
226 238 255
226 238 255
226 238 255
226 238 255
216 229 244
187 201 209
155 170 169
121 137 125
136 152 146
147 160 160
147 160 159
158 171 175
160 173 178
146 161 157
155 168 168
154 167 168
117 136 114
78 101 62
113 131 112
127 142 133
150 162 160
151 164 164
165 178 183
170 181 185
161 174 176
173 186 194
169 181 184
176 189 196
149 164 162
134 148 141
119 136 118
91 112 85
78 103 60
72 97 56
78 103 61
79 104 62
76 101 58
155 169 168
172 185 192
165 178 182
183 194 200
169 181 186
177 189 193
150 164 162
150 165 161
117 134 118
92 114 80
76 101 59
79 105 61
84 110 65
84 110 65
80 105 62
80 106 62
83 109 64
74 99 57
84 110 65
78 103 61
83 109 64
84 110 65
149 163 158
174 187 192
189 200 209
176 188 195
164 177 178
150 163 163
138 155 146
123 143 124
88 112 77
75 100 59
85 111 66
77 102 59
80 105 61
80 105 62
86 113 67
78 103 60
83 108 65
84 109 65
84 109 64
85 111 66
77 102 60
81 106 63
85 107 74
170 183 189
172 186 191
176 186 192
182 193 198
170 183 188
178 190 196
161 173 174
174 185 190
171 184 191
181 193 199
164 177 182
163 176 179
159 174 172
139 156 148
129 146 133
111 131 109
97 120 88
78 103 60
83 109 65
82 108 64
74 99 57
87 113 67
99 122 91
179 190 196
168 181 186
172 185 190
177 189 196
167 180 183
176 188 194
165 177 180
174 186 193
177 189 193
178 191 198
183 194 200
174 186 190
183 194 202
175 187 193
174 186 189
173 186 190
180 191 196
168 180 183
172 185 189
167 179 182
163 176 178
166 178 181
161 174 174
80 106 62
81 107 64
79 105 62
80 105 63
79 105 61
78 103 61
80 105 62
81 106 63
77 102 60
86 111 67
86 112 66
80 105 62
80 105 61
83 109 65
83 109 64
86 111 73
101 122 99
113 133 112
120 137 120
125 143 125
133 149 138
134 150 143
150 164 159
117 137 120
103 123 100
104 124 101
89 114 74
76 100 59
84 110 65
77 102 60
79 104 61
84 110 66
87 113 67
77 102 60
86 113 68
76 100 59
83 109 65
85 111 66
82 107 64
85 110 66
82 107 63
79 103 61
86 112 67
82 107 66
158 172 173
183 194 201
174 186 190
181 193 201
179 191 197
175 186 190
174 185 190
174 187 194
161 174 177
166 180 183
178 190 195
182 194 201
170 183 189
173 185 189
168 181 185
170 182 186
176 188 192
173 185 190
178 191 196
175 187 192
177 189 192
128 144 134
82 109 65
83 108 64
83 109 64
82 107 63
83 108 64
85 110 66
83 109 64
86 113 67
80 105 62
78 103 60
83 109 65
78 103 61
79 104 61
80 105 62
83 109 64
75 101 58
81 107 64
82 107 64
81 106 63
117 134 118
182 194 199
160 173 177
173 186 194
164 177 180
169 181 186
169 182 186
165 178 182
174 186 190
168 180 182
174 186 190
165 178 180
178 191 196
157 169 171
176 188 192
170 183 188
176 188 193
174 187 191
147 162 160
152 166 163
87 112 70
95 118 82
90 112 79
109 129 108
116 135 116
119 137 122
129 144 133
137 152 143
142 156 152
140 155 148
163 177 177
167 179 181
169 181 187
175 187 194
176 187 193
174 187 192
166 180 184
122 139 123
81 106 62
80 105 62
81 107 64
78 103 61
84 110 66
81 106 63
79 104 61
81 106 63
78 102 60
81 107 63
77 102 60
79 104 61
83 109 65
80 105 62
97 119 88
141 156 151
165 177 178
154 169 170
164 177 180
163 175 180
168 181 185
164 177 181
173 186 191
156 170 171
144 160 156
138 154 146
120 137 123
112 131 110
98 120 90
153 167 161
159 172 174
163 176 178
169 181 186
177 189 194
167 180 185
174 186 190
169 182 187
158 171 173
159 172 174
166 178 185
153 166 168
135 150 141
151 165 163
152 165 166
149 163 160
132 148 145
142 157 152
120 137 126
118 135 123
88 110 81
105 124 104
96 117 90
161 177 176
196 209 220
219 232 247
226 238 255
226 238 255
226 238 255
226 238 255
226 238 255
226 238 255
226 238 255
226 238 255
226 238 255
226 238 255
226 238 255
226 238 255
226 238 255
226 238 255
226 238 255
226 238 255
226 238 255
226 238 255
226 238 255
226 238 255
226 238 255
226 238 255
226 238 255
226 238 255
226 238 255
226 238 255
226 238 255
226 238 255
226 238 255
226 238 255
226 238 255
226 238 255
226 238 255
226 238 255
226 238 255
226 238 255
226 238 255
226 238 255
226 238 255
226 238 255
226 238 255
226 238 255
226 238 255
226 238 255
226 238 255
226 238 255
226 238 255
226 238 255
226 238 255
226 238 255
226 238 255
226 238 255
226 238 255
226 238 255
226 238 255
226 238 255
226 238 255
226 238 255
226 238 255
226 238 255
226 238 255
226 238 255
226 238 255
226 238 255
226 238 255
226 238 255
226 238 255
226 238 255
226 238 255
226 238 255
226 238 255
226 238 255
226 238 255
226 238 255
226 238 255
226 238 255
226 238 255
226 238 255
226 238 255
226 238 255
226 238 255
226 238 255
226 238 255
226 238 255
226 238 255
226 238 255
226 238 255
226 238 255
226 238 255
226 238 255
226 238 255
226 238 255
226 238 255
226 238 255
226 238 255
226 238 255
226 238 255
226 238 255
226 238 255
226 238 255
226 238 255
226 238 255
215 228 243
154 168 168
162 175 177
137 151 146
151 165 163
163 176 180
167 180 181
119 138 124
141 157 152
141 155 152
144 159 158
126 141 129
119 136 123
118 135 122
127 144 133
142 157 155
168 180 185
166 179 182
161 174 176
168 181 186
172 184 190
164 177 183
176 187 194
175 188 193
163 176 176
138 154 146
112 130 113
86 108 77
89 111 79
176 188 191
174 188 193
172 184 191
178 189 195
166 180 183
156 169 169
170 182 188
172 183 188
173 184 187
170 182 187
166 179 179
145 161 156
116 134 118
101 121 95
75 100 58
78 103 60
74 98 56
80 105 63
77 103 60
77 102 60
80 105 62
92 112 82
167 180 184
178 189 194
167 180 182
176 188 194
172 184 189
172 184 187
166 179 183
180 192 197
173 184 189
172 185 190
159 173 172
135 151 140
106 125 105
98 119 91
84 110 65
83 109 63
78 103 60
85 111 66
80 106 63
85 111 66
84 109 65
87 113 67
124 140 129
177 190 197
163 177 179
160 174 179
170 183 189
166 178 184
168 182 185
158 171 171
170 182 185
163 176 180
176 188 195
176 189 197
180 192 198
178 191 197
173 185 189
164 177 180
164 176 179
164 177 180
171 183 187
149 163 161
142 158 150
145 160 152
120 139 124
126 144 130
173 186 191
166 179 181
166 179 183
165 177 180
169 182 184
170 182 185
169 182 185
167 180 183
167 180 184
168 181 184
176 187 191
167 180 183
162 176 179
167 181 186
162 175 178
167 180 182
173 186 192
170 183 187
173 186 190
164 177 180
166 179 184
174 186 189
91 114 78
83 109 65
80 106 62
84 110 65
80 106 62
79 105 62
79 104 62
83 109 64
81 106 62
81 106 63
83 108 65
76 101 60
76 101 59
83 108 64
85 111 66
83 109 65
83 109 65
83 109 64
77 102 59
82 107 63
76 101 59
82 108 64
133 148 136
170 182 185
173 186 193
163 176 179
183 194 199
162 174 176
176 188 193
165 179 183
167 181 185
151 165 162
157 171 172
153 168 165
150 165 159
137 152 146
134 150 142
138 152 144
141 155 149
119 136 121
103 123 96
117 135 118
103 124 98
110 130 108
127 144 129
162 175 178
172 184 188
174 187 191
172 184 188
178 190 196
181 192 199
173 185 187
178 189 194
173 185 191
184 196 204
177 188 194
167 180 183
169 180 184
175 187 192
172 184 190
176 188 192
181 193 198
172 185 189
178 190 197
173 185 188
138 155 145
81 107 64
77 102 59
81 106 63
83 109 65
76 101 59
79 103 61
78 103 61
81 106 63
78 103 61
80 105 62
79 105 62
85 111 66
83 109 64
77 102 59
75 99 58
85 111 66
78 104 62
80 105 62
77 102 60
119 137 122
174 187 193
180 191 195
172 186 191
163 176 178
174 186 190
153 167 166
154 168 164
163 176 179
149 163 159
152 167 165
146 160 157
144 160 155
142 157 149
128 144 134
139 155 145
122 140 125
122 140 121
106 126 103
140 157 148
162 175 179
180 192 198
165 177 180
173 185 191
179 191 197
161 173 177
170 183 187
175 188 193
174 186 193
172 185 190
169 182 187
177 189 195
172 184 192
177 189 195
166 178 183
162 175 177
148 161 158
102 121 95
76 100 57
81 106 63
76 101 59
73 97 57
80 106 62
75 100 59
78 102 61
76 100 58
78 103 60
77 102 60
81 107 64
77 102 60
77 102 60
80 105 62
103 122 100
169 182 185
175 188 194
173 185 191
170 182 186
155 168 167
129 145 139
131 148 135
122 142 124
83 108 66
78 104 61
76 101 59
80 105 62
90 112 80
129 146 134
163 177 180
171 184 189
169 181 185
165 179 182
175 187 192
169 183 189
157 170 171
157 170 171
144 158 155
134 150 146
112 128 113
105 123 106
119 136 119
93 114 86
90 112 79
79 104 64
108 126 109
130 146 141
126 141 135
114 132 114
131 149 140
182 195 202
208 221 235
226 238 255
226 238 255
226 238 255
226 238 255
226 238 255
226 238 255
226 238 255
226 238 255
226 238 255
226 238 255
226 238 255
226 238 255
226 238 255
226 238 255
226 238 255
226 238 255
226 238 255
226 238 255
226 238 255
226 238 255
226 238 255
226 238 255
226 238 255
226 238 255
226 238 255
226 238 255
226 238 255
226 238 255
226 238 255
226 238 255
226 238 255
226 238 255
226 238 255
226 238 255
226 238 255
226 238 255
226 238 255
226 238 255
226 238 255
226 238 255
226 238 255
226 238 255
226 238 255
226 238 255
226 238 255
226 238 255
226 238 255
226 238 255
226 238 255
226 238 255
226 238 255
226 238 255
226 238 255
226 238 255
226 238 255
226 238 255
226 238 255
226 238 255
226 238 255
226 238 255
226 238 255
226 238 255
226 238 255
226 238 255
226 238 255
226 238 255
226 238 255
226 238 255
226 238 255
226 238 255
226 238 255
226 238 255
226 238 255
226 238 255
226 238 255
226 238 255
226 238 255
226 238 255
226 238 255
226 238 255
226 238 255
226 238 255
226 238 255
226 238 255
226 238 255
226 238 255
226 238 255
226 238 255
226 238 255
226 238 255
226 238 255
226 238 255
226 238 255
226 238 255
226 238 255
226 238 255
226 238 255
226 238 255
226 238 255
226 238 255
226 238 255
226 238 255
226 238 255
226 238 255
226 238 255
226 238 255
226 238 255
226 238 255
226 238 255
219 232 248
192 205 216
154 169 168
135 150 145
133 148 140
98 118 93
78 102 63
94 111 92
116 134 119
148 162 160
161 174 177
163 176 181
167 179 183
154 168 169
149 163 164
167 179 185
153 166 166
147 163 158
142 156 154
152 167 169
156 170 171
164 175 179
174 186 191
165 178 179
163 175 178
150 164 163
122 138 128
133 151 142
144 160 159
170 183 187
158 173 176
165 178 181
148 162 162
170 182 187
182 194 202
153 166 164
168 180 184
170 182 185
167 179 183
176 189 195
162 176 176
142 156 153
150 164 161
119 138 120
104 125 100
80 105 63
77 101 59
114 132 114
167 180 181
167 180 182
172 185 189
169 181 183
178 191 195
165 179 181
173 186 191
180 191 197
162 174 178
171 183 188
166 178 180
161 175 177
169 181 186
173 186 192
161 174 178
158 171 171
133 147 141
127 144 130
101 121 96
84 106 73
80 106 63
92 116 79
142 158 153
178 190 198
185 196 202
180 193 199
161 174 177
169 182 186
176 187 192
179 192 199
165 177 182
183 194 199
169 181 185
176 188 194
163 177 179
169 181 186
165 178 181
174 187 193
175 187 191
161 174 176
169 181 185
160 172 173
158 171 170
171 183 188
136 152 144
80 106 62
85 110 69
92 113 84
110 129 106
120 139 123
126 144 128
141 157 151
154 168 170
165 178 180
169 181 184
178 191 198
171 184 188
170 182 184
174 186 192
172 184 188
167 181 187
173 184 188
183 193 200
169 182 185
171 185 191
180 191 197
183 195 202
121 137 123
75 99 58
78 103 60
81 107 63
86 112 67
82 107 63
85 111 66
77 103 60
82 107 63
79 104 62
82 107 64
83 109 66
76 101 59
80 105 61
79 104 61
80 105 62
78 103 61
82 108 64
78 103 60
80 105 61
81 107 63
82 108 64
110 129 111
175 187 190
177 190 197
176 189 197
166 180 182
171 184 191
179 191 196
182 193 198
178 190 196
166 179 182
169 181 188
172 184 189
173 185 189
173 186 193
169 182 188
166 178 180
169 181 186
169 182 188
160 173 176
157 170 170
182 193 199
169 182 187
128 145 132
80 106 62
82 107 63
80 105 62
80 105 62
85 111 65
87 108 77
87 111 73
92 116 83
94 117 83
100 123 94
96 117 85
107 126 103
109 130 104
117 134 117
121 139 123
106 127 104
114 133 112
118 137 118
110 130 109
121 140 123
147 161 155
148 162 156
146 161 155
163 176 177
156 170 168
138 154 147
150 165 163
155 167 166
147 162 158
147 161 155
160 173 173
158 173 175
159 172 171
152 165 163
155 169 167
153 167 163
157 172 172
165 179 180
169 182 184
157 170 171
129 146 134
81 106 65
82 107 66
83 109 64
79 104 61
82 107 63
85 111 66
84 110 65
78 103 60
83 108 65
82 108 63
80 105 63
82 107 63
81 106 63
77 101 59
81 106 63
84 110 66
80 104 61
78 102 63
153 167 165
172 185 190
177 189 196
179 191 198
165 178 182
159 172 172
170 183 188
168 181 185
174 185 189
179 191 198
162 175 175
170 182 186
150 165 167
170 183 187
183 194 201
174 186 193
166 180 182
128 145 135
86 109 73
74 98 57
77 102 59
82 107 64
77 102 59
72 96 56
78 103 61
79 104 61
77 102 60
83 108 65
78 103 61
81 106 62
79 104 61
97 119 90
100 120 94
104 124 100
122 139 125
126 141 130
95 116 90
85 109 70
79 104 61
78 103 60
77 103 61
73 98 56
76 100 58
78 103 60
78 103 61
82 107 63
116 134 118
161 173 174
166 178 182
162 174 177
151 165 165
157 170 172
162 174 177
162 175 178
170 183 187
152 165 164
167 179 182
125 142 132
87 107 79
75 99 62
85 108 73
115 132 116
137 153 147
142 157 156
154 167 167
153 168 168
171 185 189
196 209 219
221 234 250
226 238 255
226 238 255
226 238 255
226 238 255
226 238 255
226 238 255
226 238 255
226 238 255
226 238 255
226 238 255
226 238 255
226 238 255
226 238 255
226 238 255
226 238 255
226 238 255
226 238 255
226 238 255
226 238 255
226 238 255
226 238 255
226 238 255
226 238 255
226 238 255
226 238 255
226 238 255
226 238 255
226 238 255
226 238 255
226 238 255
226 238 255
226 238 255
226 238 255
226 238 255
226 238 255
226 238 255
226 238 255
226 238 255
226 238 255
226 238 255
226 238 255
226 238 255
226 238 255
226 238 255
226 238 255
226 238 255
226 238 255
226 238 255
226 238 255
226 238 255
226 238 255
226 238 255
226 238 255
226 238 255
226 238 255
226 238 255
226 238 255
226 238 255
226 238 255
226 238 255
226 238 255
226 238 255
226 238 255
226 238 255
226 238 255
226 238 255
226 238 255
226 238 255
226 238 255
226 238 255
226 238 255
226 238 255
226 238 255
226 238 255
226 238 255
226 238 255
226 238 255
226 238 255
226 238 255
226 238 255
226 238 255
226 238 255
226 238 255
226 238 255
226 238 255
226 238 255
226 238 255
226 238 255
226 238 255
226 238 255
226 238 255
226 238 255
226 238 255
226 238 255
226 238 255
226 238 255
226 238 255
226 238 255
226 238 255
226 238 255
226 238 255
226 238 255
226 238 255
226 238 255
226 238 255
226 238 255
226 238 255
226 238 255
226 238 255
226 238 255
226 238 255
226 238 255
226 238 255
226 238 255
226 238 255
226 238 255
218 230 246
194 206 217
177 190 196
134 149 145
121 137 126
92 112 86
74 98 57
100 120 99
128 145 136
145 160 157
164 177 183
154 167 169
176 188 193
160 174 177
146 161 160
132 148 141
114 132 114
102 121 98
89 112 77
90 112 85
106 124 106
127 142 136
123 140 128
120 138 124
103 121 102
101 121 97
133 149 140
129 144 137
148 162 159
176 188 193
174 186 189
157 170 171
178 191 199
148 161 160
171 183 189
160 173 176
161 173 174
154 168 170
167 179 184
161 174 176
174 185 190
168 180 183
154 168 166
124 142 128
162 176 177
165 177 183
169 180 182
168 180 184
158 171 174
155 168 170
166 180 184
158 171 173
159 172 172
171 183 188
170 181 184
171 184 192
170 182 187
174 187 192
178 189 195
168 181 185
167 179 181
174 187 193
168 181 186
172 184 187
158 172 173
121 138 122
141 157 150
151 166 165
170 182 187
156 169 171
181 192 199
166 179 183
168 182 185
170 181 186
163 175 179
169 182 185
160 174 175
157 171 172
176 187 195
169 182 187
167 180 184
162 175 176
165 179 180
171 183 188
163 176 177
179 191 197
162 173 177
176 188 193
107 126 105
82 107 63
77 102 59
76 101 59
76 101 58
76 101 59
78 104 61
80 105 62
77 101 58
78 102 60
93 115 82
90 113 80
110 128 111
130 145 133
127 142 129
139 156 147
155 168 165
167 180 182
177 189 195
168 181 184
162 175 179
166 179 185
153 166 165
83 109 65
85 111 66
81 107 63
79 104 62
76 99 58
81 106 62
81 107 62
83 109 65
83 109 65
80 105 62
76 100 58
77 102 60
78 104 61
84 109 66
78 104 60
79 104 62
82 108 65
80 105 62
83 109 65
81 107 63
79 104 61
97 119 89
161 174 176
171 183 189
178 189 195
176 188 193
167 180 185
173 184 188
172 185 188
176 188 192
174 187 191
170 182 183
183 195 202
169 182 189
166 178 181
171 184 189
164 177 181
174 186 190
163 176 179
170 182 187
184 196 201
170 182 187
169 183 189
140 155 150
84 110 65
72 96 56
84 109 65
81 106 63
75 99 58
82 108 64
78 104 60
84 111 66
83 108 64
83 109 65
79 104 61
81 107 63
83 108 65
78 103 61
75 100 58
80 106 62
79 104 61
79 104 61
74 99 57
81 107 63
140 156 148
170 184 187
174 185 190
173 186 192
164 177 178
169 181 184
172 183 188
169 181 186
174 186 191
171 183 189
170 182 186
168 182 188
166 180 185
164 177 183
164 177 178
178 190 195
173 186 192
166 178 182
164 177 178
169 180 186
122 141 120
86 112 68
79 104 61
78 104 61
81 107 64
74 98 56
84 110 66
80 105 61
78 103 61
81 105 62
79 104 62
88 115 69
80 105 62
77 102 60
81 106 63
79 105 62
76 101 60
75 100 58
107 128 105
158 171 171
172 185 191
162 175 177
163 175 180
168 181 186
166 178 179
160 173 173
166 178 185
170 183 187
173 185 192
169 182 187
167 180 186
155 169 167
173 185 192
164 178 182
165 177 180
157 171 172
104 125 104
83 108 64
78 103 60
81 107 64
79 104 61
78 103 61
76 100 58
88 109 80
112 131 112
117 135 115
117 135 121
138 153 149
149 164 159
153 166 166
161 173 175
131 147 139
83 105 71
80 106 62
74 99 58
78 103 61
75 99 58
75 99 57
84 107 72
90 111 81
108 126 105
121 140 122
126 143 131
125 141 132
123 141 126
91 113 83
131 147 137
116 131 119
149 163 161
158 172 174
163 175 177
165 178 184
163 176 177
154 168 170
158 171 174
127 143 134
108 125 106
125 141 128
143 159 156
141 156 153
155 167 170
166 178 182
178 190 197
200 213 225
219 231 248
226 238 255
226 238 255
226 238 255
226 238 255
226 238 255
226 238 255
226 238 255
226 238 255
226 238 255
226 238 255
226 238 255
226 238 255
226 238 255
226 238 255
226 238 255
226 238 255
226 238 255
226 238 255
226 238 255
226 238 255
226 238 255
226 238 255
226 238 255
226 238 255
226 238 255
226 238 255
226 238 255
226 238 255
226 238 255
226 238 255
226 238 255
226 238 255
226 238 255
226 238 255
226 238 255
226 238 255
226 238 255
226 238 255
226 238 255
226 238 255
226 238 255
226 238 255
226 238 255
226 238 255
226 238 255
226 238 255
226 238 255
226 238 255
226 238 255
226 238 255
226 238 255
226 238 255
226 238 255
226 238 255
226 238 255
226 238 255
226 238 255
226 238 255
226 238 255
226 238 255
226 238 255
226 238 255
226 238 255
226 238 255
226 238 255
226 238 255
226 238 255
226 238 255
226 238 255
226 238 255
226 238 255
226 238 255
226 238 255
226 238 255
226 238 255
226 238 255
226 238 255
226 238 255
226 238 255
226 238 255
226 238 255
226 238 255
226 238 255
226 238 255
226 238 255
226 238 255
226 238 255
226 238 255
226 238 255
226 238 255
226 238 255
226 238 255
226 238 255
226 238 255
226 238 255
226 238 255
226 238 255
226 238 255
226 238 255
226 238 255
226 238 255
226 238 255
226 238 255
226 238 255
226 238 255
226 238 255
226 238 255
226 238 255
226 238 255
226 238 255
226 238 255
226 238 255
226 238 255
226 238 255
226 238 255
226 238 255
226 238 255
226 238 255
226 238 255
226 238 255
226 238 255
226 238 255
226 238 255
226 238 255
217 229 245
195 207 218
171 185 191
141 157 151
99 118 96
88 109 79
83 106 71
101 120 98
118 135 124
125 142 132
161 173 177
163 176 181
161 173 178
164 177 180
158 172 175
147 161 156
121 137 127
144 157 153
171 184 189
160 173 176
163 177 179
160 173 177
164 177 181
165 177 183
157 172 172
155 168 169
151 166 166
167 179 184
153 167 167
137 153 148
146 159 157
147 162 158
139 153 149
172 184 187
153 168 167
171 182 186
165 178 181
164 176 177
148 162 161
77 102 60
80 106 63
79 104 61
99 122 92
118 135 119
131 147 135
148 162 159
162 175 179
179 190 195
170 182 189
168 181 185
170 183 189
174 186 192
162 174 177
177 189 194
173 185 190
172 185 189
165 178 182
174 186 192
158 171 173
170 183 187
170 183 188
96 117 88
76 100 59
76 101 59
78 103 61
83 107 67
101 121 97
122 141 124
123 140 129
146 161 159
159 173 175
166 179 183
166 179 182
173 184 187
159 171 172
162 175 177
165 177 182
161 174 178
171 183 186
163 176 179
165 179 184
157 169 170
177 190 197
135 150 141
79 103 61
81 106 62
77 102 59
77 101 60
80 106 63
80 106 63
75 99 58
75 100 58
77 101 60
78 104 60
77 102 60
77 101 59
78 103 60
77 102 61
78 103 60
85 111 66
78 103 61
83 108 65
79 104 66
95 116 88
102 121 97
119 136 121
145 160 156
127 144 134
122 141 124
102 121 97
106 125 101
81 105 65
76 100 58
77 101 59
79 104 61
76 101 59
83 109 65
84 109 65
80 105 62
79 104 61
76 100 58
78 102 61
79 105 62
76 101 59
84 109 65
82 107 63
80 106 62
86 109 73
150 164 162
159 173 177
172 184 189
174 186 192
172 186 191
172 184 190
176 189 193
166 178 181
167 179 182
175 188 194
174 187 192
166 179 181
169 182 185
178 191 197
162 175 177
161 172 175
167 179 184
160 174 177
176 186 191
165 178 182
175 187 193
147 161 158
79 103 63
83 107 63
80 105 62
79 104 61
83 108 63
82 107 64
78 103 60
78 103 60
79 104 61
80 106 63
76 101 60
82 109 66
76 101 59
79 104 61
83 109 65
76 101 60
84 110 66
80 105 62
81 106 62
74 99 57
141 155 152
176 187 195
166 179 183
171 183 187
182 193 199
161 173 175
167 179 183
156 169 172
166 178 183
167 179 183
170 184 193
164 176 179
169 182 186
163 176 182
164 176 181
167 179 181
170 182 187
167 181 186
180 192 200
163 176 178
114 131 117
80 105 62
84 110 65
77 102 59
78 103 61
80 105 62
78 102 60
81 106 63
79 104 62
80 105 62
80 106 63
79 103 60
79 105 62
77 101 60
77 102 60
76 101 58
80 106 62
83 108 64
120 138 123
157 170 171
169 182 187
163 176 179
175 187 192
159 171 173
173 186 192
169 182 185
178 190 196
166 178 182
167 180 183
163 176 180
171 184 190
169 182 188
159 172 175
151 165 165
168 181 183
138 153 147
107 126 106
111 129 111
124 140 125
139 154 147
125 141 130
152 165 165
156 169 170
165 178 182
174 186 192
159 174 175
157 170 170
157 171 173
163 176 178
145 159 154
158 171 171
141 156 152
126 143 133
127 143 133
147 161 156
151 164 164
151 164 164
154 167 169
154 167 168
151 165 165
166 179 184
145 160 158
141 157 150
151 166 163
160 173 174
156 168 169
153 165 169
163 176 180
175 187 193
151 164 163
156 169 170
160 174 175
147 161 161
146 159 160
156 171 170
157 170 170
158 172 175
152 165 166
157 170 173
178 191 197
185 198 205
210 223 237
226 238 255
226 238 255
226 238 255
226 238 255
226 238 255
226 238 255
226 238 255
226 238 255
226 238 255
226 238 255
226 238 255
226 238 255
226 238 255
226 238 255
226 238 255
226 238 255
226 238 255
226 238 255
226 238 255
226 238 255
226 238 255
226 238 255
226 238 255
226 238 255
226 238 255
226 238 255
226 238 255
226 238 255
226 238 255
226 238 255
226 238 255
226 238 255
226 238 255
226 238 255
226 238 255
226 238 255
226 238 255
226 238 255
226 238 255
226 238 255
226 238 255
226 238 255
226 238 255
226 238 255
226 238 255
226 238 255
226 238 255
226 238 255
226 238 255
226 238 255
226 238 255
226 238 255
226 238 255
226 238 255
226 238 255
226 238 255
226 238 255
226 238 255
226 238 255
226 238 255
226 238 255
226 238 255
226 238 255
226 238 255
226 238 255
226 238 255
226 238 255
226 238 255
226 238 255
226 238 255
226 238 255
226 238 255
226 238 255
226 238 255
226 238 255
226 238 255
226 238 255
226 238 255
226 238 255
226 238 255
226 238 255
226 238 255
226 238 255
226 238 255
226 238 255
226 238 255
226 238 255
226 238 255
226 238 255
226 238 255
226 238 255
226 238 255
226 238 255
226 238 255
226 238 255
226 238 255
226 238 255
226 238 255
226 238 255
226 238 255
226 238 255
226 238 255
226 238 255
226 238 255
226 238 255
226 238 255
226 238 255
226 238 255
226 238 255
226 238 255
226 238 255
226 238 255
226 238 255
226 238 255
226 238 255
226 238 255
226 238 255
226 238 255
226 238 255
226 238 255
226 238 255
226 238 255
226 238 255
226 238 255
226 238 255
226 238 255
226 238 255
226 238 255
226 238 255
226 238 255
226 238 255
225 237 254
213 225 240
201 213 227
163 176 179
149 163 161
107 125 105
85 105 79
78 101 66
94 112 92
123 140 126
146 161 158
151 164 163
155 166 169
128 144 140
77 102 60
77 98 66
101 120 101
121 137 127
136 152 147
156 167 168
163 176 179
170 184 189
162 175 177
147 161 163
164 176 178
161 175 178
174 187 193
150 164 164
150 163 162
137 151 147
98 118 95
76 100 61
70 94 53
78 101 63
84 106 74
142 157 153
134 149 144
133 149 140
124 140 129
127 143 132
108 127 111
117 136 119
105 125 102
91 111 89
100 120 95
126 141 130
144 159 154
154 167 168
158 172 172
165 177 179
166 179 184
163 176 180
147 160 161
153 165 165
159 173 176
167 180 183
164 177 181
126 141 130
76 101 58
79 105 61
79 104 61
78 103 60
78 103 61
77 102 59
77 102 59
78 102 60
81 106 63
76 101 60
84 109 67
92 112 86
115 133 116
118 135 121
148 162 159
155 168 167
148 162 159
173 186 191
166 180 187
163 175 178
171 183 187
161 175 178
84 107 69
77 103 60
76 101 59
81 107 64
75 100 58
78 103 61
79 104 63
79 104 61
77 102 60
78 102 60
76 100 59
76 100 59
75 100 58
78 103 60
78 103 61
77 101 59
83 108 64
76 100 59
73 97 56
73 97 56
78 103 60
84 109 68
145 160 156
173 186 194
158 171 175
164 178 182
155 169 170
170 182 186
168 180 185
154 168 168
164 178 183
153 168 166
138 154 147
132 148 137
131 147 138
124 142 125
109 130 107
101 121 95
87 110 76
85 108 69
83 109 65
77 102 60
75 100 58
84 109 68
152 165 164
162 176 179
170 182 185
164 177 181
163 176 182
172 185 192
169 182 187
170 182 185
162 175 179
163 178 183
172 184 189
163 176 178
146 160 162
171 183 188
165 177 181
171 184 188
164 175 179
169 182 185
160 173 176
176 187 192
152 166 165
147 161 158
84 108 67
79 105 61
75 99 58
75 100 58
85 111 66
79 105 61
83 109 65
83 109 64
78 103 60
80 106 62
74 99 58
77 102 60
84 109 64
78 103 59
77 102 59
78 102 60
79 105 62
75 100 59
80 105 62
79 104 62
139 154 148
161 175 178
169 181 186
160 173 178
169 183 188
169 181 183
175 187 192
172 184 188
177 190 197
165 178 181
171 184 188
178 189 194
176 188 191
166 179 183
166 179 183
164 175 181
159 172 175
171 182 187
163 176 179
160 174 173
96 116 88
80 106 63
78 102 60
74 99 57
80 105 62
80 106 62
77 102 60
77 102 60
73 97 56
80 106 62
75 99 57
81 107 64
82 106 62
75 100 58
77 102 60
83 108 65
77 102 61
88 112 75
148 162 160
169 181 186
175 187 193
175 187 192
184 196 204
167 181 187
167 179 187
164 176 179
164 177 179
151 166 163
138 152 146
135 149 141
125 142 132
122 140 125
122 140 124
102 122 99
99 120 96
132 149 139
147 161 156
148 162 160
132 148 142
146 160 155
131 146 138
107 125 111
109 128 108
105 124 103
101 121 95
89 110 79
89 112 77
82 107 67
73 97 57
92 113 87
147 161 157
170 182 187
163 176 179
160 173 177
168 181 189
162 174 177
155 169 166
137 152 147
124 140 129
96 117 89
86 106 79
76 100 59
115 134 117
139 155 149
162 174 180
163 176 178
167 180 185
144 158 159
136 151 145
148 162 161
130 145 135
112 129 113
120 136 126
131 145 140
144 157 156
139 153 152
170 183 190
184 198 206
210 223 237
225 237 254
226 238 255
226 238 255
226 238 255
226 238 255
226 238 255
226 238 255
226 238 255
226 238 255
226 238 255
226 238 255
226 238 255
226 238 255
226 238 255
226 238 255
226 238 255
226 238 255
226 238 255
226 238 255
226 238 255
226 238 255
226 238 255
226 238 255
226 238 255
226 238 255
226 238 255
226 238 255
226 238 255
226 238 255
226 238 255
226 238 255
226 238 255
226 238 255
226 238 255
226 238 255
226 238 255
226 238 255
226 238 255
226 238 255
226 238 255
226 238 255
226 238 255
226 238 255
226 238 255
226 238 255
226 238 255
226 238 255
226 238 255
226 238 255
226 238 255
226 238 255
226 238 255
226 238 255
226 238 255
226 238 255
226 238 255
226 238 255
226 238 255
226 238 255
226 238 255
226 238 255
226 238 255
226 238 255
226 238 255
226 238 255
226 238 255
226 238 255
226 238 255
226 238 255
226 238 255
226 238 255
226 238 255
226 238 255
226 238 255
226 238 255
226 238 255
226 238 255
226 238 255
226 238 255
226 238 255
226 238 255
226 238 255
226 238 255
226 238 255
226 238 255
226 238 255
226 238 255
226 238 255
226 238 255
226 238 255
226 238 255
226 238 255
226 238 255
226 238 255
226 238 255
226 238 255
226 238 255
226 238 255
226 238 255
226 238 255
226 238 255
226 238 255
226 238 255
226 238 255
226 238 255
226 238 255
226 238 255
226 238 255
226 238 255
226 238 255
226 238 255
226 238 255
226 238 255
226 238 255
226 238 255
226 238 255
226 238 255
226 238 255
226 238 255
226 238 255
226 238 255
226 238 255
226 238 255
226 238 255
226 238 255
226 238 255
226 238 255
226 238 255
226 238 255
226 238 255
226 238 255
226 238 255
226 238 255
226 238 255
226 238 255
226 238 255
226 238 255
226 238 255
226 238 255
226 238 255
213 225 240
202 214 226
179 191 199
147 162 162
116 133 122
93 113 86
74 97 61
79 100 70
122 138 129
117 134 122
90 110 86
79 105 62
73 97 57
72 95 56
76 100 59
95 115 89
116 134 116
132 146 139
144 157 156
161 173 176
158 171 173
158 171 173
151 166 167
169 182 187
151 164 164
158 170 173
161 175 181
143 157 156
123 139 129
113 130 115
147 160 158
165 178 182
164 178 179
156 169 171
160 172 175
165 179 185
158 171 173
158 171 174
157 171 174
169 181 188
160 174 179
168 180 185
155 169 169
170 182 184
156 169 169
150 164 164
157 170 172
142 155 153
134 149 144
121 138 126
116 135 118
128 142 135
121 138 126
115 132 117
120 137 121
106 127 103
105 126 103
102 122 99
102 124 96
103 123 101
84 107 72
82 105 67
80 105 63
76 100 58
76 101 59
74 99 58
79 105 63
71 95 55
76 101 59
79 104 62
85 106 73
96 117 90
112 131 109
129 145 136
123 138 128
107 126 106
76 100 61
85 111 66
77 102 59
73 97 56
82 108 64
80 104 61
78 102 60
79 104 61
78 103 61
78 103 60
75 100 59
81 107 63
76 100 58
82 108 64
76 101 59
77 102 60
79 104 61
78 103 60
78 103 60
73 98 57
130 146 135
159 173 174
162 174 176
169 181 185
165 178 183
166 179 183
165 177 180
174 187 191
177 188 195
164 175 179
175 187 193
170 182 187
162 175 179
166 178 181
165 179 182
166 179 184
163 176 177
181 192 200
183 195 201
169 182 185
152 165 167
151 164 162
119 137 120
116 135 116
119 136 120
128 145 132
140 154 151
148 164 161
142 157 153
154 167 168
149 163 165
157 170 169
157 172 175
162 175 176
165 178 183
171 184 189
163 175 178
166 178 181
156 171 172
158 171 173
165 178 181
151 164 165
157 169 171
150 165 164
79 103 63
76 100 58
80 106 63
80 105 62
80 105 62
82 108 64
81 106 62
77 102 60
78 103 61
75 99 57
77 102 60
78 104 61
79 104 62
80 105 61
76 101 59
76 101 58
85 111 66
74 98 57
80 105 62
76 101 58
153 167 166
162 175 177
163 176 180
171 184 189
162 174 177
163 176 180
166 179 183
174 186 192
172 185 189
170 183 187
172 185 191
173 185 189
156 170 173
179 191 198
155 169 171
168 180 182
173 185 191
174 186 192
161 173 177
149 162 161
93 114 87
78 103 60
80 106 63
80 105 61
77 102 60
79 105 62
77 101 60
77 102 60
81 106 63
73 98 56
75 101 60
82 108 64
79 103 63
103 124 96
94 116 87
93 114 85
105 124 100
106 123 105
144 160 154
150 163 163
155 169 169
136 150 148
142 157 153
146 160 158
132 148 138
134 151 143
146 160 157
137 152 144
134 150 144
152 166 164
157 171 173
158 170 173
172 184 188
149 162 161
120 136 127
86 109 75
72 97 56
71 95 55
72 97 57
77 102 61
78 102 60
72 95 56
80 105 62
79 104 61
75 99 58
75 99 58
72 97 56
79 105 62
90 111 81
128 145 135
144 159 157
146 159 158
125 143 133
105 122 105
97 114 98
83 104 73
72 96 55
74 99 58
77 102 60
74 99 57
79 103 67
109 127 110
149 163 163
158 171 173
153 167 167
134 148 142
123 140 129
113 130 115
76 97 66
79 102 67
102 120 106
107 123 109
149 163 162
160 174 176
182 195 203
211 224 238
226 238 255
226 238 255
226 238 255
226 238 255
226 238 255
226 238 255
226 238 255
226 238 255
226 238 255
226 238 255
226 238 255
226 238 255
226 238 255
226 238 255
226 238 255
226 238 255
226 238 255
226 238 255
226 238 255
226 238 255
226 238 255
226 238 255
226 238 255
226 238 255
226 238 255
226 238 255
226 238 255
226 238 255
226 238 255
226 238 255
226 238 255
226 238 255
226 238 255
226 238 255
226 238 255
226 238 255
226 238 255
226 238 255
226 238 255
226 238 255
226 238 255
226 238 255
226 238 255
226 238 255
226 238 255
226 238 255
226 238 255
226 238 255
226 238 255
226 238 255
226 238 255
226 238 255
226 238 255
226 238 255
226 238 255
226 238 255
226 238 255
226 238 255
226 238 255
226 238 255
226 238 255
226 238 255
226 238 255
226 238 255
226 238 255
226 238 255
226 238 255
226 238 255
226 238 255
226 238 255
226 238 255
226 238 255
226 238 255
226 238 255
226 238 255
226 238 255
226 238 255
226 238 255
226 238 255
226 238 255
226 238 255
226 238 255
226 238 255
226 238 255
226 238 255
226 238 255
226 238 255
226 238 255
226 238 255
226 238 255
226 238 255
226 238 255
226 238 255
226 238 255
226 238 255
226 238 255
226 238 255
226 238 255
226 238 255
226 238 255
226 238 255
226 238 255
226 238 255
226 238 255
226 238 255
226 238 255
226 238 255
226 238 255
226 238 255
226 238 255
226 238 255
226 238 255
226 238 255
226 238 255
226 238 255
226 238 255
226 238 255
226 238 255
226 238 255
226 238 255
226 238 255
226 238 255
226 238 255
226 238 255
226 238 255
226 238 255
226 238 255
226 238 255
226 238 255
226 238 255
226 238 255
226 238 255
226 238 255
226 238 255
226 238 255
226 238 255
226 238 255
226 238 255
226 238 255
226 238 255
226 238 255
226 238 255
226 238 255
226 238 255
226 238 255
226 238 255
226 238 255
226 238 255
223 235 252
200 212 225
174 186 195
140 155 151
136 150 149
130 145 139
149 162 163
147 161 161
135 150 146
129 145 136
91 111 83
74 97 62
71 95 56
76 101 59
73 97 57
81 104 69
109 128 111
122 138 127
133 147 143
157 169 171
156 167 168
161 173 177
149 163 161
161 173 176
159 172 175
101 119 102
75 99 58
76 99 61
97 118 92
111 130 111
123 138 131
153 168 167
153 167 167
156 170 173
167 178 183
164 177 180
169 181 184
157 169 173
166 178 182
159 171 175
175 187 193
166 179 183
167 179 184
158 172 174
161 174 178
157 170 174
154 168 171
104 122 103
116 133 120
141 157 152
151 164 162
153 166 169
156 169 171
166 179 182
158 171 174
171 183 186
167 180 184
161 174 178
157 171 171
159 172 175
163 175 178
154 167 168
151 165 164
157 170 171
149 163 158
139 153 149
148 162 161
132 148 143
122 139 125
115 132 117
117 135 118
133 149 139
115 130 119
128 144 134
114 131 112
115 133 115
100 120 98
100 120 96
82 105 68
100 120 96
85 107 74
101 120 98
89 112 80
101 123 98
88 112 77
93 115 87
85 107 74
82 107 67
82 104 72
74 98 58
79 104 60
115 132 115
165 178 182
165 178 181
165 178 182
166 179 182
157 170 170
170 181 186
156 170 173
165 178 183
166 179 182
165 178 181
177 190 197
164 177 182
153 166 167
166 179 184
163 175 177
170 182 189
171 184 190
170 182 184
173 185 190
154 169 171
169 182 187
138 154 145
79 105 62
76 100 59
77 102 60
77 102 59
78 103 61
79 104 61
77 101 60
77 101 59
79 104 61
76 101 59
71 95 55
76 101 59
86 109 72
80 104 67
103 122 99
93 114 90
108 126 107
108 127 105
102 121 102
127 142 132
147 161 155
135 152 144
129 146 135
120 138 125
135 152 143
133 149 138
125 143 127
96 117 90
132 149 136
114 133 116
114 133 115
103 123 100
98 119 92
106 125 106
95 117 91
93 113 88
100 120 96
102 123 97
103 122 99
100 122 91
89 112 77
138 154 146
162 174 175
161 173 173
148 161 161
158 172 173
158 171 174
163 176 177
164 178 180
162 175 176
159 172 174
161 175 177
159 172 175
171 183 187
164 177 182
160 173 175
170 182 189
163 176 178
163 175 177
158 171 174
129 145 134
75 99 58
76 100 58
79 104 62
72 97 55
79 103 60
83 107 69
77 100 62
85 107 72
92 115 80
82 106 68
83 108 67
86 109 76
86 108 76
83 106 71
77 102 61
81 106 62
75 99 58
111 130 116
167 179 183
157 170 174
161 175 179
163 175 179
167 180 184
166 179 182
166 179 182
165 177 180
154 167 168
171 184 190
164 177 183
163 175 181
158 172 176
165 177 182
162 174 176
151 163 165
100 119 98
68 92 53
76 100 58
79 104 62
76 101 59
76 101 59
74 97 57
75 99 58
74 99 58
94 115 85
99 118 98
118 136 119
117 134 122
133 150 142
110 128 111
80 104 67
67 90 52
76 100 59
77 101 59
74 98 57
76 100 59
73 98 57
74 99 58
72 96 55
74 98 57
75 99 58
89 109 83
124 141 129
106 126 109
90 110 83
71 94 55
71 95 55
89 108 84
92 112 89
96 114 94
125 141 131
164 178 181
194 207 216
218 230 246
226 238 255
226 238 255
226 238 255
226 238 255
226 238 255
226 238 255
226 238 255
226 238 255
226 238 255
226 238 255
226 238 255
226 238 255
226 238 255
226 238 255
226 238 255
226 238 255
226 238 255
226 238 255
226 238 255
226 238 255
226 238 255
226 238 255
226 238 255
226 238 255
226 238 255
226 238 255
226 238 255
226 238 255
226 238 255
226 238 255
226 238 255
226 238 255
226 238 255
226 238 255
226 238 255
226 238 255
226 238 255
226 238 255
226 238 255
226 238 255
226 238 255
226 238 255
226 238 255
226 238 255
226 238 255
226 238 255
226 238 255
226 238 255
226 238 255
226 238 255
226 238 255
226 238 255
226 238 255
226 238 255
226 238 255
226 238 255
226 238 255
226 238 255
226 238 255
226 238 255
226 238 255
226 238 255
226 238 255
226 238 255
226 238 255
226 238 255
226 238 255
226 238 255
226 238 255
226 238 255
226 238 255
226 238 255
226 238 255
226 238 255
226 238 255
226 238 255
226 238 255
226 238 255
226 238 255
226 238 255
226 238 255
226 238 255
226 238 255
226 238 255
226 238 255
226 238 255
226 238 255
226 238 255
226 238 255
226 238 255
226 238 255
226 238 255
226 238 255
226 238 255
226 238 255
226 238 255
226 238 255
226 238 255
226 238 255
226 238 255
226 238 255
226 238 255
226 238 255
226 238 255
226 238 255
226 238 255
226 238 255
226 238 255
226 238 255
226 238 255
226 238 255
226 238 255
226 238 255
226 238 255
226 238 255
226 238 255
226 238 255
226 238 255
226 238 255
226 238 255
226 238 255
226 238 255
226 238 255
226 238 255
226 238 255
226 238 255
226 238 255
226 238 255
226 238 255
226 238 255
226 238 255
226 238 255
226 238 255
226 238 255
226 238 255
226 238 255
226 238 255
226 238 255
226 238 255
226 238 255
226 238 255
226 238 255
226 238 255
226 238 255
226 238 255
226 238 255
226 238 255
226 238 255
226 238 255
226 238 255
226 238 255
226 238 255
226 238 255
226 238 255
226 238 255
226 238 255
224 236 253
199 212 223
173 186 191
165 178 181
126 141 135
122 137 130
154 167 169
163 176 181
137 152 148
127 143 135
103 121 106
86 107 84
72 96 55
74 99 57
66 88 51
79 105 62
83 105 79
107 123 109
107 123 109
129 145 141
139 154 149
77 101 59
76 100 58
75 100 59
73 97 57
70 94 54
72 96 56
82 107 63
78 101 63
93 115 83
117 133 120
130 145 137
146 158 157
149 163 163
160 172 176
173 185 191
159 172 175
149 163 165
159 171 174
154 167 169
149 162 164
163 176 180
146 160 156
75 100 58
80 105 63
75 99 59
73 97 56
71 95 56
97 116 93
115 132 118
125 141 131
137 152 149
145 158 155
155 168 168
162 174 178
155 167 172
161 175 177
173 184 190
163 176 180
152 165 168
164 177 182
166 179 182
160 173 176
175 187 191
156 170 171
86 110 76
75 100 58
74 98 58
77 102 60
75 100 59
81 107 63
78 103 61
72 96 56
73 97 57
77 102 60
74 98 57
81 106 62
86 108 75
91 111 83
100 119 97
128 144 134
125 141 131
145 160 157
142 158 153
150 163 160
162 174 177
159 173 173
97 120 86
85 109 73
86 108 78
86 106 78
85 107 74
95 115 85
91 112 84
99 121 91
94 116 89
93 115 88
94 114 92
110 129 106
92 112 88
110 129 109
100 121 95
97 117 95
116 135 118
111 129 115
107 127 105
110 129 110
113 132 112
141 154 150
142 157 155
144 158 154
150 164 163
143 157 151
135 151 148
131 146 139
146 160 158
132 148 144
131 147 139
128 143 135
138 152 148
150 164 160
126 142 131
135 151 145
139 155 147
149 163 158
140 154 153
139 155 151
151 166 162
138 154 149
125 142 126
104 125 102
92 113 89
95 114 93
114 132 116
102 121 101
105 123 107
109 127 109
100 120 100
108 127 107
94 114 92
104 123 104
103 123 98
109 128 105
100 121 95
92 112 86
89 110 81
99 121 92
88 110 80
94 116 86
110 128 110
161 175 176
166 178 182
164 177 182
157 171 173
166 179 181
143 157 160
162 175 178
161 174 178
173 184 189
173 185 191
168 181 185
173 186 190
161 175 179
157 169 170
167 180 185
157 169 171
165 177 183
161 173 177
169 183 187
108 125 109
77 101 60
77 102 60
80 106 63
82 108 64
76 101 59
80 105 62
78 102 60
78 103 61
76 100 59
79 104 61
78 103 61
76 100 59
73 97 57
78 103 61
79 104 60
76 101 60
89 111 81
152 167 166
156 169 172
146 160 159
161 174 178
160 173 177
163 175 181
160 172 176
151 163 164
164 177 183
157 171 173
162 175 178
157 170 173
160 172 175
160 172 175
163 176 179
150 164 164
120 136 122
76 100 59
78 102 64
77 100 65
88 108 85
106 123 109
113 129 115
143 157 154
135 150 146
143 158 159
158 171 174
161 174 180
156 168 170
147 160 160
123 139 128
79 101 68
76 100 59
74 98 58
74 98 57
70 93 55
69 92 53
89 108 84
89 108 84
125 141 133
123 139 128
120 135 125
111 127 115
74 97 60
68 91 53
83 105 73
92 112 91
102 118 103
143 156 155
165 177 182
191 203 214
200 212 224
225 237 254
226 238 255
226 238 255
226 238 255
226 238 255
226 238 255
226 238 255
226 238 255
226 238 255
226 238 255
226 238 255
226 238 255
226 238 255
226 238 255
226 238 255
226 238 255
226 238 255
226 238 255
226 238 255
226 238 255
226 238 255
226 238 255
226 238 255
226 238 255
226 238 255
226 238 255
226 238 255
226 238 255
226 238 255
226 238 255
226 238 255
226 238 255
226 238 255
226 238 255
226 238 255
226 238 255
226 238 255
226 238 255
226 238 255
226 238 255
226 238 255
226 238 255
226 238 255
226 238 255
226 238 255
226 238 255
226 238 255
226 238 255
226 238 255
226 238 255
226 238 255
226 238 255
226 238 255
226 238 255
226 238 255
226 238 255
226 238 255
226 238 255
226 238 255
226 238 255
226 238 255
226 238 255
226 238 255
226 238 255
226 238 255
226 238 255
226 238 255
226 238 255
226 238 255
226 238 255
226 238 255
226 238 255
226 238 255
226 238 255
226 238 255
226 238 255
226 238 255
226 238 255
226 238 255
226 238 255
226 238 255
226 238 255
226 238 255
226 238 255
226 238 255
226 238 255
226 238 255
226 238 255
226 238 255
226 238 255
226 238 255
226 238 255
226 238 255
226 238 255
226 238 255
226 238 255
226 238 255
226 238 255
226 238 255
226 238 255
226 238 255
226 238 255
226 238 255
226 238 255
226 238 255
226 238 255
226 238 255
226 238 255
226 238 255
226 238 255
226 238 255
226 238 255
226 238 255
226 238 255
226 238 255
226 238 255
226 238 255
226 238 255
226 238 255
226 238 255
226 238 255
226 238 255
226 238 255
226 238 255
226 238 255
226 238 255
226 238 255
226 238 255
226 238 255
226 238 255
226 238 255
226 238 255
226 238 255
226 238 255
226 238 255
226 238 255
226 238 255
226 238 255
226 238 255
226 238 255
226 238 255
226 238 255
226 238 255
226 238 255
226 238 255
226 238 255
226 238 255
226 238 255
226 238 255
226 238 255
226 238 255
226 238 255
226 238 255
226 238 255
226 238 255
226 238 255
226 238 255
226 238 255
226 238 255
226 238 255
226 238 255
226 238 255
226 238 255
226 238 255
226 238 255
226 238 255
212 225 239
190 203 213
175 188 194
156 169 173
119 134 126
132 147 145
143 157 157
145 157 158
137 151 150
120 135 125
95 113 94
79 101 70
67 91 52
71 94 54
76 98 66
132 146 143
149 162 163
115 130 119
109 128 112
104 123 103
82 105 71
68 91 53
73 97 56
71 95 55
69 93 53
73 97 57
72 96 56
68 91 52
69 93 54
83 106 68
91 111 83
125 142 128
133 149 144
140 154 151
147 160 160
154 168 170
151 165 164
82 103 77
69 92 53
77 101 59
74 99 57
72 96 56
78 102 60
80 105 62
78 103 61
74 98 57
71 96 55
77 101 59
69 93 53
87 109 78
106 126 104
122 139 126
119 137 122
141 156 148
156 170 172
149 162 160
157 170 174
166 178 183
162 175 178
78 102 66
77 101 60
73 98 57
75 100 59
70 94 54
73 98 57
75 100 58
80 105 61
77 101 60
68 92 53
76 100 59
78 103 61
69 92 53
75 99 58
73 96 56
76 100 59
74 99 57
73 97 57
77 102 60
81 107 64
78 102 60
92 114 80
151 165 168
160 173 174
132 147 143
137 152 146
135 149 140
114 131 119
122 139 126
107 125 108
91 113 83
81 104 69
75 100 59
75 99 58
75 99 58
77 101 60
78 102 60
77 102 59
72 96 57
70 94 54
80 105 62
71 95 56
77 101 59
99 119 96
162 176 178
169 182 186
149 163 162
156 170 172
173 185 191
170 183 187
167 180 184
161 173 177
160 173 175
162 175 180
173 186 191
156 170 171
153 167 169
164 175 179
169 181 183
162 175 177
175 188 195
146 161 160
171 183 190
154 167 171
142 157 153
80 105 64
77 101 59
74 98 57
75 100 59
72 96 56
76 101 59
76 101 60
73 97 56
76 101 59
73 97 56
78 103 60
77 102 60
76 101 58
74 99 58
77 102 61
76 100 58
73 97 56
75 99 58
81 107 63
93 113 87
144 160 156
163 176 179
168 182 186
166 179 183
152 165 166
165 177 180
163 176 178
160 172 174
161 174 177
153 166 168
170 183 189
163 177 181
144 158 157
164 176 180
156 169 172
165 177 182
168 181 184
179 190 197
133 149 144
104 124 98
74 98 58
71 95 56
78 102 60
75 100 58
81 107 64
76 100 59
73 97 56
74 97 57
76 101 59
76 101 59
75 100 59
72 95 55
78 104 61
80 105 62
75 100 58
80 104 64
124 139 129
151 164 166
165 178 181
162 174 179
171 184 190
157 170 171
158 171 174
166 178 181
164 177 182
161 174 178
165 178 181
147 161 163
139 153 151
135 151 143
128 144 136
125 142 132
146 160 160
140 153 152
134 149 145
141 155 150
154 167 167
161 173 177
157 169 171
146 159 159
156 170 173
148 163 161
165 177 182
155 168 171
169 181 186
149 162 166
116 131 122
71 94 57
70 94 57
82 103 73
98 118 95
115 130 117
131 146 135
147 160 159
155 168 171
161 174 178
151 164 165
119 136 126
103 120 104
98 117 96
118 133 123
126 141 137
163 175 181
189 202 212
209 221 235
213 225 240
226 238 255
226 238 255
226 238 255
226 238 255
226 238 255
226 238 255
226 238 255
226 238 255
226 238 255
226 238 255
226 238 255
226 238 255
226 238 255
226 238 255
226 238 255
226 238 255
226 238 255
226 238 255
226 238 255
226 238 255
226 238 255
226 238 255
226 238 255
226 238 255
226 238 255
226 238 255
226 238 255
226 238 255
226 238 255
226 238 255
226 238 255
226 238 255
226 238 255
226 238 255
226 238 255
226 238 255
226 238 255
226 238 255
226 238 255
226 238 255
226 238 255
226 238 255
226 238 255
226 238 255
226 238 255
226 238 255
226 238 255
226 238 255
226 238 255
226 238 255
226 238 255
226 238 255
226 238 255
226 238 255
226 238 255
226 238 255
226 238 255
226 238 255
226 238 255
226 238 255
226 238 255
226 238 255
226 238 255
226 238 255
226 238 255
226 238 255
226 238 255
226 238 255
226 238 255
226 238 255
226 238 255
226 238 255
226 238 255
226 238 255
226 238 255
226 238 255
226 238 255
226 238 255
226 238 255
226 238 255
226 238 255
226 238 255
226 238 255
226 238 255
226 238 255
226 238 255
226 238 255
226 238 255
226 238 255
226 238 255
226 238 255
226 238 255
226 238 255
226 238 255
226 238 255
226 238 255
226 238 255
226 238 255
226 238 255
226 238 255
226 238 255
226 238 255
226 238 255
226 238 255
226 238 255
226 238 255
226 238 255
226 238 255
226 238 255
226 238 255
226 238 255
226 238 255
226 238 255
226 238 255
226 238 255
226 238 255
226 238 255
226 238 255
226 238 255
226 238 255
226 238 255
226 238 255
226 238 255
226 238 255
226 238 255
226 238 255
226 238 255
226 238 255
226 238 255
226 238 255
226 238 255
226 238 255
226 238 255
226 238 255
226 238 255
226 238 255
226 238 255
226 238 255
226 238 255
226 238 255
226 238 255
226 238 255
226 238 255
226 238 255
226 238 255
226 238 255
226 238 255
226 238 255
226 238 255
226 238 255
226 238 255
226 238 255
226 238 255
226 238 255
226 238 255
226 238 255
226 238 255
226 238 255
226 238 255
226 238 255
226 238 255
226 238 255
226 238 255
226 238 255
226 238 255
226 238 255
226 238 255
226 238 255
226 238 255
226 238 255
226 238 255
226 238 255
226 238 255
226 238 255
224 236 253
215 228 242
184 198 205
173 185 191
153 166 170
129 143 138
134 147 144
141 155 154
146 159 160
116 132 121
100 118 98
133 148 143
141 156 156
146 160 162
155 169 171
150 163 163
156 169 173
142 155 152
130 145 138
112 127 119
94 112 93
84 106 74
77 101 65
72 96 56
76 100 59
72 95 56
74 97 57
67 91 53
72 96 55
73 96 56
77 100 61
90 112 82
129 144 139
134 149 141
114 131 119
97 117 91
77 101 63
83 109 64
75 100 58
73 98 57
78 102 60
76 100 59
67 91 52
77 102 60
70 94 55
82 108 64
73 97 57
70 93 54
67 91 52
76 100 59
73 97 56
80 104 68
81 103 72
112 129 116
135 152 146
135 149 148
111 128 116
103 122 98
77 98 66
72 95 58
76 101 60
74 98 57
71 95 55
74 98 57
77 102 60
77 102 59
72 95 56
72 96 55
74 98 58
71 96 56
77 102 61
79 104 62
75 100 58
73 97 56
78 103 60
80 103 66
138 153 150
161 174 179
163 176 179
155 168 169
158 170 171
166 179 184
161 173 179
150 163 164
162 173 177
161 173 177
158 171 173
158 171 174
152 166 167
145 159 159
135 150 145
135 150 147
132 148 140
116 133 118
106 126 103
98 117 95
97 117 93
92 112 89
158 172 175
162 175 180
148 163 166
164 175 179
158 171 174
154 168 167
155 168 168
161 174 181
153 167 171
165 177 179
159 172 178
159 171 174
162 176 178
157 170 175
165 177 183
162 175 180
161 174 176
172 184 190
167 180 185
156 169 173
128 144 137
76 100 62
71 95 55
81 107 64
81 106 63
75 99 58
74 99 58
74 97 57
75 100 59
73 97 56
73 96 56
71 95 55
79 105 61
75 99 57
76 100 59
77 101 59
74 99 59
69 92 53
78 103 60
75 100 59
106 125 105
165 177 181
159 172 177
156 169 172
156 167 171
157 171 172
168 181 184
160 173 175
163 177 181
161 173 176
159 171 174
149 162 163
148 162 162
163 175 180
155 168 170
151 165 167
157 170 170
153 167 167
158 171 174
138 152 146
80 104 62
71 95 55
76 100 58
77 101 59
76 100 58
69 93 54
75 99 58
70 93 53
79 103 62
75 98 57
74 99 58
72 96 56
81 106 63
74 98 57
67 90 52
71 94 55
94 114 89
126 141 135
142 155 156
155 169 170
136 151 150
129 145 137
124 140 131
126 142 132
114 131 120
103 121 103
96 115 92
92 111 88
78 102 63
78 103 61
75 100 59
75 100 59
114 132 115
139 155 150
155 168 170
138 152 152
169 181 185
157 171 174
149 162 165
147 160 159
148 162 165
147 161 160
156 168 170
145 159 159
160 173 174
144 156 157
146 159 159
117 132 120
136 150 147
143 156 160
149 161 163
152 163 165
149 162 164
141 154 155
145 159 158
137 151 149
140 153 153
134 147 147
130 144 141
170 183 189
183 195 205
191 204 215
213 225 240
226 238 255
226 238 255
226 238 255
226 238 255
226 238 255
226 238 255
226 238 255
226 238 255
226 238 255
226 238 255
226 238 255
226 238 255
226 238 255
226 238 255
226 238 255
226 238 255
226 238 255
226 238 255
226 238 255
226 238 255
226 238 255
226 238 255
226 238 255
226 238 255
226 238 255
226 238 255
226 238 255
226 238 255
226 238 255
226 238 255
226 238 255
226 238 255
226 238 255
226 238 255
226 238 255
226 238 255
226 238 255
226 238 255
226 238 255
226 238 255
226 238 255
226 238 255
226 238 255
226 238 255
226 238 255
226 238 255
226 238 255
226 238 255
226 238 255
226 238 255
226 238 255
226 238 255
226 238 255
226 238 255
226 238 255
226 238 255
226 238 255
226 238 255
226 238 255
226 238 255
226 238 255
226 238 255
226 238 255
226 238 255
226 238 255
226 238 255
226 238 255
226 238 255
226 238 255
226 238 255
226 238 255
226 238 255
226 238 255
226 238 255
226 238 255
226 238 255
226 238 255
226 238 255
226 238 255
226 238 255
226 238 255
226 238 255
226 238 255
226 238 255
226 238 255
226 238 255
226 238 255
226 238 255
226 238 255
226 238 255
226 238 255
226 238 255
226 238 255
226 238 255
226 238 255
226 238 255
226 238 255
226 238 255
226 238 255
226 238 255
226 238 255
226 238 255
226 238 255
226 238 255
226 238 255
226 238 255
226 238 255
226 238 255
226 238 255
226 238 255
226 238 255
226 238 255
226 238 255
226 238 255
226 238 255
226 238 255
226 238 255
226 238 255
226 238 255
226 238 255
226 238 255
226 238 255
226 238 255
226 238 255
226 238 255
226 238 255
226 238 255
226 238 255
226 238 255
226 238 255
226 238 255
226 238 255
226 238 255
226 238 255
226 238 255
226 238 255
226 238 255
226 238 255
226 238 255
226 238 255
226 238 255
226 238 255
226 238 255
226 238 255
226 238 255
226 238 255
226 238 255
226 238 255
226 238 255
226 238 255
226 238 255
226 238 255
226 238 255
226 238 255
226 238 255
226 238 255
226 238 255
226 238 255
226 238 255
226 238 255
226 238 255
226 238 255
226 238 255
226 238 255
226 238 255
226 238 255
226 238 255
226 238 255
226 238 255
226 238 255
226 238 255
226 238 255
226 238 255
226 238 255
226 238 255
226 238 255
226 238 255
226 238 255
226 238 255
226 238 255
226 238 255
226 238 255
226 238 255
226 238 255
226 238 255
214 226 240
180 193 200
179 192 199
153 166 167
111 126 116
93 110 91
71 91 62
75 98 61
98 116 98
107 123 111
125 139 134
129 144 137
151 164 166
150 164 165
145 157 159
144 157 157
142 155 155
128 145 137
133 148 143
105 124 104
102 120 103
77 99 68
67 90 51
69 93 54
68 91 53
124 139 130
165 177 183
151 164 164
151 164 166
148 161 162
149 162 167
135 147 145
141 156 151
128 142 140
126 141 133
102 120 102
88 107 85
77 101 62
70 93 54
69 93 53
73 97 57
73 97 56
72 96 56
66 89 51
69 93 54
76 100 59
76 100 60
123 138 130
164 177 182
158 171 174
157 170 171
152 165 168
159 172 177
172 183 188
157 169 171
139 152 150
124 139 131
131 146 141
121 138 127
100 120 96
79 100 69
78 102 61
79 104 62
71 94 54
77 102 61
76 101 59
70 94 54
71 95 55
71 94 55
148 162 160
152 166 169
160 173 180
153 167 171
154 167 167
163 176 178
157 169 172
150 164 165
148 162 165
154 167 169
163 176 179
155 168 171
155 168 171
144 158 155
158 171 176
158 170 175
163 177 180
171 185 190
157 169 171
149 163 164
163 175 177
136 149 146
65 87 53
79 104 61
76 100 59
85 107 75
89 111 84
106 125 104
96 116 91
109 126 112
113 131 116
115 132 117
129 143 137
128 144 135
148 162 160
135 149 145
129 145 136
144 158 155
146 160 160
146 159 156
166 178 183
147 161 162
123 138 131
81 103 69
77 100 64
73 97 57
78 102 60
66 89 50
73 97 57
75 99 58
74 99 58
74 98 57
69 92 53
76 100 58
79 104 61
75 99 59
70 93 54
74 98 57
75 99 58
81 106 63
76 100 58
82 105 70
123 139 129
161 175 180
152 166 167
156 169 169
163 175 177
156 169 170
154 167 171
154 166 168
161 175 178
158 172 175
178 190 198
152 165 166
155 167 172
159 173 176
160 173 177
139 154 152
163 176 179
158 171 174
137 150 148
99 118 96
100 120 96
83 103 77
95 115 91
109 128 106
107 125 107
109 128 111
118 137 123
124 140 129
127 143 135
127 142 134
118 134 124
124 139 132
131 145 141
137 152 147
157 172 174
134 147 145
100 118 100
71 94 55
77 101 60
72 96 56
70 94 54
70 93 54
77 102 60
71 95 55
73 97 56
77 102 60
68 92 53
75 99 58
71 95 56
72 95 56
70 94 54
95 115 90
145 158 158
152 166 168
142 155 158
149 163 166
146 160 162
161 173 177
142 157 156
126 139 135
101 118 105
109 126 113
95 114 92
86 107 79
97 117 95
134 147 144
147 159 162
156 170 176
144 157 160
138 152 151
134 149 144
115 130 122
97 115 95
116 130 120
126 142 137
158 172 174
184 196 206
198 210 221
210 223 237
224 236 253
226 238 255
226 238 255
226 238 255
226 238 255
226 238 255
226 238 255
226 238 255
226 238 255
226 238 255
226 238 255
226 238 255
226 238 255
226 238 255
226 238 255
226 238 255
226 238 255
226 238 255
226 238 255
226 238 255
226 238 255
226 238 255
226 238 255
226 238 255
226 238 255
226 238 255
226 238 255
226 238 255
226 238 255
226 238 255
226 238 255
226 238 255
226 238 255
226 238 255
226 238 255
226 238 255
226 238 255
226 238 255
226 238 255
226 238 255
226 238 255
226 238 255
226 238 255
226 238 255
226 238 255
226 238 255
226 238 255
226 238 255
226 238 255
226 238 255
226 238 255
226 238 255
226 238 255
226 238 255
226 238 255
226 238 255
226 238 255
226 238 255
226 238 255
226 238 255
226 238 255
226 238 255
226 238 255
226 238 255
226 238 255
226 238 255
226 238 255
226 238 255
226 238 255
226 238 255
226 238 255
226 238 255
226 238 255
226 238 255
226 238 255
226 238 255
226 238 255
226 238 255
226 238 255
226 238 255
226 238 255
226 238 255
226 238 255
226 238 255
226 238 255
226 238 255
226 238 255
226 238 255
226 238 255
226 238 255
226 238 255
226 238 255
226 238 255
226 238 255
226 238 255
226 238 255
226 238 255
226 238 255
226 238 255
226 238 255
226 238 255
226 238 255
226 238 255
226 238 255
226 238 255
226 238 255
226 238 255
226 238 255
226 238 255
226 238 255
226 238 255
226 238 255
226 238 255
226 238 255
226 238 255
226 238 255
226 238 255
226 238 255
226 238 255
226 238 255
226 238 255
226 238 255
226 238 255
226 238 255
226 238 255
226 238 255
226 238 255
226 238 255
226 238 255
226 238 255
226 238 255
226 238 255
226 238 255
226 238 255
226 238 255
226 238 255
226 238 255
226 238 255
226 238 255
226 238 255
226 238 255
226 238 255
226 238 255
226 238 255
226 238 255
226 238 255
226 238 255
226 238 255
226 238 255
226 238 255
226 238 255
226 238 255
226 238 255
226 238 255
226 238 255
226 238 255
226 238 255
226 238 255
226 238 255
226 238 255
226 238 255
226 238 255
226 238 255
226 238 255
226 238 255
226 238 255
226 238 255
226 238 255
226 238 255
226 238 255
226 238 255
226 238 255
226 238 255
226 238 255
226 238 255
226 238 255
226 238 255
226 238 255
226 238 255
226 238 255
226 238 255
226 238 255
226 238 255
226 238 255
226 238 255
226 238 255
226 238 255
226 238 255
226 238 255
226 238 255
226 238 255
226 238 255
226 238 255
226 238 255
226 238 255
210 222 236
201 213 226
178 190 200
150 162 164
120 135 125
95 112 97
84 104 79
75 96 63
96 114 94
107 126 110
107 123 111
112 128 115
141 153 154
144 159 161
154 166 168
139 153 154
142 155 156
145 159 156
126 141 132
91 109 85
127 142 134
123 139 134
150 163 166
140 154 154
150 163 163
157 169 173
144 157 157
158 171 174
152 165 167
148 162 161
142 157 158
161 172 178
131 144 141
135 150 147
138 151 148
129 146 137
108 124 108
98 118 95
93 112 90
75 100 58
66 89 51
117 134 123
153 166 169
161 174 178
147 160 161
151 164 165
146 160 160
149 162 164
145 159 157
158 171 174
168 181 185
160 173 173
168 180 187
155 168 172
164 176 183
145 157 158
164 176 181
143 157 154
142 156 153
122 137 131
124 139 133
111 129 112
104 123 105
114 131 118
138 151 148
130 145 142
148 160 162
154 166 170
154 167 170
172 184 190
152 166 169
141 157 157
159 171 176
154 167 170
158 171 175
151 164 166
156 170 171
155 169 171
155 168 173
157 169 171
146 159 161
155 169 171
150 164 166
159 173 178
140 154 149
72 97 56
68 92 53
76 100 59
74 98 57
74 98 57
72 95 55
75 99 58
72 95 56
72 96 56
70 94 54
70 93 54
77 101 59
70 94 55
71 95 55
75 99 59
74 98 58
74 98 58
75 99 59
77 102 60
76 98 64
137 152 147
153 166 167
144 158 160
161 174 179
149 161 165
157 169 173
144 157 156
148 163 163
153 166 169
143 156 155
147 160 159
149 162 164
130 144 140
146 160 156
142 156 155
144 158 158
135 151 146
139 154 149
132 146 143
131 145 138
85 105 80
111 129 113
99 119 99
93 112 93
99 118 100
96 116 95
89 110 85
100 117 99
92 111 86
97 116 96
90 112 84
93 113 89
87 109 75
89 111 80
82 104 71
73 95 61
80 104 65
68 91 52
114 129 117
165 177 182
163 176 179
153 165 166
159 171 174
150 164 165
148 161 163
160 173 177
144 157 158
149 162 161
153 166 168
163 175 176
158 171 175
146 159 160
153 166 167
150 163 166
141 155 154
132 147 141
77 98 65
72 96 56
71 95 55
69 91 53
70 93 54
67 90 51
71 95 56
74 99 58
71 95 56
74 97 57
67 90 52
71 95 55
75 99 62
79 100 70
85 105 78
124 140 132
128 143 137
107 125 111
106 123 109
96 113 93
78 99 70
69 92 54
65 88 49
73 97 56
70 93 54
68 91 52
81 102 72
121 136 126
118 133 123
126 140 136
114 129 120
98 116 101
89 107 84
84 103 78
99 118 98
142 157 153
173 186 192
204 217 229
214 227 241
226 238 255
226 238 255
226 238 255
226 238 255
226 238 255
226 238 255
226 238 255
226 238 255
226 238 255
226 238 255
226 238 255
226 238 255
226 238 255
226 238 255
226 238 255
226 238 255
226 238 255
226 238 255
226 238 255
226 238 255
226 238 255
226 238 255
226 238 255
226 238 255
226 238 255
226 238 255
226 238 255
226 238 255
226 238 255
226 238 255
226 238 255
226 238 255
226 238 255
226 238 255
226 238 255
226 238 255
226 238 255
226 238 255
226 238 255
226 238 255
226 238 255
226 238 255
226 238 255
226 238 255
226 238 255
226 238 255
226 238 255
226 238 255
226 238 255
226 238 255
226 238 255
226 238 255
226 238 255
226 238 255
226 238 255
226 238 255
226 238 255
226 238 255
226 238 255
226 238 255
226 238 255
226 238 255
226 238 255
226 238 255
226 238 255
226 238 255
226 238 255
226 238 255
226 238 255
226 238 255
226 238 255
226 238 255
226 238 255
226 238 255
226 238 255
226 238 255
226 238 255
226 238 255
226 238 255
226 238 255
226 238 255
226 238 255
226 238 255
226 238 255
226 238 255
226 238 255
226 238 255
226 238 255
226 238 255
226 238 255
226 238 255
226 238 255
226 238 255
226 238 255
226 238 255
226 238 255
226 238 255
226 238 255
226 238 255
226 238 255
226 238 255
226 238 255
226 238 255
226 238 255
226 238 255
226 238 255
226 238 255
226 238 255
226 238 255
226 238 255
226 238 255
226 238 255
226 238 255
226 238 255
226 238 255
226 238 255
226 238 255
226 238 255
226 238 255
226 238 255
226 238 255
226 238 255
226 238 255
226 238 255
226 238 255
226 238 255
226 238 255
226 238 255
226 238 255
226 238 255
226 238 255
226 238 255
226 238 255
226 238 255
226 238 255
226 238 255
226 238 255
226 238 255
226 238 255
226 238 255
226 238 255
226 238 255
226 238 255
226 238 255
226 238 255
226 238 255
226 238 255
226 238 255
226 238 255
226 238 255
226 238 255
226 238 255
226 238 255
226 238 255
226 238 255
226 238 255
226 238 255
226 238 255
226 238 255
226 238 255
226 238 255
226 238 255
226 238 255
226 238 255
226 238 255
226 238 255
226 238 255
226 238 255
226 238 255
226 238 255
226 238 255
226 238 255
226 238 255
226 238 255
226 238 255
226 238 255
226 238 255
226 238 255
226 238 255
226 238 255
226 238 255
226 238 255
226 238 255
226 238 255
226 238 255
226 238 255
226 238 255
226 238 255
226 238 255
226 238 255
226 238 255
226 238 255
226 238 255
226 238 255
226 238 255
226 238 255
226 238 255
226 238 255
226 238 255
226 238 255
226 238 255
226 238 255
226 238 255
226 238 255
226 238 255
224 236 253
212 224 238
194 207 217
175 188 196
144 157 158
109 124 112
81 98 76
66 88 55
82 102 76
94 113 93
108 126 110
112 127 117
127 142 137
97 115 97
72 94 55
68 91 53
65 88 50
70 93 54
71 93 57
86 105 82
105 120 109
120 135 127
131 145 140
141 154 154
147 160 161
146 159 158
140 153 152
156 169 173
152 164 165
141 156 155
149 162 165
152 165 167
145 158 159
156 170 173
163 175 180
109 126 112
102 121 101
105 121 109
130 145 140
130 145 141
132 147 141
142 156 155
144 159 158
154 167 170
135 149 148
151 164 167
159 172 175
152 165 168
152 165 166
165 178 185
154 168 172
153 166 166
152 165 167
146 158 158
149 162 163
158 170 171
151 164 164
116 132 122
75 99 58
72 95 55
73 98 58
77 99 65
97 116 94
95 114 92
102 119 104
109 126 111
125 141 130
133 147 142
146 159 157
136 150 145
141 152 154
158 171 176
158 171 173
150 163 165
165 178 184
153 166 167
154 167 170
152 166 169
126 141 133
77 101 59
72 96 55
72 96 56
73 96 56
71 95 55
70 94 54
71 95 54
76 101 59
66 89 51
69 92 53
71 95 56
73 96 56
76 100 58
73 97 57
71 94 56
68 91 52
74 99 58
69 93 53
71 96 55
86 107 79
155 169 174
159 171 175
154 165 168
149 162 164
146 160 159
155 169 173
150 163 165
160 172 177
152 166 168
159 171 176
166 178 183
150 165 166
156 170 172
146 159 160
153 167 169
159 172 178
154 167 171
153 166 170
162 174 179
132 147 141
75 98 61
74 97 57
65 88 49
69 93 54
75 100 59
68 92 53
71 94 54
71 94 55
70 94 54
76 100 59
68 91 54
69 92 53
71 95 55
69 92 53
68 92 53
71 95 55
68 91 52
96 114 91
131 144 141
164 176 184
139 152 152
150 163 163
147 160 161
142 156 156
151 164 165
156 170 173
156 169 172
155 167 169
149 162 163
163 175 178
158 171 174
149 162 164
148 162 163
149 163 164
111 129 113
84 102 77
70 94 55
69 92 53
73 95 61
82 103 74
102 122 99
86 106 83
103 121 104
103 120 102
110 127 114
124 139 133
125 140 137
129 144 142
144 157 158
117 131 125
74 95 65
72 95 55
69 92 53
65 87 50
72 96 56
65 87 51
66 89 51
66 88 54
91 110 87
110 125 117
98 115 98
70 91 62
79 101 71
76 95 68
63 85 48
86 104 83
134 147 146
171 183 190
195 208 219
214 227 241
225 237 254
226 238 255
226 238 255
226 238 255
226 238 255
226 238 255
226 238 255
226 238 255
226 238 255
226 238 255
226 238 255
226 238 255
226 238 255
226 238 255
226 238 255
226 238 255
226 238 255
226 238 255
226 238 255
226 238 255
226 238 255
226 238 255
226 238 255
226 238 255
226 238 255
226 238 255
226 238 255
226 238 255
226 238 255
226 238 255
226 238 255
226 238 255
226 238 255
226 238 255
226 238 255
226 238 255
226 238 255
226 238 255
226 238 255
226 238 255
226 238 255
226 238 255
226 238 255
226 238 255
226 238 255
226 238 255
226 238 255
226 238 255
226 238 255
226 238 255
226 238 255
226 238 255
226 238 255
226 238 255
226 238 255
226 238 255
226 238 255
226 238 255
226 238 255
226 238 255
226 238 255
226 238 255
226 238 255
226 238 255
226 238 255
226 238 255
226 238 255
226 238 255
226 238 255
226 238 255
226 238 255
226 238 255
226 238 255
226 238 255
226 238 255
226 238 255
226 238 255
226 238 255
226 238 255
226 238 255
226 238 255
226 238 255
226 238 255
226 238 255
226 238 255
226 238 255
226 238 255
226 238 255
226 238 255
226 238 255
226 238 255
226 238 255
226 238 255
226 238 255
226 238 255
226 238 255
226 238 255
226 238 255
226 238 255
226 238 255
226 238 255
226 238 255
226 238 255
226 238 255
226 238 255
226 238 255
226 238 255
226 238 255
226 238 255
226 238 255
226 238 255
226 238 255
226 238 255
226 238 255
226 238 255
226 238 255
226 238 255
226 238 255
226 238 255
226 238 255
226 238 255
226 238 255
226 238 255
226 238 255
226 238 255
226 238 255
226 238 255
226 238 255
226 238 255
226 238 255
226 238 255
226 238 255
226 238 255
226 238 255
226 238 255
226 238 255
226 238 255
226 238 255
226 238 255
226 238 255
226 238 255
226 238 255
226 238 255
226 238 255
226 238 255
226 238 255
226 238 255
226 238 255
226 238 255
226 238 255
226 238 255
226 238 255
226 238 255
226 238 255
226 238 255
226 238 255
226 238 255
226 238 255
226 238 255
226 238 255
226 238 255
226 238 255
226 238 255
226 238 255
226 238 255
226 238 255
226 238 255
226 238 255
226 238 255
226 238 255
226 238 255
226 238 255
226 238 255
226 238 255
226 238 255
226 238 255
226 238 255
226 238 255
226 238 255
226 238 255
226 238 255
226 238 255
226 239 255
226 239 255
226 239 255
226 239 255
226 239 255
226 239 255
226 239 255
226 239 255
226 239 255
226 239 255
226 239 255
226 239 255
226 239 255
226 239 255
226 239 255
226 239 255
226 239 255
226 239 255
226 239 255
226 239 255
226 239 255
226 239 255
226 239 255
226 239 255
226 239 255
226 239 255
226 239 255
226 239 255
226 239 255
227 239 255
227 239 255
227 239 255
227 239 255
227 239 255
227 239 255
217 229 244
205 217 230
178 191 199
171 184 190
141 154 154
135 149 146
126 140 137
129 144 140
141 154 154
116 131 126
124 138 136
102 118 106
96 113 96
83 103 77
65 87 50
64 86 49
68 91 52
65 87 50
69 90 56
74 96 63
95 113 97
118 133 125
108 124 116
116 130 122
136 150 146
144 157 158
155 168 172
137 150 150
97 115 93
68 91 53
66 88 51
62 84 47
68 92 53
65 88 51
75 99 58
61 83 47
70 93 54
77 98 72
91 111 88
109 125 112
123 137 133
130 145 139
136 147 147
146 160 163
155 167 171
147 159 161
149 161 162
159 172 176
155 168 173
140 154 152
80 103 69
70 93 54
73 96 56
68 91 52
66 89 52
72 96 56
70 94 55
65 88 50
68 92 53
75 99 58
73 96 56
74 98 58
73 98 57
71 95 55
71 96 55
70 93 54
67 90 51
72 95 59
100 118 97
95 114 92
91 111 90
140 154 153
131 146 140
119 135 124
116 133 120
100 117 99
104 121 105
103 121 103
96 115 93
84 107 75
85 105 76
79 102 66
71 94 55
74 98 57
71 95 55
70 93 55
69 93 54
77 101 60
73 97 57
72 96 56
75 100 59
104 122 104
157 170 171
158 170 173
155 168 170
151 164 168
143 156 155
154 166 169
146 160 163
146 158 160
149 162 160
146 159 158
155 166 170
142 155 154
143 156 160
160 174 178
159 171 176
153 165 169
152 164 167
156 169 172
141 155 154
113 130 115
71 95 55
65 88 51
74 99 59
69 93 54
71 95 56
72 96 56
73 96 56
69 93 54
68 91 53
67 90 53
69 92 54
75 100 59
68 91 52
76 100 59
68 91 52
75 99 59
86 107 81
127 143 137
134 145 147
160 172 175
149 162 164
151 163 165
148 162 164
141 155 156
136 150 149
147 160 161
135 150 147
137 150 146
134 147 145
116 130 121
119 134 126
127 141 139
106 125 106
130 144 139
129 144 139
124 140 131
127 142 137
137 151 149
145 158 161
149 163 166
140 152 153
138 152 151
143 157 157
148 161 164
140 155 153
160 171 178
150 163 165
129 142 139
103 119 105
71 92 59
74 94 68
96 113 97
95 113 95
123 138 132
99 116 103
125 140 132
122 136 130
125 140 136
132 146 145
114 128 124
127 142 136
143 157 154
167 179 186
188 200 210
198 211 222
221 233 249
227 239 255
227 239 255
227 239 255
227 239 255
227 239 255
227 239 255
226 239 255
226 239 255
226 239 255
226 239 255
226 239 255
226 239 255
226 239 255
226 239 255
226 239 255
226 239 255
226 239 255
226 239 255
226 239 255
226 239 255
226 239 255
226 239 255
226 239 255
226 239 255
226 239 255
226 239 255
226 239 255
226 239 255
226 239 255
226 239 255
226 239 255
226 239 255
226 239 255
226 239 255
226 238 255
226 238 255
226 238 255
226 238 255
226 238 255
226 238 255
226 238 255
226 238 255
226 238 255
226 238 255
226 238 255
226 238 255
226 238 255
226 238 255
226 238 255
226 238 255
226 238 255
226 238 255
226 238 255
226 238 255
226 238 255
226 238 255
226 238 255
226 238 255
226 238 255
226 238 255
226 238 255
226 238 255
226 238 255
226 238 255
226 238 255
226 238 255
226 238 255
226 238 255
226 238 255
226 238 255
226 238 255
226 238 255
226 238 255
226 238 255
226 238 255
226 238 255
226 238 255
226 238 255
226 238 255
226 238 255
226 238 255
226 238 255
226 238 255
226 238 255
226 238 255
226 238 255
226 238 255
226 238 255
226 238 255
226 238 255
226 238 255
226 238 255
226 238 255
226 238 255
226 238 255
226 238 255
226 238 255
226 238 255
226 238 255
226 238 255
226 238 255
226 238 255
226 238 255
226 238 255
226 238 255
226 238 255
226 238 255
226 238 255
226 238 255
226 238 255
226 238 255
226 238 255
226 238 255
226 238 255
226 238 255
226 238 255
226 238 255
226 238 255
226 238 255
226 238 255
226 238 255
226 238 255
226 238 255
226 238 255
226 238 255
226 238 255
226 238 255
226 238 255
226 238 255
226 238 255
226 238 255
226 238 255
226 238 255
226 238 255
226 238 255
226 238 255
226 238 255
226 238 255
226 238 255
226 238 255
226 238 255
226 238 255
226 238 255
226 238 255
226 238 255
226 238 255
226 238 255
226 238 255
226 238 255
226 238 255
226 238 255
226 238 255
226 238 255
226 238 255
226 238 255
226 238 255
226 239 255
226 239 255
226 239 255
226 239 255
226 239 255
226 239 255
226 239 255
226 239 255
226 239 255
226 239 255
226 239 255
226 239 255
226 239 255
226 239 255
226 239 255
226 239 255
226 239 255
226 239 255
226 239 255
226 239 255
226 239 255
227 239 255
227 239 255
227 239 255
227 239 255
227 239 255
227 239 255
227 239 255
227 239 255
227 239 255
227 239 255
227 239 255
227 239 255
227 239 255
227 239 255
227 239 255
227 239 255
227 239 255
227 239 255
227 239 255
227 239 255
227 239 255
227 239 255
227 239 255
227 239 255
227 239 255
227 239 255
227 239 255
227 239 255
227 239 255
227 239 255
227 239 255
227 239 255
227 239 255
227 239 255
227 239 255
227 239 255
227 239 255
227 239 255
227 239 255
227 239 255
227 239 255
227 239 255
227 239 255
227 239 255
227 239 255
227 239 255
227 239 255
227 239 255
227 239 255
227 239 255
227 239 255
224 236 253
214 226 241
198 210 222
177 189 198
157 168 174
144 158 159
111 124 119
129 141 140
112 127 119
111 126 116
108 123 112
87 104 86
101 119 100
80 99 75
76 97 69
63 86 48
72 95 56
59 80 44
63 85 49
64 86 49
103 119 105
134 148 146
120 134 130
106 123 108
102 120 107
104 121 105
73 95 64
69 90 56
68 91 52
61 83 48
61 83 47
65 88 50
69 92 54
70 93 54
75 99 58
75 99 58
67 90 52
74 98 57
63 85 48
72 94 58
86 107 79
89 109 84
122 137 128
122 137 130
111 127 115
91 111 91
99 118 99
77 99 65
79 102 68
69 92 53
70 94 55
69 93 54
70 93 54
72 96 55
69 91 54
74 98 57
77 102 60
70 94 55
69 93 55
71 94 56
71 95 56
68 91 52
69 93 54
91 110 90
129 143 142
160 174 177
147 160 161
154 166 169
157 170 173
157 170 173
143 156 155
156 169 171
163 176 180
150 163 165
151 163 164
144 157 158
150 163 162
141 155 156
143 157 158
140 153 152
140 154 152
147 161 161
132 145 142
129 144 143
83 105 77
100 117 100
114 131 117
113 130 116
118 135 125
126 142 134
124 140 133
111 126 115
114 129 119
115 130 122
117 132 125
122 137 130
118 135 123
124 139 133
115 131 122
130 146 142
134 148 145
126 141 136
139 153 150
137 152 148
100 119 99
109 127 111
111 127 115
95 114 96
102 119 102
113 130 118
101 120 100
109 126 112
118 133 125
104 120 106
103 119 106
117 132 122
105 121 110
104 121 104
109 126 112
125 140 136
120 136 128
90 110 85
92 112 92
97 113 95
87 106 84
93 111 92
76 97 66
84 105 76
72 93 62
74 98 58
67 89 52
74 97 57
75 99 59
71 94 55
67 90 53
63 86 49
73 95 59
125 139 134
137 150 150
146 158 161
145 157 157
132 146 145
148 161 161
136 149 149
147 159 161
149 161 163
137 151 152
130 145 140
123 138 134
114 128 122
118 131 130
140 154 153
123 136 131
113 127 118
121 134 131
107 123 115
126 138 135
124 138 133
101 118 105
117 130 125
161 173 178
148 161 163
174 186 193
187 198 209
206 218 232
217 229 244
227 239 255
227 239 255
227 239 255
227 239 255
227 239 255
227 239 255
227 239 255
227 239 255
227 239 255
227 239 255
227 239 255
227 239 255
227 239 255
227 239 255
227 239 255
227 239 255
227 239 255
227 239 255
227 239 255
227 239 255
227 239 255
227 239 255
227 239 255
227 239 255
227 239 255
227 239 255
227 239 255
227 239 255
227 239 255
227 239 255
227 239 255
227 239 255
227 239 255
227 239 255
227 239 255
227 239 255
227 239 255
227 239 255
227 239 255
227 239 255
227 239 255
227 239 255
227 239 255
227 239 255
227 239 255
227 239 255
227 239 255
227 239 255
227 239 255
227 239 255
227 239 255
227 239 255
226 239 255
226 239 255
226 239 255
226 239 255
226 239 255
226 239 255
226 239 255
226 239 255
226 239 255
226 239 255
226 239 255
226 239 255
226 239 255
226 239 255
226 239 255
226 239 255
226 239 255
226 239 255
226 239 255
226 239 255
226 239 255
226 239 255
226 238 255
226 238 255
226 238 255
226 238 255
226 238 255
226 238 255
226 238 255
226 238 255
226 238 255
226 238 255
226 238 255
226 238 255
226 238 255
226 238 255
226 238 255
226 238 255
226 238 255
226 238 255
226 238 255
226 238 255
226 238 255
226 238 255
226 238 255
226 238 255
226 238 255
226 238 255
226 238 255
226 238 255
226 238 255
226 238 255
226 238 255
226 238 255
226 238 255
226 238 255
226 238 255
226 238 255
226 238 255
226 238 255
226 238 255
226 238 255
226 238 255
226 238 255
226 238 255
226 238 255
226 238 255
226 238 255
226 238 255
226 238 255
226 238 255
226 238 255
226 238 255
226 238 255
226 238 255
226 238 255
226 238 255
226 238 255
226 238 255
226 238 255
226 239 255
226 238 255
226 239 255
226 239 255
226 239 255
226 239 255
226 239 255
226 239 255
226 239 255
226 239 255
226 239 255
226 239 255
226 239 255
226 239 255
226 239 255
226 239 255
226 239 255
226 239 255
226 239 255
226 239 255
226 239 255
226 239 255
227 239 255
227 239 255
227 239 255
227 239 255
227 239 255
227 239 255
227 239 255
227 239 255
227 239 255
227 239 255
227 239 255
227 239 255
227 239 255
227 239 255
227 239 255
227 239 255
227 239 255
227 239 255
227 239 255
227 239 255
227 239 255
227 239 255
227 239 255
227 239 255
227 239 255
227 239 255
227 239 255
227 239 255
227 239 255
227 239 255
227 239 255
227 239 255
227 239 255
227 239 255
227 239 255
227 239 255
227 239 255
227 239 255
227 239 255
227 239 255
227 239 255
227 239 255
227 239 255
227 239 255
227 239 255
227 239 255
227 239 255
227 239 255
227 239 255
227 239 255
227 239 255
227 239 255
227 239 255
227 239 255
227 239 255
227 239 255
227 239 255
227 239 255
227 239 255
227 239 255
227 239 255
227 239 255
227 239 255
227 239 255
227 239 255
227 239 255
227 239 255
227 239 255
227 239 255
227 239 255
227 239 255
227 239 255
227 239 255
227 239 255
227 239 255
227 239 255
227 239 255
227 239 255
227 239 255
227 239 255
227 239 255
227 239 255
227 239 255
227 239 255
227 239 255
227 239 255
227 239 255
218 230 246
211 223 237
194 206 217
177 188 197
124 137 134
73 91 69
84 100 86
78 98 71
79 94 79
73 94 64
72 91 65
95 112 95
119 134 125
129 145 140
125 138 134
122 136 131
122 136 128
129 142 141
144 158 159
130 142 139
131 145 142
128 143 140
130 142 141
118 132 126
106 121 113
102 118 106
99 116 100
81 99 78
80 101 71
69 90 58
67 90 53
69 93 54
59 80 46
74 95 65
118 134 125
137 152 153
150 163 165
148 159 162
139 151 150
148 160 163
153 165 169
141 153 153
136 150 149
141 154 153
131 145 143
132 147 141
126 140 137
120 135 126
109 126 111
109 127 110
102 121 104
83 101 78
97 116 94
82 102 76
77 98 69
114 130 120
149 161 163
143 155 156
144 158 158
148 161 165
159 171 174
149 162 166
154 168 171
145 158 158
140 154 155
145 158 159
147 159 160
136 149 147
151 164 167
149 161 163
143 155 154
140 153 154
149 161 166
155 168 171
141 155 155
129 144 139
76 97 65
68 91 53
70 94 55
70 94 54
76 100 59
70 93 54
67 90 52
65 87 50
72 95 55
64 86 50
65 88 50
71 94 55
70 94 54
65 88 51
70 93 54
74 98 58
67 91 53
70 93 54
93 111 95
134 147 146
140 154 156
154 166 170
140 154 154
141 154 153
143 157 156
150 163 164
129 144 140
141 154 155
146 159 159
153 166 171
143 156 159
158 171 175
148 160 164
157 170 175
133 147 147
144 157 159
109 125 116
76 94 70
67 90 52
63 85 49
65 88 50
68 91 53
68 90 52
63 85 48
65 87 50
66 88 51
67 90 52
69 92 54
63 85 49
62 83 51
66 89 51
81 102 71
96 113 97
117 132 125
124 137 132
133 147 144
111 124 117
108 124 114
101 117 104
108 123 114
110 126 118
107 122 112
106 122 109
110 124 114
98 113 101
84 101 83
79 94 80
94 109 96
86 103 83
85 101 83
93 109 98
126 139 135
181 192 202
187 199 210
204 216 230
224 237 253
227 239 255
227 239 255
227 239 255
227 239 255
227 239 255
227 239 255
227 239 255
227 239 255
227 239 255
227 239 255
227 239 255
227 239 255
227 239 255
227 239 255
227 239 255
227 239 255
227 239 255
227 239 255
227 239 255
227 239 255
227 239 255
227 239 255
227 239 255
227 239 255
227 239 255
227 239 255
227 239 255
227 239 255
227 239 255
227 239 255
227 239 255
227 239 255
227 239 255
227 239 255
227 239 255
227 239 255
227 239 255
227 239 255
227 239 255
227 239 255
227 239 255
227 239 255
227 239 255
227 239 255
227 239 255
227 239 255
227 239 255
227 239 255
227 239 255
227 239 255
227 239 255
227 239 255
227 239 255
227 239 255
227 239 255
227 239 255
227 239 255
227 239 255
227 239 255
227 239 255
227 239 255
227 239 255
227 239 255
227 239 255
227 239 255
227 239 255
227 239 255
227 239 255
227 239 255
227 239 255
227 239 255
227 239 255
227 239 255
227 239 255
227 239 255
227 239 255
227 239 255
227 239 255
227 239 255
227 239 255
227 239 255
227 239 255
227 239 255
227 239 255
227 239 255
227 239 255
227 239 255
227 239 255
227 239 255
226 239 255
226 239 255
226 239 255
226 239 255
226 239 255
226 239 255
226 239 255
226 239 255
226 239 255
226 239 255
226 239 255
226 239 255
226 239 255
226 239 255
226 239 255
226 239 255
226 239 255
226 238 255
226 238 255
226 238 255
226 238 255
226 238 255
226 238 255
226 238 255
226 238 255
226 238 255
226 238 255
226 238 255
226 238 255
226 238 255
226 238 255
226 238 255
226 238 255
226 238 255
226 238 255
226 239 255
226 239 255
226 239 255
226 239 255
226 239 255
226 239 255
226 239 255
226 239 255
226 239 255
226 239 255
226 239 255
226 239 255
227 239 255
227 239 255
227 239 255
227 239 255
227 239 255
227 239 255
227 239 255
227 239 255
227 239 255
227 239 255
227 239 255
227 239 255
227 239 255
227 239 255
227 239 255
227 239 255
227 239 255
227 239 255
227 239 255
227 239 255
227 239 255
227 239 255
227 239 255
227 239 255
227 239 255
227 239 255
227 239 255
227 239 255
227 239 255
227 239 255
227 239 255
227 239 255
227 239 255
227 239 255
227 239 255
227 239 255
227 239 255
227 239 255
227 239 255
227 239 255
227 239 255
227 239 255
227 239 255
227 239 255
227 239 255
227 239 255
227 239 255
227 239 255
227 239 255
227 239 255
227 239 255
227 239 255
227 239 255
227 239 255
227 239 255
227 239 255
227 239 255
227 239 255
227 239 255
227 239 255
227 239 255
227 239 255
227 239 255
227 239 255
227 239 255
227 239 255
227 239 255
227 239 255
227 239 255
227 239 255
227 239 255
227 239 255
227 239 255
227 239 255
227 239 255
227 239 255
227 239 255
227 239 255
227 239 255
227 239 255
227 239 255
227 239 255
227 239 255
227 239 255
227 239 255
227 239 255
227 239 255
227 239 255
227 239 255
227 239 255
227 239 255
227 239 255
227 239 255
227 239 255
227 239 255
227 239 255
227 239 255
227 239 255
227 239 255
227 239 255
227 239 255
227 239 255
227 239 255
227 239 255
227 239 255
227 239 255
227 239 255
227 239 255
227 239 255
225 237 253
211 223 238
186 197 209
169 180 188
128 140 142
116 128 127
106 121 117
94 108 105
82 97 89
91 104 98
61 74 61
58 73 54
64 79 60
74 89 72
95 108 101
101 114 108
91 104 97
97 113 103
106 121 111
118 130 129
120 134 132
116 131 124
110 125 117
110 126 116
104 119 112
99 116 100
88 105 89
98 114 100
95 112 95
85 104 84
89 105 90
107 124 112
108 123 112
115 130 125
105 121 110
105 122 108
111 127 118
123 136 130
131 144 143
116 132 125
118 131 127
143 156 159
131 145 143
128 140 141
145 158 162
139 152 154
135 149 147
132 145 145
137 151 151
134 147 145
137 151 151
149 162 163
127 141 141
129 143 142
141 155 156
123 138 134
134 148 146
74 94 65
72 94 57
69 91 59
82 101 76
95 112 95
97 116 97
92 110 91
109 126 113
109 124 116
109 125 111
113 126 120
111 125 117
126 140 134
125 140 133
135 149 146
122 136 130
128 143 137
143 157 153
137 150 149
122 137 132
100 119 98
63 84 51
66 88 51
63 85 48
68 91 52
66 89 51
63 85 49
69 91 53
67 90 52
70 93 55
67 90 51
60 81 46
67 90 52
65 87 50
66 88 51
71 94 55
63 85 49
64 87 49
102 119 107
140 153 151
139 152 152
146 159 159
136 149 150
152 164 166
142 155 157
138 151 152
142 156 158
132 146 147
149 162 165
130 144 143
133 147 145
140 153 153
148 162 164
128 141 138
131 144 144
136 150 148
126 138 136
95 111 95
91 109 88
98 118 97
103 119 107
87 106 84
80 98 75
94 113 91
87 103 89
90 105 91
89 108 87
94 110 96
105 122 107
96 111 100
118 134 127
120 134 129
130 143 143
124 137 134
122 135 130
124 138 134
124 137 132
128 141 140
131 144 143
114 128 122
103 118 110
129 142 142
90 105 94
100 113 109
114 127 126
97 109 106
103 115 114
123 135 136
91 105 99
90 102 98
74 87 80
68 82 68
80 91 89
92 105 100
86 99 92
114 127 126
147 159 164
168 180 189
177 189 197
208 220 234
227 238 255
227 239 255
227 239 255
227 239 255
227 239 255
227 239 255
227 239 255
227 239 255
227 239 255
227 239 255
227 239 255
227 239 255
227 239 255
227 239 255
227 239 255
227 239 255
227 239 255
227 239 255
227 239 255
227 239 255
227 239 255
227 239 255
227 239 255
227 239 255
227 239 255
227 239 255
227 239 255
227 239 255
227 239 255
227 239 255
227 239 255
227 239 255
227 239 255
227 239 255
227 239 255
227 239 255
227 239 255
227 239 255
227 239 255
227 239 255
227 239 255
227 239 255
227 239 255
227 239 255
227 239 255
227 239 255
227 239 255
227 239 255
227 239 255
227 239 255
227 239 255
227 239 255
227 239 255
227 239 255
227 239 255
227 239 255
227 239 255
227 239 255
227 239 255
227 239 255
227 239 255
227 239 255
227 239 255
227 239 255
227 239 255
227 239 255
227 239 255
227 239 255
227 239 255
227 239 255
227 239 255
227 239 255
227 239 255
227 239 255
227 239 255
227 239 255
227 239 255
227 239 255
227 239 255
227 239 255
227 239 255
227 239 255
227 239 255
227 239 255
227 239 255
227 239 255
227 239 255
227 239 255
227 239 255
227 239 255
227 239 255
227 239 255
227 239 255
227 239 255
227 239 255
227 239 255
227 239 255
227 239 255
227 239 255
227 239 255
227 239 255
227 239 255
227 239 255
227 239 255
227 239 255
227 239 255
227 239 255
227 239 255
227 239 255
227 239 255
226 239 255
226 239 255
226 239 255
226 239 255
226 239 255
226 239 255
226 239 255
226 239 255
226 239 255
226 239 255
226 239 255
226 239 255
227 239 255
227 239 255
227 239 255
227 239 255
227 239 255
227 239 255
227 239 255
227 239 255
227 239 255
227 239 255
227 239 255
227 239 255
227 239 255
227 239 255
227 239 255
227 239 255
227 239 255
227 239 255
227 239 255
227 239 255
227 239 255
227 239 255
227 239 255
227 239 255
227 239 255
227 239 255
227 239 255
227 239 255
227 239 255
227 239 255
227 239 255
227 239 255
227 239 255
227 239 255
227 239 255
227 239 255
227 239 255
227 239 255
227 239 255
227 239 255
227 239 255
227 239 255
227 239 255
227 239 255
227 239 255
227 239 255
227 239 255
227 239 255
227 239 255
227 239 255
227 239 255
227 239 255
227 239 255
227 239 255
227 239 255
227 239 255
227 239 255
227 239 255
227 239 255
227 239 255
227 239 255
227 239 255
227 239 255
227 239 255
227 239 255
227 239 255
227 239 255
227 239 255
227 239 255
227 239 255
227 239 255
227 239 255
227 239 255
227 239 255
227 239 255
227 239 255
227 239 255
227 239 255
227 239 255
227 239 255
227 239 255
227 239 255
227 239 255
227 239 255
227 239 255
227 239 255
227 239 255
227 239 255
227 239 255
227 239 255
227 239 255
227 239 255
227 239 255
227 239 255
227 239 255
227 239 255
227 239 255
227 239 255
227 239 255
227 239 255
227 239 255
227 239 255
227 239 255
227 239 255
227 239 255
227 239 255
227 239 255
227 239 255
227 239 255
227 239 255
227 239 255
227 239 255
227 239 255
227 239 255
227 239 255
227 239 255
226 238 254
203 215 229
185 197 207
168 180 188
126 140 139
108 123 118
98 111 111
80 94 85
88 103 95
79 94 84
52 67 49
46 64 35
45 62 36
51 65 49
52 65 50
76 90 79
80 93 87
71 82 78
88 100 97
68 80 71
55 67 58
43 58 38
32 46 25
34 48 27
42 57 33
54 70 48
57 69 54
95 107 104
92 105 99
84 99 88
103 115 112
110 122 119
119 132 132
117 130 124
123 137 133
105 118 113
91 107 92
70 88 64
85 103 85
96 112 99
123 135 132
119 133 130
127 141 138
131 144 143
137 150 154
128 142 139
127 139 139
141 154 156
121 134 129
118 131 128
133 146 148
129 142 139
130 143 141
119 133 128
121 135 129
119 133 126
112 127 117
119 134 128
132 145 142
112 125 120
106 121 110
100 115 104
109 123 115
110 125 116
100 114 105
97 115 100
100 117 104
103 120 108
106 122 108
100 116 103
96 112 98
99 114 100
89 108 85
86 102 83
87 104 86
92 110 92
84 99 85
95 110 95
87 104 86
78 97 74
111 126 115
108 123 112
116 131 123
114 128 126
141 154 156
130 142 139
111 127 119
113 129 119
114 129 121
120 134 129
128 142 136
113 127 120
104 120 107
124 139 134
119 134 126
105 122 109
92 110 92
113 128 123
124 138 136
110 125 118
124 137 132
107 120 116
116 130 124
113 128 119
106 123 110
116 131 124
121 135 131
111 126 120
107 122 110
127 141 137
103 118 108
110 127 117
113 128 122
126 139 137
119 134 127
107 121 112
73 93 65
70 90 62
73 93 64
78 98 72
60 80 46
56 76 44
63 85 49
61 82 47
63 84 49
66 87 57
68 88 59
67 87 58
77 95 73
65 84 56
81 99 77
83 101 82
102 116 107
103 117 109
95 107 103
82 98 80
66 80 63
69 85 66
61 76 59
55 69 52
81 95 87
79 91 85
80 93 88
64 74 70
59 72 60
29 42 22
44 61 35
36 51 27
46 64 36
44 57 39
46 62 41
65 79 67
63 77 67
77 89 85
72 86 77
60 75 59
45 62 36
50 68 40
49 63 45
69 84 69
75 89 80
97 112 105
87 103 91
123 136 135
153 166 169
178 190 198
195 207 219
224 236 252
227 239 255
227 239 255
227 239 255
227 239 255
227 239 255
227 239 255
227 239 255
227 239 255
227 239 255
227 239 255
227 239 255
227 239 255
227 239 255
227 239 255
227 239 255
227 239 255
227 239 255
227 239 255
227 239 255
227 239 255
227 239 255
227 239 255
227 239 255
227 239 255
227 239 255
227 239 255
227 239 255
227 239 255
227 239 255
227 239 255
227 239 255
227 239 255
227 239 255
227 239 255
227 239 255
227 239 255
227 239 255
227 239 255
227 239 255
227 239 255
227 239 255
227 239 255
227 239 255
227 239 255
227 239 255
227 239 255
227 239 255
227 239 255
227 239 255
227 239 255
227 239 255
227 239 255
227 239 255
227 239 255
227 239 255
227 239 255
227 239 255
227 239 255
227 239 255
227 239 255
227 239 255
227 239 255
227 239 255
227 239 255
227 239 255
227 239 255
227 239 255
227 239 255
227 239 255
227 239 255
227 239 255
227 239 255
227 239 255
227 239 255
227 239 255
227 239 255
227 239 255
227 239 255
227 239 255
227 239 255
227 239 255
227 239 255
227 239 255
227 239 255
227 239 255
227 239 255
227 239 255
227 239 255
227 239 255
227 239 255
227 239 255
227 239 255
227 239 255
227 239 255
227 239 255
227 239 255
227 239 255
227 239 255
227 239 255
227 239 255
227 239 255
227 239 255
227 239 255
227 239 255
227 239 255
227 239 255
227 239 255
227 239 255
227 239 255
227 239 255
227 239 255
227 239 255
227 239 255
227 239 255
227 239 255
227 239 255
227 239 255
227 239 255
227 239 255
227 239 255
227 239 255
227 239 255
227 239 255
227 239 255
227 239 255
227 239 255
227 239 255
227 239 255
227 239 255
227 239 255
227 239 255
227 239 255
227 239 255
227 239 255
227 239 255
227 239 255
227 239 255
227 239 255
227 239 255
227 239 255
227 239 255
227 239 255
227 239 255
227 239 255
227 239 255
227 239 255
227 239 255
227 239 255
227 239 255
227 239 255
227 239 255
227 239 255
227 239 255
227 239 255
227 239 255
227 239 255
227 239 255
227 239 255
227 239 255
227 239 255
227 239 255
227 239 255
227 239 255
227 239 255
227 239 255
227 239 255
227 239 255
227 239 255
227 239 255
227 239 255
227 239 255
227 239 255
227 239 255
227 239 255
227 239 255
227 239 255
227 239 255
227 239 255
227 239 255
227 239 255
227 239 255
227 239 255
227 239 255
227 239 255
227 239 255
227 239 255
227 239 255
227 239 255
227 239 255
227 239 255
227 239 255
227 239 255
227 239 255
227 239 255
227 239 255
227 239 255
227 239 255
227 239 255
227 239 255
227 239 255
227 239 255
227 239 255
227 239 255
227 239 255
227 239 255
227 239 255
227 239 255
227 239 255
227 239 255
227 239 255
227 239 255
227 239 255
227 239 255
227 239 255
227 239 255
227 239 255
227 239 255
227 239 255
227 239 255
227 239 255
227 239 255
227 239 255
227 239 255
227 239 255
227 239 255
227 239 255
227 239 255
222 234 250
203 215 228
185 197 207
150 162 168
120 133 131
97 110 105
71 87 70
83 99 88
94 108 103
76 92 80
63 81 59
49 67 39
42 60 32
44 61 35
63 78 62
87 101 94
85 98 95
75 87 82
70 80 75
74 86 80
75 87 80
80 90 88
77 88 83
96 109 108
71 83 74
72 84 78
42 57 36
61 71 66
73 83 82
76 87 83
85 95 96
72 81 78
74 82 84
71 80 77
70 79 78
56 65 61
61 70 65
41 53 36
52 60 57
68 78 73
55 65 56
59 72 58
43 54 41
58 69 59
44 58 39
71 85 72
64 80 60
67 82 65
64 79 59
78 94 76
72 89 70
68 86 63
85 100 83
96 111 99
97 112 100
109 123 116
95 109 101
103 118 107
119 132 128
105 118 111
110 124 117
109 123 117
90 106 92
67 86 60
62 83 48
57 76 44
57 77 44
61 81 51
79 99 72
61 81 50
71 88 68
90 105 91
93 109 97
85 101 82
97 114 98
100 114 103
93 109 93
83 100 82
110 124 117
106 120 112
107 120 114
120 134 132
140 152 154
83 100 80
73 91 69
80 100 76
81 100 77
82 99 78
71 90 62
63 82 55
88 103 87
74 93 67
81 98 81
78 96 73
73 94 64
70 90 59
60 80 50
66 89 51
70 91 58
73 94 63
83 102 79
108 124 113
122 135 132
122 135 134
141 153 157
127 140 141
127 140 140
132 144 144
123 135 132
123 137 133
111 124 120
110 126 117
103 115 110
110 123 119
111 125 118
106 120 113
110 125 118
118 132 127
110 123 120
85 100 88
107 121 112
93 108 98
104 119 114
114 128 122
106 119 116
109 123 117
100 114 108
116 128 124
106 119 116
110 122 119
98 111 103
95 107 103
68 81 69
48 60 45
64 76 67
62 73 64
62 73 67
66 76 72
48 60 48
28 39 21
37 51 29
28 39 22
35 49 27
39 51 36
49 61 48
47 58 47
50 61 53
42 55 37
53 65 54
38 50 35
68 81 70
45 62 35
45 59 39
49 63 46
46 62 36
40 55 31
43 60 34
40 56 31
48 65 38
38 55 28
37 53 28
63 79 61
78 91 85
96 110 105
82 95 88
66 81 65
74 89 75
51 70 44
46 64 35
53 73 43
66 83 62
92 108 100
98 112 105
129 141 142
163 176 182
182 194 204
199 211 223
224 236 253
227 239 255
227 239 255
227 239 255
227 239 255
227 239 255
227 239 255
227 239 255
227 239 255
227 239 255
227 239 255
227 239 255
227 239 255
227 239 255
227 239 255
227 239 255
227 239 255
227 239 255
227 239 255
227 239 255
227 239 255
227 239 255
227 239 255
227 239 255
227 239 255
227 239 255
227 239 255
227 239 255
227 239 255
227 239 255
227 239 255
227 239 255
227 239 255
227 239 255
227 239 255
227 239 255
227 239 255
227 239 255
227 239 255
227 239 255
227 239 255
227 239 255
227 239 255
227 239 255
227 239 255
227 239 255
227 239 255
227 239 255
227 239 255
227 239 255
227 239 255
227 239 255
227 239 255
227 239 255
227 239 255
227 239 255
227 239 255
227 239 255
227 239 255
227 239 255
227 239 255
227 239 255
227 239 255
227 239 255
227 239 255
227 239 255
227 239 255
227 239 255
227 239 255
227 239 255
227 239 255
227 239 255
227 239 255
227 239 255
227 239 255
227 239 255
227 239 255
227 239 255
227 239 255
227 239 255
227 239 255
227 239 255
227 239 255
227 239 255
227 239 255
227 239 255
227 239 255
227 239 255
227 239 255
227 239 255
227 239 255
227 239 255
227 239 255
227 239 255
227 239 255
227 239 255
227 239 255
227 239 255
227 239 255
227 239 255
227 239 255
227 239 255
227 239 255
227 239 255
227 239 255
227 239 255
227 239 255
227 239 255
227 239 255
227 239 255
227 239 255
227 239 255
227 239 255
227 239 255
227 239 255
227 239 255
227 239 255
227 239 255
227 239 255
227 239 255
227 239 255
227 239 255
227 239 255
227 239 255
227 239 255
227 239 255
227 239 255
227 239 255
227 239 255
227 239 255
227 239 255
227 239 255
227 239 255
227 239 255
227 239 255
227 239 255
227 239 255
227 239 255
227 239 255
227 239 255
227 239 255
227 239 255
227 239 255
227 239 255
227 239 255
227 239 255
227 239 255
227 239 255
227 239 255
227 239 255
227 239 255
227 239 255
227 239 255
227 239 255
227 239 255
227 239 255
227 239 255
227 239 255
227 239 255
227 239 255
227 239 255
227 239 255
227 239 255
227 239 255
227 239 255
227 239 255
227 239 255
227 239 255
227 239 255
227 239 255
227 239 255
227 239 255
227 239 255
227 239 255
227 239 255
227 239 255
227 239 255
227 239 255
227 239 255
227 239 255
227 239 255
227 239 255
227 239 255
227 239 255
227 239 255
227 239 255
227 239 255
227 239 255
227 239 255
227 239 255
227 239 255
227 239 255
227 239 255
227 239 255
227 239 255
227 239 255
227 239 255
227 239 255
227 239 255
227 239 255
227 239 255
227 239 255
227 239 255
227 239 255
227 239 255
227 239 255
227 239 255
227 239 255
227 239 255
227 239 255
227 239 255
227 239 255
227 239 255
227 239 255
227 239 255
227 239 255
227 239 255
227 239 255
227 239 255
214 226 241
184 196 206
169 181 190
136 150 149
79 95 80
71 90 69
81 99 83
77 94 79
91 105 98
106 119 118
102 114 112
91 104 100
81 94 88
75 90 78
53 68 52
90 104 100
99 112 110
88 102 95
106 117 119
91 103 103
84 97 92
107 120 121
86 98 93
63 74 66
72 84 75
56 69 55
45 61 35
32 45 24
41 56 33
34 48 25
36 50 28
42 54 41
65 75 71
89 100 99
69 82 74
86 96 97
67 77 75
80 89 89
61 71 66
48 60 48
51 62 53
31 41 30
29 42 22
33 46 26
25 36 19
34 46 26
35 48 28
38 52 30
24 33 18
30 41 24
47 55 51
68 77 75
57 65 63
53 61 57
39 48 39
61 66 68
60 68 66
58 66 64
55 64 57
47 60 45
47 60 43
46 62 36
67 81 65
80 91 85
89 100 94
104 116 116
100 110 111
90 103 98
106 118 116
103 117 111
101 113 108
94 108 98
104 117 111
97 111 103
93 109 98
88 102 91
83 97 88
85 98 89
85 101 86
86 101 86
79 95 78
71 87 66
69 88 62
70 86 66
103 118 108
116 129 126
110 124 120
120 132 134
116 130 124
116 128 127
124 137 136
123 136 134
114 127 124
111 125 121
115 128 124
105 119 114
121 133 133
115 127 127
122 135 134
115 128 126
104 116 112
98 112 104
84 100 84
73 92 69
59 74 57
73 90 69
65 82 57
72 88 68
64 81 60
67 83 65
77 95 73
65 81 63
75 93 72
66 83 61
57 74 51
55 71 49
63 80 56
64 79 60
76 90 77
83 94 89
99 111 106
74 86 78
89 100 95
83 94 89
74 84 78
60 71 62
62 71 66
63 72 65
46 56 47
34 46 29
55 67 56
57 64 63
58 67 63
58 65 64
51 61 52
54 63 58
43 54 42
43 51 45
49 57 51
75 85 84
57 66 62
59 68 65
55 63 61
53 65 54
26 37 19
40 55 31
31 43 24
31 44 24
36 50 29
37 52 29
41 57 32
36 51 28
33 46 25
40 56 31
35 48 27
33 47 25
57 69 59
77 88 86
80 91 86
80 91 88
73 84 80
67 82 69
64 76 65
68 80 72
67 81 66
48 60 46
45 61 35
66 81 66
89 102 98
87 99 93
103 116 115
89 103 95
101 113 115
97 110 106
86 101 92
88 101 98
77 91 81
108 121 119
115 130 130
103 118 112
106 121 117
85 101 89
131 146 145
156 168 173
181 194 203
218 230 245
227 239 255
227 239 255
227 239 255
227 239 255
227 239 255
227 239 255
227 239 255
227 239 255
227 239 255
227 239 255
227 239 255
227 239 255
227 239 255
227 239 255
227 239 255
227 239 255
227 239 255
227 239 255
227 239 255
227 239 255
227 239 255
227 239 255
227 239 255
227 239 255
227 239 255
227 239 255
227 239 255
227 239 255
227 239 255
227 239 255
227 239 255
227 239 255
227 239 255
227 239 255
227 239 255
227 239 255
227 239 255
227 239 255
227 239 255
227 239 255
227 239 255
227 239 255
227 239 255
227 239 255
227 239 255
227 239 255
227 239 255
227 239 255
227 239 255
227 239 255
227 239 255
227 239 255
227 239 255
227 239 255
227 239 255
227 239 255
227 239 255
227 239 255
227 239 255
227 239 255
227 239 255
227 239 255
227 239 255
227 239 255
227 239 255
227 239 255
227 239 255
227 239 255
227 239 255
227 239 255
227 239 255
227 239 255
227 239 255
227 239 255
227 239 255
227 239 255
227 239 255
227 239 255
227 239 255
227 239 255
227 239 255
227 239 255
227 239 255
227 239 255
227 239 255
227 239 255
227 239 255
227 239 255
227 239 255
227 239 255
227 239 255
227 239 255
227 239 255
227 239 255
227 239 255
227 239 255
227 239 255
227 239 255
227 239 255
227 239 255
227 239 255
227 239 255
227 239 255
227 239 255
227 239 255
227 239 255
227 239 255
227 239 255
227 239 255
227 239 255
227 239 255
227 239 255
227 239 255
227 239 255
227 239 255
227 239 255
227 239 255
227 239 255
227 239 255
227 239 255
227 239 255
227 239 255
227 239 255
227 239 255
227 239 255
227 239 255
227 239 255
227 239 255
227 239 255
227 239 255
227 239 255
227 239 255
227 239 255
227 239 255
227 239 255
227 239 255
227 239 255
227 239 255
227 239 255
227 239 255
227 239 255
227 239 255
227 239 255
227 239 255
227 239 255
227 239 255
227 239 255
227 239 255
227 239 255
227 239 255
227 239 255
227 239 255
227 239 255
227 239 255
227 239 255
227 239 255
227 239 255
227 239 255
227 239 255
227 239 255
227 239 255
227 239 255
227 239 255
227 239 255
227 239 255
227 239 255
227 239 255
227 239 255
227 239 255
227 239 255
227 239 255
227 239 255
227 239 255
227 239 255
227 239 255
227 239 255
227 239 255
227 239 255
227 239 255
227 239 255
227 239 255
227 239 255
227 239 255
227 239 255
227 239 255
227 239 255
227 239 255
227 239 255
227 239 255
227 239 255
227 239 255
227 239 255
227 239 255
227 239 255
227 239 255
227 239 255
227 239 255
227 239 255
227 239 255
227 239 255
227 239 255
227 239 255
227 239 255
227 239 255
227 239 255
227 239 255
227 239 255
227 239 255
227 239 255
218 230 245
197 209 222
185 197 208
148 161 166
97 113 102
68 87 64
66 84 65
71 88 67
101 116 108
110 123 124
108 122 121
113 127 127
105 119 117
91 104 101
58 72 59
64 79 62
46 64 37
52 71 41
47 64 37
54 71 46
92 104 103
100 111 111
87 99 97
84 97 93
52 68 48
71 85 71
44 61 35
45 61 36
51 69 41
41 58 32
43 59 33
46 63 36
37 52 29
38 52 29
40 56 32
46 61 39
42 55 37
73 84 79
58 70 59
53 65 51
36 50 28
28 41 21
35 48 27
37 52 28
31 44 23
38 52 30
32 44 25
33 47 25
35 49 27
35 47 27
29 42 22
33 47 26
27 37 21
23 33 17
36 47 32
59 66 66
39 48 40
39 48 40
48 58 49
39 49 38
34 43 32
34 44 31
31 42 24
25 35 19
30 42 23
28 38 22
26 37 19
26 37 20
26 37 20
27 38 22
19 28 14
26 36 21
36 43 37
51 59 55
55 63 60
35 42 37
48 56 51
34 43 32
38 46 38
39 45 43
47 56 48
32 41 31
48 56 52
53 61 58
35 44 35
49 62 46
39 48 39
46 58 44
38 46 38
38 52 30
31 42 27
42 54 36
38 48 33
37 49 33
43 53 41
48 61 45
55 66 55
46 57 43
49 60 48
37 51 28
58 69 60
47 58 45
55 68 53
56 65 59
68 78 74
66 78 72
62 69 65
51 62 51
67 77 71
66 73 71
49 59 48
45 51 48
55 63 58
43 49 51
41 50 43
41 49 44
23 28 22
23 32 18
15 22 12
26 35 21
15 22 11
22 31 17
50 58 56
45 51 50
43 51 45
45 50 49
45 54 45
41 50 40
40 46 43
25 31 26
58 67 62
55 62 60
62 72 67
53 61 57
63 73 67
50 57 54
37 48 34
35 45 32
33 43 31
31 39 30
38 49 34
35 44 32
28 37 28
32 43 30
25 37 19
41 51 40
47 56 51
51 62 51
60 70 66
61 72 64
43 54 42
43 55 42
57 68 59
33 45 26
29 42 21
31 44 25
34 48 27
39 55 30
39 53 30
39 54 30
40 56 31
37 52 29
34 48 27
74 84 82
86 97 95
84 96 90
96 108 106
90 101 100
90 101 100
97 109 110
102 114 116
95 108 103
100 111 112
82 94 87
97 110 108
93 106 102
84 97 90
83 97 87
89 101 98
101 115 110
97 112 108
99 113 112
107 120 119
104 118 116
105 118 117
88 105 94
92 108 98
107 123 118
102 117 112
121 134 137
103 119 113
123 137 138
156 169 176
173 186 194
196 207 221
225 237 253
227 239 255
227 239 255
227 239 255
227 239 255
227 239 255
227 239 255
227 239 255
227 239 255
227 239 255
227 239 255
227 239 255
227 239 255
227 239 255
227 239 255
227 239 255
227 239 255
227 239 255
227 239 255
227 239 255
227 239 255
227 239 255
227 239 255
227 239 255
227 239 255
227 239 255
227 239 255
227 239 255
227 239 255
227 239 255
227 239 255
227 239 255
227 239 255
227 239 255
227 239 255
227 239 255
227 239 255
227 239 255
227 239 255
227 239 255
227 239 255
227 239 255
227 239 255
227 239 255
227 239 255
227 239 255
227 239 255
227 239 255
227 239 255
227 239 255
227 239 255
227 239 255
227 239 255
227 239 255
227 239 255
227 239 255
227 239 255
227 239 255
227 239 255
227 239 255
227 239 255
227 239 255
227 239 255
227 239 255
227 239 255
227 239 255
227 239 255
227 239 255
227 239 255
227 239 255
227 239 255
227 239 255
227 239 255
227 239 255
227 239 255
227 239 255
227 239 255
227 239 255
227 239 255
227 239 255
227 239 255
227 239 255
227 239 255
227 239 255
227 239 255
227 239 255
227 239 255
227 239 255
227 239 255
227 239 255
227 239 255
227 239 255
227 239 255
227 239 255
227 239 255
227 239 255
227 239 255
227 239 255
227 239 255
227 239 255
227 239 255
227 239 255
227 239 255
227 239 255
227 239 255
227 239 255
227 239 255
227 239 255
227 239 255
227 239 255
227 239 255
227 239 255
227 239 255
227 239 255
227 239 255
227 239 255
227 239 255
227 239 255
227 239 255
227 239 255
227 239 255
227 239 255
227 239 255
227 239 255
227 239 255
227 239 255
227 239 255
227 239 255
227 239 255
227 239 255
227 239 255
227 239 255
227 239 255
227 239 255
227 239 255
227 239 255
227 239 255
227 239 255
227 239 255
227 239 255
227 239 255
227 239 255
227 239 255
227 239 255
227 239 255
227 239 255
227 239 255
227 239 255
227 239 255
227 239 255
227 239 255
227 239 255
227 239 255
227 239 255
227 239 255
227 239 255
227 239 255
227 239 255
227 239 255
227 239 255
227 239 255
227 239 255
227 239 255
227 239 255
227 239 255
227 239 255
227 239 255
227 239 255
227 239 255
227 239 255
227 239 255
227 239 255
227 239 255
227 239 255
227 239 255
227 239 255
227 239 255
227 239 255
227 239 255
227 239 255
227 239 255
227 239 255
227 239 255
227 239 255
227 239 255
227 239 255
227 239 255
227 239 255
227 239 255
227 239 255
227 239 255
227 239 255
227 239 255
227 239 255
227 239 255
227 239 255
227 239 255
227 239 255
227 239 255
227 239 255
227 239 255
220 232 249
193 205 216
172 185 192
136 150 151
110 125 121
123 139 141
96 112 104
85 101 90
96 110 103
110 126 125
125 139 141
127 141 143
101 116 112
71 88 73
74 89 77
53 70 47
46 65 36
48 65 37
49 68 39
44 61 34
55 72 49
47 65 37
74 90 74
74 87 80
86 99 94
48 65 39
38 54 28
45 62 35
41 57 32
47 65 37
47 64 37
44 62 35
35 51 26
45 62 36
67 79 72
50 62 48
62 74 64
74 84 82
77 89 85
72 83 80
82 93 91
76 86 85
65 76 70
40 55 32
35 50 27
35 48 26
38 53 30
36 49 28
35 49 28
37 52 28
30 43 23
34 47 26
35 48 27
59 70 62
50 61 52
44 53 45
46 54 48
51 59 56
56 65 60
50 57 53
35 48 28
29 39 23
24 35 18
26 37 20
27 37 21
28 39 23
34 47 27
19 28 13
25 35 18
23 33 17
25 34 19
27 38 21
31 44 24
27 38 21
22 31 16
25 35 19
29 41 23
59 66 66
49 56 54
60 68 66
60 67 66
49 56 55
40 47 42
42 50 45
37 45 38
25 34 20
21 30 16
44 53 46
36 45 34
21 30 16
26 35 20
24 34 18
30 41 24
25 34 19
43 52 45
47 54 51
46 53 50
26 31 27
36 43 37
43 51 46
27 34 26
47 55 47
25 31 25
55 63 58
41 47 45
49 55 54
25 35 20
52 59 56
38 45 39
21 29 17
42 50 44
24 33 18
23 31 17
19 27 14
18 25 14
25 34 19
25 34 20
24 34 18
26 37 20
23 33 18
21 29 16
31 43 24
18 27 12
21 30 16
26 36 21
31 42 24
35 42 36
37 45 38
44 50 49
35 42 36
38 47 38
53 60 60
55 63 61
52 61 56
42 52 41
64 72 73
45 52 50
56 65 60
52 62 57
64 73 71
53 61 57
57 65 62
29 41 22
39 52 31
28 40 22
29 42 22
26 38 20
31 43 24
34 49 26
32 44 25
36 49 28
35 48 27
34 46 26
25 36 19
35 48 27
58 67 62
54 65 57
63 71 69
88 98 97
64 75 68
65 75 72
76 86 85
64 76 67
59 72 59
72 82 80
55 67 56
72 84 77
60 72 60
67 79 72
82 92 93
77 89 84
81 93 89
72 84 78
77 88 84
103 116 113
81 93 90
90 102 100
91 103 101
98 110 110
99 112 112
74 87 78
56 73 49
48 66 38
54 71 49
61 78 58
70 85 72
66 79 70
83 97 89
91 104 99
98 110 107
87 98 93
68 85 66
56 77 44
54 73 45
62 81 55
81 96 85
101 116 112
105 120 114
90 106 96
93 109 100
127 140 140
163 177 181
193 206 216
223 235 251
227 239 255
227 239 255
227 239 255
227 239 255
227 239 255
227 239 255
227 239 255
227 239 255
227 239 255
227 239 255
227 239 255
227 239 255
227 239 255
227 239 255
227 239 255
227 239 255
227 239 255
227 239 255
227 239 255
227 239 255
227 239 255
227 239 255
227 239 255
227 239 255
227 239 255
227 239 255
227 239 255
227 239 255
227 239 255
227 239 255
227 239 255
227 239 255
227 239 255
227 239 255
227 239 255
227 239 255
227 239 255
227 239 255
227 239 255
227 239 255
227 239 255
227 239 255
227 239 255
227 239 255
227 239 255
227 239 255
227 239 255
227 239 255
227 239 255
227 239 255
227 239 255
227 239 255
227 239 255
227 239 255
227 239 255
227 239 255
227 239 255
227 239 255
227 239 255
227 239 255
227 239 255
227 239 255
227 239 255
227 239 255
227 239 255
227 239 255
227 239 255
227 239 255
227 239 255
227 239 255
227 239 255
227 239 255
227 239 255
227 239 255
227 239 255
227 239 255
227 239 255
227 239 255
227 239 255
227 239 255
227 239 255
227 239 255
227 239 255
227 239 255
227 239 255
227 239 255
227 239 255
227 239 255
227 239 255
227 239 255
227 239 255
227 239 255
227 239 255
227 239 255
227 239 255
227 239 255
227 239 255
227 239 255
227 239 255
227 239 255
227 239 255
227 239 255
227 239 255
227 239 255
227 239 255
227 239 255
227 239 255
227 239 255
227 239 255
227 239 255
227 239 255
227 239 255
227 239 255
227 239 255
227 239 255
227 239 255
227 239 255
227 239 255
227 239 255
227 239 255
227 239 255
227 239 255
227 239 255
227 239 255
227 239 255
227 239 255
227 239 255
227 239 255
227 239 255
227 239 255
227 239 255
227 239 255
227 239 255
227 239 255
227 239 255
227 239 255
227 239 255
227 239 255
227 239 255
227 239 255
227 239 255
227 239 255
227 239 255
227 239 255
227 239 255
227 239 255
227 239 255
227 239 255
227 239 255
227 239 255
227 239 255
227 239 255
227 239 255
227 239 255
227 239 255
227 239 255
227 239 255
227 239 255
227 239 255
227 239 255
227 239 255
227 239 255
227 239 255
227 239 255
227 239 255
227 239 255
227 239 255
227 239 255
227 239 255
227 239 255
227 239 255
227 239 255
227 239 255
227 239 255
227 239 255
227 239 255
227 239 255
227 239 255
227 239 255
227 239 255
227 239 255
227 239 255
227 239 255
227 239 255
227 239 255
227 239 255
227 239 255
227 239 255
227 239 255
227 239 255
227 239 255
227 239 255
215 227 242
195 206 219
183 195 206
137 151 153
114 130 125
119 132 133
116 132 129
99 116 107
65 83 63
51 70 41
55 76 44
61 78 56
98 114 102
93 109 98
64 82 59
57 77 46
50 68 40
52 71 40
52 72 40
48 65 37
56 72 51
83 99 88
85 99 90
92 105 101
92 104 101
89 101 98
95 107 105
98 112 109
98 111 111
100 112 113
51 68 44
45 62 36
61 75 62
81 94 88
70 82 74
55 67 55
84 95 93
82 93 91
79 91 86
88 100 98
92 104 105
73 84 79
79 89 88
83 96 91
66 78 71
72 84 77
81 93 89
71 81 79
36 50 28
29 42 22
37 51 34
51 62 53
65 75 68
73 83 78
55 65 58
59 70 61
63 73 69
76 87 82
73 82 78
64 74 69
63 72 67
55 65 59
57 67 62
70 80 76
53 64 55
30 41 23
30 42 23
34 47 27
25 36 18
33 45 26
33 47 25
38 51 29
23 34 17
31 42 24
30 41 23
27 38 20
37 46 37
39 48 39
57 68 59
45 54 46
50 58 54
44 50 48
22 31 17
35 44 32
21 31 15
28 38 21
25 35 20
23 33 18
25 36 18
23 33 17
24 34 18
25 36 19
29 40 22
27 38 21
17 26 12
26 35 20
21 30 16
27 38 21
33 42 31
42 48 44
58 67 62
50 58 55
44 51 49
58 65 64
42 50 45
47 53 50
50 59 52
39 49 40
38 46 39
32 40 30
41 50 43
46 53 50
61 70 67
33 41 31
45 52 49
41 48 45
27 37 22
25 35 19
19 27 14
25 36 20
22 32 15
29 40 22
31 42 24
20 28 15
19 28 14
20 30 13
25 36 19
19 29 13
33 46 26
25 35 20
25 36 19
52 60 56
49 58 52
58 66 65
43 54 42
54 63 58
44 54 46
64 71 71
72 81 80
62 70 69
70 77 79
62 70 70
56 65 60
56 64 61
38 47 39
58 66 64
62 70 68
27 39 20
32 44 25
28 40 22
28 40 21
34 47 27
33 46 26
28 40 21
24 36 17
33 46 26
37 51 30
38 52 30
32 46 24
31 44 24
43 55 41
79 91 88
66 77 70
50 62 49
71 82 76
87 98 96
54 65 55
72 84 79
75 87 84
81 93 88
86 98 95
92 105 100
92 102 104
79 90 88
70 83 74
44 60 34
39 53 34
63 78 63
63 76 65
52 64 53
84 96 92
83 97 91
90 102 100
87 101 93
115 127 130
96 108 108
75 89 81
48 66 37
51 70 40
54 74 43
50 67 39
48 66 38
47 65 36
46 64 37
64 81 61
71 88 72
61 79 57
68 83 68
67 86 63
53 73 42
55 75 43
59 80 47
52 72 41
75 91 77
77 96 74
62 83 55
77 96 77
75 94 71
109 125 114
152 165 167
185 197 208
216 228 243
227 239 255
227 239 255
227 239 255
227 239 255
227 239 255
227 239 255
227 239 255
227 239 255
227 239 255
227 239 255
227 239 255
227 239 255
227 239 255
227 239 255
227 239 255
227 239 255
227 239 255
227 239 255
227 239 255
227 239 255
227 239 255
227 239 255
227 239 255
227 239 255
227 239 255
227 239 255
227 239 255
227 239 255
227 239 255
227 239 255
227 239 255
227 239 255
227 239 255
227 239 255
227 239 255
227 239 255
227 239 255
227 239 255
227 239 255
227 239 255
227 239 255
227 239 255
227 239 255
227 239 255
227 239 255
227 239 255
227 239 255
227 239 255
227 239 255
227 239 255
227 239 255
227 239 255
227 239 255
227 239 255
227 239 255
227 239 255
227 239 255
227 239 255
227 239 255
227 239 255
227 239 255
227 239 255
227 239 255
227 239 255
227 239 255
227 239 255
227 239 255
227 239 255
227 239 255
227 239 255
227 239 255
227 239 255
227 239 255
227 239 255
227 239 255
227 239 255
227 239 255
227 239 255
227 239 255
227 239 255
227 239 255
227 239 255
227 239 255
227 239 255
227 239 255
227 239 255
227 239 255
227 239 255
227 239 255
227 239 255
227 239 255
227 239 255
227 239 255
227 239 255
227 239 255
227 239 255
227 239 255
227 239 255
227 239 255
227 239 255
227 239 255
227 239 255
227 239 255
227 239 255
227 239 255
227 239 255
227 239 255
227 239 255
227 239 255
227 239 255
227 239 255
227 239 255
227 239 255
227 239 255
227 239 255
227 239 255
227 239 255
227 239 255
227 239 255
227 239 255
227 239 255
227 239 255
227 239 255
227 239 255
227 239 255
227 239 255
227 239 255
227 239 255
227 239 255
227 239 255
227 239 255
227 239 255
227 239 255
227 239 255
227 239 255
227 239 255
227 239 255
227 239 255
227 239 255
227 239 255
227 239 255
227 239 255
227 239 255
227 239 255
227 239 255
227 239 255
227 239 255
227 239 255
227 239 255
227 239 255
227 239 255
227 239 255
227 239 255
227 239 255
227 239 255
227 239 255
227 239 255
227 239 255
227 239 255
227 239 255
227 239 255
227 239 255
227 239 255
227 239 255
227 239 255
227 239 255
227 239 255
227 239 255
227 239 255
227 239 255
227 239 255
227 239 255
227 239 255
227 239 255
227 239 255
227 239 255
227 239 255
227 239 255
227 239 255
227 239 255
227 239 255
227 239 255
227 239 255
227 239 255
220 232 248
199 212 223
167 181 188
143 157 159
132 147 151
107 123 114
116 131 127
89 107 90
73 92 73
54 74 42
50 70 39
70 88 68
100 117 108
99 116 108
114 128 127
105 120 116
109 125 120
52 71 40
56 76 44
62 80 57
75 89 78
82 98 85
100 114 112
101 114 112
109 121 121
93 106 105
108 120 119
98 113 109
102 115 114
101 115 113
92 107 102
85 98 93
87 99 95
76 89 81
56 71 53
87 100 95
88 99 97
86 100 92
88 99 96
92 103 102
76 88 83
86 97 95
100 111 111
67 79 71
86 99 94
85 96 95
83 93 92
66 76 71
66 76 71
73 83 79
48 61 45
49 63 45
67 78 71
64 74 69
67 77 72
72 84 78
69 79 76
68 79 72
62 72 67
71 80 79
72 82 79
72 82 80
63 74 69
52 62 54
70 80 77
63 72 67
65 75 69
60 70 65
82 93 90
45 55 47
33 46 26
38 47 38
34 47 27
45 57 43
40 50 40
67 76 74
63 73 67
42 50 45
53 61 56
69 81 74
62 72 66
62 70 69
42 51 44
43 53 42
55 64 58
68 77 76
55 63 63
39 48 40
30 42 23
27 38 21
25 34 19
30 42 23
36 50 28
35 48 27
24 34 18
25 35 18
34 47 27
33 46 26
25 36 20
30 41 24
33 45 26
23 33 17
23 33 17
19 28 14
62 70 69
44 54 45
36 45 36
60 68 66
59 68 63
57 63 64
49 56 55
57 64 65
61 68 68
46 56 47
32 40 30
63 72 69
67 76 75
55 63 61
44 53 45
68 75 77
45 55 47
30 39 29
26 33 26
29 37 28
40 49 40
21 31 14
40 51 39
25 34 19
38 48 38
44 53 46
24 35 18
45 54 46
55 65 60
42 51 44
41 51 41
48 60 49
56 67 59
53 63 53
47 55 51
45 52 49
61 71 65
46 55 48
52 61 54
55 65 54
44 55 42
52 62 53
57 68 59
43 54 42
61 70 66
70 79 77
58 65 63
52 63 53
54 64 58
41 51 39
51 61 52
43 54 41
30 43 22
39 50 39
40 52 35
35 48 28
40 55 32
38 53 30
31 44 24
31 45 23
33 46 25
40 52 35
66 77 72
55 66 58
82 92 92
75 88 80
81 92 89
82 93 90
83 96 93
86 97 96
74 86 79
74 84 80
84 97 93
94 105 106
82 95 91
75 89 81
46 63 36
41 58 32
52 70 41
42 58 33
49 67 39
43 59 33
47 66 37
48 66 37
43 56 42
57 73 55
69 83 69
67 80 72
59 75 57
60 75 57
65 81 64
56 72 53
45 63 34
51 70 40
48 66 37
48 67 38
47 66 37
59 79 50
81 95 86
96 110 105
101 115 110
78 95 78
84 99 87
78 97 74
52 71 45
56 77 45
57 75 52
106 122 113
92 108 100
116 130 130
95 111 100
82 100 85
126 141 135
165 178 184
190 202 212
221 233 249
227 239 255
227 239 255
227 239 255
227 239 255
227 239 255
227 239 255
227 239 255
227 239 255
227 239 255
227 239 255
227 239 255
227 239 255
227 239 255
227 239 255
227 239 255
227 239 255
227 239 255
227 239 255
227 239 255
227 239 255
227 239 255
227 239 255
227 239 255
227 239 255
227 239 255
227 239 255
227 239 255
227 239 255
227 239 255
227 239 255
227 239 255
227 239 255
227 239 255
227 239 255
227 239 255
227 239 255
227 239 255
227 239 255
227 239 255
227 239 255
227 239 255
227 239 255
227 239 255
227 239 255
227 239 255
227 239 255
227 239 255
227 239 255
227 239 255
227 239 255
227 239 255
227 239 255
227 239 255
227 239 255
227 239 255
227 239 255
227 239 255
227 239 255
227 239 255
227 239 255
227 239 255
227 239 255
227 239 255
227 239 255
227 239 255
227 239 255
227 239 255
227 239 255
227 239 255
227 239 255
227 239 255
227 239 255
227 239 255
227 239 255
227 239 255
227 239 255
227 239 255
227 239 255
227 239 255
227 239 255
227 239 255
227 239 255
227 239 255
227 239 255
227 239 255
227 239 255
227 239 255
227 239 255
227 239 255
227 239 255
227 239 255
227 239 255
227 239 255
227 239 255
227 239 255
227 239 255
227 239 255
227 239 255
227 239 255
227 239 255
227 239 255
227 239 255
227 239 255
227 239 255
227 239 255
227 239 255
227 239 255
227 239 255
227 239 255
227 239 255
227 239 255
227 239 255
227 239 255
227 239 255
227 239 255
227 239 255
227 239 255
227 239 255
227 239 255
227 239 255
227 239 255
227 239 255
227 239 255
227 239 255
227 239 255
227 239 255
227 239 255
227 239 255
227 239 255
227 239 255
227 239 255
227 239 255
227 239 255
227 239 255
227 239 255
227 239 255
227 239 255
227 239 255
227 239 255
227 239 255
227 239 255
227 239 255
227 239 255
227 239 255
227 239 255
227 239 255
227 239 255
227 239 255
227 239 255
227 239 255
227 239 255
227 239 255
227 239 255
227 239 255
227 239 255
227 239 255
227 239 255
227 239 255
227 239 255
227 239 255
227 239 255
227 239 255
227 239 255
227 239 255
227 239 255
227 239 255
227 239 255
227 239 255
227 239 255
227 239 255
227 239 255
227 239 255
227 239 255
227 239 255
227 239 255
227 239 255
220 232 248
185 198 206
162 175 179
158 172 178
100 117 107
116 132 132
111 126 125
104 121 115
79 97 79
61 83 48
51 72 40
66 84 65
86 103 92
95 111 103
127 140 145
111 124 123
111 126 124
110 123 124
108 122 121
118 133 131
90 105 96
91 106 98
105 118 116
110 123 123
111 124 126
111 124 123
105 119 116
100 113 109
114 128 128
92 104 102
108 120 123
85 99 91
62 78 57
54 72 49
36 51 26
46 64 36
45 63 35
49 67 39
43 59 33
80 92 87
98 111 109
91 103 98
99 111 111
96 108 107
85 97 93
87 98 96
87 99 94
83 95 91
58 70 58
70 83 74
53 69 48
35 49 26
42 57 33
36 51 26
42 57 33
36 51 27
45 60 39
84 94 93
70 81 76
91 102 103
75 86 81
78 87 87
71 80 77
69 78 78
60 71 63
68 79 72
70 81 76
63 74 67
65 73 73
70 80 77
58 68 61
57 69 59
44 59 39
49 61 49
62 71 68
73 83 81
65 74 71
63 72 67
65 73 73
54 64 56
68 76 76
60 70 64
52 62 53
41 49 43
65 74 72
59 67 65
64 72 70
57 68 62
66 75 73
55 64 57
61 71 66
54 64 57
27 38 20
22 32 16
31 43 24
36 49 29
30 41 23
34 47 27
32 44 25
33 46 26
28 41 20
29 40 23
25 37 19
27 38 20
35 48 28
37 48 34
41 53 37
37 46 37
61 70 67
54 63 57
37 47 34
51 61 53
29 39 25
49 59 49
46 56 47
40 51 40
34 45 31
46 56 47
32 41 30
29 40 22
38 50 34
22 32 17
26 36 19
26 37 19
26 37 19
51 61 53
61 69 67
71 80 78
56 65 60
60 70 66
62 70 70
50 59 53
63 72 69
65 76 68
61 70 67
57 66 62
66 74 73
45 53 49
49 59 51
48 59 48
61 71 67
68 78 73
30 41 23
37 51 29
30 42 24
36 50 28
38 52 31
32 45 24
26 38 19
34 47 27
37 50 29
34 48 26
37 52 28
34 48 26
36 50 28
30 43 23
35 47 31
62 71 67
77 89 83
54 65 58
89 100 98
55 67 57
62 72 68
65 74 72
79 89 89
69 80 76
71 82 76
86 97 95
80 90 88
74 85 81
73 84 79
69 80 76
63 73 67
71 84 74
59 71 59
64 77 66
58 69 62
85 98 95
82 93 89
74 86 80
77 89 84
86 98 94
111 123 125
91 103 98
84 95 91
53 69 45
43 60 33
44 61 34
46 63 36
44 61 34
40 57 31
46 64 36
49 67 38
54 73 42
50 68 40
50 68 39
47 65 37
76 88 82
82 96 88
100 114 111
95 108 104
87 98 96
83 98 89
75 91 75
66 82 65
58 77 50
53 73 43
50 70 40
86 100 92
100 115 109
116 130 132
111 125 123
106 121 116
111 125 122
107 121 119
107 121 117
94 110 98
108 121 121
110 125 124
102 117 110
121 136 138
112 127 124
115 130 126
111 126 121
121 136 133
161 175 179
194 206 218
223 235 251
227 239 255
227 239 255
227 239 255
227 239 255
227 239 255
227 239 255
227 239 255
227 239 255
227 239 255
227 239 255
227 239 255
227 239 255
227 239 255
227 239 255
227 239 255
227 239 255
227 239 255
227 239 255
227 239 255
227 239 255
227 239 255
227 239 255
227 239 255
227 239 255
227 239 255
227 239 255
227 239 255
227 239 255
227 239 255
227 239 255
227 239 255
227 239 255
227 239 255
227 239 255
227 239 255
227 239 255
227 239 255
227 239 255
227 239 255
227 239 255
227 239 255
227 239 255
227 239 255
227 239 255
227 239 255
227 239 255
227 239 255
227 239 255
227 239 255
227 239 255
227 239 255
227 239 255
227 239 255
227 239 255
227 239 255
227 239 255
227 239 255
227 239 255
227 239 255
227 239 255
227 239 255
227 239 255
227 239 255
227 239 255
227 239 255
227 239 255
227 239 255
227 239 255
227 239 255
227 239 255
227 239 255
227 239 255
227 239 255
227 239 255
227 239 255
227 239 255
227 239 255
227 239 255
227 239 255
227 239 255
227 239 255
227 239 255
227 239 255
227 239 255
227 239 255
227 239 255
227 239 255
227 239 255
227 239 255
227 239 255
227 239 255
227 239 255
227 239 255
227 239 255
227 239 255
227 239 255
227 239 255
227 239 255
227 239 255
227 239 255
227 239 255
227 239 255
227 239 255
227 239 255
227 239 255
227 239 255
227 239 255
227 239 255
227 239 255
227 239 255
227 239 255
227 239 255
227 239 255
227 239 255
227 239 255
227 239 255
227 239 255
227 239 255
227 239 255
227 239 255
227 239 255
227 239 255
227 239 255
227 239 255
227 239 255
227 239 255
227 239 255
227 239 255
227 239 255
227 239 255
227 239 255
227 239 255
227 239 255
227 239 255
227 239 255
227 239 255
227 239 255
227 239 255
227 239 255
227 239 255
227 239 255
227 239 255
227 239 255
227 239 255
227 239 255
227 239 255
227 239 255
227 239 255
227 239 255
227 239 255
227 239 255
227 239 255
227 239 255
227 239 255
227 239 255
227 239 255
227 239 255
227 239 255
227 239 255
227 239 255
227 239 255
227 239 255
227 239 255
227 239 255
227 239 255
227 239 255
227 239 255
227 239 255
226 238 254
204 216 229
168 181 187
150 165 169
113 128 125
114 131 131
116 130 127
99 114 108
107 123 116
67 91 54
62 84 50
90 108 94
95 109 102
108 123 119
115 129 125
117 131 132
128 142 147
116 131 131
115 130 130
116 130 130
92 108 99
65 80 65
61 78 56
50 70 39
57 77 45
46 65 35
97 110 105
104 118 117
106 119 117
110 124 126
79 92 85
79 93 84
75 90 77
64 80 61
52 71 41
40 56 30
48 66 38
49 68 39
40 55 31
46 64 35
49 67 39
47 64 36
44 62 35
48 65 42
90 103 99
91 105 99
94 105 104
62 76 63
57 71 57
50 67 43
43 60 34
46 62 36
39 54 30
44 60 35
37 53 29
43 60 34
42 59 33
36 52 28
34 48 26
44 61 34
38 54 30
63 75 66
101 111 112
86 97 97
80 91 89
82 93 91
84 95 94
66 77 69
63 75 67
47 57 50
41 56 31
38 53 29
38 52 29
31 44 23
33 47 26
38 52 29
34 47 26
42 56 32
41 55 36
77 86 86
59 70 65
62 70 69
76 85 84
69 79 75
81 92 90
70 81 77
60 71 63
61 71 67
60 70 67
71 81 79
60 68 66
70 80 76
68 77 75
60 69 65
69 80 75
59 69 62
60 70 66
34 47 28
48 61 45
28 39 22
57 69 59
49 59 52
48 59 49
33 46 26
51 62 53
51 64 50
54 64 56
66 77 71
66 76 70
53 64 55
64 75 69
57 67 60
54 65 58
58 65 65
34 45 31
28 39 20
26 37 19
30 42 23
34 47 26
29 41 23
24 35 17
29 41 22
35 48 27
31 45 23
32 45 25
25 35 19
33 47 25
26 37 20
30 43 23
33 47 26
44 53 44
69 78 77
46 56 47
44 56 43
52 61 55
70 79 78
59 69 62
69 80 76
58 68 62
67 78 74
60 69 65
46 57 46
61 72 66
79 88 89
69 78 77
63 73 67
52 64 53
35 49 27
32 45 24
39 54 31
45 61 35
40 55 31
36 49 28
41 56 32
34 48 27
37 51 28
33 46 26
41 56 32
37 52 29
42 57 33
30 44 23
41 56 32
66 78 69
79 91 87
73 84 81
79 92 86
81 91 91
73 86 79
60 71 66
88 99 100
76 87 82
73 83 78
57 68 59
88 98 99
75 88 80
89 99 100
92 104 104
44 61 34
40 56 31
43 59 34
38 54 29
39 54 30
37 52 28
40 56 31
45 60 38
58 72 56
47 62 41
68 83 71
64 78 67
58 71 57
55 71 50
66 81 68
56 73 51
56 72 53
37 53 28
41 58 32
45 62 35
52 70 41
50 69 40
37 52 28
48 67 38
49 68 38
54 71 46
98 111 109
105 118 116
109 123 123
116 130 129
112 126 126
110 123 123
106 120 117
102 116 112
107 121 118
102 116 112
89 104 95
111 125 125
118 131 133
104 120 115
128 142 145
108 123 120
123 137 140
112 126 125
123 137 140
117 132 130
113 129 126
111 127 120
100 115 109
111 126 123
124 139 137
138 154 158
126 140 143
82 102 82
85 104 85
131 148 141
163 176 179
202 214 227
227 239 255
227 239 255
227 239 255
227 239 255
227 239 255
227 239 255
227 239 255
227 239 255
227 239 255
227 239 255
227 239 255
227 239 255
227 239 255
227 239 255
227 239 255
227 239 255
227 239 255
227 239 255
227 239 255
227 239 255
227 239 255
227 239 255
227 239 255
227 239 255
227 239 255
227 239 255
227 239 255
227 239 255
227 239 255
227 239 255
227 239 255
227 239 255
227 239 255
227 239 255
227 239 255
227 239 255
227 239 255
227 239 255
227 239 255
227 239 255
227 239 255
227 239 255
227 239 255
227 239 255
227 239 255
227 239 255
227 239 255
227 239 255
227 239 255
227 239 255
227 239 255
227 239 255
227 239 255
227 239 255
227 239 255
227 239 255
227 239 255
227 239 255
227 239 255
227 239 255
227 239 255
227 239 255
227 239 255
227 239 255
227 239 255
227 239 255
227 239 255
227 239 255
227 239 255
227 239 255
227 239 255
227 239 255
227 239 255
227 239 255
227 239 255
227 239 255
227 239 255
227 239 255
227 239 255
227 239 255
227 239 255
227 239 255
227 239 255
227 239 255
227 239 255
227 239 255
227 239 255
227 239 255
227 239 255
227 239 255
227 239 255
227 239 255
227 239 255
227 239 255
227 239 255
227 239 255
227 239 255
227 239 255
227 239 255
227 239 255
227 239 255
227 239 255
227 239 255
227 239 255
227 239 255
227 239 255
227 239 255
227 239 255
227 239 255
227 239 255
227 239 255
227 239 255
227 239 255
227 239 255
227 239 255
227 239 255
227 239 255
227 239 255
227 239 255
227 239 255
227 239 255
227 239 255
227 239 255
227 239 255
227 239 255
227 239 255
227 239 255
227 239 255
227 239 255
227 239 255
227 239 255
227 239 255
227 239 255
227 239 255
227 239 255
227 239 255
227 239 255
227 239 255
227 239 255
227 239 255
227 239 255
227 239 255
227 239 255
227 239 255
227 239 255
227 239 255
227 239 255
227 239 255
227 239 255
227 239 255
227 239 255
227 239 255
227 239 255
227 239 255
227 239 255
227 239 255
227 239 255
227 239 255
227 239 255
227 239 255
227 239 255
227 239 255
222 234 249
199 211 223
154 169 169
131 148 146
121 137 136
116 131 128
117 135 133
132 148 146
122 136 136
113 129 125
118 133 131
104 119 116
102 117 113
117 131 131
118 133 134
121 135 136
116 131 128
119 133 134
106 123 117
90 107 97
82 98 82
57 76 48
52 71 41
50 69 38
51 70 40
49 68 38
50 69 39
51 70 40
62 82 53
84 98 89
62 77 61
62 80 58
45 63 34
51 69 39
46 64 36
41 59 32
47 65 37
47 65 37
51 70 40
49 68 39
48 65 37
48 65 38
53 68 47
63 78 62
74 89 74
73 86 74
91 103 98
73 87 74
44 62 34
45 62 35
47 65 37
44 61 35
49 68 38
45 62 35
39 55 31
45 62 35
48 66 38
45 62 36
48 66 38
41 57 33
36 51 28
40 55 31
46 60 40
50 66 42
73 84 78
70 83 75
49 60 51
45 58 43
41 56 32
45 62 35
36 52 28
38 53 30
41 56 33
42 59 33
41 57 31
46 63 38
41 56 32
36 50 28
35 49 26
33 47 25
39 53 30
37 52 28
45 59 43
73 83 78
85 96 95
81 94 88
73 84 80
65 76 70
78 88 88
53 63 56
61 72 66
76 87 83
72 82 79
67 79 72
64 73 68
73 85 78
56 66 61
51 63 50
51 62 52
47 58 46
56 70 57
66 75 71
65 76 71
57 66 62
65 75 70
70 79 77
69 79 75
56 67 55
61 70 68
74 84 82
67 77 72
59 68 65
57 68 60
59 69 64
56 65 61
72 81 79
77 87 86
56 65 60
34 48 26
32 45 24
35 49 27
42 57 33
29 41 22
33 47 26
32 46 24
32 45 25
35 48 28
30 44 22
35 48 28
35 49 27
36 50 28
32 45 24
34 47 26
27 39 21
51 62 52
88 99 98
62 71 69
65 76 70
86 97 96
65 76 69
59 70 63
51 60 54
69 79 74
70 79 79
65 75 71
63 71 70
70 80 79
65 75 71
73 83 81
86 98 95
53 63 54
38 52 30
30 45 22
35 48 27
37 52 29
39 54 30
32 45 24
38 52 29
41 56 32
37 50 28
41 56 33
41 57 33
33 46 24
29 42 22
42 58 33
32 44 28
79 90 90
69 80 75
84 96 93
82 94 88
77 90 82
92 104 104
80 91 87
86 98 95
82 94 90
90 100 100
87 98 96
86 96 95
99 110 110
86 99 93
78 89 85
43 58 37
43 59 33
42 58 32
42 59 33
46 63 36
43 60 33
42 58 34
42 59 32
51 70 41
41 59 32
49 67 39
36 51 28
44 61 34
75 91 77
85 97 94
98 111 109
112 125 124
96 108 108
90 103 101
82 95 88
85 99 90
74 90 75
80 93 85
62 79 61
61 77 60
51 69 45
94 108 103
110 123 122
116 129 130
108 120 119
119 131 133
104 118 114
115 128 130
121 135 135
113 127 128
115 129 128
126 140 143
98 114 108
60 77 56
59 76 53
83 102 84
86 102 93
113 127 123
114 129 127
121 136 136
116 131 129
127 141 144
98 115 105
61 81 51
68 88 63
76 95 76
103 119 111
99 116 106
113 130 122
97 113 103
83 101 81
107 125 117
118 134 129
150 164 163
180 193 198
218 229 244
227 239 255
227 239 255
227 239 255
227 239 255
227 239 255
227 239 255
227 239 255
227 239 255
227 239 255
227 239 255
227 239 255
227 239 255
227 239 255
227 239 255
227 239 255
227 239 255
227 239 255
227 239 255
227 239 255
227 239 255
227 239 255
227 239 255
227 239 255
227 239 255
227 239 255
227 239 255
227 239 255
227 239 255
227 239 255
227 239 255
227 239 255
227 239 255
227 239 255
227 239 255
227 239 255
227 239 255
227 239 255
227 239 255
227 239 255
227 239 255
227 239 255
227 239 255
227 239 255
227 239 255
227 239 255
227 239 255
227 239 255
227 239 255
227 239 255
227 239 255
227 239 255
227 239 255
227 239 255
227 239 255
227 239 255
227 239 255
227 239 255
227 239 255
227 239 255
227 239 255
227 239 255
227 239 255
227 239 255
227 239 255
227 239 255
227 239 255
227 239 255
227 239 255
227 239 255
227 239 255
227 239 255
227 239 255
227 239 255
227 239 255
227 239 255
227 239 255
227 239 255
227 239 255
227 239 255
227 239 255
227 239 255
227 239 255
227 239 255
227 239 255
227 239 255
227 239 255
227 239 255
227 239 255
227 239 255
227 239 255
227 239 255
227 239 255
227 239 255
227 239 255
227 239 255
227 239 255
227 239 255
227 239 255
227 239 255
227 239 255
227 239 255
227 239 255
227 239 255
227 239 255
227 239 255
227 239 255
227 239 255
227 239 255
227 239 255
227 239 255
227 239 255
227 239 255
227 239 255
227 239 255
227 239 255
227 239 255
227 239 255
227 239 255
227 239 255
227 239 255
227 239 255
227 239 255
227 239 255
227 239 255
227 239 255
227 239 255
227 239 255
227 239 255
227 239 255
227 239 255
227 239 255
227 239 255
227 239 255
227 239 255
227 239 255
227 239 255
227 239 255
227 239 255
227 239 255
227 239 255
227 239 255
227 239 255
227 239 255
227 239 255
227 239 255
227 239 255
227 239 255
227 239 255
227 239 255
227 239 255
227 239 255
227 239 255
227 239 255
227 239 255
227 239 255
206 219 230
169 183 188
148 164 166
115 133 123
124 141 138
117 134 130
90 107 97
72 93 68
111 127 123
131 146 147
120 135 132
90 108 94
73 89 73
62 84 49
63 87 51
71 90 68
117 132 130
109 122 121
95 108 102
91 107 99
62 83 48
60 82 48
53 73 41
53 73 42
52 73 40
54 75 43
55 75 44
69 88 67
87 101 93
94 109 101
96 110 105
98 111 109
112 125 124
71 85 70
52 72 40
52 72 41
56 76 45
57 78 46
49 68 38
51 70 40
46 64 36
57 72 54
73 86 76
64 76 68
84 98 90
88 101 97
93 106 103
88 101 96
94 107 102
113 125 127
87 99 96
56 74 51
48 66 38
50 69 39
48 66 38
43 61 33
40 57 31
42 58 32
45 62 35
37 53 29
56 70 54
70 83 74
84 97 91
86 99 94
92 104 101
73 84 80
90 101 99
91 104 101
82 95 88
38 53 30
45 62 35
35 50 26
50 67 40
41 57 31
48 65 38
47 65 38
39 55 31
38 53 30
40 56 30
40 55 32
41 58 31
43 59 34
39 54 30
36 51 28
38 53 30
37 51 29
56 68 57
85 95 95
63 73 67
73 85 78
62 75 66
60 72 60
38 53 30
57 68 61
39 54 30
31 44 24
35 49 28
34 48 25
32 44 25
32 45 25
31 44 24
43 58 34
39 54 31
33 46 25
63 73 69
63 74 67
60 71 65
69 77 77
67 78 73
62 73 67
62 73 66
72 82 81
79 90 85
73 81 82
66 77 70
68 79 74
55 66 59
68 78 72
74 85 79
67 77 73
64 74 71
52 63 55
37 52 28
37 51 30
37 51 29
38 52 30
40 55 32
30 42 24
30 43 22
37 51 29
41 55 32
30 43 23
29 42 21
39 54 30
32 45 26
33 46 24
37 51 29
33 47 25
68 79 72
87 97 100
77 87 84
64 75 70
91 102 100
71 83 77
78 88 85
74 85 82
60 71 64
73 83 81
83 95 92
81 92 90
83 94 93
71 83 77
91 101 104
63 72 69
55 67 56
34 48 25
35 50 27
45 57 46
46 59 43
36 51 28
36 50 27
47 62 41
40 54 31
43 59 34
39 55 30
49 66 39
36 51 27
36 52 27
39 55 31
33 47 25
76 89 81
89 101 97
76 87 83
88 99 98
90 104 98
75 85 84
80 90 89
93 103 103
79 90 83
83 95 90
87 99 96
80 92 89
95 107 109
96 106 105
86 98 93
64 79 63
43 59 34
39 54 31
46 63 36
47 65 37
46 64 37
49 66 38
44 61 34
41 59 32
53 72 42
50 68 40
46 63 37
54 73 43
57 73 54
94 106 104
111 124 126
90 104 97
93 106 102
113 126 126
94 107 104
90 103 96
103 116 115
101 113 110
94 107 102
103 116 114
108 120 122
95 109 102
78 93 81
93 107 102
87 102 88
98 111 106
109 123 123
112 125 127
104 117 112
109 121 122
113 126 126
107 121 119
99 112 111
73 89 73
44 63 34
53 72 42
52 71 40
54 76 42
68 87 63
80 98 80
99 116 107
98 114 109
119 133 133
86 103 88
61 82 48
57 78 45
64 88 52
64 86 54
80 99 81
73 94 67
96 113 102
113 129 124
134 149 150
123 141 138
106 122 112
146 161 161
169 183 187
215 227 242
227 239 255
227 239 255
227 239 255
227 239 255
227 239 255
227 239 255
227 239 255
227 239 255
227 239 255
227 239 255
227 239 255
227 239 255
227 239 255
227 239 255
227 239 255
227 239 255
227 239 255
227 239 255
227 239 255
227 239 255
227 239 255
227 239 255
227 239 255
227 239 255
227 239 255
227 239 255
227 239 255
227 239 255
227 239 255
227 239 255
227 239 255
227 239 255
227 239 255
227 239 255
227 239 255
227 239 255
227 239 255
227 239 255
227 239 255
227 239 255
227 239 255
227 239 255
227 239 255
227 239 255
227 239 255
227 239 255
227 239 255
227 239 255
227 239 255
227 239 255
227 239 255
227 239 255
227 239 255
227 239 255
227 239 255
227 239 255
227 239 255
227 239 255
227 239 255
227 239 255
227 239 255
227 239 255
227 239 255
227 239 255
227 239 255
227 239 255
227 239 255
227 239 255
227 239 255
227 239 255
227 239 255
227 239 255
227 239 255
227 239 255
227 239 255
227 239 255
227 239 255
227 239 255
227 239 255
227 239 255
227 239 255
227 239 255
227 239 255
227 239 255
227 239 255
227 239 255
227 239 255
227 239 255
227 239 255
227 239 255
227 239 255
227 239 255
227 239 255
227 239 255
227 239 255
227 239 255
227 239 255
227 239 255
227 239 255
227 239 255
227 239 255
227 239 255
227 239 255
227 239 255
227 239 255
227 239 255
227 239 255
227 239 255
227 239 255
227 239 255
227 239 255
227 239 255
227 239 255
227 239 255
227 239 255
227 239 255
227 239 255
227 239 255
227 239 255
227 239 255
227 239 255
227 239 255
227 239 255
227 239 255
227 239 255
227 239 255
227 239 255
227 239 255
227 239 255
227 239 255
227 239 255
227 239 255
227 239 255
227 239 255
227 239 255
227 239 255
227 239 255
227 239 255
227 239 255
227 239 255
227 239 255
227 239 255
227 239 255
227 239 255
227 239 255
227 239 255
227 239 255
227 239 255
223 235 250
202 214 226
171 185 191
121 138 132
126 143 142
123 138 137
105 123 114
90 108 93
61 84 48
67 91 54
73 95 66
106 123 115
74 93 71
62 83 52
57 78 44
62 84 49
58 80 47
73 93 70
93 110 98
108 122 120
91 106 95
53 74 41
59 80 47
63 86 50
55 75 43
54 74 42
53 74 43
67 83 66
82 99 82
97 114 101
99 114 107
105 120 118
107 121 119
109 124 121
111 125 124
111 125 124
106 119 119
99 113 109
50 69 40
52 71 41
54 71 48
77 94 81
72 88 72
108 122 120
95 108 105
110 123 124
119 132 136
94 107 103
99 113 106
108 121 121
94 106 105
112 125 127
89 102 97
97 111 107
86 98 95
81 96 87
47 65 37
51 70 40
51 67 43
59 73 57
66 80 66
71 84 76
93 106 100
95 109 107
91 104 99
103 115 118
96 109 108
87 98 95
82 93 90
94 107 105
88 100 94
110 123 126
89 101 99
63 78 63
52 71 42
45 61 35
40 54 31
45 61 36
42 57 34
31 46 23
33 47 25
45 62 36
35 50 27
43 59 34
33 47 25
48 62 45
53 65 53
65 77 67
75 90 78
84 96 91
79 90 87
63 75 67
42 57 33
48 67 38
43 59 33
37 51 28
44 60 35
38 52 29
39 54 31
44 60 35
42 59 34
44 60 34
36 50 27
37 52 29
40 56 32
39 54 31
39 55 31
36 50 27
53 66 52
81 92 92
71 81 79
58 69 60
70 82 75
64 77 66
76 87 82
73 84 78
69 79 77
80 91 88
79 89 89
84 95 93
62 73 68
86 95 96
81 91 91
66 76 68
78 88 85
82 91 90
42 55 36
35 50 27
38 53 30
38 52 29
24 35 17
44 57 38
51 63 49
55 68 56
44 56 42
34 48 26
63 74 68
61 70 66
60 71 64
44 57 43
60 71 64
65 77 69
78 88 86
50 62 48
52 64 53
52 63 53
57 68 59
50 65 47
50 63 49
35 50 27
45 58 43
48 63 42
52 67 47
47 62 41
41 55 37
36 51 27
35 49 26
35 50 28
45 61 36
81 93 87
95 106 108
84 96 90
83 94 90
76 89 85
88 98 98
76 89 81
97 108 109
87 99 95
74 85 82
74 87 78
94 106 103
83 93 92
71 82 78
86 96 96
75 85 81
64 74 70
60 75 58
46 58 44
48 60 48
41 54 37
62 77 62
57 72 54
75 87 78
72 86 74
69 81 73
62 75 65
81 95 87
78 94 81
61 74 64
75 89 78
41 55 35
51 65 46
53 69 48
37 53 29
44 61 34
53 73 43
50 69 40
46 63 36
43 61 33
44 62 33
40 57 30
36 51 27
47 64 36
53 71 46
102 113 116
92 104 99
88 101 96
93 107 102
116 130 132
94 106 104
114 127 126
93 106 103
94 108 104
115 129 131
120 134 136
104 117 115
100 113 111
76 94 76
51 72 40
52 71 40
57 77 44
58 74 58
84 100 87
82 99 85
93 108 99
93 107 101
115 128 129
111 126 126
96 110 105
62 81 57
62 84 49
49 68 38
56 78 45
62 84 49
59 81 47
58 80 47
61 83 49
61 82 52
62 81 57
87 105 91
83 101 82
63 82 54
63 86 52
61 83 49
63 86 51
117 133 128
136 151 150
118 133 131
103 119 112
127 142 143
131 148 149
126 142 140
142 157 161
182 195 203
207 220 235
225 237 254
227 239 255
227 239 255
227 239 255
227 239 255
227 239 255
227 239 255
227 239 255
227 239 255
227 239 255
227 239 255
227 239 255
227 239 255
227 239 255
227 239 255
227 239 255
227 239 255
227 239 255
227 239 255
227 239 255
227 239 255
227 239 255
227 239 255
227 239 255
227 239 255
227 239 255
227 239 255
227 239 255
227 239 255
227 239 255
227 239 255
227 239 255
227 239 255
227 239 255
227 239 255
227 239 255
227 239 255
227 239 255
227 239 255
227 239 255
227 239 255
227 239 255
227 239 255
227 239 255
227 239 255
227 239 255
227 239 255
227 239 255
227 239 255
227 239 255
227 239 255
227 239 255
227 239 255
227 239 255
227 239 255
227 239 255
227 239 255
227 239 255
227 239 255
227 239 255
227 239 255
227 239 255
227 239 255
227 239 255
227 239 255
227 239 255
227 239 255
227 239 255
227 239 255
227 239 255
227 239 255
227 239 255
227 239 255
227 239 255
227 239 255
227 239 255
227 239 255
227 239 255
227 239 255
227 239 255
227 239 255
227 239 255
227 239 255
227 239 255
227 239 255
227 239 255
227 239 255
227 239 255
227 239 255
227 239 255
227 239 255
227 239 255
227 239 255
227 239 255
227 239 255
227 239 255
227 239 255
227 239 255
227 239 255
227 239 255
227 239 255
227 239 255
227 239 255
227 239 255
227 239 255
227 239 255
227 239 255
227 239 255
227 239 255
227 239 255
227 239 255
227 239 255
227 239 255
227 239 255
227 239 255
227 239 255
227 239 255
227 239 255
227 239 255
227 239 255
227 239 255
227 239 255
227 239 255
227 239 255
227 239 255
227 239 255
227 239 255
227 239 255
227 239 255
227 239 255
227 239 255
227 239 255
227 239 255
227 239 255
227 239 255
227 239 255
227 239 255
227 239 255
227 239 255
227 239 255
227 239 255
227 239 255
226 237 254
199 211 224
154 168 171
116 133 124
82 101 79
98 117 102
114 131 124
69 92 62
66 90 53
61 83 49
103 121 110
115 130 127
108 125 118
66 88 55
62 85 50
58 80 45
69 89 64
97 114 106
100 115 108
118 132 132
125 139 142
119 133 132
126 139 141
111 125 122
63 85 51
53 74 42
78 96 77
81 97 84
97 112 104
106 119 118
110 124 123
120 134 137
121 137 137
113 128 130
126 139 144
118 134 131
117 131 130
108 121 119
112 127 126
109 124 121
84 99 89
81 97 83
94 109 104
101 115 113
106 119 119
118 132 132
96 109 106
115 130 128
107 121 119
108 123 119
109 121 122
92 105 101
113 127 128
95 109 104
97 110 110
96 109 108
108 121 121
94 106 105
70 85 71
82 95 88
103 114 117
102 114 116
85 97 94
109 120 121
85 98 94
92 106 100
95 108 105
105 117 120
90 103 99
97 108 108
103 114 118
98 111 108
102 115 114
95 107 107
87 99 97
81 94 89
90 102 99
47 63 41
38 53 30
46 63 36
43 60 33
44 61 35
73 84 80
72 84 78
74 86 78
66 78 71
90 102 102
80 91 86
94 104 106
91 103 100
87 100 94
91 102 101
93 105 104
94 106 106
81 92 87
41 56 36
42 58 33
40 55 31
45 62 35
43 61 34
38 54 28
39 54 30
38 54 30
38 52 30
38 53 29
38 54 29
41 57 33
35 49 26
39 55 31
40 57 31
36 51 28
42 57 32
64 76 68
79 91 86
81 91 88
83 95 92
87 97 98
91 101 103
94 106 105
94 106 104
84 96 94
82 92 92
76 87 83
68 77 74
77 89 80
66 77 71
60 75 60
66 79 68
52 63 53
36 51 28
73 84 79
62 74 67
81 93 86
74 85 81
80 90 88
83 94 93
89 99 99
89 100 99
81 92 90
84 95 93
86 97 95
77 87 84
64 74 68
93 104 104
79 89 88
85 97 94
76 88 81
41 55 36
35 50 27
35 49 26
38 53 30
42 57 32
44 61 35
39 54 30
32 46 23
34 49 25
39 55 30
37 52 29
43 59 34
38 53 30
43 60 33
41 57 32
42 58 33
64 77 66
84 96 91
94 107 102
88 99 99
92 104 100
99 111 113
96 108 107
92 102 103
78 91 84
73 84 80
99 111 111
87 99 95
83 95 91
91 103 101
78 90 84
94 106 105
50 65 49
43 59 34
36 51 28
45 62 36
44 61 34
46 63 37
48 66 38
51 69 40
45 62 36
38 53 30
41 56 32
48 65 38
46 65 36
38 54 28
42 58 32
82 96 86
95 106 106
91 103 100
99 112 111
95 107 106
83 96 91
84 97 92
84 98 90
80 94 85
74 89 76
73 86 78
66 81 66
75 90 77
57 72 53
85 99 93
102 114 116
106 119 118
97 110 106
99 113 109
111 125 123
101 114 112
110 124 124
101 113 112
109 123 120
111 124 124
99 112 110
100 116 107
78 91 85
53 73 41
54 75 42
56 77 44
52 73 39
51 71 40
50 69 39
56 76 44
57 78 45
58 78 46
74 92 75
69 86 66
66 84 60
71 88 68
63 82 58
61 82 51
54 74 41
63 85 49
58 80 47
57 79 46
55 76 44
56 76 44
92 108 100
124 140 138
107 123 119
114 130 125
99 115 106
88 107 92
116 132 126
129 145 149
122 139 137
95 114 99
80 101 76
109 126 122
112 129 123
131 146 149
135 151 155
135 151 155
152 167 170
193 206 219
220 232 247
227 239 255
227 239 255
227 239 255
227 239 255
227 239 255
227 239 255
227 239 255
227 239 255
227 239 255
227 239 255
227 239 255
227 239 255
227 239 255
227 239 255
227 239 255
227 239 255
227 239 255
227 239 255
227 239 255
227 239 255
227 239 255
227 239 255
227 239 255
227 239 255
227 239 255
227 239 255
227 239 255
227 239 255
227 239 255
227 239 255
227 239 255
227 239 255
227 239 255
227 239 255
227 239 255
227 239 255
227 239 255
227 239 255
227 239 255
227 239 255
227 239 255
227 239 255
227 239 255
227 239 255
227 239 255
227 239 255
227 239 255
227 239 255
227 239 255
227 239 255
227 239 255
227 239 255
227 239 255
227 239 255
227 239 255
227 239 255
227 239 255
227 239 255
227 239 255
227 239 255
227 239 255
227 239 255
227 239 255
227 239 255
227 239 255
227 239 255
227 239 255
227 239 255
227 239 255
227 239 255
227 239 255
227 239 255
227 239 255
227 239 255
227 239 255
227 239 255
227 239 255
227 239 255
227 239 255
227 239 255
227 239 255
227 239 255
227 239 255
227 239 255
227 239 255
227 239 255
227 239 255
227 239 255
227 239 255
227 239 255
227 239 255
227 239 255
227 239 255
227 239 255
227 239 255
227 239 255
227 239 255
227 239 255
227 239 255
227 239 255
227 239 255
227 239 255
227 239 255
227 239 255
227 239 255
227 239 255
227 239 255
227 239 255
227 239 255
227 239 255
227 239 255
227 239 255
227 239 255
227 239 255
227 239 255
227 239 255
227 239 255
227 239 255
227 239 255
227 239 255
227 239 255
227 239 255
227 239 255
227 239 255
227 239 255
227 239 255
227 239 255
227 239 255
227 239 255
227 239 255
227 239 255
227 239 255
227 239 255
227 239 255
227 239 255
221 233 249
192 205 216
157 172 175
104 123 112
77 98 76
97 117 99
119 136 132
139 154 157
130 146 149
123 138 137
99 117 106
103 119 112
130 145 146
133 147 151
120 137 136
52 73 41
81 100 78
91 108 98
107 122 117
107 123 118
127 141 144
131 144 148
120 135 134
126 140 144
123 135 138
117 132 133
96 112 101
110 127 119
110 124 123
130 144 145
119 134 134
118 132 133
130 144 146
121 134 137
123 137 137
116 131 129
102 117 110
115 129 128
98 113 107
94 110 101
74 90 76
68 87 62
57 77 45
55 75 43
72 89 72
112 125 126
113 127 128
120 135 134
105 119 117
103 115 114
105 117 118
111 124 125
113 125 126
107 120 121
98 110 108
104 117 116
85 101 90
75 91 77
60 76 60
50 69 39
55 75 44
53 72 41
90 104 99
94 107 103
106 119 117
96 110 107
103 116 115
113 128 128
93 106 103
81 94 89
93 105 104
85 96 97
102 115 114
100 112 112
95 109 103
105 118 119
101 115 114
89 102 97
76 89 82
75 88 80
75 91 76
90 105 96
84 95 95
98 110 109
90 103 99
93 105 102
108 119 121
90 104 98
83 96 91
84 97 92
101 113 115
100 112 110
79 91 85
95 106 107
86 98 96
88 99 97
92 104 101
81 91 90
74 87 78
41 57 32
40 56 31
39 54 30
40 56 31
47 64 38
39 55 31
44 62 35
34 47 26
40 54 31
39 54 30
44 60 34
38 52 30
38 53 30
43 59 34
51 67 44
46 61 40
60 75 58
84 96 92
73 83 81
67 79 72
61 73 63
57 71 58
59 72 61
39 54 30
40 55 32
40 55 31
40 55 31
44 61 35
25 39 18
39 55 30
40 55 31
39 55 30
34 49 26
39 54 30
62 76 62
68 80 71
79 89 87
85 98 90
64 74 68
89 100 100
84 96 92
80 92 89
78 87 85
90 103 101
95 107 108
73 85 79
78 91 84
92 103 105
79 90 87
89 101 100
81 94 88
74 85 81
40 55 31
40 56 32
43 59 34
40 55 32
41 57 32
43 58 34
48 65 38
46 63 37
37 52 29
38 55 29
44 60 35
45 63 36
39 54 31
37 52 28
40 55 31
48 64 41
76 88 81
86 98 92
87 99 96
97 109 111
83 95 90
93 105 105
89 101 98
89 100 95
98 109 110
88 101 95
71 82 77
84 95 94
99 111 109
102 113 111
96 107 107
98 110 109
55 71 50
39 56 30
46 63 36
40 56 31
48 66 37
45 63 34
45 62 35
48 65 38
42 58 32
44 61 34
45 62 35
44 60 34
49 68 39
45 63 35
43 60 33
87 100 94
91 105 98
99 110 110
101 114 113
92 105 102
102 116 112
104 117 113
114 125 129
107 120 117
87 99 93
96 108 108
119 131 135
99 111 108
116 129 132
78 93 82
48 65 42
63 78 61
72 91 70
76 92 78
79 95 83
108 121 121
100 113 110
104 118 114
108 122 119
113 127 127
116 130 133
104 116 116
97 111 107
55 74 46
49 67 38
53 72 42
49 68 39
43 61 33
54 75 43
53 73 42
59 80 47
57 79 45
58 79 46
53 73 41
82 96 88
111 125 123
112 127 123
117 131 130
96 111 103
94 110 100
82 100 83
63 86 51
57 79 45
58 80 47
61 82 52
94 110 103
136 151 155
124 138 139
123 137 138
127 142 143
90 107 96
92 109 95
102 119 107
111 126 120
80 101 77
63 86 50
64 87 51
78 99 77
98 117 104
116 133 129
109 126 118
97 116 102
153 167 169
193 205 216
219 231 246
227 239 255
227 239 255
227 239 255
227 239 255
227 239 255
227 239 255
227 239 255
227 239 255
227 239 255
227 239 255
227 239 255
227 239 255
227 239 255
227 239 255
227 239 255
227 239 255
227 239 255
227 239 255
227 239 255
227 239 255
227 239 255
227 239 255
227 239 255
227 239 255
227 239 255
227 239 255
227 239 255
227 239 255
227 239 255
227 239 255
227 239 255
227 239 255
227 239 255
227 239 255
227 239 255
227 239 255
227 239 255
227 239 255
227 239 255
227 239 255
227 239 255
227 239 255
227 239 255
227 239 255
227 239 255
227 239 255
227 239 255
227 239 255
227 239 255
227 239 255
227 239 255
227 239 255
227 239 255
227 239 255
227 239 255
227 239 255
227 239 255
227 239 255
227 239 255
227 239 255
227 239 255
227 239 255
227 239 255
227 239 255
227 239 255
227 239 255
227 239 255
227 239 255
227 239 255
227 239 255
227 239 255
227 239 255
227 239 255
227 239 255
227 239 255
227 239 255
227 239 255
227 239 255
227 239 255
227 239 255
227 239 255
227 239 255
227 239 255
227 239 255
227 239 255
227 239 255
227 239 255
227 239 255
227 239 255
227 239 255
227 239 255
227 239 255
227 239 255
227 239 255
227 239 255
227 239 255
227 239 255
227 239 255
227 239 255
227 239 255
227 239 255
227 239 255
227 239 255
227 239 255
227 239 255
227 239 255
227 239 255
227 239 255
227 239 255
227 239 255
227 239 255
227 239 255
227 239 255
227 239 255
227 239 255
227 239 255
227 239 255
227 239 255
227 239 255
227 239 255
227 239 255
227 239 255
227 239 255
227 239 255
227 239 255
227 239 255
227 239 255
227 239 255
227 239 255
218 230 246
186 199 209
147 162 163
100 120 107
94 114 101
107 126 115
127 144 145
142 158 164
133 149 151
123 139 137
105 121 113
73 94 69
56 78 45
107 125 116
126 142 141
131 146 146
106 122 119
116 131 132
112 126 122
126 141 143
127 143 143
120 135 135
129 144 143
119 134 134
123 137 136
110 125 122
91 106 98
77 97 77
56 77 44
61 83 49
91 106 97
110 124 123
132 148 151
123 138 139
109 122 120
116 130 133
117 130 129
105 119 115
78 93 79
82 99 83
55 75 46
59 81 47
55 75 43
61 82 49
51 71 39
50 70 40
54 75 43
58 79 45
115 129 131
114 128 128
108 120 121
115 129 130
110 124 121
104 118 116
94 110 99
72 89 70
70 85 72
42 60 32
46 64 36
47 66 36
51 70 40
44 62 34
48 67 37
43 61 33
45 63 35
45 62 35
105 118 115
110 122 125
116 130 134
112 126 126
96 108 106
86 99 94
106 118 119
88 101 97
94 108 104
84 96 91
76 89 80
70 85 71
76 90 77
65 81 64
48 67 37
51 68 40
47 64 36
44 62 34
96 107 105
96 109 108
103 116 115
106 119 118
88 101 98
85 97 93
93 106 103
85 97 94
89 102 99
87 100 97
92 105 103
94 105 106
88 100 95
101 113 113
96 108 109
93 103 105
88 101 96
87 99 96
60 76 61
39 56 30
44 62 34
45 62 35
42 58 33
44 62 35
42 59 33
60 73 61
62 76 63
62 75 65
71 85 74
81 93 88
79 91 85
93 106 102
93 105 103
90 101 101
89 102 97
83 96 91
44 58 38
46 62 36
50 68 39
38 53 29
43 59 33
37 52 29
45 62 35
35 50 26
38 53 29
36 51 27
41 57 32
39 54 30
40 56 32
41 56 32
40 56 31
34 48 26
37 52 28
77 89 83
89 101 99
76 88 85
84 95 91
93 105 102
77 88 85
96 106 108
90 102 100
86 98 94
78 90 84
94 106 104
83 94 91
105 116 118
95 107 107
86 96 94
99 110 113
94 105 104
58 71 58
42 58 33
42 58 33
43 59 34
36 51 28
43 59 33
40 56 31
45 62 35
41 57 31
52 71 41
37 52 28
37 52 28
46 65 36
45 63 36
37 53 28
46 63 36
52 67 48
83 96 88
95 107 106
86 99 96
101 112 113
70 82 74
95 106 108
88 100 101
101 114 112
101 114 112
102 113 116
103 115 119
93 105 101
90 103 99
94 106 105
92 104 101
92 105 99
57 72 55
35 50 26
48 66 38
47 64 36
43 61 34
42 59 33
41 58 31
51 69 40
52 70 41
57 77 46
51 70 40
41 59 33
43 60 33
48 66 37
44 61 34
83 98 89
101 112 112
110 124 123
103 116 114
94 107 106
111 124 125
100 114 111
96 108 105
97 111 106
106 120 117
113 127 127
106 119 119
96 109 107
114 126 127
98 112 105
49 66 38
52 72 43
53 72 41
48 66 37
54 74 43
53 73 41
52 71 42
63 81 57
60 77 55
88 105 90
74 89 79
85 100 92
81 98 81
59 77 55
61 78 57
53 73 41
59 79 47
47 65 37
52 72 41
55 76 44
56 77 45
59 79 47
51 72 40
59 80 47
59 80 50
120 135 134
117 132 132
126 141 143
119 133 134
125 139 141
142 156 164
122 137 136
104 120 114
104 119 113
100 117 106
100 117 106
130 144 148
138 152 158
137 153 155
123 139 139
60 82 48
57 78 44
63 85 50
75 94 74
68 90 59
76 97 71
82 102 80
65 89 52
61 83 48
70 93 62
96 116 99
72 95 63
74 98 62
82 104 81
144 158 160
183 196 204
215 227 241
227 239 255
227 239 255
227 239 255
227 239 255
227 239 255
227 239 255
227 239 255
227 239 255
227 239 255
227 239 255
227 239 255
227 239 255
227 239 255
227 239 255
227 239 255
227 239 255
227 239 255
227 239 255
227 239 255
227 239 255
227 239 255
227 239 255
227 239 255
227 239 255
227 239 255
227 239 255
227 239 255
227 239 255
227 239 255
227 239 255
227 239 255
227 239 255
227 239 255
227 239 255
227 239 255
227 239 255
227 239 255
227 239 255
227 239 255
227 239 255
227 239 255
227 239 255
227 239 255
227 239 255
227 239 255
227 239 255
227 239 255
227 239 255
227 239 255
227 239 255
227 239 255
227 239 255
227 239 255
227 239 255
227 239 255
227 239 255
227 239 255
227 239 255
227 239 255
227 239 255
227 239 255
227 239 255
227 239 255
227 239 255
227 239 255
227 239 255
227 239 255
227 239 255
227 239 255
227 239 255
227 239 255
227 239 255
227 239 255
227 239 255
227 239 255
227 239 255
227 239 255
227 239 255
227 239 255
227 239 255
227 239 255
227 239 255
227 239 255
227 239 255
227 239 255
227 239 255
227 239 255
227 239 255
227 239 255
227 239 255
227 239 255
227 239 255
227 239 255
227 239 255
227 239 255
227 239 255
227 239 255
227 239 255
227 239 255
227 239 255
227 239 255
227 239 255
227 239 255
227 239 255
227 239 255
227 239 255
227 239 255
227 239 255
227 239 255
227 239 255
227 239 255
227 239 255
227 239 255
227 239 255
227 239 255
227 239 255
227 239 255
227 239 255
227 239 255
227 239 255
227 239 255
227 239 255
227 239 255
210 222 235
182 196 204
133 148 146
92 114 89
93 113 94
110 127 119
139 156 156
132 148 149
140 156 162
121 138 135
96 115 101
80 101 72
63 86 50
63 87 50
65 90 52
81 100 81
100 115 109
86 103 86
64 87 51
72 89 71
136 152 156
133 148 151
127 140 143
127 141 140
117 133 128
101 116 112
85 102 86
63 84 53
55 76 44
58 80 46
62 85 50
57 79 46
56 78 45
79 98 76
138 152 158
117 131 132
115 130 126
107 122 118
86 103 89
60 82 48
61 82 48
54 74 41
61 83 48
58 79 47
50 69 39
52 72 42
54 75 42
56 77 45
53 73 43
54 75 44
53 73 41
73 88 76
95 110 106
106 119 120
75 93 75
56 76 48
42 60 32
46 65 35
51 70 40
51 70 41
54 74 43
50 69 39
56 75 44
51 70 41
53 72 42
51 71 40
48 66 37
47 64 37
50 69 39
92 105 99
106 119 120
98 112 108
103 117 117
104 115 115
87 102 93
88 101 96
72 87 74
57 72 54
44 62 35
41 58 32
43 61 34
44 62 34
46 64 36
48 66 37
47 65 36
49 67 38
49 67 39
68 83 70
99 112 107
89 101 97
91 104 99
98 111 108
94 107 103
108 121 119
90 102 98
97 110 106
100 113 113
95 107 106
81 94 86
88 100 97
85 98 92
94 106 104
71 83 75
97 109 109
98 111 108
73 85 76
69 83 71
73 87 76
88 101 96
84 97 91
96 108 107
97 109 107
98 109 109
114 125 128
99 113 109
92 102 103
105 118 116
101 114 110
90 101 101
85 97 95
89 101 99
97 109 108
91 103 101
74 85 79
44 60 34
51 69 40
43 60 33
43 59 33
44 61 35
40 56 30
37 53 29
38 54 29
43 60 34
39 55 31
45 61 35
53 72 42
44 62 35
43 60 33
43 60 33
41 56 32
45 59 39
75 86 83
81 92 89
77 89 84
97 109 109
81 92 88
84 97 92
92 103 102
97 109 108
85 98 93
83 94 93
74 87 79
94 106 103
96 107 106
93 105 103
84 96 92
96 108 108
104 115 118
66 81 68
40 56 31
47 64 37
37 51 28
41 57 32
45 63 35
43 60 33
44 60 34
46 64 35
37 52 28
45 61 35
37 52 28
42 59 33
43 61 34
46 63 36
40 56 31
39 55 30
97 110 107
99 111 106
91 103 105
99 112 112
107 119 123
89 102 99
103 116 115
89 102 97
96 108 104
100 113 112
90 102 101
99 111 110
88 100 99
93 107 103
106 118 119
96 107 105
58 75 55
47 65 37
42 59 32
46 64 36
43 60 34
44 62 35
53 72 41
42 59 33
44 60 34
52 71 41
48 66 37
47 64 37
43 60 33
44 61 34
49 67 42
85 100 91
103 117 113
102 114 114
106 119 118
101 114 111
98 112 109
113 126 127
111 124 123
107 120 118
109 124 121
106 118 118
104 118 114
111 126 124
99 112 111
86 101 93
59 79 49
55 75 44
44 62 34
44 62 34
55 75 43
51 69 39
52 72 41
56 76 44
51 71 40
49 68 38
50 69 40
52 72 41
65 84 59
104 118 115
119 134 134
110 124 123
98 113 104
79 95 81
85 101 90
75 93 75
67 86 61
45 64 34
54 75 43
62 84 48
55 76 44
103 119 112
117 131 132
133 146 149
132 148 149
125 140 140
121 136 137
124 139 142
136 150 155
134 149 151
128 145 144
122 137 138
109 126 116
94 110 101
112 128 126
78 101 73
61 83 49
60 81 48
64 88 51
64 86 51
69 92 58
90 109 92
130 146 148
106 122 116
95 113 100
78 98 77
66 90 53
72 95 61
89 109 88
105 124 112
98 119 103
83 105 80
134 151 144
177 190 196
212 224 237
227 239 255
227 239 255
227 239 255
227 239 255
227 239 255
227 239 255
227 239 255
227 239 255
227 239 255
227 239 255
227 239 255
227 239 255
227 239 255
227 239 255
227 239 255
227 239 255
227 239 255
227 239 255
227 239 255
227 239 255
227 239 255
227 239 255
227 239 255
227 239 255
227 239 255
227 239 255
227 239 255
227 239 255
227 239 255
227 239 255
227 239 255
227 239 255
227 239 255
227 239 255
227 239 255
227 239 255
227 239 255
227 239 255
227 239 255
227 239 255
227 239 255
227 239 255
227 239 255
227 239 255
227 239 255
227 239 255
227 239 255
227 239 255
227 239 255
227 239 255
227 239 255
227 239 255
227 239 255
227 239 255
227 239 255
227 239 255
227 239 255
227 239 255
227 239 255
227 239 255
227 239 255
227 239 255
227 239 255
227 239 255
227 239 255
227 239 255
227 239 255
227 239 255
227 239 255
227 239 255
227 239 255
227 239 255
227 239 255
227 239 255
227 239 255
227 239 255
227 239 255
227 239 255
227 239 255
227 239 255
227 239 255
227 239 255
227 239 255
227 239 255
227 239 255
227 239 255
227 239 255
227 239 255
227 239 255
227 239 255
227 239 255
227 239 255
227 239 255
227 239 255
227 239 255
227 239 255
227 239 255
227 239 255
227 239 255
227 239 255
227 239 255
227 239 255
227 239 255
227 239 255
227 239 255
227 239 255
227 239 255
227 239 255
227 239 255
227 239 255
228 239 255
228 239 255
228 239 255
228 239 255
228 239 255
228 239 255
228 239 255
215 227 241
180 193 200
145 161 161
117 135 132
103 123 106
101 120 107
129 146 144
139 155 158
146 161 169
115 132 129
82 103 84
72 98 59
62 85 49
69 93 55
65 88 51
87 105 87
113 128 125
129 145 145
133 148 153
128 144 144
71 91 64
63 85 50
82 101 77
121 136 134
105 122 116
94 112 97
66 86 57
63 86 50
57 78 45
59 81 46
55 76 43
61 83 48
57 78 46
63 85 51
56 77 44
69 90 64
71 88 67
93 108 101
57 76 51
57 79 46
58 79 47
53 74 42
62 84 49
60 82 48
54 74 44
58 79 46
54 74 42
51 70 40
56 78 44
54 73 42
59 79 49
66 83 65
79 95 82
108 121 119
97 112 106
51 68 43
49 68 39
50 69 39
51 72 40
49 66 38
57 77 46
57 77 45
49 68 38
55 76 44
52 72 41
59 80 47
52 71 41
55 74 43
45 63 35
51 71 41
47 64 39
63 81 59
84 100 87
91 105 98
69 88 62
67 86 63
48 67 37
50 70 39
48 67 38
52 71 42
48 66 37
47 65 36
51 70 41
50 69 39
48 67 38
43 60 33
53 73 42
40 56 31
42 59 32
44 62 34
53 71 46
101 114 112
99 110 111
103 116 115
78 91 83
105 118 118
82 96 88
93 106 103
95 108 106
95 107 106
102 116 115
84 97 92
92 105 100
78 91 84
76 91 80
55 70 51
53 71 45
48 66 38
48 66 38
69 83 74
86 100 92
89 101 99
107 119 122
71 83 75
88 101 96
102 114 115
90 102 102
88 100 97
97 109 105
86 97 94
93 105 100
82 95 88
89 103 97
81 92 89
99 112 108
104 114 118
109 121 122
69 83 71
40 57 31
45 62 35
49 67 39
46 64 36
43 58 34
40 56 31
42 59 34
49 66 38
38 54 28
44 60 35
43 59 33
40 56 31
49 67 39
42 58 33
39 54 31
41 57 32
50 63 50
90 103 99
81 94 89
105 117 118
78 90 84
93 106 103
81 93 89
97 110 108
108 121 123
102 115 112
100 113 111
97 111 106
78 90 84
82 95 90
87 99 95
82 96 89
77 89 83
80 92 86
61 77 55
55 70 51
72 85 77
74 87 78
72 83 77
75 87 82
85 98 92
79 92 86
73 86 79
84 96 93
88 99 96
77 89 84
79 90 86
98 111 107
79 91 89
90 104 98
91 104 101
70 84 74
60 77 55
59 71 62
66 83 63
60 73 60
56 73 50
63 78 65
61 75 60
61 77 59
56 72 50
60 76 59
49 65 44
63 81 60
51 67 46
56 70 55
67 84 65
86 99 94
90 103 98
74 89 75
93 107 99
83 96 88
78 92 80
90 103 96
73 87 77
77 91 82
66 82 68
62 78 59
53 69 49
63 79 60
50 70 39
58 76 52
84 98 91
115 129 131
98 113 109
93 107 102
102 116 112
108 121 120
106 119 119
101 115 110
115 129 130
114 127 128
109 122 123
106 120 116
122 134 135
109 123 123
92 107 99
55 74 46
50 68 40
57 78 46
52 72 41
52 72 41
51 71 40
54 73 43
54 75 42
51 70 41
58 79 45
48 67 37
55 76 45
58 77 48
104 119 114
114 128 129
114 129 126
106 120 114
112 126 126
119 134 131
118 133 132
126 141 140
114 128 127
112 129 119
92 108 97
79 96 81
93 109 101
127 141 145
130 145 148
124 138 139
118 133 133
127 139 139
132 147 150
133 148 153
132 148 148
129 144 146
131 148 147
115 131 126
61 82 52
123 137 138
115 129 127
110 126 122
100 117 110
79 100 75
67 91 54
69 93 56
74 96 70
109 127 121
144 161 164
142 158 163
120 136 132
105 123 113
106 125 115
82 103 81
121 140 128
141 157 160
128 145 143
118 137 128
83 103 81
111 129 114
188 201 209
213 225 239
228 239 255
228 239 255
228 239 255
228 239 255
228 239 255
228 239 255
228 239 255
228 239 255
227 239 255
227 239 255
227 239 255
227 239 255
227 239 255
227 239 255
227 239 255
227 239 255
227 239 255
227 239 255
227 239 255
227 239 255
227 239 255
227 239 255
227 239 255
227 239 255
227 239 255
227 239 255
227 239 255
227 239 255
227 239 255
227 239 255
227 239 255
227 239 255
227 239 255
227 239 255
227 239 255
227 239 255
227 239 255
227 239 255
227 239 255
227 239 255
227 239 255
227 239 255
227 239 255
227 239 255
227 239 255
227 239 255
227 239 255
227 239 255
227 239 255
227 239 255
227 239 255
227 239 255
227 239 255
227 239 255
227 239 255
227 239 255
227 239 255
227 239 255
227 239 255
227 239 255
227 239 255
227 239 255
227 239 255
227 239 255
227 239 255
227 239 255
227 239 255
227 239 255
227 239 255
227 239 255
227 239 255
227 239 255
227 239 255
227 239 255
227 239 255
227 239 255
227 239 255
227 239 255
227 239 255
227 239 255
227 239 255
227 239 255
227 239 255
228 239 255
228 239 255
228 239 255
228 239 255
228 239 255
228 239 255
228 239 255
228 239 255
228 239 255
228 239 255
228 239 255
228 239 255
228 239 255
228 239 255
228 239 255
228 239 255
228 239 255
228 239 255
228 239 255
228 239 255
228 239 255
228 239 255
228 239 255
228 239 255
228 239 255
228 239 255
228 239 255
228 239 255
218 230 245
184 198 205
155 169 173
136 152 154
133 150 150
124 142 141
94 114 97
141 157 162
145 160 167
111 129 117
87 107 87
75 100 63
61 83 49
72 97 58
66 88 59
92 110 95
122 139 137
131 145 149
151 166 173
141 155 160
132 148 151
132 148 150
132 146 150
85 104 86
95 112 101
110 126 120
61 83 49
61 84 49
62 85 50
57 79 46
64 87 52
61 83 49
58 80 47
57 78 45
67 88 59
91 109 95
99 114 107
121 136 137
125 139 142
119 134 135
92 108 100
59 81 47
61 83 49
56 77 45
55 75 43
56 77 45
50 70 40
56 77 45
62 85 51
63 82 57
72 90 68
105 120 113
116 130 130
117 130 130
109 123 122
112 126 126
116 130 132
106 120 117
86 103 90
55 75 44
53 72 42
48 66 37
50 69 39
53 72 41
55 75 44
56 78 44
55 75 44
46 64 36
57 78 46
67 84 64
67 85 62
90 108 92
91 103 101
110 122 121
105 118 116
113 127 129
75 90 78
50 68 39
56 76 44
52 71 41
50 70 39
53 72 41
47 66 36
51 70 40
49 68 39
49 68 39
48 67 38
50 68 39
48 67 37
52 71 41
50 68 40
48 66 38
52 72 41
49 68 39
75 90 77
108 121 121
100 113 109
89 104 93
95 110 101
78 91 81
73 86 76
62 76 60
52 66 49
44 61 35
53 72 42
47 65 36
47 65 36
50 68 39
47 65 36
48 66 38
42 59 32
43 60 33
60 75 58
119 132 134
97 110 106
95 109 105
101 113 112
104 116 117
102 115 112
79 91 85
91 104 99
96 108 108
85 97 92
97 111 109
103 114 115
94 105 107
101 113 114
90 102 99
114 126 129
92 105 99
76 89 82
52 70 45
48 66 38
44 61 35
51 70 40
50 69 40
38 53 29
46 65 37
51 70 40
44 61 34
48 66 38
46 63 36
45 62 35
48 66 38
50 63 52
58 73 56
74 88 81
69 83 74
65 77 68
71 85 76
69 84 71
64 79 62
73 89 73
66 81 66
61 73 63
49 64 41
43 59 33
49 66 42
40 56 31
42 59 33
47 65 36
49 66 38
45 63 35
46 64 37
49 67 39
48 64 41
102 115 113
109 122 121
91 103 99
103 116 113
83 95 91
95 108 106
97 109 108
98 111 111
95 107 104
114 127 128
110 123 123
88 101 98
105 118 117
100 112 112
95 107 105
102 114 114
72 85 76
44 61 35
55 75 44
45 63 35
47 65 36
45 63 35
42 58 34
44 61 34
47 64 36
46 63 36
44 62 34
44 61 34
49 67 39
44 61 34
44 62 34
52 71 41
60 78 55
94 106 104
99 113 111
116 128 130
84 98 91
116 128 131
109 121 123
107 121 121
108 121 121
112 125 124
97 110 109
109 122 121
104 116 114
112 126 127
110 122 125
100 114 113
74 89 78
61 78 59
62 78 62
76 91 77
76 93 78
85 100 88
90 105 99
84 99 88
85 100 91
98 112 109
96 110 104
101 115 109
116 130 130
103 118 114
86 100 93
63 81 58
54 75 42
58 79 46
54 74 44
54 76 43
58 79 47
53 73 42
53 74 42
53 73 41
53 74 43
55 77 44
54 74 42
57 77 45
86 103 91
115 129 132
136 151 155
120 134 138
120 134 136
131 145 149
115 129 125
113 127 129
135 150 157
122 138 140
116 129 130
139 154 159
115 130 126
91 108 96
88 105 89
87 104 90
103 118 113
123 140 141
129 143 146
131 146 150
130 145 144
132 147 150
127 142 143
129 145 145
118 135 130
121 136 135
134 148 150
132 147 153
128 144 145
136 150 154
126 141 142
107 125 116
81 102 77
97 115 103
122 138 136
140 154 157
132 147 146
134 150 152
127 144 141
131 146 147
119 137 135
111 128 125
153 168 175
143 159 162
140 157 161
123 140 136
120 138 129
163 177 182
194 207 218
220 232 247
228 239 255
228 239 255
228 239 255
228 239 255
228 239 255
228 239 255
228 239 255
228 239 255
228 239 255
228 239 255
228 239 255
228 239 255
228 239 255
228 239 255
228 239 255
228 239 255
228 239 255
228 239 255
228 239 255
228 239 255
228 239 255
228 239 255
228 239 255
228 239 255
228 239 255
228 239 255
228 239 255
228 239 255
227 239 255
227 239 255
227 239 255
227 239 255
227 239 255
227 239 255
227 239 255
227 239 255
227 239 255
227 239 255
227 239 255
227 239 255
227 239 255
227 239 255
227 239 255
227 239 255
227 239 255
227 239 255
227 239 255
227 239 255
227 239 255
227 239 255
227 239 255
227 239 255
227 239 255
227 239 255
227 239 255
227 239 255
227 239 255
227 239 255
227 239 255
227 239 255
228 239 255
228 239 255
228 239 255
228 239 255
228 239 255
228 239 255
228 239 255
228 239 255
228 239 255
228 239 255
228 239 255
228 239 255
228 239 255
228 239 255
228 239 255
228 239 255
228 239 255
228 239 255
228 239 255
228 239 255
228 239 255
228 239 255
228 239 255
228 239 255
228 239 255
228 239 255
228 239 255
228 239 255
228 239 255
228 239 255
228 239 255
228 239 255
228 239 255
228 239 255
228 239 255
228 239 255
228 239 255
228 239 255
228 239 255
228 239 255
228 239 255
228 239 255
228 239 255
228 239 255
228 239 255
225 236 252
186 199 207
156 171 174
134 151 150
136 153 154
112 133 118
70 93 60
67 91 54
76 98 71
108 127 118
95 114 99
77 103 66
66 90 53
68 93 56
71 94 62
91 110 95
118 134 130
146 162 167
141 156 162
143 159 164
135 151 155
124 139 143
133 147 149
126 143 140
108 125 118
77 99 71
104 121 115
133 147 150
120 136 136
87 104 91
65 89 52
60 83 48
58 80 46
63 86 49
80 99 81
103 119 112
121 136 136
124 140 137
131 145 149
136 151 155
124 140 139
134 149 154
115 131 130
124 138 139
60 82 47
57 78 45
59 81 48
56 77 45
61 83 53
87 102 90
104 119 115
120 135 136
115 128 127
126 140 143
125 139 141
140 154 159
113 128 127
128 142 144
119 133 134
102 117 114
122 135 137
104 118 116
60 81 47
56 77 44
55 76 43
56 76 45
57 79 46
62 82 55
62 81 58
88 103 91
99 114 110
90 104 97
129 143 147
121 135 134
111 123 124
117 129 131
108 121 121
108 121 120
120 133 134
109 122 120
52 72 41
49 68 39
56 77 45
58 79 46
44 61 34
55 75 43
45 63 35
51 69 41
50 69 40
46 64 36
52 72 41
47 65 35
50 69 40
48 67 37
57 74 51
66 80 69
78 93 84
107 120 120
75 91 77
55 72 50
50 68 40
40 57 32
47 65 37
48 67 37
50 70 40
48 67 38
51 69 39
48 66 38
53 72 42
45 64 35
47 65 37
52 71 40
44 63 34
44 61 35
51 70 41
47 65 37
93 106 100
107 119 118
101 113 113
91 103 98
101 113 112
108 120 122
88 99 97
101 113 114
111 124 124
111 125 123
91 103 101
96 109 104
78 90 84
95 108 106
99 110 110
108 122 120
96 109 105
92 104 101
83 96 90
54 75 43
54 70 49
67 82 67
63 79 64
72 87 72
76 91 80
74 88 77
89 103 92
96 107 106
93 104 102
103 116 116
85 96 96
93 105 102
106 119 118
101 115 113
109 122 122
96 109 106
63 77 64
37 53 29
46 64 36
45 62 35
45 62 35
45 63 36
47 65 38
59 80 47
52 71 41
45 62 35
47 63 37
43 61 34
43 60 33
44 60 34
41 58 32
49 67 38
47 65 37
72 86 77
91 104 97
90 103 97
106 119 122
101 113 111
88 101 94
107 119 121
102 115 114
105 117 117
98 110 109
86 100 93
116 129 133
108 121 120
94 107 102
98 112 109
106 120 119
106 119 119
65 81 63
48 66 37
55 75 44
45 63 35
47 64 37
52 70 41
46 63 37
45 63 36
48 66 38
52 71 41
51 70 41
49 67 38
47 66 36
53 73 42
48 67 38
51 70 40
73 88 73
116 128 130
117 129 132
94 107 103
93 105 102
110 123 123
103 116 114
103 116 114
111 124 124
109 122 122
103 117 117
104 118 115
92 105 101
98 113 107
115 129 128
115 127 129
64 80 63
54 74 44
55 74 44
52 71 41
50 70 40
53 73 41
53 73 42
53 74 42
52 71 40
54 74 43
55 76 43
60 82 48
55 73 47
71 91 63
68 87 64
90 104 97
96 112 105
89 106 92
90 107 95
78 95 76
75 91 75
59 77 52
51 71 39
47 66 36
60 82 48
56 76 44
57 78 46
60 82 48
89 104 94
116 132 129
126 140 142
114 128 126
110 124 122
128 142 143
117 131 132
129 144 148
126 142 143
119 133 133
130 146 145
125 139 139
123 138 137
63 81 57
58 79 45
61 83 49
60 81 47
69 92 58
71 93 64
86 105 89
106 123 115
109 126 117
103 119 113
60 83 49
107 123 118
134 150 151
134 149 153
139 154 159
132 148 150
130 146 149
135 148 151
134 151 154
130 146 147
134 149 153
121 138 135
126 142 139
131 146 151
131 147 150
128 143 144
137 152 154
144 160 165
144 160 167
132 149 150
117 134 128
139 155 156
163 178 187
150 165 172
138 155 159
149 164 172
162 176 182
199 212 224
224 236 252
228 239 255
228 239 255
228 239 255
228 239 255
228 239 255
228 239 255
228 239 255
228 239 255
228 239 255
228 239 255
228 239 255
228 239 255
228 239 255
228 239 255
228 239 255
228 239 255
228 239 255
228 239 255
228 239 255
228 239 255
228 239 255
228 239 255
228 239 255
228 239 255
228 239 255
228 239 255
228 239 255
228 239 255
228 239 255
228 239 255
228 239 255
228 239 255
228 239 255
228 239 255
228 239 255
228 239 255
228 239 255
228 239 255
228 239 255
228 239 255
228 239 255
228 239 255
228 239 255
228 239 255
228 239 255
228 239 255
227 239 255
227 239 255
227 239 255
227 239 255
227 239 255
228 239 255
228 239 255
228 239 255
228 239 255
228 239 255
228 239 255
228 239 255
228 239 255
228 239 255
228 239 255
228 239 255
228 239 255
228 239 255
228 239 255
228 239 255
228 239 255
228 239 255
228 239 255
228 239 255
228 239 255
228 239 255
228 239 255
228 239 255
228 239 255
228 239 255
228 239 255
228 239 255
228 239 255
228 239 255
228 239 255
228 239 255
228 239 255
228 239 255
228 239 255
228 239 255
228 239 255
228 239 255
228 239 255
228 239 255
228 239 255
228 239 255
228 239 255
228 239 255
228 239 255
228 239 255
228 239 255
228 239 255
228 239 255
227 238 254
197 210 219
155 170 171
129 147 145
134 152 154
116 133 124
79 102 77
70 96 57
76 101 66
99 119 103
121 139 133
143 161 163
131 146 149
73 98 61
76 97 73
97 116 101
128 145 143
137 152 157
129 144 146
138 154 157
130 146 147
130 144 146
136 151 156
119 136 133
95 111 100
60 82 48
58 80 46
65 89 51
63 86 51
87 106 87
129 144 144
136 151 156
130 144 146
79 98 78
103 121 107
113 130 123
129 146 145
139 154 158
135 151 154
114 129 129
121 135 135
122 137 138
136 150 153
127 142 140
131 145 146
133 148 150
129 144 148
71 91 66
86 104 90
90 108 92
116 131 127
122 137 136
107 121 119
120 136 134
130 145 148
119 134 133
117 131 132
127 141 144
108 123 122
121 134 136
117 131 130
118 132 133
122 136 140
115 130 128
122 135 139
71 90 66
67 86 63
86 101 93
101 115 111
112 127 124
109 123 122
108 121 118
120 134 135
117 131 130
102 116 114
108 121 122
124 138 140
123 137 138
104 118 116
118 132 132
127 140 141
102 114 111
123 137 140
79 94 82
53 74 42
56 76 44
52 71 41
56 76 44
42 59 32
54 74 42
50 70 40
52 72 42
68 85 66
78 92 82
87 100 96
93 109 98
104 117 117
111 125 124
124 137 140
100 115 111
114 127 127
92 106 103
45 63 34
51 70 41
51 71 41
42 59 32
53 73 42
56 76 44
52 72 41
52 72 42
54 73 43
48 66 37
44 62 35
43 60 33
53 73 42
51 71 40
52 71 41
50 68 38
52 71 42
61 79 56
115 129 130
92 106 99
91 104 100
97 109 106
116 130 130
108 121 119
113 125 127
99 112 109
102 116 111
107 121 119
100 113 110
91 104 101
84 97 91
86 99 93
79 91 86
73 90 72
62 76 62
50 66 42
94 107 103
99 112 110
99 112 110
102 116 115
96 109 106
94 106 104
102 115 114
97 110 106
107 121 120
111 123 124
84 97 92
111 123 125
105 117 116
90 104 100
93 106 100
105 118 117
100 113 111
105 119 115
47 65 37
47 65 37
46 63 36
50 69 39
46 64 36
53 72 42
41 58 32
49 67 38
47 65 36
42 59 33
51 69 40
44 61 35
44 61 34
49 68 39
47 66 36
40 56 31
45 63 35
82 96 89
105 120 114
116 129 128
94 109 101
106 119 120
96 111 107
112 126 125
101 113 112
108 122 119
96 109 105
95 108 103
96 107 106
81 96 90
85 99 92
103 116 114
109 121 123
109 122 122
75 90 78
51 70 40
46 64 36
46 64 35
53 73 41
53 72 42
47 64 37
49 69 39
44 61 34
54 74 42
53 73 42
44 61 34
48 67 38
48 67 38
53 73 42
48 66 38
68 82 69
105 120 116
116 130 130
122 135 139
111 124 124
121 133 136
92 107 98
101 115 113
105 118 116
109 121 123
105 119 117
97 110 108
107 121 121
110 124 123
123 135 140
111 124 127
80 96 82
49 68 39
54 75 44
43 62 34
53 72 41
56 77 45
56 76 44
48 68 38
51 71 40
47 65 37
54 75 43
54 75 43
48 67 37
46 66 37
66 83 63
117 131 132
117 131 130
118 133 133
110 126 123
115 130 131
115 128 129
121 136 137
129 143 146
97 111 107
86 101 91
93 107 101
88 104 94
72 90 72
89 106 92
111 125 124
116 131 130
128 142 144
125 140 141
125 140 139
117 131 132
118 133 131
118 133 131
128 142 141
136 150 154
108 124 122
124 140 141
88 104 93
57 78 45
54 75 44
64 86 50
59 80 48
56 78 43
63 87 51
81 99 80
133 147 151
129 144 143
114 129 128
122 138 135
126 142 142
136 150 152
138 153 156
140 154 160
121 137 138
136 151 154
139 154 155
119 135 135
136 154 158
128 144 145
76 96 71
73 95 66
109 126 121
107 124 115
131 146 152
150 166 175
147 161 169
133 151 153
98 118 102
86 108 83
109 127 116
127 144 147
139 155 161
150 168 176
137 153 157
132 148 149
170 184 192
209 222 235
227 238 254
228 239 255
228 239 255
228 239 255
228 239 255
228 239 255
228 239 255
228 239 255
228 239 255
228 239 255
228 239 255
228 239 255
228 239 255
228 239 255
228 239 255
228 239 255
228 239 255
228 239 255
228 239 255
228 239 255
228 239 255
228 239 255
228 239 255
228 239 255
228 239 255
228 239 255
228 239 255
228 239 255
228 239 255
228 239 255
228 239 255
228 239 255
228 239 255
228 239 255
228 239 255
228 239 255
228 239 255
228 239 255
228 239 255
228 239 255
228 239 255
228 239 255
228 239 255
228 239 255
228 239 255
228 239 255
228 239 255
228 239 255
228 239 255
228 239 255
228 239 255
228 239 255
228 239 255
228 239 255
228 239 255
228 239 255
228 239 255
228 239 255
228 239 255
228 239 255
228 239 255
228 239 255
228 239 255
228 239 255
228 239 255
228 239 255
228 239 255
228 239 255
228 239 255
228 239 255
228 239 255
228 239 255
228 239 255
228 239 255
228 239 255
228 239 255
228 239 255
228 239 255
228 239 255
228 239 255
228 239 255
228 239 255
228 239 255
228 239 255
228 239 255
228 239 255
228 239 255
228 239 255
228 239 255
228 239 255
228 239 255
228 239 255
228 239 255
228 239 255
228 239 255
217 228 242
188 201 210
148 163 164
148 164 169
132 149 144
102 123 106
66 91 54
76 100 65
111 129 122
115 132 128
144 160 163
143 159 163
145 162 166
133 150 153
124 141 142
119 136 132
145 160 166
136 152 154
134 149 149
141 158 165
145 160 167
132 147 148
117 134 129
93 112 98
73 97 62
60 83 48
63 85 50
61 83 48
60 82 47
61 84 47
64 87 51
73 94 68
121 137 136
115 130 127
82 102 81
68 89 63
113 129 123
139 154 159
121 136 138
127 143 144
127 143 143
131 146 149
130 146 148
130 144 144
127 142 143
110 123 122
121 136 136
97 112 105
90 108 92
111 125 122
118 132 132
124 138 140
124 138 139
120 136 135
117 133 132
124 138 141
113 128 130
116 130 129
118 133 132
130 143 149
121 134 136
123 137 139
126 139 143
117 132 129
109 123 119
105 120 115
88 105 94
107 122 117
119 133 132
127 140 143
126 139 144
112 126 124
107 121 120
113 128 125
116 129 128
128 140 143
114 129 130
114 128 128
119 135 133
114 126 128
116 130 129
113 128 128
122 136 138
114 129 127
124 137 141
94 108 101
51 70 40
54 74 43
58 76 54
67 83 65
86 100 92
95 109 103
107 122 120
108 122 118
116 130 129
107 120 121
115 128 131
119 132 134
103 116 117
102 115 113
92 105 102
107 120 119
116 131 130
111 124 124
62 80 58
54 74 43
49 68 39
49 69 38
52 71 42
52 71 41
46 65 36
54 74 42
49 67 38
47 65 37
50 70 39
53 73 42
53 72 41
43 60 33
47 65 37
49 66 39
50 68 38
52 72 41
89 104 92
103 115 117
109 122 122
104 117 116
83 96 91
98 113 107
70 84 72
58 74 53
69 85 69
50 67 43
48 66 37
49 67 38
51 69 39
53 72 42
47 65 37
43 61 32
50 69 39
47 64 37
73 90 74
94 106 104
107 119 121
104 117 117
115 128 129
104 118 116
112 126 125
103 116 115
101 114 110
110 122 123
112 125 127
94 106 105
106 120 118
99 112 109
93 108 103
91 104 98
105 118 117
103 116 115
82 96 89
52 71 42
42 59 32
51 70 41
54 74 42
51 69 40
44 62 34
45 63 36
54 74 43
46 64 36
43 61 33
48 67 36
45 63 35
51 69 40
50 68 40
46 64 37
56 76 44
45 64 35
103 117 116
110 122 122
112 125 127
97 111 106
98 112 111
114 128 130
101 113 110
111 124 125
105 118 115
105 117 115
118 131 133
114 129 129
98 111 108
86 100 94
108 121 120
99 113 109
106 120 116
53 73 43
51 71 40
52 71 40
46 65 36
50 69 40
47 66 37
50 70 40
51 70 40
51 70 41
55 76 45
52 73 42
54 74 42
48 66 38
50 69 40
50 70 39
48 67 38
95 107 103
93 106 101
114 127 128
111 123 124
110 124 121
115 129 131
102 115 113
115 129 128
119 133 135
124 137 139
116 130 130
119 133 134
122 136 138
119 133 135
101 116 111
110 124 123
57 77 48
53 73 42
61 83 49
53 73 41
51 72 41
50 69 39
55 76 44
50 70 39
52 72 41
56 76 45
54 74 43
52 72 41
54 75 43
49 68 38
74 91 72
113 128 128
120 134 136
118 132 134
126 140 142
115 129 128
128 143 145
118 131 133
122 135 139
115 130 129
119 134 134
126 141 142
109 124 122
126 141 142
106 123 117
75 94 75
83 98 87
96 114 101
101 117 108
119 136 136
130 145 147
109 124 122
136 150 154
131 146 151
115 131 131
133 147 147
129 144 144
105 120 117
67 91 54
63 86 50
64 87 50
56 79 45
74 94 72
123 138 136
128 143 145
125 140 140
131 147 149
137 153 154
129 144 145
82 102 81
66 85 64
100 117 106
120 137 136
132 148 150
131 147 148
136 151 154
148 164 170
149 164 172
127 142 145
101 121 106
67 91 55
70 94 56
61 83 48
89 109 89
96 113 101
124 141 140
140 156 160
112 130 123
83 106 82
72 97 59
68 91 58
104 123 113
120 137 134
129 148 147
110 129 119
95 115 97
143 157 156
193 207 219
213 225 239
228 239 255
228 239 255
228 239 255
228 239 255
228 239 255
228 239 255
228 239 255
228 239 255
228 239 255
228 239 255
228 239 255
228 239 255
228 239 255
228 239 255
228 239 255
228 239 255
228 239 255
228 239 255
228 239 255
228 239 255
228 239 255
228 239 255
228 239 255
228 239 255
228 239 255
228 239 255
228 239 255
228 239 255
228 239 255
228 239 255
228 239 255
228 239 255
228 239 255
228 239 255
228 239 255
228 239 255
228 239 255
228 239 255
228 239 255
228 239 255
228 239 255
228 239 255
228 239 255
228 239 255
228 239 255
228 239 255
228 239 255
228 239 255
228 239 255
228 239 255
228 239 255
228 239 255
228 239 255
228 239 255
228 239 255
228 239 255
228 239 255
228 239 255
228 239 255
228 239 255
228 239 255
228 239 255
228 239 255
228 239 255
228 239 255
228 239 255
228 239 255
228 239 255
228 239 255
228 239 255
228 239 255
228 239 255
228 239 255
228 239 255
228 239 255
228 239 255
228 239 255
228 239 255
228 239 255
228 239 255
228 239 255
228 239 255
228 239 255
228 239 255
228 239 255
228 239 255
228 239 255
228 239 255
228 239 255
219 230 245
195 208 217
141 158 155
144 161 166
128 146 142
88 110 86
70 96 57
73 97 62
108 127 115
119 137 131
153 169 177
149 166 171
142 157 162
138 155 155
111 128 122
97 116 105
61 84 50
63 85 50
113 131 126
134 150 154
135 150 157
132 148 147
114 130 126
90 110 91
67 91 54
65 89 52
65 88 52
62 84 49
64 87 51
67 90 54
61 83 49
64 87 52
93 112 93
115 131 127
121 136 135
65 86 57
63 87 51
61 84 50
61 84 49
69 92 59
88 108 90
132 147 147
136 152 156
138 154 159
127 142 140
120 136 132
108 124 118
83 101 85
79 99 76
59 81 47
64 87 52
61 83 49
80 98 77
133 147 150
123 138 137
119 134 133
115 132 127
119 134 130
125 139 141
115 130 130
119 134 135
120 134 136
125 140 140
123 137 139
96 112 102
74 91 75
62 82 55
58 79 46
58 80 46
48 67 38
78 99 76
114 127 125
126 140 142
122 136 137
116 130 131
115 131 128
121 136 136
116 131 128
120 134 135
127 140 143
114 127 129
104 117 114
114 128 127
111 125 122
115 127 129
103 117 111
107 120 118
104 119 115
110 124 121
88 102 96
112 127 124
122 136 139
114 126 130
106 120 120
110 125 124
115 127 130
112 127 125
96 109 107
102 116 112
117 131 133
106 120 119
105 119 117
107 120 121
107 121 120
121 134 136
117 129 132
119 133 137
83 96 89
57 78 45
49 68 39
55 75 43
51 71 40
52 72 40
55 75 43
47 65 36
55 75 43
54 74 43
52 72 41
49 67 38
47 66 36
47 64 40
57 75 49
70 86 70
85 99 91
95 110 106
98 110 107
73 88 74
48 66 37
55 75 43
46 65 36
52 71 42
48 67 38
57 77 45
51 70 40
57 78 46
52 71 40
55 75 43
53 72 42
44 62 35
51 69 39
50 69 39
48 67 37
49 68 38
54 74 43
94 108 103
105 116 117
111 124 126
113 126 127
95 109 104
96 110 107
103 117 114
107 121 119
110 123 124
98 112 109
86 100 93
106 118 117
90 103 99
114 127 128
101 115 112
103 115 114
95 109 103
113 126 126
59 74 58
49 67 37
50 69 40
50 68 38
52 71 41
47 65 37
54 73 42
51 69 40
50 70 39
50 69 40
54 73 43
52 71 40
52 71 40
54 73 43
55 75 43
49 67 38
58 79 46
70 85 71
100 114 111
114 127 130
124 138 140
98 111 105
107 119 118
100 113 111
111 123 125
108 121 124
102 116 111
113 128 127
106 121 119
109 124 122
100 113 109
113 125 127
107 121 119
107 119 119
97 111 108
54 73 46
57 78 45
54 74 43
45 62 35
51 70 40
51 70 40
49 68 37
53 74 40
49 67 37
48 66 37
40 57 30
52 72 41
49 68 39
47 66 37
48 67 38
56 74 51
90 106 97
101 116 111
118 131 134
119 132 133
118 131 132
99 113 110
107 121 119
110 124 121
119 133 135
113 127 125
112 126 127
114 130 126
107 122 121
124 137 141
118 131 133
113 126 127
62 81 55
60 81 47
55 76 44
55 77 45
55 75 43
55 77 44
57 77 45
55 76 43
57 77 45
54 74 42
51 71 40
57 78 45
62 84 49
53 73 42
79 98 84
107 121 117
113 128 126
99 115 107
120 134 133
122 136 139
129 143 145
122 136 140
119 133 135
119 133 135
124 139 138
122 137 135
114 128 128
115 131 129
101 117 112
59 81 47
57 78 45
59 81 47
56 78 45
58 81 46
64 86 50
56 76 50
78 96 81
90 108 90
105 121 115
118 133 132
109 124 121
111 127 123
58 78 52
64 85 57
108 123 119
135 150 152
135 150 154
129 145 146
123 138 139
129 144 146
142 158 163
123 139 139
133 148 152
104 122 110
68 92 56
63 86 51
60 82 48
69 93 59
99 119 106
102 121 109
119 136 133
127 143 143
143 158 162
108 127 120
70 95 56
64 87 50
63 86 50
68 92 55
71 96 58
69 92 61
83 102 84
118 135 131
79 100 75
79 104 70
65 89 53
68 93 55
69 93 55
91 113 89
106 126 112
96 117 95
72 98 61
106 126 115
143 160 160
202 215 228
222 234 249
228 239 255
228 239 255
228 239 255
228 239 255
228 239 255
228 239 255
228 239 255
228 239 255
228 239 255
228 239 255
228 239 255
228 239 255
228 239 255
228 239 255
228 239 255
228 239 255
228 239 255
228 239 255
228 239 255
228 239 255
228 239 255
228 239 255
228 239 255
228 239 255
228 239 255
228 239 255
228 239 255
228 239 255
228 239 255
228 239 255
228 239 255
228 239 255
228 239 255
228 239 255
228 239 255
228 239 255
228 239 255
228 239 255
228 239 255
228 239 255
228 239 255
228 239 255
228 239 255
228 239 255
228 239 255
228 239 255
228 239 255
228 239 255
228 239 255
228 239 255
228 239 255
228 239 255
228 239 255
228 239 255
228 239 255
228 239 255
228 239 255
228 239 255
228 239 255
228 239 255
228 239 255
228 239 255
228 239 255
228 239 255
228 239 255
228 239 255
228 239 255
228 239 255
228 239 255
228 239 255
228 239 255
228 239 255
228 239 255
228 239 255
228 239 255
228 239 255
228 239 255
228 239 255
228 239 255
228 239 255
228 239 255
228 239 255
228 239 255
228 239 255
192 205 213
155 170 168
88 111 85
98 119 99
121 138 134
72 96 60
72 97 58
102 122 106
122 142 137
146 162 166
145 163 168
149 165 172
140 156 158
131 146 145
101 121 106
70 95 57
74 100 60
66 90 54
64 87 52
65 89 53
108 125 114
114 130 125
86 108 83
67 89 58
63 86 51
63 87 52
67 91 55
66 90 54
69 93 55
66 89 53
62 83 52
85 104 87
117 135 133
129 144 146
125 140 141
132 147 147
129 145 145
91 111 96
65 88 52
57 80 45
57 78 44
63 86 51
63 87 51
76 96 71
124 140 138
99 115 105
86 103 87
59 80 46
66 88 53
60 82 47
67 91 54
60 83 47
57 79 46
64 87 52
68 88 62
122 137 138
125 140 142
104 118 114
134 148 153
126 140 141
127 140 144
128 143 142
114 130 127
92 110 95
79 98 80
60 82 49
57 79 45
62 84 49
53 74 42
62 84 48
60 82 48
55 77 43
60 81 48
105 119 116
135 148 155
122 138 138
117 132 133
101 116 111
120 134 136
124 138 140
112 127 125
111 124 122
112 126 125
107 122 119
110 124 121
103 119 110
94 109 99
67 84 63
60 82 48
55 76 43
61 82 49
92 108 98
120 133 135
113 127 125
113 127 125
124 137 140
109 123 120
106 121 119
105 120 115
99 113 109
108 122 121
115 130 130
108 121 121
93 108 102
108 120 119
116 130 132
121 136 136
116 131 129
107 119 119
103 116 114
67 86 63
54 74 43
51 71 41
54 73 42
55 75 44
56 76 44
55 73 50
79 96 81
78 94 80
90 104 97
103 116 111
102 114 114
109 121 123
110 124 125
104 118 113
109 122 123
116 129 132
99 112 110
87 104 91
54 75 43
53 72 42
52 70 41
48 66 37
51 71 41
48 67 38
52 72 41
52 73 41
49 67 38
50 67 39
53 72 43
53 73 42
53 73 41
52 72 41
52 72 41
52 72 41
50 69 40
63 78 63
102 116 114
102 115 114
120 134 136
112 127 127
113 127 129
131 144 146
106 118 117
106 119 121
112 125 126
122 134 138
108 121 121
91 105 99
109 122 123
118 130 131
121 134 138
106 118 119
119 132 134
102 116 115
50 69 40
50 70 39
53 73 42
47 65 36
51 70 40
51 70 41
50 69 40
50 68 39
45 63 35
50 70 40
47 65 36
56 77 45
47 66 37
52 70 44
61 79 60
67 83 63
72 87 72
87 100 91
89 103 95
96 109 102
87 101 96
63 77 62
86 99 94
99 115 111
67 82 68
79 93 83
73 88 76
78 92 81
79 95 84
79 94 82
65 82 64
87 101 94
74 92 73
67 84 68
67 84 65
111 126 123
87 100 94
114 127 129
103 117 112
101 115 114
96 111 106
104 119 113
100 113 113
100 114 108
100 114 108
110 125 122
89 105 95
95 109 103
102 115 114
99 112 109
98 113 106
92 107 99
83 99 87
91 109 95
78 94 79
94 108 102
90 105 97
95 110 101
91 106 98
95 110 104
103 117 113
104 120 113
90 106 93
109 124 118
100 116 111
109 124 123
118 132 134
60 78 56
54 74 43
57 78 46
55 75 44
53 74 42
47 66 37
56 78 44
55 75 43
52 72 42
59 81 47
56 77 44
59 81 47
57 78 45
51 71 41
74 91 73
125 141 139
115 131 128
122 136 134
116 130 132
114 129 126
122 136 137
129 142 147
131 146 148
115 129 130
120 136 135
111 127 125
121 136 134
125 140 142
122 136 134
72 93 69
57 79 46
48 68 38
61 84 49
60 82 48
58 79 45
64 88 51
63 85 49
57 79 46
56 78 45
59 82 48
63 82 55
108 126 118
80 99 77
94 113 101
120 136 134
112 128 122
131 145 150
136 152 151
130 146 146
137 153 156
121 136 138
143 158 165
130 147 148
113 130 123
67 89 56
66 90 54
59 81 47
71 96 57
63 87 51
59 81 48
74 100 61
84 106 79
88 107 94
121 137 133
83 104 82
64 88 52
68 92 54
63 86 50
67 90 54
67 91 54
68 92 55
64 88 51
81 104 75
118 136 133
108 126 114
79 102 73
72 98 60
66 90 53
65 89 53
80 102 74
95 115 97
96 118 98
81 106 74
115 134 119
166 180 186
214 226 240
227 239 255
228 239 255
228 239 255
228 239 255
228 239 255
228 239 255
228 239 255
228 239 255
228 239 255
228 239 255
228 239 255
228 239 255
228 239 255
228 239 255
228 239 255
228 239 255
228 239 255
228 239 255
228 239 255
228 239 255
228 239 255
228 239 255
228 239 255
228 239 255
228 239 255
228 239 255
228 239 255
228 239 255
228 239 255
228 239 255
228 239 255
228 239 255
228 239 255
228 239 255
228 239 255
228 239 255
228 239 255
228 239 255
228 239 255
228 239 255
228 239 255
228 239 255
228 239 255
228 239 255
228 239 255
228 239 255
228 239 255
228 239 255
228 239 255
228 239 255
228 239 255
228 239 255
228 239 255
228 239 255
228 239 255
228 239 255
228 239 255
228 239 255
228 239 255
228 239 255
228 239 255
228 239 255
228 239 255
228 239 255
228 239 255
228 239 255
228 239 255
228 239 255
228 239 255
228 239 255
228 239 255
228 239 255
228 239 255
228 239 255
228 239 255
228 239 255
228 239 255
228 239 255
228 239 255
217 229 243
173 187 191
120 139 126
88 110 87
113 131 123
141 157 163
148 165 170
141 158 161
129 148 146
145 162 168
157 173 182
142 158 165
148 163 169
124 141 139
103 122 110
73 97 64
72 97 58
71 96 58
67 92 55
68 93 55
79 102 73
109 128 116
132 149 149
93 111 97
66 90 53
64 88 51
67 91 53
65 89 52
66 91 54
58 80 46
76 99 68
92 110 94
132 149 151
142 157 163
127 143 143
129 145 146
131 144 148
126 142 144
135 151 152
142 159 165
96 113 103
61 83 49
62 85 50
68 89 61
89 108 92
111 129 122
122 138 136
126 143 143
122 138 138
89 107 95
64 86 54
59 81 48
55 77 44
56 78 44
59 81 47
60 82 48
62 85 49
63 85 50
110 126 123
135 150 155
122 137 136
106 122 115
92 109 97
70 88 69
58 79 46
57 78 46
60 83 48
63 85 50
62 84 49
60 81 48
61 83 49
47 67 37
54 74 42
58 80 46
59 81 47
53 73 42
94 109 100
124 140 139
129 144 147
106 120 119
110 125 122
118 133 130
124 138 140
116 131 130
90 107 96
83 100 85
55 74 47
57 79 46
49 68 39
59 80 47
54 74 43
60 82 47
61 82 48
51 71 40
72 91 69
119 132 134
108 122 119
116 131 129
111 125 123
118 131 132
127 140 144
106 120 116
102 117 113
120 134 134
118 132 132
119 133 136
100 114 112
114 128 127
125 139 141
107 121 118
116 130 127
115 129 130
125 139 142
89 104 99
68 86 68
92 107 97
90 105 99
111 125 123
110 123 123
109 122 124
115 130 128
118 131 133
101 114 114
110 124 124
108 121 121
123 136 140
104 118 118
103 117 112
117 129 133
106 119 119
119 131 135
108 123 119
48 67 38
47 66 36
53 74 41
47 65 36
52 72 42
55 75 43
57 77 45
55 75 43
57 77 45
50 68 38
59 80 47
53 73 42
49 69 38
53 73 41
57 77 45
50 69 39
56 76 44
52 72 40
84 99 93
116 130 131
112 125 126
109 123 123
107 120 122
108 120 122
108 121 121
118 131 136
107 122 118
98 112 109
115 129 127
114 128 130
108 121 119
130 145 150
105 120 117
122 135 138
110 124 124
103 118 114
77 90 81
76 93 73
91 105 100
74 90 79
91 106 100
101 116 109
93 108 101
95 110 103
101 115 112
104 117 116
123 137 139
123 136 139
111 124 125
110 123 122
93 107 103
109 122 121
116 130 129
103 116 112
75 90 77
53 74 43
48 67 38
51 70 40
50 70 39
47 66 36
51 70 40
48 68 37
57 78 45
58 79 46
56 77 44
41 58 31
55 75 44
48 66 37
54 75 42
53 73 42
53 72 42
99 114 109
109 123 123
117 131 131
128 142 148
120 133 135
109 124 120
105 119 114
122 135 140
116 128 133
119 134 137
103 117 111
115 129 128
112 125 125
109 125 123
124 139 140
124 136 140
109 123 120
57 75 50
56 77 44
57 79 45
52 72 41
56 76 44
50 69 38
50 70 40
55 75 43
53 74 42
53 73 41
54 74 43
52 71 41
62 84 49
58 79 45
58 80 46
78 96 76
113 127 126
115 130 128
115 132 127
98 113 107
105 117 115
94 110 100
89 104 93
81 97 84
70 88 65
82 100 83
71 89 68
69 88 64
55 77 43
55 76 43
69 88 68
114 129 126
121 136 136
122 137 137
116 131 128
123 138 141
117 133 133
123 138 137
129 144 144
130 144 148
119 134 134
123 138 140
106 120 116
135 149 154
115 130 123
64 84 56
60 82 48
63 86 50
56 78 45
59 80 47
60 82 48
60 83 48
58 80 46
67 89 55
87 105 88
113 131 126
119 134 134
127 142 144
78 100 74
66 89 53
64 87 51
65 88 55
83 104 81
89 107 93
106 123 113
115 132 131
140 155 161
126 142 144
124 139 139
120 137 136
78 100 75
66 90 53
63 85 50
68 93 55
66 91 54
61 83 49
62 86 50
64 87 51
62 85 50
67 90 60
115 132 127
116 131 130
95 115 100
88 107 88
69 94 56
69 93 56
68 93 56
62 86 50
69 93 60
104 122 112
135 153 159
136 151 154
112 130 123
100 120 106
70 95 57
75 99 62
118 137 131
129 147 149
121 139 128
85 108 79
86 110 85
138 154 152
191 204 214
220 232 248
228 239 255
228 239 255
228 239 255
228 239 255
228 239 255
228 239 255
228 239 255
228 239 255
228 239 255
228 239 255
228 239 255
228 239 255
228 239 255
228 239 255
228 239 255
228 239 255
228 239 255
228 239 255
228 239 255
228 239 255
228 239 255
228 239 255
228 239 255
228 239 255
228 239 255
228 239 255
228 239 255
228 239 255
228 239 255
228 239 255
228 239 255
228 239 255
228 239 255
228 239 255
228 239 255
228 239 255
228 239 255
228 239 255
228 239 255
228 239 255
228 239 255
228 239 255
228 239 255
228 239 255
228 239 255
228 239 255
228 239 255
228 239 255
228 239 255
228 239 255
228 239 255
228 239 255
228 239 255
228 239 255
228 239 255
228 239 255
228 239 255
228 239 255
228 239 255
228 239 255
228 239 255
228 239 255
228 239 255
228 239 255
228 239 255
228 239 255
228 239 255
228 239 255
228 239 255
228 239 255
228 239 255
228 239 255
228 239 255
227 238 254
191 204 213
160 176 178
125 143 141
125 144 140
128 147 144
154 171 177
156 172 182
124 141 138
87 111 82
109 128 119
149 165 169
145 161 166
137 154 155
101 121 105
80 102 74
74 100 60
69 95 57
65 89 53
72 97 59
73 95 65
101 121 102
137 154 156
138 154 159
151 166 175
141 156 160
115 132 126
64 88 50
67 90 54
66 90 53
73 96 68
101 118 107
139 155 159
131 146 149
126 141 141
136 152 155
139 155 160
140 154 158
147 161 169
140 154 160
132 145 147
134 149 151
123 138 134
112 129 121
104 121 112
113 129 125
139 154 156
143 157 164
138 153 155
138 153 157
141 156 161
125 140 143
136 152 156
113 129 124
87 105 91
66 87 58
58 79 45
59 81 47
68 91 55
60 80 51
89 107 88
104 122 112
86 105 86
65 88 53
60 82 49
59 81 47
61 84 49
61 83 48
55 76 44
60 82 48
61 84 49
56 78 45
58 80 46
64 86 51
56 76 44
57 78 45
58 79 47
62 84 49
62 84 49
85 102 87
121 135 136
112 128 125
98 116 103
86 103 91
74 91 73
56 78 44
60 82 48
57 78 44
52 72 41
53 73 42
56 77 45
58 79 46
54 74 43
53 73 43
48 67 36
52 72 40
55 76 44
56 77 45
109 123 121
124 139 142
120 133 135
111 126 122
129 142 147
121 135 135
109 123 119
125 141 142
128 142 147
121 135 136
120 133 135
115 127 128
112 125 123
120 134 135
85 101 89
77 94 79
73 88 75
56 77 44
71 90 66
118 131 134
119 135 134
124 138 140
102 115 112
121 136 137
116 131 128
103 119 112
117 132 131
109 123 123
108 123 121
119 133 134
121 134 137
124 138 141
109 124 122
114 128 126
118 131 132
107 120 120
103 116 115
87 103 95
47 66 36
59 80 48
41 59 31
55 75 43
47 66 37
52 71 41
56 76 45
49 68 39
48 68 37
47 67 36
51 70 39
56 76 44
54 73 42
57 77 45
45 65 36
56 77 45
46 64 36
59 77 55
101 115 110
101 116 111
87 100 95
121 134 136
115 128 131
111 125 122
105 119 118
81 95 83
81 97 84
71 87 72
74 90 74
71 88 69
60 78 52
62 80 54
59 80 47
54 74 42
56 76 45
57 76 49
103 117 113
118 131 130
105 120 118
104 117 116
108 123 119
117 131 132
120 133 134
124 137 140
106 121 118
99 113 110
111 125 125
109 123 121
111 124 124
110 123 123
119 133 137
117 132 130
120 133 136
106 121 118
48 66 37
53 74 42
53 73 42
53 73 42
52 73 41
54 74 43
55 75 43
56 77 45
46 65 35
54 75 43
53 72 41
49 69 38
58 79 46
51 71 41
54 73 43
55 76 45
55 75 44
113 127 126
114 129 128
117 132 134
117 131 132
126 140 143
128 141 144
108 121 118
103 117 113
116 128 128
118 132 135
100 113 111
121 137 137
121 135 138
116 129 130
115 129 128
118 130 133
100 114 108
59 79 51
48 68 38
59 81 48
51 70 40
49 67 38
52 72 41
59 80 46
53 73 42
51 71 40
54 74 43
56 77 44
53 74 42
49 68 38
57 79 45
55 76 43
89 106 94
134 148 152
132 148 149
120 135 132
119 134 134
120 134 134
133 147 153
124 140 139
118 133 133
129 143 147
113 128 124
124 139 140
134 149 151
119 132 133
118 132 132
127 141 147
79 96 79
91 107 97
89 104 95
99 117 109
106 122 118
126 142 143
116 131 127
129 145 145
131 146 147
123 138 140
142 156 163
123 138 139
131 146 149
130 145 148
64 86 57
62 85 49
64 88 51
60 82 48
52 73 40
68 90 61
101 120 107
141 156 163
116 131 127
119 133 134
129 144 144
127 144 144
127 143 143
82 102 81
62 86 50
58 80 46
64 87 52
66 90 53
66 90 53
62 85 50
60 82 48
80 102 76
87 105 89
109 125 121
115 131 125
94 114 95
64 88 52
67 91 54
65 89 52
66 90 53
56 77 44
64 87 51
61 83 48
69 93 56
60 83 49
95 114 99
145 159 163
145 159 163
137 152 155
129 146 147
103 121 110
84 107 77
72 98 58
69 96 57
88 111 87
139 154 159
153 169 177
142 157 161
144 160 161
118 135 133
104 123 111
78 103 71
114 132 126
145 161 167
146 163 169
129 148 145
108 130 114
130 149 146
157 173 176
201 214 227
225 237 253
228 239 255
228 239 255
228 239 255
228 239 255
228 239 255
228 239 255
228 239 255
228 239 255
228 239 255
228 239 255
228 239 255
228 239 255
228 239 255
228 239 255
228 239 255
228 239 255
228 239 255
228 239 255
228 239 255
228 239 255
228 239 255
228 239 255
228 239 255
228 239 255
228 239 255
228 239 255
228 239 255
228 239 255
228 239 255
228 239 255
228 239 255
228 239 255
228 239 255
228 239 255
228 239 255
228 239 255
228 239 255
228 239 255
228 239 255
228 239 255
228 239 255
228 239 255
228 239 255
228 239 255
228 239 255
228 239 255
228 239 255
228 239 255
228 239 255
228 239 255
228 239 255
228 239 255
228 239 255
228 239 255
228 239 255
228 239 255
228 239 255
228 239 255
228 239 255
228 239 255
228 239 255
228 239 255
228 239 255
228 239 255
228 239 255
228 239 255
228 239 255
228 239 255
213 225 237
174 187 194
154 172 174
146 163 167
159 175 182
154 170 178
156 173 180
136 155 154
103 123 109
78 104 66
69 94 56
75 101 61
102 123 108
118 137 131
82 104 78
67 91 55
73 98 59
70 94 56
68 93 55
69 92 60
109 127 115
120 137 134
155 170 179
141 156 160
152 168 178
136 152 156
148 164 172
142 157 161
121 138 134
78 100 75
110 127 121
127 144 142
140 156 160
146 161 167
139 155 158
129 145 146
135 150 152
126 142 142
141 156 162
130 146 147
135 151 152
135 151 153
117 135 131
102 117 109
90 109 90
71 94 65
134 150 154
124 139 138
132 147 151
137 153 157
125 139 139
135 151 153
128 144 145
141 157 160
134 150 150
127 144 144
132 148 151
131 146 149
93 110 96
80 99 77
126 141 138
123 139 139
138 153 155
124 137 137
63 86 51
61 83 49
57 78 45
59 81 47
60 83 48
65 88 52
65 88 53
66 88 52
61 83 48
59 82 48
54 75 43
60 82 46
61 84 49
64 87 51
56 76 47
70 88 68
100 117 109
113 129 124
71 91 63
59 81 48
66 89 53
61 83 49
55 76 43
53 74 42
58 80 45
58 80 46
63 86 50
60 81 48
58 80 46
57 79 46
54 75 43
56 77 44
55 75 43
59 80 47
59 80 46
64 86 51
81 98 82
110 124 122
112 126 125
118 131 132
117 131 130
115 132 129
122 136 137
106 120 118
105 119 116
105 121 115
80 98 83
69 88 68
60 83 49
55 76 43
58 80 47
57 78 45
54 75 42
57 77 45
58 80 47
106 121 116
121 135 137
125 141 141
118 132 132
112 125 127
116 130 128
116 129 128
111 124 123
120 135 136
127 141 143
110 124 121
121 135 136
113 126 129
120 133 134
114 128 130
124 139 143
103 117 114
115 130 125
123 137 139
59 80 47
50 69 39
53 73 42
50 68 40
56 76 44
51 70 40
50 70 39
48 67 38
47 66 35
51 70 40
58 80 46
55 75 44
56 77 44
59 77 50
80 96 84
84 100 86
88 104 94
99 114 107
90 105 95
66 83 64
60 79 51
52 71 41
53 73 42
53 74 42
49 69 38
53 73 43
50 69 39
54 75 43
54 75 43
54 74 43
44 62 34
50 70 38
53 73 42
57 78 45
55 76 44
52 71 41
66 84 62
117 130 133
113 128 126
111 124 126
118 132 134
119 133 134
98 113 107
107 120 120
110 124 121
107 122 121
116 130 129
121 135 136
102 116 114
115 130 127
116 129 130
109 122 121
114 128 128
104 117 114
97 110 107
48 66 37
49 69 38
57 78 45
41 60 31
51 71 40
51 71 40
55 75 43
58 78 46
49 67 39
56 76 44
56 77 44
49 68 38
51 71 40
54 74 42
56 77 44
51 71 40
81 98 82
113 127 128
115 128 129
118 133 134
110 125 121
129 143 147
116 129 133
117 131 132
104 119 114
108 122 118
118 133 132
130 145 147
122 135 136
124 137 139
126 140 145
110 124 125
115 129 129
99 115 107
57 78 44
56 77 44
55 75 43
47 66 36
62 85 51
54 74 42
60 82 48
59 79 47
61 83 49
56 77 46
57 77 45
60 82 48
51 72 40
66 89 52
57 78 45
89 106 95
128 144 146
131 145 148
104 118 113
111 126 124
123 138 141
127 141 146
100 114 111
126 140 143
117 131 132
121 137 134
126 141 140
136 151 155
127 142 143
119 134 134
106 120 116
63 86 51
57 78 45
64 86 52
56 77 44
58 79 45
62 84 49
68 87 64
81 101 80
92 108 96
98 115 100
85 102 88
119 135 133
103 118 112
115 131 128
76 97 72
65 88 52
87 106 90
118 134 127
130 145 146
149 163 170
132 147 151
128 144 149
129 143 145
143 157 163
134 148 151
133 148 151
134 149 151
91 111 94
62 85 50
69 93 55
64 87 51
64 87 51
61 84 49
62 85 49
62 85 49
61 84 48
63 87 49
61 85 49
73 95 66
105 122 113
117 134 130
106 123 119
95 114 94
74 96 66
64 87 52
68 93 55
68 93 55
66 91 54
64 87 51
79 102 73
125 139 139
151 167 173
141 158 161
143 158 165
140 155 162
140 156 160
129 147 145
109 129 117
75 98 69
121 140 133
140 157 161
149 166 171
153 169 177
159 176 183
146 162 166
138 156 156
122 142 134
140 156 158
156 171 181
148 163 170
132 148 145
130 147 145
127 146 141
141 159 154
170 184 189
220 232 247
228 239 255
228 239 255
228 239 255
228 239 255
228 239 255
228 239 255
228 239 255
228 239 255
228 239 255
228 239 255
228 239 255
228 239 255
228 239 255
228 239 255
228 239 255
228 239 255
228 239 255
228 239 255
228 239 255
228 239 255
228 239 255
228 239 255
228 239 255
228 239 255
228 239 255
228 239 255
228 239 255
228 239 255
228 239 255
228 239 255
228 239 255
228 239 255
228 239 255
228 239 255
228 239 255
228 239 255
228 239 255
228 239 255
228 239 255
228 239 255
228 239 255
228 239 255
228 239 255
228 239 255
228 239 255
228 239 255
228 239 255
228 239 255
228 239 255
228 239 255
228 239 255
228 239 255
228 239 255
228 239 255
228 239 255
228 239 255
228 239 255
228 239 255
228 239 255
228 239 255
228 239 255
228 239 255
228 239 255
228 239 255
197 209 220
159 175 179
144 163 166
136 153 153
128 146 143
160 177 186
155 171 181
121 139 132
96 118 99
69 94 56
71 96 58
84 111 73
106 127 112
137 154 154
120 138 133
73 99 59
71 97 58
64 88 51
70 96 58
99 118 103
120 138 134
146 162 167
153 169 174
144 160 162
143 158 162
154 169 176
137 154 157
152 168 176
133 150 151
119 138 131
118 136 131
145 162 169
149 164 171
138 153 159
138 154 158
152 168 177
142 157 163
158 173 181
144 159 166
146 161 168
144 160 166
116 133 128
97 115 100
73 95 65
66 90 54
70 95 57
63 86 51
66 88 58
142 158 164
147 163 167
129 144 145
130 145 147
136 152 158
144 160 164
130 145 149
130 146 147
126 142 142
106 122 118
101 119 107
73 94 71
64 88 52
59 80 46
63 86 50
88 108 88
111 127 121
123 138 136
66 88 53
65 88 52
57 79 45
60 81 48
60 82 48
61 83 47
63 86 51
54 75 43
63 85 50
59 82 47
61 83 49
79 99 78
92 110 94
102 118 111
127 143 142
134 148 150
126 141 141
125 140 141
83 103 86
58 80 46
64 87 52
64 86 51
57 79 45
62 84 49
60 81 47
59 80 47
56 77 45
63 86 50
61 84 49
62 84 50
55 76 43
52 73 41
62 84 50
59 80 47
54 75 43
58 79 45
53 73 41
114 128 124
125 138 140
113 128 124
97 114 105
88 105 92
65 84 59
58 80 46
56 78 45
54 74 42
53 73 41
53 74 42
58 80 46
58 79 46
53 73 43
55 76 43
54 74 42
61 83 48
56 78 45
67 88 59
120 134 134
137 151 156
114 129 127
120 134 136
101 116 109
115 128 127
121 134 137
120 135 137
117 131 133
112 127 125
105 119 117
118 133 133
114 128 127
111 125 125
102 117 111
111 126 121
114 129 129
119 133 132
97 113 107
52 72 40
57 78 44
48 67 37
51 72 39
70 87 70
71 89 67
83 98 86
88 103 95
95 109 104
117 131 129
109 123 121
116 131 128
115 128 128
118 131 133
120 134 136
110 125 123
116 131 128
108 123 122
63 80 56
54 74 43
60 82 48
50 70 39
59 79 46
50 70 39
53 72 42
55 76 43
57 78 46
49 69 38
52 71 41
59 81 47
53 73 42
53 73 42
56 76 45
54 74 42
48 68 38
60 82 47
93 108 100
102 117 113
117 130 131
108 121 120
120 133 136
112 126 123
112 127 122
112 125 124
114 128 130
120 134 134
120 133 134
116 130 132
126 140 142
126 139 143
115 128 129
120 134 134
121 135 136
113 126 122
70 87 67
57 78 45
51 71 40
54 74 42
52 72 41
58 78 46
54 75 43
58 79 46
49 68 37
56 77 45
53 73 41
57 78 45
55 75 44
53 73 42
54 74 43
56 77 44
54 75 42
90 107 96
124 137 139
113 127 124
125 140 142
112 125 123
106 119 119
120 135 134
124 140 142
106 119 117
116 130 131
119 134 132
117 131 130
126 141 142
135 149 153
145 158 167
129 143 148
136 150 153
75 93 73
57 79 46
55 76 43
56 78 44
56 78 44
61 84 49
57 78 45
53 74 42
55 76 44
57 79 45
58 79 45
53 74 42
55 75 43
57 78 45
59 81 47
59 81 47
116 132 132
107 122 117
129 143 147
138 152 159
125 140 142
112 126 125
114 129 127
123 138 141
114 129 126
121 135 136
114 129 126
121 135 136
118 132 132
131 146 147
139 154 159
105 120 114
60 82 48
61 82 49
55 75 42
62 84 49
58 80 46
60 83 48
59 81 47
65 89 52
61 83 49
59 82 47
61 83 49
71 92 65
93 111 97
126 143 141
90 108 91
84 102 87
88 105 93
102 119 112
111 127 121
123 137 135
130 146 148
132 146 150
138 153 157
125 140 143
123 138 137
134 148 154
135 150 153
93 112 96
68 91 54
63 85 50
64 87 52
70 94 56
62 86 50
62 86 50
61 84 50
66 89 52
65 89 52
64 88 52
64 87 51
108 127 118
145 161 165
142 158 164
141 156 161
124 141 137
131 148 151
96 114 98
85 106 86
64 88 51
69 93 56
76 100 69
120 138 132
150 166 174
142 159 163
131 147 148
154 170 177
140 157 161
146 161 165
135 151 150
134 150 152
132 148 148
149 166 172
156 172 180
148 165 169
146 162 168
155 171 180
156 173 181
156 173 183
154 171 176
126 143 140
138 155 157
152 169 176
148 164 168
120 139 132
79 104 71
87 111 83
142 159 154
202 215 226
228 239 255
228 239 255
228 239 255
228 239 255
228 239 255
228 239 255
228 239 255
228 239 255
228 239 255
228 239 255
228 239 255
228 239 255
228 239 255
228 239 255
228 239 255
228 239 255
228 239 255
228 239 255
228 239 255
228 239 255
228 239 255
228 239 255
228 239 255
228 239 255
228 239 255
228 239 255
228 239 255
228 239 255
228 239 255
228 239 255
228 239 255
228 239 255
228 239 255
228 239 255
228 239 255
228 239 255
228 239 255
228 239 255
228 239 255
228 239 255
228 239 255
228 239 255
228 239 255
228 239 255
228 239 255
228 239 255
228 239 255
228 239 255
228 239 255
228 239 255
228 239 255
228 239 255
228 239 255
228 239 255
228 239 255
228 239 255
228 239 255
228 239 255
228 239 255
222 233 249
189 202 213
122 140 134
144 162 167
124 143 137
83 107 78
125 144 139
126 144 143
95 118 97
76 103 63
73 99 60
76 101 64
97 119 94
124 142 139
153 169 176
154 170 175
149 165 174
113 133 124
69 94 57
93 113 95
104 122 108
146 162 168
152 168 174
153 169 174
151 167 176
146 162 165
146 163 170
148 163 167
137 152 154
113 131 125
95 114 99
66 90 53
64 88 52
95 112 99
153 168 177
134 149 153
131 148 152
143 158 164
140 156 158
156 172 182
135 150 155
122 137 136
88 107 90
73 96 64
62 86 50
58 81 46
68 92 54
64 88 52
56 78 44
72 97 58
65 89 52
145 161 165
132 147 150
132 148 150
135 150 153
132 147 149
122 139 136
113 131 125
85 105 86
66 90 54
69 93 56
67 91 54
60 82 48
59 81 46
70 94 55
61 84 49
60 83 48
58 80 46
57 77 44
117 133 126
107 121 117
82 100 81
72 94 65
58 80 46
62 84 49
64 87 51
86 102 91
99 114 106
106 123 118
130 145 147
133 147 150
142 156 162
131 145 148
133 147 151
121 137 136
123 138 139
133 149 151
102 118 113
59 80 46
58 79 46
64 87 51
59 81 47
63 86 51
63 86 50
57 77 44
56 78 45
62 85 49
61 83 49
62 84 50
55 76 43
58 79 47
62 85 50
64 85 58
74 93 76
91 108 97
116 132 132
90 107 96
62 85 50
64 86 51
54 74 42
60 82 49
60 81 47
59 81 47
55 76 44
50 70 39
54 74 43
58 79 45
62 85 49
58 80 46
52 73 41
53 73 42
46 66 36
52 71 40
60 81 48
56 77 45
112 127 123
115 130 129
121 134 135
114 127 127
104 118 116
116 131 132
116 130 128
121 135 135
111 126 124
112 126 127
109 124 125
114 129 126
108 122 119
128 143 146
118 130 133
125 139 143
118 133 131
103 116 111
100 115 109
86 101 92
102 116 115
115 130 127
117 131 132
114 127 129
114 128 127
117 131 130
111 125 125
124 139 139
113 126 123
127 141 144
113 127 126
110 124 124
124 138 140
124 138 141
123 137 140
119 132 134
107 120 119
93 108 100
47 65 36
58 79 47
55 76 44
51 71 40
61 84 50
50 69 39
53 72 41
54 75 43
49 69 38
58 80 46
58 79 46
59 80 47
60 82 48
53 73 42
56 77 44
51 70 40
53 73 42
70 88 68
121 135 136
121 134 139
117 132 131
116 130 127
119 135 134
114 127 130
118 132 131
112 126 125
119 131 132
117 130 134
105 119 116
126 140 142
122 136 136
119 132 135
120 134 134
107 120 121
113 128 126
92 108 101
62 84 49
56 77 45
53 73 41
57 77 45
57 78 46
54 75 43
50 70 39
59 81 49
59 81 46
55 76 43
55 76 44
60 81 49
55 75 43
57 78 45
55 76 45
56 77 45
51 70 40
116 131 131
125 141 144
106 122 118
111 126 123
106 120 117
123 137 138
116 131 130
112 127 126
129 142 144
114 129 127
111 126 123
122 136 137
115 129 126
117 133 133
124 138 141
125 140 142
120 135 134
65 83 61
54 76 43
61 83 50
56 76 44
58 78 46
60 83 49
58 80 47
63 86 51
57 79 45
54 74 42
61 84 50
60 82 48
53 74 42
58 80 46
61 83 48
68 90 61
119 135 133
116 130 127
117 131 132
119 134 133
130 146 149
131 145 148
134 148 151
128 143 142
125 139 141
131 145 150
117 132 131
122 137 136
119 133 133
124 139 136
134 150 151
90 110 93
61 84 49
60 82 47
61 84 50
64 89 51
64 87 51
60 83 48
59 81 46
75 95 76
83 101 86
118 133 129
130 147 149
130 146 149
124 140 142
117 134 132
72 93 69
63 86 50
62 85 50
61 83 48
60 83 48
63 86 51
73 94 68
91 109 94
105 124 112
115 131 126
127 144 144
131 146 147
140 155 159
106 125 114
63 86 50
67 91 53
60 83 48
62 86 49
60 82 47
62 85 50
63 86 51
60 83 48
67 91 54
66 91 54
67 91 54
100 120 107
139 156 159
140 156 158
142 157 162
143 159 161
137 152 156
146 161 166
138 155 158
128 144 142
110 126 120
107 127 115
107 127 113
141 156 158
141 156 159
147 164 166
139 154 158
159 175 185
149 165 172
151 166 171
153 169 178
140 157 158
93 113 95
109 128 120
133 151 148
149 166 171
148 164 171
156 172 183
164 180 191
143 160 164
109 129 116
97 119 99
132 150 149
152 170 176
128 146 142
89 112 88
104 125 111
108 130 117
115 136 119
174 188 194
220 232 246
228 239 255
228 239 255
228 239 255
228 239 255
228 239 255
228 239 255
228 239 255
228 239 255
228 239 255
228 239 255
228 239 255
228 239 255
228 239 255
228 239 255
228 239 255
228 239 255
228 239 255
228 239 255
228 239 255
228 239 255
228 239 255
228 239 255
228 239 255
228 239 255
228 239 255
228 239 255
228 239 255
228 239 255
228 239 255
228 239 255
228 239 255
228 239 255
228 239 255
228 239 255
228 239 255
228 239 255
228 239 255
228 239 255
228 239 255
228 239 255
228 239 255
228 239 255
228 239 255
228 239 255
228 239 255
228 239 255
228 239 255
228 239 255
228 239 255
228 239 255
228 239 255
228 239 255
228 239 255
228 239 255
214 226 241
169 184 187
109 131 114
118 137 129
102 124 106
75 101 61
90 113 85
94 116 95
83 107 78
73 99 58
72 98 59
78 103 70
114 134 125
138 154 158
146 162 166
155 171 179
157 174 182
159 176 182
131 147 148
122 139 136
129 147 145
151 167 173
156 170 176
149 165 170
147 163 169
151 167 176
139 155 157
135 151 153
130 149 145
85 105 85
67 90 54
69 94 56
65 89 52
68 93 55
64 87 50
79 101 74
144 159 166
140 156 159
143 158 164
130 145 146
119 135 131
101 120 103
71 94 62
64 87 52
66 89 53
67 91 54
66 90 53
66 90 52
58 81 47
70 95 57
70 94 57
66 89 53
63 86 50
122 137 138
124 141 139
107 126 116
98 116 102
71 93 64
64 89 52
65 88 52
62 86 50
65 90 53
65 89 52
63 86 50
58 80 46
64 88 51
64 87 52
61 84 49
65 88 52
63 85 49
55 77 44
105 120 114
122 138 139
119 133 132
125 141 141
91 110 96
73 91 69
119 135 133
129 144 145
129 144 146
125 139 141
136 151 153
136 150 153
133 147 151
139 153 157
118 134 133
124 137 137
126 140 144
128 142 144
131 146 147
59 79 50
56 77 43
61 83 48
64 86 51
56 77 44
63 87 51
67 91 54
63 85 50
61 84 49
57 79 45
84 103 79
83 99 89
94 111 99
107 122 117
125 139 140
123 137 141
125 139 138
122 137 136
110 125 122
64 88 52
61 84 48
56 77 44
61 83 49
61 83 50
52 72 40
62 84 49
56 77 44
55 76 44
58 79 46
52 72 41
59 81 47
49 69 39
57 78 46
62 84 48
58 79 46
60 82 49
54 76 42
84 100 85
125 139 142
117 132 130
114 129 129
124 138 142
116 130 129
115 130 126
109 123 122
118 134 131
123 138 140
104 118 116
80 97 84
92 108 96
76 94 76
64 81 58
61 81 51
60 81 48
56 76 44
55 75 43
103 119 109
117 131 131
125 138 140
119 134 132
112 126 128
114 127 124
113 128 124
126 140 142
115 129 128
109 124 121
114 129 125
114 128 125
118 132 132
121 136 137
121 133 134
111 125 124
120 134 135
114 127 129
103 118 115
57 76 52
54 75 42
57 78 45
51 71 40
54 75 43
54 74 43
53 73 42
57 78 46
59 81 47
56 77 44
59 81 46
55 76 44
59 80 47
55 76 43
48 67 37
56 77 44
57 79 46
57 77 45
101 115 111
125 139 141
106 119 118
115 129 129
125 138 144
119 134 134
117 131 132
112 126 125
119 133 133
128 141 142
106 121 115
132 145 149
127 140 141
109 123 118
105 120 116
104 118 114
123 139 139
114 129 127
105 119 113
56 77 45
51 72 40
57 78 45
55 75 43
54 74 43
58 80 46
57 79 44
64 87 52
60 82 48
54 75 42
57 79 44
59 81 47
53 74 44
54 74 43
60 82 48
54 74 41
83 99 84
114 127 127
112 127 122
131 147 151
121 135 138
121 136 134
115 130 126
117 131 129
122 137 136
121 134 137
122 138 140
130 145 147
130 144 146
126 141 143
122 137 135
134 149 155
122 134 140
94 111 103
61 83 52
53 73 43
58 79 46
57 78 44
54 74 43
62 85 50
58 79 46
56 77 44
61 83 49
59 81 48
60 83 49
61 84 49
61 83 48
64 87 52
63 86 50
62 83 56
126 143 143
118 133 133
127 141 140
133 147 153
135 151 155
120 135 134
125 139 140
131 145 149
127 140 145
120 135 137
130 145 147
128 143 145
144 159 163
122 137 136
128 143 145
91 110 94
62 85 49
69 91 58
84 103 84
91 108 100
117 133 134
127 142 143
144 160 163
132 147 150
117 132 132
136 150 154
134 148 153
138 153 158
133 148 149
117 132 129
65 86 56
56 78 45
61 83 47
65 89 52
65 88 52
67 91 54
61 83 48
60 83 48
66 90 53
62 85 50
63 87 50
72 96 61
85 105 83
88 108 90
104 123 112
85 104 85
76 96 74
65 86 57
62 84 49
70 95 57
70 95 57
62 85 49
65 88 52
63 87 51
64 88 51
100 119 105
137 153 157
135 151 153
132 148 152
133 150 148
139 156 160
139 154 158
145 160 165
145 162 167
153 169 176
133 149 149
149 166 170
120 139 130
127 144 144
144 160 169
141 157 161
138 153 154
148 165 171
142 158 163
147 164 169
143 159 163
120 138 131
74 98 64
71 94 59
82 103 80
116 133 127
143 160 162
153 168 175
152 170 174
140 159 158
77 101 66
74 100 60
93 116 95
110 131 119
85 111 78
113 133 119
144 162 163
130 149 144
92 116 91
149 165 161
204 217 228
228 239 255
228 239 255
228 239 255
228 239 255
228 239 255
228 239 255
228 239 255
228 239 255
228 239 255
228 239 255
228 239 255
228 239 255
228 239 255
228 239 255
228 239 255
228 239 255
228 239 255
228 239 255
228 239 255
228 239 255
228 239 255
228 239 255
228 239 255
228 239 255
228 239 255
228 239 255
228 239 255
228 239 255
228 239 255
228 239 255
228 239 255
228 239 255
228 239 255
228 239 255
228 239 255
228 239 255
228 239 255
228 239 255
228 239 255
228 239 255
228 239 255
228 239 255
228 239 255
228 239 255
228 239 255
228 239 255
228 239 255
228 239 255
228 239 255
227 238 254
202 215 226
141 157 156
99 120 104
126 145 143
157 175 184
150 167 173
129 148 143
150 169 174
93 115 94
75 101 62
68 92 54
107 127 116
129 147 144
163 180 191
157 173 179
155 171 178
150 167 173
150 166 171
138 156 156
106 125 112
74 100 62
137 155 156
143 159 163
155 170 178
139 155 158
148 164 169
152 168 174
128 145 148
95 115 97
73 97 61
67 91 54
70 94 56
69 94 56
65 90 52
71 95 57
66 90 52
61 85 49
84 107 78
135 151 154
114 132 126
88 108 89
72 96 58
65 88 53
69 92 55
66 91 54
66 91 54
71 96 58
65 88 52
58 80 46
68 92 55
59 82 47
64 88 51
75 101 62
72 94 65
103 121 112
99 116 104
66 90 53
67 91 54
59 82 46
67 91 54
65 88 53
61 83 48
63 86 50
60 81 47
63 86 51
69 93 56
60 84 48
61 83 49
66 90 53
62 85 50
59 81 47
65 89 53
67 88 58
102 119 110
88 106 89
80 99 80
58 81 46
63 87 52
64 86 50
59 81 46
70 94 62
73 96 67
86 104 84
122 136 135
127 142 144
141 157 164
129 145 143
139 154 160
143 159 165
132 147 149
126 141 144
137 152 156
82 99 82
62 84 49
59 81 47
65 88 52
60 82 48
66 87 58
80 99 79
105 120 112
116 132 131
124 140 137
121 137 134
125 139 140
141 155 161
127 141 142
129 143 143
127 141 142
124 138 141
134 149 154
122 137 138
66 87 59
48 68 36
59 81 47
52 73 42
58 80 45
57 78 46
60 82 48
55 77 43
57 78 45
58 79 47
61 84 50
56 77 44
63 85 51
53 74 42
53 74 43
59 80 47
60 82 48
57 78 46
67 90 58
111 126 124
119 133 132
134 148 154
116 132 129
115 130 127
98 114 105
78 96 79
73 91 70
59 80 47
61 83 49
59 80 47
55 75 43
55 76 43
56 77 44
55 76 44
58 79 46
54 74 42
59 81 47
77 95 77
111 125 126
123 137 139
109 123 122
118 132 133
132 147 152
115 129 128
124 138 142
122 136 136
123 138 136
123 137 136
115 130 127
121 134 134
113 128 128
132 147 150
115 129 128
105 119 119
125 139 141
113 128 126
110 126 120
56 77 44
60 82 48
60 82 49
56 77 44
53 73 41
58 78 46
56 77 45
55 76 42
58 79 47
59 81 46
57 78 46
57 78 44
52 71 41
61 83 48
57 78 46
53 73 41
55 76 44
68 88 63
128 143 146
119 133 133
127 140 143
122 136 139
128 142 143
112 126 127
133 148 150
120 134 136
114 129 130
116 130 129
120 135 136
128 142 145
122 136 139
111 125 125
114 129 127
125 140 143
102 118 109
106 120 117
74 90 73
88 104 95
84 101 88
90 106 96
88 104 92
97 114 103
88 103 91
100 115 110
94 110 101
108 123 121
111 127 124
92 109 99
111 126 120
101 115 111
96 112 105
111 126 123
117 132 129
110 126 123
86 103 89
90 107 95
72 90 71
71 90 67
81 101 83
58 77 52
79 94 83
67 88 59
70 87 68
71 92 66
70 88 69
78 96 80
79 97 77
89 105 96
76 96 73
89 107 91
78 96 79
114 128 125
119 133 133
98 115 106
94 110 101
96 111 105
92 109 96
86 105 87
85 103 84
98 116 105
79 96 82
84 102 86
77 97 72
88 108 87
86 105 88
70 90 66
68 88 63
126 140 142
129 143 143
110 125 120
126 141 143
131 147 149
133 146 149
124 140 137
130 146 146
136 151 151
123 138 140
118 134 132
123 138 136
126 141 142
103 120 113
98 116 104
117 134 128
129 144 145
133 150 150
120 136 135
133 149 151
126 141 139
125 141 139
131 146 146
139 154 160
129 146 146
124 139 138
146 161 169
134 149 149
135 149 151
118 134 132
62 85 49
60 83 49
60 82 48
66 90 53
66 89 52
63 86 50
63 86 51
65 88 52
67 91 55
61 84 48
67 90 53
72 97 58
67 91 54
120 136 133
138 154 157
134 150 152
137 153 155
116 133 129
119 135 129
107 125 116
84 105 84
76 98 66
69 94 56
66 91 54
60 83 48
83 104 83
131 147 147
146 161 165
139 155 160
156 171 180
142 158 164
140 156 159
137 153 156
144 161 166
140 156 160
139 155 159
154 169 177
89 109 91
63 87 51
102 122 107
116 134 130
120 138 133
138 154 158
142 159 162
152 167 172
146 161 167
135 151 152
91 114 93
69 94 56
70 95 57
72 98 60
84 108 79
113 132 124
133 150 152
145 162 166
107 128 116
74 100 60
75 101 61
94 116 98
132 150 149
117 136 128
115 134 123
154 171 180
149 167 169
118 139 132
147 164 164
197 209 221
228 239 255
228 239 255
228 239 255
228 239 255
228 239 255
228 239 255
228 239 255
228 239 255
228 239 255
228 239 255
228 239 255
228 239 255
228 239 255
228 239 255
228 239 255
228 239 255
228 239 255
228 239 255
228 239 255
228 239 255
228 239 255
228 239 255
228 239 255
228 239 255
228 239 255
228 239 255
228 239 255
228 239 255
228 239 255
228 239 255
228 239 255
228 239 255
228 239 255
228 239 255
228 239 255
228 239 255
228 239 255
228 239 255
228 239 255
228 239 255
228 239 255
228 239 255
228 239 255
228 239 255
228 239 255
225 236 252
190 204 213
123 142 130
111 131 117
140 157 159
160 176 187
142 160 163
129 149 144
97 118 97
161 178 187
111 131 121
87 110 84
123 141 133
148 165 170
148 165 172
152 167 171
156 172 180
154 170 178
134 150 150
99 120 104
81 105 74
72 97 58
72 98 59
69 94 56
132 150 149
153 168 175
154 171 177
125 142 142
109 127 117
79 102 75
70 94 57
64 88 52
71 95 57
65 90 54
72 96 57
63 86 50
64 89 52
67 91 54
82 104 77
109 128 116
126 143 144
70 93 62
68 92 55
69 93 55
69 95 56
67 91 54
66 90 53
67 91 54
68 93 55
63 86 51
66 89 53
72 97 59
65 88 53
88 109 86
105 121 112
140 155 159
145 159 163
139 154 157
121 138 134
69 93 55
67 90 54
58 81 46
68 93 55
64 88 53
69 94 57
67 91 54
64 87 51
67 91 55
68 92 54
65 88 52
64 87 50
67 89 56
77 99 73
107 124 118
125 141 138
126 141 142
123 139 140
59 80 46
65 88 53
61 84 49
65 88 52
67 90 53
67 91 54
58 79 46
67 91 54
60 82 48
57 78 46
62 84 49
54 75 43
91 108 99
117 134 128
115 131 129
121 135 135
131 146 148
132 146 150
105 120 116
65 86 58
101 118 104
117 132 128
121 134 137
142 158 164
118 134 132
133 147 149
139 152 157
142 157 161
131 147 149
133 148 153
125 139 144
128 143 145
134 149 151
124 138 142
130 145 146
128 143 146
128 144 145
106 123 114
66 89 53
59 81 47
62 84 49
62 85 49
57 78 46
58 80 45
61 83 49
54 75 42
64 87 51
59 81 47
61 84 49
60 81 47
61 83 49
56 76 44
57 78 45
62 79 59
81 98 82
91 109 95
98 115 105
70 87 67
60 83 48
61 83 49
55 76 44
59 80 47
59 81 47
53 75 42
64 88 50
62 84 49
58 79 47
57 78 45
57 77 45
60 82 48
56 76 44
59 81 47
51 71 40
58 79 47
58 79 46
102 117 114
129 143 146
127 141 143
118 131 132
120 134 135
123 138 140
127 140 145
128 143 146
122 137 137
117 130 130
135 150 154
121 135 137
127 141 146
121 135 133
109 123 121
121 134 137
105 120 115
118 133 131
119 135 134
76 94 75
62 85 50
56 77 44
57 77 46
54 74 44
57 78 46
59 81 47
52 73 41
61 83 50
57 78 46
58 80 47
57 78 45
57 78 46
54 75 43
58 79 46
56 77 45
54 75 43
67 89 59
86 104 86
114 128 127
119 134 132
118 134 132
91 108 93
99 114 107
84 102 88
95 112 103
72 90 70
91 109 94
74 93 71
66 85 60
59 78 51
59 81 47
59 81 46
57 79 45
58 79 45
55 75 43
81 101 81
129 143 146
113 128 128
121 135 136
117 133 130
120 135 134
117 132 131
124 137 139
121 135 135
130 144 149
125 140 142
118 133 132
116 132 133
122 136 137
131 146 147
121 134 137
114 127 127
123 138 138
98 115 101
61 83 49
57 78 46
55 76 43
59 80 47
58 81 47
53 74 42
60 82 48
59 81 47
61 84 50
53 74 40
60 82 48
60 82 48
61 83 48
62 85 50
59 81 47
59 81 47
115 131 130
122 136 136
137 151 153
127 142 144
122 136 138
138 152 158
121 135 136
110 126 121
127 141 143
132 146 149
138 153 159
127 142 141
141 156 161
121 136 136
124 140 140
115 131 127
112 128 123
73 94 66
80 100 76
67 87 61
69 88 67
83 101 85
82 101 82
106 121 116
127 143 143
124 140 140
96 114 103
98 117 105
81 102 82
69 91 64
63 85 52
67 88 62
130 145 147
123 137 139
139 155 161
132 147 149
134 150 154
139 154 163
123 138 137
134 150 152
130 145 148
136 152 154
133 148 150
142 157 163
123 139 137
132 149 149
123 140 137
63 85 53
67 91 54
61 84 48
65 88 52
66 90 54
66 90 53
63 86 50
63 86 50
65 88 52
64 87 50
66 90 54
68 92 54
66 90 53
114 131 129
144 159 164
132 148 148
136 152 155
139 154 158
138 154 159
132 147 151
147 161 167
145 161 168
121 139 136
113 129 122
95 114 98
87 108 85
136 155 153
135 150 153
143 159 165
142 158 161
130 145 145
142 157 160
141 157 162
147 164 168
148 164 170
147 164 167
136 151 154
88 110 86
72 97 58
73 99 59
70 95 57
67 89 56
94 115 98
124 143 137
132 150 151
158 175 184
140 156 161
97 118 98
71 96 58
65 90 52
70 95 57
74 100 61
68 93 55
78 102 71
107 128 113
108 129 114
74 99 63
74 100 60
110 130 118
156 171 176
159 176 184
139 156 157
154 170 179
153 170 175
144 161 162
138 155 155
154 171 174
180 194 202
225 236 252
228 239 255
228 239 255
228 239 255
228 239 255
228 239 255
228 239 255
228 239 255
228 239 255
228 239 255
228 239 255
228 239 255
228 239 255
228 239 255
228 239 255
228 239 255
228 239 255
228 239 255
228 239 255
228 239 255
228 239 255
228 239 255
228 239 255
228 239 255
228 239 255
228 239 255
228 239 255
228 239 255
228 239 255
228 239 255
228 239 255
228 239 255
228 239 255
228 239 255
228 239 255
228 239 255
228 239 255
228 240 255
228 240 255
228 240 255
228 240 255
219 231 246
169 184 187
111 131 119
114 135 126
156 173 180
163 179 190
145 162 166
109 131 112
80 107 68
80 108 67
95 117 94
130 148 147
131 149 149
154 170 177
157 174 185
143 160 162
148 164 169
147 164 169
112 132 119
87 109 84
70 96 57
73 98 60
66 90 53
72 97 58
67 92 54
71 96 56
123 140 142
116 136 127
82 105 76
69 93 56
68 93 56
73 99 59
67 91 54
67 91 53
68 92 54
73 98 60
69 94 56
77 100 69
111 131 121
122 139 139
149 165 171
148 162 168
149 164 169
65 89 52
70 95 57
68 92 54
69 94 56
65 89 52
72 97 58
64 88 52
65 89 52
68 91 57
85 105 84
118 136 131
129 144 148
128 143 142
140 154 158
144 160 166
143 159 163
136 152 157
116 131 129
65 88 52
66 90 53
69 94 56
61 84 49
64 87 51
69 92 55
65 89 53
68 92 54
63 86 51
75 95 71
97 114 104
126 142 142
123 138 137
135 150 152
139 154 158
149 165 175
145 160 163
120 135 136
75 95 72
66 89 53
62 85 50
65 88 53
67 90 54
62 84 50
56 78 45
62 84 50
63 86 50
65 88 52
56 78 45
58 80 47
66 90 54
66 89 51
64 86 50
88 106 93
98 116 106
124 140 138
128 144 145
97 113 103
108 124 119
117 133 130
110 127 122
132 146 152
139 154 152
122 137 136
114 130 128
135 152 155
121 135 137
133 148 149
120 135 136
136 151 152
129 145 149
119 134 134
126 142 141
137 152 156
131 146 148
126 143 141
61 83 49
55 76 43
61 84 48
60 81 47
57 79 46
58 80 46
55 77 44
60 81 47
54 75 43
69 89 65
81 97 81
83 101 85
118 134 131
118 134 135
124 140 141
131 147 148
120 136 134
116 130 130
113 128 126
59 80 47
59 81 47
60 81 48
55 76 43
59 81 47
62 85 50
57 79 45
53 74 41
51 71 40
55 76 44
57 79 45
53 75 42
63 85 50
55 76 42
58 80 46
57 78 44
62 83 49
59 81 47
75 96 70
109 124 121
131 145 149
116 131 128
118 133 135
131 145 149
117 132 131
139 154 160
129 145 145
126 140 144
131 146 149
113 127 124
135 149 154
125 139 141
109 125 122
119 133 132
122 136 138
122 137 139
114 129 128
117 132 130
58 80 47
62 85 51
58 79 45
61 83 49
56 77 44
55 76 43
77 95 79
79 96 79
83 98 85
88 103 94
105 120 115
105 120 115
108 123 120
106 120 116
117 131 131
128 143 144
118 134 133
116 131 129
78 96 77
50 70 38
62 84 50
60 83 49
59 82 47
52 72 40
58 79 47
58 79 46
54 75 42
56 77 44
49 69 38
54 75 43
57 79 45
60 83 49
57 78 45
64 86 51
59 81 46
55 75 43
105 120 116
125 140 144
132 146 151
125 139 142
132 148 149
127 143 143
121 135 137
123 136 139
131 145 150
122 137 134
131 145 152
124 138 140
131 145 147
118 133 131
112 127 125
124 139 140
129 144 144
106 121 115
70 89 66
60 82 47
61 83 49
63 86 50
51 71 41
57 79 46
57 78 46
55 75 43
67 90 54
57 78 45
58 79 46
63 86 50
54 75 42
57 78 45
61 84 49
59 82 47
68 88 61
124 139 138
122 137 136
130 145 149
120 135 131
137 153 158
131 145 149
132 146 148
124 138 140
128 144 146
130 144 148
123 137 139
125 141 141
134 148 151
129 143 146
134 148 152
143 157 162
88 105 93
98 117 104
98 113 104
102 119 111
125 141 139
125 141 143
123 138 136
139 153 156
129 144 146
143 157 164
133 149 152
131 146 146
133 147 150
135 152 154
129 143 148
118 134 132
88 105 94
88 107 91
99 116 105
95 110 102
108 125 118
111 127 125
118 133 132
125 141 141
133 147 154
135 151 154
136 152 155
139 154 160
127 144 143
140 155 160
114 129 123
67 89 60
65 88 51
65 89 52
66 90 54
64 87 51
63 85 51
67 91 55
59 81 48
66 90 53
68 92 55
68 93 55
65 89 53
64 87 51
108 126 117
139 156 161
139 155 156
135 151 153
132 147 150
137 152 154
140 156 159
137 154 156
157 172 179
149 163 168
144 160 166
148 164 171
135 151 153
101 118 108
105 124 112
127 145 141
131 148 148
146 162 166
147 162 168
153 169 177
147 163 168
150 166 172
143 160 166
148 165 172
124 141 135
72 98 59
67 92 54
66 90 53
72 97 59
72 98 59
70 94 57
81 104 80
91 112 93
119 138 134
117 138 129
74 99 65
73 99 61
69 95 56
75 102 62
74 99 61
72 98 59
70 95 56
85 109 79
118 136 128
109 130 120
137 155 157
148 164 172
159 175 182
144 162 168
151 168 171
133 151 147
152 169 174
162 180 191
146 164 167
166 182 191
197 211 224
218 231 246
228 240 255
228 240 255
228 240 255
228 240 255
228 239 255
228 239 255
228 239 255
228 239 255
228 239 255
228 239 255
228 239 255
228 239 255
228 239 255
228 239 255
228 239 255
228 239 255
228 239 255
228 239 255
228 239 255
228 240 255
228 240 255
228 240 255
228 240 255
228 240 255
228 240 255
228 240 255
228 240 255
228 240 255
228 240 255
228 240 255
228 240 255
228 240 255
228 240 255
228 240 255
228 240 255
227 239 254
211 224 238
156 172 173
109 130 114
117 138 128
153 172 179
161 178 190
120 140 132
93 116 92
76 104 63
72 97 58
100 122 101
126 145 143
118 136 129
147 164 169
160 176 183
147 164 169
158 173 183
133 150 150
106 126 113
80 105 69
71 97 58
74 100 61
71 97 58
77 104 63
70 96 58
74 97 64
101 121 105
134 151 154
100 120 103
71 96 57
72 97 58
71 95 57
68 92 54
70 94 56
69 94 56
70 95 56
72 97 62
115 134 122
120 137 136
144 159 162
152 168 177
143 158 162
154 170 177
149 165 172
149 164 175
87 107 88
66 91 53
63 87 51
66 90 53
67 91 54
80 105 73
97 115 100
111 128 122
145 159 162
145 161 169
134 149 153
140 154 154
134 149 151
153 168 175
136 151 157
130 147 148
141 157 164
130 146 145
68 92 55
63 87 51
62 85 49
68 92 55
66 89 53
65 89 53
90 109 92
111 128 124
126 142 144
132 148 149
139 154 158
126 143 142
129 145 145
137 153 157
143 157 159
147 163 169
132 147 148
136 151 155
98 116 103
65 89 53
64 87 52
67 91 54
69 93 55
66 88 53
64 88 52
58 79 46
64 87 50
62 84 50
66 90 53
79 98 78
101 119 112
114 130 128
133 150 152
136 151 155
123 139 139
138 154 156
120 136 135
66 86 57
64 87 52
58 80 46
62 84 48
72 91 71
76 95 76
91 109 96
97 113 104
107 125 118
124 140 140
129 144 146
126 141 145
126 141 142
131 145 149
138 153 159
127 140 143
102 117 109
134 147 150
121 137 140
68 87 68
62 85 49
58 80 47
60 82 47
64 85 55
81 99 81
101 117 110
117 133 131
117 132 129
134 150 153
134 148 154
127 142 143
121 136 132
122 137 135
128 143 145
125 140 143
115 130 131
122 138 139
123 138 136
78 94 81
63 86 51
66 90 54
61 83 49
63 86 52
61 84 48
62 84 50
64 88 52
64 87 51
58 80 46
60 82 49
61 82 49
56 77 45
54 75 42
57 77 45
54 75 43
59 80 48
63 85 50
55 76 43
111 126 127
129 144 145
118 134 136
131 145 150
132 146 152
131 146 151
129 143 145
124 138 140
111 125 122
121 135 136
121 136 136
133 148 150
129 144 145
134 148 152
127 143 143
114 129 129
123 137 138
116 131 130
107 122 117
91 107 97
99 116 108
116 130 130
118 134 134
127 141 143
113 128 128
126 140 142
120 135 135
132 147 149
120 134 135
114 128 129
116 131 128
118 134 134
130 145 150
117 132 131
124 139 141
135 149 152
142 157 161
125 139 139
66 89 54
57 79 45
62 85 50
58 79 45
54 75 43
59 81 48
61 83 48
58 79 46
53 73 42
59 80 48
63 86 51
53 72 41
54 75 41
58 80 47
49 70 38
61 82 48
59 80 47
63 82 59
118 133 132
127 142 145
131 145 150
118 133 134
134 150 151
121 136 137
138 151 158
110 125 124
124 140 142
123 140 139
128 144 144
116 131 132
122 138 139
123 137 136
135 149 152
129 144 145
120 134 133
108 125 120
56 78 46
61 83 49
62 86 50
62 85 50
63 87 51
63 86 50
54 74 43
58 80 47
63 86 50
62 85 49
61 83 49
61 83 49
63 86 50
61 83 48
53 74 42
59 81 46
79 97 82
119 134 135
118 134 133
138 152 157
121 135 132
126 141 141
128 143 141
120 134 136
131 146 149
126 141 144
128 144 145
102 120 111
95 113 100
84 102 85
79 99 77
63 85 50
63 85 51
109 124 119
130 145 145
125 142 141
126 142 141
146 161 167
134 150 156
128 144 147
133 149 153
128 144 147
142 155 161
142 157 163
140 154 160
151 167 175
134 149 150
133 149 152
117 133 130
63 86 51
67 90 54
66 89 52
61 83 48
67 91 54
64 87 51
61 85 50
68 90 63
73 94 67
94 113 99
81 100 86
110 129 121
117 134 130
124 142 135
113 131 122
67 90 54
67 92 55
60 83 48
62 85 50
58 80 47
66 90 53
62 85 49
67 91 54
70 94 56
70 94 56
65 89 53
67 92 54
65 88 52
115 133 127
144 159 164
139 154 158
124 140 138
147 163 167
147 161 169
138 155 157
146 161 164
147 163 168
140 156 160
147 162 170
149 164 170
138 155 158
99 118 105
71 98 59
68 91 55
83 106 78
103 123 107
116 135 128
136 153 155
148 164 171
137 153 156
143 160 163
143 159 163
130 146 142
75 99 64
67 91 53
69 94 56
72 98 58
69 94 56
69 95 57
70 95 57
74 100 61
65 89 53
83 109 77
122 140 136
96 118 97
76 100 66
74 100 60
70 95 57
72 98 59
74 100 61
79 106 65
124 143 138
152 169 176
116 137 129
134 152 153
153 169 178
157 175 182
161 179 190
118 137 127
96 117 96
125 145 138
152 171 176
153 170 176
152 169 174
187 202 214
208 220 233
228 240 255
228 240 255
228 240 255
228 240 255
228 240 255
228 240 255
228 240 255
228 240 255
228 240 255
228 240 255
228 240 255
228 240 255
228 240 255
228 240 255
228 240 255
228 240 255
228 240 255
228 240 255
228 240 255
228 240 255
228 240 255
228 240 255
228 240 255
228 240 255
228 240 255
228 240 255
228 240 255
228 240 255
228 240 255
228 240 255
228 240 255
225 237 252
199 212 222
139 158 149
112 134 122
141 160 161
155 172 178
146 164 170
115 135 125
79 104 71
71 97 58
72 98 59
103 124 109
140 156 157
163 179 188
155 171 179
145 162 166
152 170 179
155 172 178
131 149 147
83 106 78
72 98 59
67 92 54
70 95 57
72 97 58
73 99 58
69 94 56
88 110 86
135 153 155
162 178 186
145 162 164
150 164 170
88 109 89
70 95 57
71 97 58
69 94 55
68 93 54
67 92 54
81 103 81
129 147 146
147 163 167
152 168 176
155 169 177
151 168 174
153 169 177
151 167 175
137 153 154
149 165 175
150 166 172
87 110 83
62 85 50
73 98 59
90 111 95
114 132 124
137 153 159
156 170 177
145 160 167
157 173 181
147 162 169
158 173 183
139 153 156
136 152 152
137 152 156
139 154 156
148 163 167
139 154 157
145 160 164
63 87 52
68 93 55
73 97 65
96 115 100
114 132 127
139 156 161
146 162 168
145 160 165
137 153 157
134 148 151
147 162 169
135 150 153
138 153 157
126 140 144
143 158 163
146 161 169
137 152 157
151 167 174
106 124 113
66 90 53
65 88 52
65 89 52
66 90 54
61 84 48
53 75 42
72 96 64
90 108 93
112 128 119
144 158 164
125 141 142
129 144 146
138 153 157
141 155 161
128 143 143
135 151 155
125 140 139
140 156 159
83 101 87
60 83 47
65 88 53
69 93 55
62 85 50
64 88 51
64 87 52
62 84 50
65 88 53
64 87 51
60 83 48
70 91 64
89 106 89
79 97 81
109 127 117
105 121 115
114 130 125
128 144 145
124 139 136
98 114 108
95 113 101
114 131 128
124 139 140
124 139 140
139 154 158
119 133 132
121 135 134
139 155 158
119 133 133
129 144 148
120 135 134
137 152 157
127 141 142
119 136 134
130 145 146
136 151 154
130 144 146
126 141 140
110 126 125
58 80 46
64 87 52
64 87 51
59 80 47
61 84 49
65 88 52
62 83 50
58 80 45
54 75 43
60 82 48
55 76 43
61 84 49
62 85 50
58 80 46
60 82 47
61 83 48
60 82 48
63 85 50
83 102 84
128 142 144
128 143 145
135 149 156
125 140 141
136 151 155
126 141 142
115 131 129
121 137 135
104 120 117
109 124 119
98 116 104
94 111 101
79 95 81
75 95 70
63 86 50
56 78 45
57 79 45
64 86 50
91 107 97
103 118 114
119 133 135
128 144 144
135 150 152
132 147 151
129 144 147
128 143 144
126 141 138
133 147 150
114 128 125
123 137 139
125 140 138
129 143 147
137 151 157
132 146 151
129 143 148
136 150 151
139 154 161
102 118 111
65 88 52
66 90 53
56 77 43
62 85 50
56 77 44
61 84 49
59 80 47
55 77 44
53 73 41
60 81 48
64 87 51
62 85 50
63 85 50
62 84 50
58 79 47
59 80 47
53 73 40
88 107 89
129 143 145
128 143 144
122 137 138
129 143 149
126 142 142
123 138 135
131 146 150
138 153 158
119 134 131
120 135 136
123 138 138
140 156 161
141 155 160
137 152 156
135 151 153
115 131 130
136 151 154
96 112 103
62 84 50
54 75 42
63 86 50
60 82 48
62 85 50
62 85 50
62 85 49
66 89 53
62 85 49
57 79 46
62 84 48
54 74 41
59 81 47
55 76 44
61 84 49
73 93 67
101 117 108
115 131 129
112 128 124
98 114 105
85 104 89
89 106 91
69 89 62
62 85 49
55 76 44
61 84 49
64 86 51
61 84 49
61 83 48
56 78 45
61 84 48
64 87 51
68 87 60
124 140 140
141 156 162
136 151 154
126 142 144
128 143 144
126 143 142
138 153 155
119 135 133
135 151 152
134 150 151
141 155 161
127 142 143
139 154 159
130 145 145
126 142 140
111 128 120
62 84 48
64 86 50
64 87 51
62 85 50
64 87 51
60 83 49
65 88 51
66 90 54
66 90 53
58 80 46
67 91 53
68 92 54
71 95 57
63 86 50
84 103 86
122 138 136
135 152 153
114 130 123
116 132 126
92 111 97
79 99 76
82 104 76
67 92 55
66 89 53
62 85 49
66 90 52
68 91 54
63 87 51
126 142 143
136 152 156
141 158 163
147 163 171
136 153 157
133 150 153
147 163 169
140 154 157
145 160 166
153 170 177
149 165 170
153 170 176
146 161 167
94 115 95
70 94 56
67 91 54
71 96 58
71 96 58
69 94 56
76 100 69
92 112 93
110 129 118
130 147 143
134 149 152
134 150 150
80 103 76
69 94 55
75 102 61
68 93 55
70 95 57
72 98 59
69 95 56
72 98 59
70 95 57
78 103 68
143 161 162
149 165 172
138 156 156
109 128 120
90 114 89
68 92 54
72 99 59
71 98 59
92 116 90
113 134 119
73 100 60
80 106 67
116 136 126
130 149 147
154 171 177
153 170 178
103 126 107
80 108 66
110 130 117
136 155 153
154 171 178
127 146 140
158 174 178
205 218 231
227 239 254
228 240 255
228 240 255
228 240 255
228 240 255
228 240 255
228 240 255
228 240 255
228 240 255
228 240 255
228 240 255
228 240 255
228 240 255
228 240 255
228 240 255
228 240 255
228 240 255
228 240 255
228 240 255
228 240 255
228 240 255
228 240 255
228 240 255
228 240 255
228 240 255
228 240 255
228 240 255
225 236 251
187 201 209
150 168 173
154 170 176
144 162 163
160 177 186
135 154 153
93 117 90
75 102 63
74 100 61
85 109 83
120 139 131
142 161 163
161 177 186
162 180 191
152 168 176
156 171 181
135 153 154
116 135 122
69 93 55
71 96 57
73 98 59
72 98 59
70 95 57
66 91 53
93 116 93
123 139 135
151 168 173
164 180 189
151 166 171
151 166 171
146 162 168
151 168 174
85 109 80
68 93 55
69 94 56
89 109 87
114 133 124
134 151 150
147 163 172
137 153 156
139 154 158
149 165 173
145 162 167
152 167 173
139 154 160
153 168 174
145 160 166
157 172 178
146 163 167
110 128 120
124 141 139
125 141 141
144 160 165
149 165 172
144 159 166
135 151 156
145 161 164
143 160 166
132 148 150
140 157 159
146 162 168
146 161 165
136 151 152
140 157 161
139 155 159
147 162 168
139 155 160
102 119 110
136 153 155
128 143 143
148 164 169
151 166 174
139 154 160
148 165 171
138 154 158
129 145 148
144 161 164
132 148 151
143 159 163
139 155 162
132 147 149
140 156 161
139 154 160
140 155 158
140 155 162
127 143 140
60 82 47
66 90 54
75 97 68
99 118 101
106 123 118
137 153 154
131 147 148
142 158 165
144 159 166
138 152 158
138 153 155
135 151 155
138 154 159
132 147 153
131 147 150
135 149 152
139 154 159
138 153 157
114 129 126
58 80 45
61 83 48
63 86 50
62 85 49
62 85 50
62 84 48
67 90 53
61 84 48
56 77 44
65 87 52
69 94 55
61 84 49
57 78 45
77 97 74
103 119 109
111 127 123
113 130 125
126 141 142
121 136 136
74 94 69
81 101 80
88 108 86
106 124 117
109 126 120
123 139 138
114 128 126
119 134 131
126 142 143
132 146 147
122 137 138
129 143 147
129 143 145
119 134 134
127 142 145
138 153 159
142 157 163
121 136 138
120 136 136
66 87 55
55 75 42
58 80 46
59 81 47
63 86 51
61 83 48
65 88 51
64 87 51
60 82 47
59 82 46
67 92 55
62 84 48
56 78 45
63 85 50
62 84 48
57 79 46
58 80 46
59 81 47
62 83 52
116 131 129
115 132 125
113 129 123
95 111 102
77 93 78
70 91 66
63 86 50
64 86 51
57 78 45
65 89 53
60 82 48
60 82 49
58 80 47
61 83 49
59 81 47
64 87 51
57 79 46
56 78 44
60 82 48
115 130 127
129 144 146
124 139 139
140 154 158
113 128 127
126 141 142
130 145 149
132 147 151
131 147 149
113 128 129
137 151 154
121 135 136
134 149 153
135 150 153
128 142 142
126 141 144
125 138 137
131 146 149
115 131 128
71 91 68
56 76 43
66 89 53
59 80 46
60 82 47
61 84 49
60 82 47
56 77 44
57 79 44
60 82 48
63 85 51
60 82 49
63 85 50
56 77 44
63 86 50
63 86 50
60 82 47
63 85 51
128 144 144
126 140 145
128 143 148
118 134 131
127 142 145
129 144 144
122 138 136
126 140 141
136 150 153
123 137 139
128 142 145
136 152 156
127 142 145
107 122 122
124 140 139
154 169 176
125 140 140
130 144 146
76 97 72
60 82 47
58 80 45
65 87 51
60 81 48
63 85 57
68 89 60
96 114 100
92 110 93
98 113 108
105 122 113
107 122 119
107 124 119
109 126 120
128 142 144
124 139 139
136 152 154
85 103 85
66 89 53
62 86 50
63 85 50
59 81 47
67 90 54
67 91 54
58 80 46
67 91 54
66 90 53
63 85 50
66 89 53
62 84 50
58 80 47
63 86 51
65 88 52
86 104 86
139 154 158
145 159 166
132 146 150
130 146 150
121 137 136
139 155 157
129 143 144
131 146 148
135 150 152
132 150 149
139 154 159
129 145 144
125 141 145
137 152 156
130 145 147
103 121 112
64 88 52
67 91 54
63 87 51
63 87 51
64 87 52
64 87 51
63 86 50
62 85 49
61 84 49
67 91 54
62 86 50
66 90 53
62 85 49
67 91 54
116 134 129
132 147 149
141 156 160
141 156 160
134 149 153
137 152 158
143 158 163
128 145 148
127 145 141
126 142 139
113 131 127
89 109 93
87 109 86
75 99 68
127 144 142
143 160 167
125 140 140
141 157 163
142 156 160
151 167 174
152 169 175
136 152 154
148 163 170
142 158 163
160 175 182
151 167 174
139 155 157
95 115 97
64 89 52
61 85 49
69 94 56
73 99 59
67 91 54
68 93 55
72 98 59
70 96 57
74 100 60
86 109 84
90 111 89
105 125 112
87 110 86
72 98 59
68 93 56
70 95 57
70 96 58
68 93 55
71 97 57
75 102 61
71 95 62
139 155 158
154 170 178
155 172 181
157 174 183
146 164 166
120 139 131
103 123 108
75 102 61
86 110 82
113 132 123
77 104 64
68 94 55
74 100 61
75 100 61
113 132 121
129 147 141
134 152 150
85 111 78
77 104 64
95 121 94
130 147 141
119 139 136
108 131 113
130 149 141
194 208 221
225 237 252
228 240 255
228 240 255
228 240 255
228 240 255
228 240 255
228 240 255
228 240 255
228 240 255
228 240 255
228 240 255
228 240 255
228 240 255
228 240 255
228 240 255
228 240 255
228 240 255
228 240 255
228 240 255
228 240 255
228 240 255
228 240 255
228 240 255
221 233 247
183 198 205
154 172 174
136 155 155
100 123 102
149 168 173
126 146 141
89 111 86
76 103 62
73 100 60
98 121 98
122 143 135
161 178 190
160 177 187
163 179 191
158 174 184
153 169 176
116 136 127
84 106 80
69 94 56
71 97 58
73 99 60
68 94 56
77 104 64
77 104 64
105 126 110
140 156 159
150 167 171
159 175 182
155 171 180
158 174 187
149 166 172
148 165 172
162 178 187
139 156 161
98 119 99
109 128 118
140 155 156
147 162 168
149 165 171
138 154 156
142 159 160
141 157 162
135 151 153
141 157 159
151 169 179
140 157 159
150 166 170
153 168 176
126 144 141
104 123 110
73 97 64
127 144 142
152 167 175
140 156 160
143 159 163
135 152 152
142 157 162
134 150 154
146 163 169
139 156 160
145 161 165
139 155 162
139 155 156
152 168 177
139 156 158
132 150 150
97 117 104
86 107 87
67 92 54
117 135 126
141 156 160
133 148 152
133 149 149
151 166 173
137 153 157
147 163 167
125 141 142
129 145 144
148 164 172
133 150 154
148 163 166
143 159 162
133 149 150
140 155 160
142 156 161
146 161 165
136 152 153
110 128 119
104 122 113
130 145 146
139 154 160
138 153 155
139 155 160
141 157 163
137 152 158
145 161 170
148 164 172
141 157 162
129 144 146
131 145 146
130 145 148
146 159 166
145 160 165
148 163 168
139 155 157
141 157 161
135 151 152
57 79 46
63 86 50
64 87 51
61 84 49
62 85 50
65 89 52
65 88 52
59 82 47
64 86 54
85 106 84
108 124 118
119 134 131
118 134 132
139 154 156
139 153 157
142 158 164
144 159 166
139 154 155
133 148 151
75 96 66
60 83 49
61 83 49
60 83 48
63 87 51
66 89 53
62 85 50
62 84 50
61 84 49
70 93 62
73 94 68
80 100 78
83 103 85
93 110 97
103 119 111
108 125 121
115 131 129
110 127 119
109 125 118
99 116 104
85 104 85
74 95 66
63 86 49
60 82 47
63 87 51
63 85 50
54 75 42
55 77 44
60 83 47
65 88 52
55 76 45
77 96 78
85 103 86
93 110 99
101 117 113
119 135 134
126 141 142
119 134 134
124 139 140
63 85 50
59 82 47
60 82 48
60 82 48
60 82 47
61 83 49
59 82 48
55 76 43
57 78 44
59 81 47
56 78 44
61 83 49
61 83 48
65 88 52
61 83 48
63 85 50
63 86 50
51 72 40
95 110 101
130 145 147
126 141 143
132 148 151
116 131 128
124 141 141
134 149 151
130 145 147
129 145 147
127 143 147
125 139 140
124 138 140
131 146 146
121 137 138
132 147 148
134 149 151
132 146 150
138 151 154
130 144 146
99 115 106
61 83 48
62 85 49
60 81 48
58 80 46
55 77 44
56 78 45
61 84 49
62 85 49
62 84 49
65 88 50
68 92 56
61 83 48
55 77 44
61 83 49
61 84 49
59 80 46
62 84 50
89 108 88
119 133 131
131 147 149
126 140 141
136 151 157
141 155 159
131 146 150
130 145 147
124 139 137
120 136 135
140 155 159
124 140 142
112 127 123
134 149 153
121 137 136
103 119 108
99 115 108
98 117 104
92 109 95
108 123 118
129 147 145
128 144 145
130 145 146
123 138 138
144 158 163
141 155 161
137 152 156
123 138 140
133 149 149
123 138 137
134 149 151
130 145 146
132 148 152
142 156 162
143 158 166
117 133 132
73 96 65
63 86 51
57 79 45
59 81 47
64 87 52
65 89 52
64 88 52
60 82 48
67 90 54
63 86 52
62 84 48
64 87 51
63 86 50
64 86 51
63 86 51
65 89 52
97 115 102
136 151 155
135 152 156
123 139 134
122 138 138
135 150 155
129 145 146
132 147 147
148 163 169
138 153 154
139 156 161
138 153 158
134 147 151
131 146 149
131 145 150
144 159 163
99 118 106
67 92 54
64 88 51
68 93 55
68 93 56
66 90 53
70 94 56
63 86 50
63 87 51
69 93 56
65 88 52
67 91 55
67 91 53
63 86 51
68 88 59
110 127 119
142 158 163
144 161 167
141 157 163
127 142 145
137 153 156
144 160 162
144 160 161
132 148 150
137 153 157
143 159 165
142 159 165
135 149 153
135 151 154
120 137 134
99 118 103
118 134 131
132 150 150
140 157 158
140 156 159
130 147 148
139 155 160
146 161 163
144 160 166
151 168 176
146 162 165
141 158 163
89 111 88
77 103 62
68 93 55
70 95 57
70 95 57
66 91 54
70 95 57
66 90 53
67 91 53
72 98 58
76 102 62
83 107 81
133 150 149
141 157 160
128 145 142
100 119 106
89 112 90
73 98 62
73 99 60
67 92 53
73 99 59
71 97 59
110 130 119
156 171 178
158 175 183
153 169 174
158 173 183
152 170 176
151 167 175
122 142 134
124 143 140
125 144 139
75 100 63
76 104 63
74 100 60
74 100 61
77 103 63
82 107 70
102 125 107
75 100 62
78 105 64
78 105 63
75 102 62
119 140 131
91 114 86
82 109 69
131 150 142
182 197 205
217 229 243
228 240 255
228 240 255
228 240 255
228 240 255
228 240 255
228 240 255
228 240 255
228 240 255
228 240 255
228 240 255
228 240 255
228 240 255
228 240 255
228 240 255
228 240 255
228 240 255
228 240 255
228 240 255
215 227 240
169 184 188
159 176 183
138 156 156
82 107 75
92 117 89
107 128 112
82 109 73
73 99 59
73 100 61
118 140 132
139 158 158
152 170 177
164 181 191
165 182 194
160 176 184
151 168 172
109 130 114
75 100 63
72 98 59
87 111 81
85 111 76
70 95 57
70 96 58
88 111 84
120 139 131
149 165 170
148 165 170
151 168 174
160 176 186
147 165 170
154 171 178
152 167 174
151 167 174
145 162 168
129 148 144
102 124 105
143 159 164
146 163 169
159 176 185
147 163 170
150 167 175
147 164 171
154 169 176
143 159 162
149 165 170
157 172 180
141 158 163
136 151 151
114 133 127
78 103 71
67 92 55
69 93 56
69 94 55
113 132 125
146 161 165
146 162 167
145 161 168
152 168 175
132 149 150
136 152 156
147 162 166
131 148 150
146 161 169
135 150 152
127 145 144
101 120 109
79 101 72
63 87 50
68 92 54
60 83 49
72 97 58
121 138 134
141 158 160
144 160 164
138 155 160
141 156 159
142 158 163
153 169 177
134 149 151
134 149 151
142 157 161
143 160 163
145 160 166
133 148 152
139 155 158
118 135 133
106 125 113
78 98 80
70 92 64
69 93 56
123 140 137
157 171 178
130 145 148
141 156 161
132 148 150
144 159 163
135 150 153
145 160 167
134 148 149
138 154 157
139 153 159
136 150 157
148 164 170
141 156 161
130 146 150
130 144 144
137 151 157
143 157 164
138 152 157
81 101 83
60 82 48
67 90 53
64 87 51
80 102 75
110 127 121
92 110 96
119 136 134
122 137 137
142 156 162
135 151 151
134 148 150
125 140 138
126 141 143
146 160 165
136 152 155
129 144 147
134 148 150
125 140 141
86 103 89
64 87 52
67 90 54
64 89 52
63 85 51
63 85 50
66 90 53
67 90 54
61 84 48
60 83 48
63 87 51
60 82 47
61 84 49
65 88 52
64 86 51
66 90 54
62 85 50
63 86 50
62 84 49
77 97 76
138 153 161
137 151 155
136 150 154
126 141 143
115 130 127
114 130 124
116 130 129
72 92 64
69 90 65
74 95 70
91 108 95
113 128 124
111 129 122
99 115 107
122 139 135
123 137 138
119 133 132
114 129 128
110 125 123
76 95 72
73 94 69
73 94 69
67 89 59
73 95 68
65 87 55
61 84 48
66 89 52
65 88 51
67 90 54
61 83 49
54 75 43
69 93 56
64 88 52
61 83 49
56 77 43
61 83 49
60 82 47
68 91 55
107 120 116
122 138 138
127 141 144
137 154 159
131 146 148
124 138 140
117 132 129
138 152 156
122 138 139
126 142 146
135 151 154
125 140 140
122 137 140
118 132 132
137 152 155
135 150 155
141 157 162
137 153 159
124 139 142
61 83 50
57 79 45
63 86 50
65 88 51
66 87 57
68 90 57
80 99 77
68 86 63
73 92 66
83 104 81
79 96 79
79 98 79
89 107 94
93 111 99
88 106 90
98 115 103
105 121 111
98 114 106
102 118 110
93 110 96
96 114 99
78 97 75
77 96 77
82 102 81
74 95 70
71 94 62
60 83 48
60 82 48
63 85 50
60 83 48
51 72 40
61 83 48
63 86 50
62 85 49
62 85 50
58 81 46
118 134 129
116 131 129
135 149 152
139 155 159
129 144 147
129 143 146
142 156 163
134 150 152
138 153 160
127 142 145
136 152 155
139 155 157
121 136 135
132 147 151
135 148 153
128 144 147
133 149 154
110 127 123
62 85 50
61 84 49
65 89 53
64 86 51
62 85 50
68 92 55
65 88 52
59 80 47
67 91 54
70 94 57
66 91 54
62 84 49
62 85 49
62 85 49
68 92 56
64 87 51
117 134 131
141 157 162
136 151 156
137 152 155
143 158 163
140 155 159
136 151 154
134 148 151
148 162 167
141 157 162
126 142 141
129 145 143
144 159 165
139 155 158
132 147 148
129 145 145
93 113 93
66 90 53
61 85 48
64 88 52
60 83 48
67 91 55
68 93 55
62 86 50
61 84 49
71 96 57
65 89 53
65 89 52
64 87 51
66 90 53
73 97 64
119 135 131
140 156 160
134 152 153
150 167 175
138 154 158
139 154 160
143 159 162
153 169 175
137 153 156
137 153 156
144 157 163
142 158 164
151 166 172
146 162 166
101 121 103
67 91 54
67 91 54
73 97 61
82 105 77
104 124 110
110 127 120
133 151 150
137 153 156
146 163 169
140 157 158
145 161 166
155 171 179
100 121 105
69 93 55
67 91 54
68 93 55
69 93 55
69 94 55
71 96 59
67 92 55
73 99 59
72 97 59
74 100 60
75 97 66
135 151 152
156 172 184
145 163 168
159 173 183
155 171 175
125 143 136
101 120 104
94 115 97
69 95 56
69 93 56
106 125 114
141 158 162
155 172 180
162 179 190
159 175 182
149 165 171
150 167 172
69 95 57
77 103 66
95 116 95
98 121 99
71 96 59
75 101 62
76 104 63
73 99 60
74 101 61
76 103 63
116 138 125
121 141 131
94 116 95
80 108 66
77 105 64
78 103 71
106 129 110
87 112 82
100 124 99
159 175 174
222 234 249
228 240 255
228 240 255
228 240 255
228 240 255
228 240 255
228 240 255
228 240 255
228 240 255
228 240 255
228 240 255
228 240 255
228 240 255
228 240 255
228 240 255
216 228 242
181 196 206
155 172 175
115 136 123
81 107 71
95 120 95
133 154 150
168 184 194
102 123 109
90 115 86
116 137 128
152 169 173
166 183 196
160 177 186
164 180 189
155 172 180
137 154 156
94 117 97
76 103 62
74 100 61
71 96 58
69 94 56
96 118 99
101 123 105
99 118 102
137 155 155
156 173 181
147 163 167
148 165 170
148 164 168
153 170 177
163 179 188
156 172 178
145 161 167
151 168 173
117 137 128
83 104 81
71 97 59
69 94 56
146 164 169
156 172 182
147 163 171
145 161 168
149 165 171
159 174 184
147 162 167
154 169 178
125 141 137
115 133 124
84 106 81
71 97 57
67 92 55
70 95 56
72 97 59
67 92 55
66 91 54
121 137 133
141 157 160
155 172 178
137 153 154
143 158 160
147 163 167
145 162 168
142 159 162
129 146 145
97 116 101
77 98 70
69 93 55
67 90 54
62 86 50
69 93 56
67 91 54
71 95 57
67 91 54
105 122 114
141 157 165
151 166 174
152 167 176
132 148 149
133 149 151
134 151 155
140 156 162
130 145 149
140 157 160
147 164 171
132 150 149
101 119 107
65 86 58
64 88 52
65 88 52
68 92 55
64 87 52
69 93 56
109 127 119
117 134 128
140 155 160
133 149 150
135 150 153
127 142 142
149 165 170
137 153 156
141 157 160
136 152 155
142 158 163
137 153 156
127 143 140
151 166 173
128 143 142
136 152 159
141 155 162
142 157 162
130 145 150
102 119 111
96 113 101
104 121 111
130 147 143
139 153 158
131 146 149
128 144 147
143 158 164
137 152 155
132 147 149
131 147 149
134 149 153
130 145 148
142 156 161
138 153 157
139 154 158
132 146 149
144 158 161
148 164 171
117 133 130
62 86 50
64 87 52
63 86 51
59 81 48
69 93 55
57 78 44
62 84 49
60 83 48
58 80 46
63 86 50
63 85 51
65 88 52
62 84 49
65 89 52
65 89 53
64 87 52
66 90 53
68 92 56
73 93 73
114 131 126
109 125 115
96 114 101
82 100 82
72 95 62
64 87 51
66 90 53
68 92 55
63 86 50
57 79 46
59 81 47
59 83 46
62 85 49
71 96 58
59 82 46
64 87 51
60 83 49
60 82 47
64 86 52
99 116 106
140 154 157
134 150 152
129 144 147
132 147 150
145 159 165
126 141 143
123 138 140
126 141 143
124 139 142
127 142 142
124 138 138
130 145 147
113 128 126
119 135 133
120 136 134
125 139 137
111 127 122
122 136 138
113 129 129
76 95 74
96 115 103
76 95 73
79 98 79
84 103 84
72 91 71
85 104 87
77 96 74
86 103 86
90 109 95
77 98 72
92 110 94
88 106 89
81 102 78
76 96 73
75 96 71
68 90 60
61 82 52
90 108 94
134 150 152
143 158 166
127 142 143
126 140 142
127 142 142
129 143 144
133 148 150
132 146 146
130 145 147
135 148 151
134 149 150
131 146 149
117 133 130
125 140 143
130 145 149
120 135 135
122 137 136
119 136 132
87 106 88
97 114 103
90 107 93
100 117 105
107 123 115
92 111 95
91 109 99
101 118 112
112 127 122
111 127 122
119 135 134
114 131 126
108 123 117
125 141 139
124 142 135
118 134 133
127 142 141
122 139 138
91 108 95
90 108 92
78 98 77
73 94 68
92 110 96
91 111 96
68 88 64
74 95 69
66 87 57
77 97 75
77 97 73
75 97 70
78 99 74
75 94 76
78 97 78
84 102 84
90 110 92
106 124 113
112 130 122
123 140 138
108 125 119
117 133 131
111 126 123
105 122 111
113 130 123
108 124 118
102 120 109
98 116 106
98 115 106
94 111 98
99 117 104
86 107 81
93 113 95
83 103 83
124 139 139
133 148 152
125 142 143
126 143 140
132 148 150
131 145 146
142 157 161
144 159 166
138 153 155
144 160 167
140 156 163
130 146 147
134 149 153
132 147 149
133 149 149
135 150 152
78 101 72
63 86 50
66 90 52
63 87 51
71 97 59
67 90 53
70 95 57
64 88 51
59 82 47
65 89 53
67 91 54
66 90 53
63 86 52
60 82 47
75 98 67
126 142 142
150 165 173
144 160 165
148 164 169
141 157 162
148 164 170
129 146 145
144 159 163
156 172 179
152 168 174
137 153 157
127 143 142
146 163 168
130 144 144
93 113 94
74 100 61
68 93 56
69 94 56
73 99 60
71 97 58
66 90 53
69 94 55
82 105 74
96 116 101
112 131 123
120 140 131
127 145 141
104 123 109
67 92 54
66 90 54
76 103 63
72 99 60
71 96 57
67 93 55
70 96 58
69 95 56
72 97 58
72 97 57
83 107 76
138 155 157
138 156 158
145 162 168
144 160 163
162 178 187
149 166 173
152 167 174
158 175 182
127 145 143
99 121 101
97 118 103
146 163 169
152 168 174
165 181 191
156 174 182
135 153 153
75 101 62
76 103 62
71 96 57
81 105 75
142 159 160
137 157 154
111 131 117
85 109 79
77 105 65
72 97 58
73 99 59
102 124 105
153 170 175
142 160 163
121 141 131
78 104 67
77 103 63
125 146 137
141 159 160
113 134 122
91 115 85
169 184 187
214 226 240
228 240 255
228 240 255
228 240 255
228 240 255
228 240 255
228 240 255
229 240 255
229 240 255
229 240 255
229 240 255
220 232 248
195 209 224
154 171 177
121 141 131
80 107 69
110 131 118
139 158 158
159 176 184
166 183 197
156 174 183
135 154 156
161 179 189
162 179 188
155 172 181
156 174 183
153 170 175
142 159 160
85 110 78
76 102 62
70 96 57
77 105 65
75 102 61
75 101 61
81 107 73
105 126 110
126 145 138
156 174 184
149 164 167
151 167 174
158 174 185
157 173 183
159 174 182
146 163 166
151 167 169
129 146 147
81 103 78
72 98 58
70 95 57
69 93 56
70 96 58
70 95 57
154 169 174
150 167 175
140 157 162
148 164 171
157 173 182
148 162 167
129 146 148
99 120 100
71 96 58
73 98 59
70 95 57
67 93 54
71 97 58
71 96 59
70 95 56
73 99 60
68 93 55
112 130 121
144 161 165
141 157 161
150 167 169
156 173 181
132 148 150
104 123 111
72 94 63
70 96 58
71 95 57
66 91 54
63 87 49
68 92 54
68 94 56
67 91 53
68 92 54
73 99 59
68 93 54
101 121 104
155 171 177
139 153 158
138 154 157
149 165 173
129 145 146
140 156 159
137 155 160
111 130 124
98 118 100
76 100 66
67 91 55
64 88 52
68 93 55
70 95 57
64 88 51
62 85 50
69 94 58
68 92 55
101 119 109
152 167 173
146 161 166
157 172 185
141 156 159
125 142 138
142 158 165
137 153 156
150 166 169
137 153 155
142 158 163
133 149 151
128 143 145
140 154 155
139 154 161
135 152 153
109 127 118
94 112 96
93 111 95
89 109 91
137 151 155
133 148 150
141 156 162
129 144 145
150 164 172
152 167 174
136 152 157
141 156 160
137 152 152
142 159 164
138 153 155
134 150 153
144 158 164
141 157 163
142 157 162
142 158 161
138 153 158
134 150 153
137 152 155
77 98 71
66 89 52
68 93 55
62 84 49
62 85 50
64 88 51
63 86 51
63 87 50
68 92 54
57 79 45
62 84 49
68 92 56
63 85 53
73 94 65
91 112 92
106 122 115
122 138 136
132 147 148
138 154 157
105 123 114
62 86 49
66 89 53
62 85 50
62 86 50
59 81 48
62 84 50
60 82 48
63 86 51
55 76 44
57 79 45
67 92 53
62 85 50
61 83 48
59 82 47
66 90 52
58 80 47
63 86 50
61 84 49
71 93 64
133 149 151
137 152 156
136 152 155
120 135 135
123 139 141
135 151 153
140 155 159
138 153 156
143 157 164
124 139 140
124 139 140
144 159 163
129 145 147
135 150 154
131 146 148
136 150 152
133 149 149
130 146 145
126 140 141
74 94 68
61 83 49
62 84 50
62 85 49
64 87 51
59 82 47
59 81 48
62 86 50
60 83 48
66 89 53
67 90 53
60 82 47
60 82 48
52 72 40
66 89 53
63 86 51
65 88 52
64 87 52
72 93 66
120 135 132
125 139 142
122 138 139
122 140 137
110 127 118
121 135 135
112 128 119
91 109 93
87 105 88
80 97 81
86 105 85
85 103 85
65 88 55
62 85 49
63 86 51
60 82 46
58 79 46
61 83 48
92 110 98
127 143 142
141 156 164
122 139 136
146 161 169
138 152 158
130 145 148
130 146 149
133 148 150
133 148 153
125 141 141
131 146 148
132 147 145
143 158 162
142 158 161
129 144 145
133 148 149
132 147 149
120 135 134
62 85 49
60 83 48
59 82 47
67 91 54
63 86 51
68 92 55
67 90 53
64 86 51
63 86 50
60 82 47
64 87 52
61 83 49
61 84 49
61 84 49
64 87 52
62 85 49
66 89 56
135 151 152
149 163 171
141 157 165
131 146 149
129 145 144
133 149 153
139 155 162
138 153 158
139 155 155
157 172 179
143 158 162
141 156 160
143 158 163
140 155 162
143 158 165
151 166 173
117 133 128
71 95 62
65 89 52
67 90 56
77 100 68
87 109 88
79 99 75
100 120 106
89 109 92
99 118 103
98 118 102
129 144 145
119 135 133
123 139 136
122 139 138
130 146 146
120 135 133
67 91 56
64 88 52
63 86 50
62 85 48
68 91 55
62 85 50
59 81 46
72 98 60
66 90 54
64 89 52
64 87 51
64 87 51
65 89 52
60 83 47
84 104 83
137 153 155
147 163 168
152 167 175
137 152 155
144 160 165
145 163 169
142 159 164
140 156 159
141 158 163
153 168 177
148 165 173
133 151 152
145 162 167
143 159 162
96 116 103
67 92 55
71 96 57
67 92 55
65 89 53
68 93 55
67 91 54
72 97 58
69 95 57
69 94 56
69 94 55
70 95 57
72 95 63
99 119 106
123 140 137
110 129 117
92 114 92
69 94 55
70 96 58
74 100 61
67 92 54
68 93 54
72 99 58
70 95 56
69 94 57
132 152 147
152 168 173
144 160 163
155 170 181
151 167 174
153 168 174
157 174 184
150 167 173
162 178 189
155 171 179
149 165 169
140 157 158
150 167 172
155 172 180
135 151 153
73 99 60
75 102 62
70 95 56
75 102 62
73 100 60
123 143 139
159 176 186
158 175 185
137 156 158
105 127 109
82 108 72
77 104 63
77 102 67
132 149 145
163 180 191
155 171 177
125 144 136
98 122 96
79 105 73
136 154 152
155 173 178
119 141 130
94 117 93
165 180 183
219 231 246
229 240 255
229 240 255
229 240 255
229 240 255
229 240 255
229 240 255
209 221 233
164 181 188
141 161 161
96 119 100
83 111 71
109 131 117
148 166 170
172 188 198
169 187 199
148 165 168
119 139 134
126 144 141
158 176 187
167 183 192
162 179 187
144 162 166
120 140 133
72 98 59
77 103 63
77 104 63
73 99 60
76 103 63
71 97 58
103 126 109
146 164 169
157 173 186
118 139 131
87 109 83
161 177 187
160 176 184
146 163 170
160 176 186
148 163 169
131 148 145
100 120 103
82 107 76
72 98 58
71 97 57
72 98 59
73 100 60
71 96 57
76 102 63
75 100 67
151 166 171
155 172 180
146 163 169
124 144 138
100 121 104
73 98 60
64 89 52
73 98 58
67 92 54
68 93 55
70 95 57
72 97 59
72 97 59
72 99 59
68 93 55
66 91 53
70 95 57
108 127 118
136 152 154
126 142 142
103 123 107
80 104 73
70 95 57
71 96 57
68 92 55
66 90 53
66 90 52
71 96 57
66 91 54
73 99 60
70 95 56
69 93 55
68 93 55
68 92 55
69 93 55
86 106 84
141 156 159
148 164 169
146 163 166
143 158 163
105 123 113
82 102 81
71 96 57
66 90 53
68 93 55
69 93 55
66 90 53
65 90 54
69 93 56
65 88 52
67 91 54
68 92 54
73 99 59
66 89 53
84 105 81
125 140 141
153 168 175
145 160 168
149 164 171
144 158 164
141 157 163
148 164 169
143 158 162
136 152 153
140 156 156
127 142 144
115 132 126
102 120 109
75 97 66
65 89 52
67 91 55
67 92 54
65 89 53
64 87 53
148 163 168
139 155 160
138 154 159
144 159 164
134 150 152
143 158 161
141 157 163
142 159 162
131 147 150
151 165 172
140 155 161
136 152 155
135 150 153
141 158 159
149 164 171
137 153 156
128 143 144
139 155 158
150 165 172
103 120 108
58 81 46
64 87 50
67 92 54
70 95 57
63 86 50
71 96 58
73 96 64
82 102 82
86 104 84
116 132 128
115 131 125
132 147 150
156 171 181
133 148 152
144 159 163
135 150 153
140 155 161
138 152 157
143 157 162
64 84 57
65 88 51
61 83 48
65 88 52
59 82 47
60 83 48
66 90 52
58 80 47
60 82 48
67 90 53
63 85 50
66 88 53
65 89 52
67 91 55
66 89 53
66 90 53
61 82 49
62 85 50
62 84 49
114 131 124
141 156 160
138 153 157
124 138 140
130 146 150
127 144 144
124 139 139
133 149 152
128 145 148
139 153 159
138 153 156
137 151 156
145 159 164
148 164 169
138 153 156
137 152 154
126 141 144
135 152 157
132 147 151
116 132 127
60 83 48
67 90 53
64 87 51
60 82 48
60 83 48
64 87 51
58 81 47
63 84 56
75 96 72
88 107 89
93 112 94
100 117 105
100 118 106
103 120 112
113 130 127
120 136 133
125 141 142
128 144 145
117 133 129
61 84 49
58 81 46
61 83 49
64 88 52
59 81 47
67 90 54
62 84 49
65 89 53
62 85 49
64 88 51
63 85 50
63 87 50
65 88 52
67 91 54
63 86 50
64 87 51
62 84 49
67 90 57
119 134 136
133 149 152
143 158 164
123 139 138
141 156 161
136 151 156
122 137 138
133 148 153
130 146 144
132 148 151
137 152 155
134 148 151
143 158 162
121 137 134
132 147 151
141 157 162
131 145 147
146 161 167
99 119 103
61 84 48
64 88 52
68 92 55
68 91 55
66 90 54
64 87 51
59 82 46
62 86 50
60 83 48
69 94 55
64 87 52
68 93 56
68 92 54
59 81 46
67 92 55
63 86 50
84 103 85
117 133 131
138 153 159
147 163 167
132 148 151
137 152 157
137 153 157
129 145 148
141 156 161
130 147 147
141 156 161
130 145 149
138 154 157
135 151 153
130 144 149
143 159 165
138 154 159
128 144 145
69 93 56
62 85 49
67 92 54
65 88 51
62 84 49
68 93 56
67 91 54
69 93 55
64 88 51
66 91 54
58 80 46
63 86 50
67 91 55
69 93 56
67 92 55
101 120 107
135 151 152
138 153 156
108 124 116
111 130 123
101 120 107
112 131 122
83 104 83
81 103 80
76 101 65
69 94 56
67 91 54
65 89 52
66 89 53
74 99 61
90 112 91
140 156 159
151 167 172
142 157 160
148 164 170
144 160 166
145 161 166
139 155 155
154 169 176
140 155 159
135 151 151
135 151 154
145 162 166
149 164 168
138 155 157
89 111 86
72 97 58
65 89 52
68 94 55
66 90 53
73 99 60
68 93 55
76 102 63
71 96 58
69 93 56
70 94 57
71 95 57
71 95 59
128 144 143
147 164 168
150 168 173
145 161 165
124 143 139
106 123 113
104 124 106
76 99 68
64 89 51
66 89 52
72 97 58
70 95 57
125 143 140
146 162 165
161 177 185
161 178 188
141 158 164
152 168 174
159 176 186
157 173 179
158 175 183
156 172 178
152 168 173
96 119 97
85 110 81
129 149 146
106 127 114
80 104 71
75 102 62
73 99 61
76 103 63
72 98 58
103 125 107
147 165 170
152 170 176
168 185 195
158 174 181
139 157 158
110 131 118
80 106 67
118 139 129
156 173 181
167 184 194
161 179 188
152 171 179
125 146 142
133 151 149
150 168 172
163 180 189
128 147 139
119 140 128
163 179 183
209 222 234
229 240 255
229 240 255
205 217 228
148 163 163
128 148 141
100 124 97
83 110 71
126 146 140
159 177 186
159 176 186
165 182 191
143 162 168
115 136 125
76 104 63
78 106 65
138 155 157
166 183 193
139 157 160
99 123 99
73 99 60
73 99 59
76 104 62
73 99 60
75 101 62
95 118 91
118 138 129
146 164 166
159 174 182
162 178 187
157 173 179
102 123 107
77 104 63
125 144 136
159 176 185
164 180 192
125 143 139
92 115 91
73 100 60
73 98 59
72 98 59
76 102 62
74 101 61
69 94 56
72 98 59
69 94 56
70 96 57
73 98 62
146 162 166
110 129 121
79 104 72
73 98 59
73 99 59
73 98 59
66 90 53
70 96 57
73 99 60
70 95 57
74 100 60
70 96 57
70 93 55
71 97 58
72 98 59
75 100 63
103 122 111
110 129 121
77 102 67
72 97 58
67 91 55
72 98 59
71 96 56
71 97 57
67 91 54
64 88 51
70 96 58
72 98 59
73 98 59
71 97 58
67 92 55
71 97 59
67 91 54
65 88 52
62 85 49
75 100 62
128 145 147
104 124 110
81 103 79
65 90 52
64 87 52
68 93 55
67 90 53
65 89 52
72 97 58
68 93 55
68 92 55
76 101 61
73 98 59
65 90 53
63 87 51
71 95 58
69 94 56
71 97 58
78 102 67
146 162 169
152 167 175
138 154 157
143 158 165
141 156 159
156 171 180
146 160 163
118 136 130
98 116 104
72 92 67
69 93 56
59 80 47
68 92 53
72 97 59
65 88 52
63 86 50
74 100 61
64 87 52
68 92 54
118 134 131
137 151 156
149 164 172
150 166 172
135 152 155
132 147 149
125 141 141
134 149 153
139 153 158
133 149 154
142 157 163
140 155 157
152 167 172
135 150 152
145 160 164
139 155 158
135 150 154
135 151 153
156 172 181
113 130 123
67 91 54
66 89 54
85 104 85
97 115 104
111 128 119
129 146 144
134 150 154
142 157 160
130 146 148
133 147 153
151 164 170
136 151 153
145 162 167
132 148 151
134 150 150
140 156 161
147 161 169
138 152 154
140 154 161
86 105 86
63 86 50
67 91 54
64 88 51
58 79 46
61 84 49
62 85 49
63 85 50
64 88 51
63 86 50
59 81 47
66 90 53
66 89 53
62 84 50
61 84 48
63 87 51
66 90 54
62 85 50
68 92 54
81 102 80
134 150 151
134 149 153
142 158 164
138 154 158
139 155 161
134 148 150
121 137 138
137 152 158
133 148 151
139 154 159
133 148 148
143 160 164
129 143 145
133 149 151
144 159 166
138 154 158
126 140 144
135 152 152
120 136 135
97 115 104
105 122 113
102 118 111
114 129 127
118 136 134
125 141 140
122 137 137
126 140 141
143 159 165
136 151 155
141 155 158
130 146 148
125 141 140
141 156 161
131 147 153
138 153 158
134 150 153
135 151 154
133 148 150
80 102 75
68 91 54
65 88 51
59 81 47
64 88 52
66 89 52
61 84 50
60 82 48
63 85 50
63 86 51
63 87 51
63 86 50
62 85 50
66 90 54
63 86 50
56 77 44
63 87 51
62 85 49
96 116 101
140 155 160
135 150 151
134 148 152
131 146 148
140 156 156
140 154 160
133 150 152
136 152 155
114 130 127
136 151 154
137 153 154
134 150 150
125 141 138
136 151 157
145 160 166
140 156 157
134 150 154
118 134 131
69 92 57
65 88 52
66 89 53
65 89 52
63 86 50
61 85 49
62 85 50
65 88 53
68 93 55
72 97 58
68 92 55
61 83 49
66 90 54
64 87 52
69 94 57
67 91 54
63 86 50
108 125 118
148 163 171
143 159 164
125 141 142
149 164 172
131 147 150
143 157 163
131 146 150
140 156 160
140 155 162
135 150 154
130 146 149
143 159 163
141 157 161
131 146 148
147 162 170
131 147 150
93 113 93
65 89 52
60 83 48
67 92 54
67 90 53
65 89 52
63 87 51
63 86 51
67 93 55
68 93 54
63 87 50
67 92 54
66 90 53
69 93 55
64 87 52
63 86 51
126 142 141
148 163 170
150 165 172
144 160 165
146 161 165
143 159 165
149 165 170
136 152 153
143 158 163
134 150 151
137 155 157
130 146 144
123 140 137
105 123 114
111 130 118
105 123 112
147 162 168
143 160 163
137 153 157
134 150 151
152 169 178
143 160 161
139 155 159
142 157 163
144 160 167
145 160 165
148 164 171
160 176 186
152 169 176
138 155 156
82 104 81
70 96 57
68 93 56
72 98 59
70 96 57
66 90 52
70 95 58
67 91 54
75 101 61
69 93 56
73 99 59
71 95 57
69 93 58
132 150 151
152 168 175
148 165 173
146 162 168
150 167 172
150 165 172
146 162 166
139 156 161
132 150 151
109 128 115
86 108 85
65 90 52
136 152 148
146 163 170
148 166 170
151 168 175
147 164 170
154 171 178
151 168 175
159 175 185
153 168 176
149 165 172
161 177 185
122 142 136
151 167 175
151 167 172
150 166 172
148 165 168
118 137 130
84 109 80
74 101 61
72 98 60
96 119 98
142 160 161
152 168 177
151 167 176
165 182 194
172 188 200
161 178 184
137 154 155
115 136 126
153 170 175
169 187 199
168 185 196
160 177 186
162 179 190
148 166 170
142 160 165
164 181 192
164 182 194
146 164 165
128 147 146
155 170 169
208 220 233
137 157 155
99 124 97
87 114 75
134 154 154
147 165 168
164 181 191
158 175 184
148 166 166
94 118 94
80 107 66
77 103 63
77 104 63
91 115 88
133 151 151
88 110 86
75 102 61
75 101 60
74 100 60
77 104 63
78 106 66
106 128 113
137 155 154
151 169 173
160 176 187
173 189 203
150 167 171
172 188 203
163 179 187
96 119 96
72 98 58
98 118 102
128 146 143
72 97 62
77 104 63
72 98 59
75 102 62
64 89 52
68 93 56
70 95 56
72 98 59
72 99 59
70 95 57
76 99 70
110 130 118
133 150 150
72 97 58
70 96 57
74 101 61
68 93 55
69 93 56
68 93 56
72 97 58
72 97 58
75 101 61
75 101 61
71 97 58
69 94 55
70 96 58
97 116 101
117 136 129
138 155 157
139 156 158
125 141 136
72 98 59
68 93 55
69 94 56
71 97 58
74 100 60
69 94 56
73 98 59
68 92 55
65 89 52
66 90 54
72 98 59
70 95 57
70 95 57
70 95 57
82 106 75
109 127 115
129 146 149
137 153 156
88 111 87
69 94 56
71 95 57
69 94 56
68 92 55
72 97 58
71 96 58
72 97 58
72 97 58
72 99 60
62 86 50
72 97 59
66 90 53
65 88 52
66 89 53
56 78 44
62 85 50
67 92 55
70 94 57
127 142 140
147 163 170
138 154 157
115 134 128
120 138 131
87 108 87
70 93 59
68 92 54
70 94 57
66 90 54
68 92 55
69 93 56
63 86 50
66 90 53
65 89 52
67 90 54
65 88 52
68 92 55
64 88 52
104 122 109
144 159 165
140 155 160
135 150 155
141 156 162
130 145 145
137 153 154
134 149 151
134 148 150
145 159 164
135 150 153
140 156 160
134 150 153
135 151 152
137 153 154
139 154 156
135 151 154
132 148 150
129 146 145
108 126 118
125 140 137
138 153 158
136 152 152
145 160 165
147 164 171
132 148 150
138 153 157
133 150 152
147 162 166
139 154 160
148 163 169
142 158 161
140 157 165
128 145 148
136 151 158
126 142 142
135 150 154
124 140 139
141 156 158
121 138 137
68 91 54
63 87 50
67 91 53
63 87 51
64 87 52
66 88 52
63 86 49
65 89 51
61 84 49
67 91 54
66 89 53
70 93 56
61 84 49
67 91 55
70 96 57
65 89 53
66 90 53
64 88 51
60 83 48
130 147 147
128 143 144
143 158 162
126 142 142
134 150 148
133 148 146
138 153 159
143 158 165
143 158 162
119 135 132
139 154 156
129 144 144
123 138 138
109 126 115
96 115 103
97 117 99
72 93 64
60 82 48
65 89 53
100 118 104
147 163 167
138 152 155
134 148 151
128 144 145
136 151 154
138 153 156
129 145 144
134 150 150
139 153 156
140 154 161
132 147 151
150 165 172
141 156 162
132 148 150
136 152 155
138 153 157
129 144 143
137 153 156
105 123 115
62 85 50
65 89 51
67 92 55
69 94 57
64 87 51
66 90 54
63 87 51
66 90 53
59 81 47
63 86 51
68 92 55
60 83 49
63 86 51
66 89 53
60 82 48
64 88 52
60 82 48
57 78 45
127 142 141
136 152 154
136 151 154
136 151 154
132 147 147
134 149 151
127 142 141
139 155 159
144 159 164
148 162 167
136 151 155
130 146 148
133 149 150
145 160 164
141 157 162
128 145 147
132 146 149
141 157 160
113 131 124
63 87 50
59 81 47
63 86 51
61 84 49
64 88 51
66 90 53
64 88 52
68 92 54
63 86 51
69 94 56
67 91 55
62 85 48
59 82 47
64 87 52
67 91 55
62 86 50
63 85 52
128 145 145
132 149 151
150 164 170
133 149 154
127 144 140
142 158 161
129 146 146
138 154 158
144 161 166
134 150 153
143 159 164
133 149 152
131 146 148
134 149 151
147 162 168
144 161 166
144 158 164
70 93 59
69 94 56
61 84 49
64 88 52
71 96 58
68 93 54
68 92 55
72 98 59
63 86 51
62 85 50
64 88 51
69 93 54
72 97 58
66 91 53
63 87 51
66 89 56
122 138 137
142 157 162
155 171 180
137 153 158
149 165 173
141 157 160
148 163 169
142 158 161
138 155 158
142 158 163
148 164 169
148 164 170
142 158 162
148 163 171
145 161 167
113 132 124
76 99 71
85 106 86
95 115 100
93 113 98
124 141 137
138 155 157
139 156 157
151 168 176
153 168 177
149 165 170
146 161 165
147 162 166
144 161 165
149 166 173
73 95 66
73 99 59
69 93 55
67 92 55
73 98 58
71 97 58
73 98 59
69 94 56
74 101 61
68 94 56
72 97 58
67 91 55
77 102 67
132 149 148
148 165 171
151 167 174
154 170 174
154 170 177
153 169 176
137 153 157
156 171 183
159 174 182
157 173 180
158 173 179
128 145 144
142 159 163
146 163 165
153 170 177
150 166 170
155 171 182
148 163 169
152 168 174
154 170 176
156 174 182
139 157 159
76 101 65
119 138 130
155 172 182
156 173 180
152 169 171
149 166 172
164 181 192
157 175 182
127 146 145
101 124 104
83 107 79
150 168 171
154 171 181
153 169 174
163 180 191
159 175 184
163 180 189
158 176 182
152 170 175
159 177 184
159 175 183
171 188 200
164 180 191
180 196 210
172 188 200
159 177 186
149 168 173
160 177 184
172 190 203
148 167 172
132 152 148
86 111 79
124 144 138
164 181 192
155 172 181
160 178 188
134 152 149
90 114 87
75 103 62
78 105 64
71 97 59
94 117 90
134 152 152
128 146 142
71 96 57
81 110 68
73 99 60
73 100 61
76 103 63
109 130 113
142 161 162
161 177 187
165 181 192
152 169 177
159 176 183
159 176 186
160 177 184
158 174 183
148 166 170
121 141 133
142 160 166
155 172 181
159 175 187
86 110 80
75 101 61
73 98 59
72 98 59
75 102 61
73 99 60
74 101 62
75 101 65
103 123 107
137 156 154
162 177 187
150 167 172
142 158 163
69 95 57
73 99 59
68 94 56
71 96 57
75 101 61
72 98 59
70 95 56
72 97 58
78 104 63
67 92 54
102 122 108
116 134 131
156 172 181
156 171 180
145 162 169
157 172 181
147 162 166
134 151 152
71 96 58
72 97 58
75 100 60
70 95 56
72 97 58
67 92 54
70 95 57
75 101 62
75 101 61
63 87 51
71 97 58
83 104 79
109 127 114
122 140 136
145 161 168
149 165 170
132 149 150
138 154 159
96 115 97
70 95 57
73 98 60
71 97 58
70 95 57
67 91 54
70 95 57
67 91 55
65 89 53
69 94 56
70 96 58
71 97 58
66 90 53
66 90 53
71 96 58
71 96 58
66 91 53
71 97 59
84 107 80
112 131 119
106 124 114
76 100 67
69 93 56
72 97 58
64 87 51
72 97 58
70 95 57
66 90 54
65 88 53
63 86 50
66 90 54
68 92 55
64 87 52
67 90 53
65 89 51
64 89 53
67 91 54
64 88 52
97 116 99
154 170 178
140 155 160
147 164 170
144 159 164
132 147 149
145 162 169
144 160 167
146 161 168
143 159 160
145 161 165
132 148 151
145 162 167
122 140 137
114 130 125
103 120 111
85 105 84
67 92 55
66 90 54
62 85 49
115 132 129
146 162 168
143 158 164
129 145 145
149 164 170
145 161 167
139 154 159
137 152 154
137 153 158
140 154 157
142 157 161
130 145 146
128 144 144
144 159 163
143 158 162
137 153 155
149 164 172
143 158 162
137 152 156
145 160 166
67 90 57
62 85 49
63 86 50
63 87 51
66 90 54
64 88 52
66 89 54
69 94 56
67 91 55
63 86 50
67 90 53
65 88 52
64 88 52
62 85 49
71 96 57
65 89 53
63 86 50
61 83 49
67 91 53
110 128 120
142 158 164
141 157 161
137 154 156
114 131 125
99 117 108
95 112 99
87 106 88
78 98 74
65 88 52
69 93 55
69 93 56
62 85 49
62 84 49
63 86 50
65 88 51
64 87 52
60 83 47
63 86 51
68 90 56
128 144 144
128 144 145
139 154 159
131 145 150
135 150 151
121 137 137
132 147 147
143 157 161
123 139 140
135 151 154
146 160 165
142 157 162
136 152 156
142 158 162
140 155 162
128 144 145
145 160 164
145 159 164
129 144 146
86 106 87
67 91 55
63 85 51
64 87 51
61 83 48
68 93 55
62 86 51
65 88 52
67 90 53
66 90 54
68 92 55
61 84 50
65 88 52
67 91 55
61 84 48
65 88 52
63 87 50
63 87 52
86 106 86
145 160 168
134 150 153
135 151 153
140 155 159
135 149 155
145 161 168
136 151 155
137 153 155
128 143 146
141 156 162
136 152 155
142 158 162
147 161 165
139 154 159
145 160 164
127 142 145
141 158 164
129 145 144
82 104 79
59 81 46
67 92 54
65 89 52
66 90 53
69 93 55
64 86 51
63 87 51
66 90 54
64 87 50
56 78 45
63 86 50
64 87 51
70 94 57
66 89 52
66 89 53
66 90 53
92 111 94
133 149 151
147 163 170
142 159 164
137 154 157
138 154 158
147 164 170
154 169 176
144 159 166
146 161 166
141 157 161
139 154 160
151 168 176
145 161 169
148 163 168
148 165 170
146 162 169
113 129 124
65 88 52
70 95 57
68 93 56
73 98 59
64 87 51
69 94 57
68 92 54
65 89 52
68 92 54
66 89 52
70 95 56
70 95 57
64 87 51
69 93 55
69 93 57
71 93 61
155 171 179
154 169 178
147 162 168
150 165 173
140 157 161
148 163 171
150 166 175
143 157 162
143 159 165
142 158 159
146 162 167
150 166 171
147 163 172
145 160 166
155 171 180
106 125 114
68 93 56
69 95 55
68 94 55
66 91 54
67 92 54
68 93 55
68 93 55
82 105 76
97 117 101
98 117 103
119 137 132
130 147 145
142 159 161
138 155 158
78 104 69
66 91 53
72 97 59
63 88 50
63 88 52
71 96 58
67 92 54
69 94 56
68 93 55
74 100 61
71 98 59
72 98 58
78 104 68
140 158 161
160 176 185
157 173 183
148 166 172
162 177 187
149 166 172
156 173 182
147 165 171
155 171 179
156 173 182
162 178 187
154 171 177
96 117 96
78 104 67
100 121 105
134 153 153
141 158 159
157 174 183
154 172 180
146 162 166
79 102 72
69 94 56
74 100 61
114 134 124
148 165 171
161 178 190
151 167 172
147 164 169
148 165 171
163 178 191
153 171 177
142 160 164
121 140 134
154 172 179
163 179 186
161 177 188
158 175 187
166 185 198
158 176 184
162 179 189
168 185 197
127 145 141
102 123 104
129 148 143
159 176 186
160 177 185
163 180 193
159 175 184
121 141 132
116 137 124
166 184 197
169 188 202
161 177 187
165 182 192
159 177 188
134 153 150
84 110 79
80 108 67
73 99 60
83 111 68
100 123 104
144 161 163
165 182 192
157 174 183
119 139 127
76 102 61
75 102 61
94 119 92
120 139 134
143 161 165
164 181 192
158 174 183
167 184 194
153 168 175
165 182 193
162 179 189
161 178 188
146 164 168
111 132 119
76 101 67
150 167 174
155 173 181
156 172 179
155 171 180
143 160 160
90 111 86
72 98 58
74 100 61
73 100 60
90 113 89
126 144 143
144 161 166
151 168 175
157 175 182
150 167 173
158 175 184
148 164 167
74 100 61
73 99 59
69 94 57
73 99 59
72 98 59
72 98 59
69 94 56
90 112 88
116 135 129
141 157 162
148 164 173
147 164 171
143 159 165
160 177 187
150 166 173
146 162 167
161 177 187
145 161 165
77 103 63
73 99 60
74 100 60
75 101 62
72 96 58
71 97 57
70 96 57
69 94 56
81 103 76
103 122 113
136 151 154
150 165 172
156 171 180
161 176 187
142 158 162
149 165 173
154 169 177
139 154 159
121 139 133
70 96 57
70 95 57
67 91 54
67 92 54
63 87 51
70 95 58
67 91 53
68 93 56
74 100 60
67 92 54
71 96 58
68 92 54
68 92 55
71 95 63
99 120 104
122 137 134
126 143 141
141 157 162
118 135 132
59 81 47
68 92 54
69 94 56
65 88 52
65 89 53
66 89 52
70 95 57
67 90 53
67 91 53
68 92 54
70 95 56
68 93 55
67 91 54
71 96 58
69 93 56
70 95 57
67 92 54
63 87 50
73 96 64
136 151 155
147 163 169
122 138 136
141 158 162
139 155 158
137 153 156
144 158 163
131 147 148
122 139 138
111 129 120
88 109 89
71 94 62
63 87 51
67 91 54
68 92 54
65 88 52
68 92 55
63 86 51
61 84 49
101 121 105
135 150 151
150 165 173
140 156 159
147 163 169
143 157 164
146 161 166
144 159 164
131 148 150
133 148 149
130 145 150
135 150 152
148 163 169
134 151 151
148 163 169
139 154 160
139 155 157
139 153 158
146 161 168
146 160 163
102 121 110
65 89 53
67 91 54
62 85 49
60 83 48
67 91 54
63 86 51
65 88 52
69 93 55
67 90 54
61 84 49
67 91 54
67 91 55
68 92 55
65 88 52
68 92 55
93 112 98
114 133 126
113 130 124
114 130 127
72 94 65
63 87 51
66 89 52
68 92 55
67 91 53
70 94 56
63 86 50
65 89 52
65 89 52
63 86 50
64 87 51
64 88 52
63 86 50
63 86 50
63 85 49
63 88 51
68 93 55
67 91 53
66 91 53
118 135 131
133 148 149
141 156 162
121 137 136
138 153 156
140 155 160
135 151 155
141 156 160
146 162 169
136 151 154
142 158 162
133 148 151
141 156 159
140 155 160
152 167 177
141 157 163
133 147 150
140 155 161
139 154 158
110 126 121
66 90 53
61 85 51
68 92 55
65 89 53
66 90 53
68 93 55
70 95 56
68 92 56
68 93 56
65 90 53
60 83 47
63 86 51
63 86 50
60 82 48
61 83 48
71 96 58
63 86 51
65 89 52
110 127 120
143 159 164
137 152 158
142 159 165
142 158 163
137 152 157
131 147 148
140 156 161
143 158 164
137 153 157
137 150 153
148 164 168
146 161 166
140 156 163
147 163 170
139 155 159
140 155 161
140 155 160
121 139 136
68 92 54
73 99 61
65 88 52
65 89 52
69 94 55
67 91 54
69 94 56
66 90 53
64 87 51
67 91 54
70 94 56
65 88 52
71 96 57
61 84 49
68 92 55
68 93 56
60 82 48
117 135 126
139 155 159
137 152 157
146 162 167
142 159 164
129 145 146
150 165 170
146 162 166
139 156 161
150 165 175
138 154 156
145 160 166
137 153 157
146 161 166
137 153 157
140 156 157
141 156 162
108 127 116
65 89 52
67 91 55
69 93 56
65 89 52
70 95 57
69 95 55
64 87 52
67 92 54
67 92 55
67 91 54
69 94 56
65 89 51
71 97 58
69 93 56
68 93 56
98 118 103
132 149 150
150 165 172
151 168 175
140 156 159
142 158 160
142 157 161
153 169 175
143 158 162
149 165 173
137 154 158
155 171 179
145 161 166
142 157 163
141 157 162
147 164 171
77 99 71
70 96 57
73 98 59
70 95 57
74 100 60
72 97 59
68 93 56
72 97 59
70 95 57
69 94 55
66 90 54
65 89 52
71 96 57
75 101 63
100 121 103
124 142 139
119 137 127
104 124 108
89 110 88
70 95 56
74 100 60
67 91 54
72 98 58
71 97 58
72 98 59
72 98 58
73 99 60
80 103 76
151 168 172
158 176 185
159 176 185
157 173 183
157 174 182
157 173 183
146 164 169
151 168 173
159 174 182
149 165 172
150 166 173
159 175 185
112 133 122
73 100 60
74 101 61
74 100 61
80 104 75
127 145 141
122 141 135
95 118 94
78 105 67
75 102 62
72 99 59
110 130 116
154 171 176
157 175 182
157 174 185
151 168 174
148 167 174
163 179 187
153 171 179
166 182 192
157 175 186
114 133 123
111 132 118
143 161 163
161 179 192
155 173 182
156 173 181
156 173 181
164 181 192
148 166 170
95 117 94
75 102 62
122 143 133
143 161 163
169 186 197
170 187 201
138 157 159
88 113 81
109 131 115
152 169 175
136 155 150
89 115 83
75 102 62
79 107 66
78 104 66
94 118 93
141 159 160
159 176 186
166 184 195
171 186 199
155 171 177
96 118 94
99 123 100
122 143 138
158 176 186
162 180 192
151 168 175
158 174 181
167 183 196
156 172 182
165 181 192
159 175 183
129 148 145
95 117 97
74 100 60
73 99 60
95 118 95
143 161 165
158 175 184
143 160 164
160 176 184
154 170 179
155 172 182
103 123 107
115 133 124
129 147 146
159 176 184
158 173 182
140 157 160
153 169 178
156 172 180
156 172 180
156 172 180
144 160 164
74 100 60
68 92 54
75 101 61
78 104 63
69 93 58
104 123 112
136 153 153
151 167 174
148 163 169
160 177 186
147 164 169
159 175 184
150 166 174
156 172 180
146 162 168
166 183 195
155 170 179
138 153 156
72 97 60
70 95 57
70 95 57
71 96 58
73 99 60
89 109 88
111 131 119
130 147 148
148 164 170
138 156 159
156 171 179
143 159 163
152 168 175
150 164 171
142 158 163
145 160 166
152 167 174
155 171 178
121 137 133
70 95 56
70 96 57
67 93 55
69 93 56
68 93 55
70 95 58
69 93 55
74 100 60
74 101 60
67 91 54
95 115 100
121 139 134
138 154 156
135 152 153
147 164 167
138 153 160
155 171 179
147 164 171
120 136 134
65 90 53
64 88 51
69 94 56
70 94 56
68 92 54
67 92 55
70 95 56
66 89 52
64 88 51
66 89 52
67 91 54
66 91 54
63 86 50
71 96 58
66 89 53
65 90 52
68 93 55
70 95 58
71 96 58
128 145 144
159 174 184
142 157 163
133 150 150
119 137 132
104 122 114
79 100 76
64 87 51
65 89 53
61 83 48
66 89 53
69 93 56
67 91 55
73 98 59
66 90 54
67 91 53
67 91 54
65 89 53
67 92 54
68 91 57
129 146 149
142 158 164
142 157 160
144 161 166
138 153 157
144 159 163
142 157 162
132 147 151
130 145 149
146 160 166
132 149 149
133 148 149
138 153 158
136 151 155
148 162 167
142 157 161
136 151 153
144 160 165
143 158 163
122 139 138
67 91 54
65 89 52
65 88 52
64 88 52
66 90 53
69 94 56
65 87 51
70 93 59
85 104 85
97 115 104
103 121 110
126 141 141
130 146 148
143 157 164
132 146 148
143 159 164
148 164 170
134 150 152
141 157 157
97 115 105
67 91 54
66 90 53
66 90 53
62 85 50
64 87 50
60 83 48
66 90 54
65 89 53
68 92 54
64 88 52
66 89 52
60 82 48
66 90 54
64 88 52
59 82 46
69 93 55
65 88 52
66 90 53
69 89 62
142 158 165
130 145 147
150 165 169
139 156 161
133 148 152
123 138 138
144 160 165
136 152 155
137 152 153
137 153 158
136 151 157
141 156 161
152 167 176
157 172 181
129 145 144
151 166 172
138 155 160
135 151 156
137 152 153
78 99 76
59 81 46
71 94 57
64 88 51
67 91 54
66 90 53
70 95 57
70 95 57
62 85 49
61 85 49
69 94 55
67 91 54
67 91 55
69 94 55
63 87 51
60 83 49
62 85 51
63 86 50
80 101 78
139 154 157
146 161 168
139 155 157
138 153 156
155 171 180
141 157 165
134 151 155
141 158 163
141 156 161
138 153 157
135 151 155
137 153 154
130 146 147
136 152 155
141 155 162
134 149 154
142 157 162
146 161 166
102 120 111
65 89 53
68 93 55
63 86 51
67 91 54
67 90 53
61 84 49
67 92 55
70 95 57
66 91 52
63 87 50
69 94 56
69 94 56
64 88 52
72 97 58
67 91 55
66 91 54
82 106 78
140 155 159
143 159 164
129 146 148
128 143 145
129 146 147
144 161 163
133 150 155
145 161 167
145 160 165
138 154 157
144 158 162
138 154 159
151 166 174
153 169 178
135 152 154
146 161 164
146 162 166
90 113 86
69 94 57
69 94 56
64 87 50
66 91 54
69 95 57
63 86 50
71 96 57
65 88 51
67 91 55
73 98 60
67 91 55
70 96 56
67 92 54
69 94 56
66 90 53
114 132 123
142 157 162
142 158 162
144 160 164
155 171 180
153 169 177
136 154 153
154 171 182
154 170 178
149 164 170
151 166 172
150 166 171
158 174 180
144 161 166
149 164 171
142 158 162
78 102 71
69 94 56
71 96 57
66 90 52
63 86 50
73 99 60
68 93 55
67 92 55
70 96 57
67 91 54
72 98 58
64 89 52
74 101 61
71 97 58
120 138 132
136 152 153
160 177 187
143 160 164
144 161 163
150 167 171
134 151 152
95 115 101
84 106 82
77 102 67
62 86 50
74 99 60
74 99 60
85 108 82
153 170 180
151 167 177
139 157 159
159 176 186
158 174 183
154 170 175
136 153 157
153 170 178
157 173 179
157 174 183
149 167 173
150 167 175
114 133 123
73 99 59
78 104 63
98 119 101
149 165 169
157 173 180
153 171 178
156 173 179
127 146 140
108 128 113
86 110 80
101 123 103
149 167 175
159 176 186
164 180 192
153 171 179
159 178 185
162 180 190
160 177 188
162 179 191
158 177 185
139 157 159
85 110 81
84 107 76
120 139 133
150 167 173
167 183 194
161 180 191
154 171 177
161 178 188
107 127 114
79 107 65
81 109 67
94 118 93
135 154 155
159 176 184
158 177 186
111 135 117
76 101 66
82 110 68
75 102 62
80 107 72
118 139 126
154 172 180
162 180 190
168 184 194
159 175 182
170 187 200
163 179 186
153 169 174
148 166 171
160 178 189
158 175 184
157 175 184
161 177 187
153 170 178
152 168 174
160 178 189
154 171 179
118 138 127
87 112 80
71 98 58
74 101 61
75 102 62
78 105 64
96 118 96
157 172 179
159 176 186
152 169 177
161 178 187
147 163 170
110 130 117
80 105 71
105 126 106
159 176 182
154 170 175
148 165 173
153 170 175
158 175 185
155 171 178
162 177 187
157 173 180
150 166 172
78 105 63
72 95 59
107 127 111
134 152 152
139 156 159
153 169 175
149 165 173
162 179 189
160 175 183
150 168 174
147 163 168
155 171 179
155 170 178
144 161 165
152 167 175
148 163 169
151 167 175
145 159 162
71 97 57
69 94 56
81 105 72
114 132 123
145 162 166
141 158 162
153 169 176
146 160 166
144 160 166
150 167 174
156 172 180
149 165 171
152 169 178
139 155 158
150 166 172
144 159 162
158 173 183
156 171 177
117 135 129
65 89 52
69 94 55
70 95 57
74 100 60
66 91 54
66 90 54
74 98 64
85 107 84
132 149 149
138 155 157
144 159 166
150 166 171
142 157 165
145 161 165
137 154 156
146 160 166
155 170 177
152 168 177
145 160 166
62 86 49
68 93 55
62 86 50
70 95 57
67 92 54
65 89 52
67 92 54
69 94 57
65 88 52
69 93 55
68 93 56
66 90 53
67 91 53
68 93 55
71 96 58
66 90 53
70 94 56
61 85 48
78 97 76
113 129 125
113 131 119
85 107 83
72 98 59
68 93 56
67 91 53
64 87 51
66 91 53
62 87 50
69 93 55
69 93 55
70 94 57
66 89 52
64 87 52
68 93 54
71 95 56
68 92 54
69 95 56
65 89 53
66 90 52
115 134 129
141 156 162
139 154 157
137 153 156
147 163 170
147 161 169
147 162 171
134 149 153
147 163 169
141 157 160
148 164 169
139 155 158
148 164 172
135 149 154
138 154 157
140 155 160
142 158 162
139 154 158
127 144 144
131 147 148
77 100 72
66 90 53
76 98 67
98 117 102
107 125 115
120 136 136
131 146 147
136 151 156
140 156 158
138 153 157
148 163 170
146 160 165
142 157 160
137 152 155
139 155 160
131 146 148
135 152 152
145 161 168
158 172 181
104 121 112
64 89 52
64 88 51
63 85 49
72 97 58
69 94 56
73 98 59
66 90 54
63 86 51
63 87 50
69 94 55
67 91 53
66 90 54
68 93 55
73 98 59
67 91 53
66 90 53
71 95 57
61 84 49
66 90 54
105 122 116
139 155 161
140 155 160
145 160 165
141 155 159
144 159 167
136 153 159
142 158 161
134 150 152
146 162 171
140 157 161
135 150 151
138 155 158
153 169 176
136 152 154
151 166 175
140 155 160
142 157 162
144 159 168
125 141 139
64 87 52
67 91 54
68 92 55
69 93 56
66 90 54
64 87 52
65 87 51
61 84 49
67 92 53
69 95 56
69 93 56
65 88 52
64 87 51
64 88 52
71 95 57
64 88 52
63 86 50
63 88 51
108 127 114
149 163 170
139 154 158
139 154 160
131 147 148
138 153 155
136 153 155
139 155 160
141 156 162
140 155 160
137 153 157
138 153 157
145 160 164
129 146 145
141 157 163
140 155 157
148 164 173
142 157 162
127 142 144
67 89 59
66 89 53
70 95 57
70 95 57
71 96 58
65 88 52
68 92 54
67 91 53
61 83 49
62 86 50
65 89 52
68 93 55
64 88 52
69 94 55
64 88 52
63 86 50
64 87 52
89 108 89
137 153 158
144 159 166
137 153 156
142 158 164
143 157 161
141 157 161
130 146 146
147 163 168
137 153 154
149 165 170
136 152 153
150 166 173
140 157 162
145 161 167
140 156 157
139 155 158
127 144 145
75 101 64
71 96 58
65 90 52
67 92 55
73 99 60
65 88 52
66 91 53
68 92 54
70 94 56
64 88 51
70 96 57
65 89 53
70 95 56
69 94 56
63 87 51
67 92 55
128 146 142
140 156 160
143 159 165
144 160 165
141 157 163
158 173 183
146 163 170
141 156 160
145 161 163
154 170 177
144 160 164
144 160 166
153 169 180
150 166 172
154 170 179
128 145 146
70 95 57
67 92 54
73 99 60
66 90 54
72 98 59
67 91 54
69 95 55
71 96 58
69 94 57
74 100 60
70 96 57
69 94 56
68 92 54
70 96 57
123 141 136
151 169 175
142 159 163
153 169 174
144 160 163
151 168 175
145 161 166
145 162 166
147 164 168
140 156 156
142 159 162
118 137 130
106 125 112
94 115 95
139 157 159
141 158 161
155 172 182
157 174 181
152 168 173
159 175 184
155 170 179
152 169 177
144 160 166
163 180 191
144 160 163
160 175 183
130 148 146
137 153 155
154 171 182
145 163 168
157 174 185
147 163 169
157 174 183
153 170 178
161 177 187
151 169 174
148 166 170
145 162 168
130 149 145
153 170 177
164 181 190
160 178 188
170 187 201
159 176 186
167 184 197
172 188 199
165 181 190
155 172 179
86 111 78
77 105 64
76 102 62
91 116 86
107 126 116
146 166 170
163 180 190
164 182 194
125 145 139
75 101 62
79 106 65
79 106 65
79 106 68
114 136 124
144 162 165
80 109 67
79 106 67
132 151 148
157 175 184
164 179 186
174 191 205
156 173 183
153 171 176
161 179 190
138 157 159
119 139 127
116 136 125
160 177 187
155 170 178
164 181 192
164 181 192
163 179 188
168 185 197
140 157 157
110 130 119
76 103 63
77 103 64
75 102 62
75 102 62
76 104 63
73 98 58
79 106 65
108 130 115
152 168 176
149 166 171
141 157 160
106 127 111
74 100 60
76 102 62
74 99 60
72 98 58
96 120 95
138 155 156
150 165 171
153 169 178
160 176 186
158 175 184
156 172 179
155 171 177
143 160 164
125 144 142
151 166 172
142 159 161
147 163 171
156 172 180
151 167 170
153 170 178
154 170 175
162 179 188
155 172 182
149 165 173
152 169 176
161 178 188
148 164 169
147 164 171
157 172 182
141 158 162
144 161 167
112 132 120
142 158 164
148 165 171
152 168 174
142 158 162
147 162 170
148 165 174
151 168 177
155 171 179
157 174 184
151 168 175
160 174 183
152 167 176
148 165 170
148 165 169
148 165 170
151 166 171
154 171 177
130 147 145
64 88 52
74 100 60
71 97 59
70 91 67
102 122 110
118 135 133
147 162 170
132 149 148
144 160 165
150 165 171
160 176 185
149 164 171
142 157 160
151 167 175
148 163 167
168 183 194
144 160 164
162 178 187
140 155 159
79 100 76
70 94 56
67 91 55
70 96 58
73 99 59
73 98 59
73 98 59
73 98 58
68 93 55
68 92 55
63 87 51
70 95 57
72 97 58
68 93 55
85 106 84
111 130 121
121 137 132
138 155 159
156 170 179
143 159 161
66 90 54
70 95 57
69 94 55
69 94 56
62 86 50
68 92 55
73 99 60
64 88 51
66 90 54
70 94 56
64 87 51
66 91 53
70 94 57
68 93 55
70 96 57
66 89 53
61 85 48
69 94 56
72 96 57
110 129 119
151 167 173
130 145 146
139 155 157
146 163 168
134 149 154
145 159 164
136 152 153
143 159 163
143 158 161
152 168 175
148 163 171
135 152 154
142 158 162
155 170 179
144 159 162
136 153 153
121 138 134
118 135 132
115 133 128
114 132 128
139 155 159
137 153 158
147 163 169
145 159 166
147 162 168
142 157 163
134 149 153
134 150 153
140 156 162
145 160 164
144 159 163
142 157 161
135 150 155
140 155 159
138 154 157
136 154 159
135 151 154
138 154 155
150 167 174
80 102 78
68 92 54
65 89 53
59 81 47
65 89 53
61 84 48
70 95 58
68 92 54
63 86 51
64 88 53
67 91 54
63 87 50
61 84 49
62 85 50
74 99 60
64 87 52
66 90 53
66 89 53
69 93 56
87 105 90
140 156 160
139 155 160
131 147 147
138 154 161
144 160 162
146 162 169
154 169 178
135 150 155
149 166 172
134 150 153
143 159 163
130 147 148
139 155 157
144 159 165
133 148 153
138 152 155
143 159 162
134 150 150
150 165 175
78 98 73
65 90 54
66 90 53
59 82 47
67 91 55
63 87 51
65 88 52
65 89 52
63 87 51
67 92 55
65 89 52
65 89 52
67 92 54
68 93 55
66 90 53
66 90 52
66 90 53
66 89 53
71 96 58
135 151 153
135 150 151
118 134 131
134 150 148
123 140 136
121 139 135
127 144 142
118 135 131
128 145 146
122 140 132
120 136 130
102 118 111
102 121 109
103 121 109
108 127 115
102 121 108
101 122 105
104 123 110
92 112 94
108 125 120
126 142 140
122 140 138
124 140 139
117 134 129
132 149 147
139 156 158
143 159 164
123 141 138
144 159 163
139 155 158
137 154 153
136 151 155
138 154 157
145 159 165
143 159 161
129 147 147
117 134 132
97 117 100
94 114 95
110 130 116
95 115 101
105 124 112
102 121 105
97 113 102
106 124 118
106 124 114
110 128 119
112 128 121
126 145 143
120 138 133
132 148 148
131 148 148
138 153 158
94 115 97
89 111 86
73 96 64
70 95 56
71 96 58
71 96 58
66 90 53
71 97 58
66 90 54
69 94 56
69 94 57
68 94 55
70 96 56
70 95 57
64 88 51
69 94 55
84 107 80
148 165 168
137 153 156
146 163 169
152 168 174
150 165 171
153 169 177
149 165 171
154 171 178
147 164 172
147 163 168
152 168 177
144 160 165
136 154 157
152 168 174
143 160 165
120 139 132
72 97 57
69 95 56
63 86 51
70 95 57
68 93 55
71 97 59
74 100 60
70 96 57
70 96 57
71 96 58
73 100 60
72 98 59
71 97 57
70 95 60
128 144 140
161 178 187
155 172 180
150 166 170
156 173 182
147 163 171
138 155 157
157 173 180
156 172 182
153 169 177
143 158 165
157 173 179
144 161 166
143 160 166
116 135 128
134 152 151
131 149 150
141 158 159
136 155 156
150 167 174
157 173 182
147 164 168
138 155 159
156 172 181
138 156 159
98 120 100
117 136 128
165 183 195
155 173 180
148 164 170
151 167 176
150 166 173
154 171 181
162 178 187
163 180 194
161 178 188
161 178 188
145 163 165
82 106 74
108 130 116
126 145 141
136 153 154
160 177 185
155 171 179
160 177 184
157 174 184
171 189 201
149 166 173
88 114 82
75 101 61
71 98 59
72 98 60
78 107 66
89 114 85
121 141 134
160 177 186
124 143 141
85 111 76
80 108 66
74 101 61
73 99 60
76 103 63
129 149 144
176 194 210
158 173 179
160 176 185
172 188 201
154 171 177
163 180 190
135 154 151
88 113 82
80 107 66
76 103 63
127 147 136
159 175 185
164 182 193
160 177 185
162 179 189
134 153 149
88 110 88
72 98 58
75 102 61
73 99 59
74 101 61
77 103 63
75 101 61
73 98 59
76 103 63
78 106 66
108 129 118
116 136 123
90 115 83
74 101 62
74 100 59
74 100 61
71 97 58
77 103 62
73 98 58
75 102 62
71 97 59
101 122 104
150 167 172
157 174 182
158 174 183
121 139 132
98 120 100
89 112 87
151 168 173
148 164 170
154 171 176
156 173 180
154 170 179
154 171 178
153 169 177
153 170 177
151 167 176
152 169 175
157 173 183
151 167 175
156 173 180
148 164 169
152 168 174
130 147 145
91 112 94
72 98 59
162 178 188
139 156 162
153 169 177
147 163 167
159 175 183
141 159 164
162 178 187
149 166 173
152 168 175
138 156 155
145 160 163
146 163 166
152 167 175
155 172 180
154 170 178
143 159 166
143 159 167
143 158 163
149 164 169
77 100 69
115 134 125
139 157 159
146 162 166
156 171 179
148 163 167
137 152 155
155 169 177
144 160 165
134 150 152
149 165 170
151 166 173
148 164 171
149 164 174
140 156 158
143 159 167
144 160 165
147 163 168
140 156 160
100 120 101
68 93 55
66 90 53
70 95 57
70 95 56
68 93 54
73 98 59
70 95 57
68 93 56
70 94 56
80 104 74
103 122 103
125 142 140
132 147 150
148 163 169
139 156 159
155 171 181
149 165 171
132 148 151
165 180 189
62 86 50
65 89 52
72 98 58
73 99 60
71 96 58
68 93 55
65 89 53
64 88 51
74 99 60
66 90 53
64 88 50
65 89 53
73 97 58
71 96 58
74 100 60
67 92 54
69 93 56
66 89 53
69 94 55
80 103 72
144 160 164
151 166 173
140 156 161
133 149 151
146 161 170
149 164 171
139 156 161
149 164 171
145 160 165
137 155 157
152 167 173
128 144 141
102 122 108
90 109 91
86 107 85
70 93 60
67 91 53
66 90 53
66 89 54
90 109 86
149 164 171
144 159 164
142 157 161
151 166 171
135 151 154
144 159 164
151 167 174
132 148 149
134 150 152
137 153 156
141 154 157
144 159 164
141 157 160
147 163 170
145 161 165
140 156 158
148 164 170
143 157 164
156 171 177
108 126 118
61 84 49
59 83 47
69 93 55
64 88 52
73 98 60
67 90 54
68 92 55
72 98 59
66 91 54
66 90 54
64 88 52
63 87 49
63 86 51
69 94 56
66 90 53
67 92 54
64 88 52
65 89 52
71 96 57
122 139 133
137 153 157
138 154 155
153 169 176
145 159 163
130 145 147
142 158 164
140 155 162
146 162 166
139 155 156
143 160 164
146 161 167
143 158 162
141 157 159
157 173 183
146 160 163
140 156 160
135 151 156
142 157 161
118 135 130
70 95 57
63 86 50
67 89 58
88 109 87
79 101 77
87 107 89
104 122 113
102 119 111
99 118 105
124 141 137
125 141 137
127 143 141
122 139 137
122 139 137
129 146 146
143 159 164
147 162 170
126 143 146
132 148 147
65 88 52
65 89 53
66 89 53
64 88 52
68 93 55
66 90 53
72 97 59
64 88 51
59 82 46
66 90 53
66 91 54
67 91 53
63 86 51
66 90 53
68 92 54
67 91 54
69 94 56
67 92 53
128 146 143
140 157 160
133 148 150
136 152 155
144 158 162
132 148 148
143 160 162
152 168 174
152 168 176
139 154 158
147 163 169
143 160 164
144 160 165
140 156 158
132 148 150
145 160 166
146 162 167
150 166 173
78 100 74
71 97 58
63 85 50
71 96 57
75 101 61
67 92 55
68 92 55
72 97 58
66 90 54
66 90 54
68 94 55
68 92 54
69 93 56
71 96 58
67 92 53
64 87 52
76 101 65
112 131 124
147 162 170
148 164 171
147 163 169
148 164 171
134 151 151
135 152 155
141 157 160
124 140 142
120 138 132
127 145 143
107 127 113
110 130 117
105 123 112
93 114 96
85 108 81
94 114 94
148 164 171
151 166 174
153 168 175
139 155 159
154 170 176
148 164 170
157 174 183
148 165 173
154 171 180
146 163 168
147 165 169
148 165 169
147 163 170
150 166 173
151 166 174
93 112 97
67 92 54
69 93 54
73 99 60
73 99 59
73 98 59
76 102 62
71 96 58
68 93 55
73 98 59
72 98 58
73 99 60
67 92 54
75 101 61
77 102 68
137 155 156
158 175 184
152 167 175
141 158 162
154 170 177
149 165 170
147 164 169
149 165 171
155 171 178
160 176 187
153 170 177
145 162 169
145 163 169
139 158 160
77 103 69
76 104 63
77 104 64
89 112 85
98 119 102
130 147 144
130 147 149
152 169 172
104 125 112
75 102 62
72 98 58
73 99 60
128 145 143
153 169 178
159 176 186
146 165 172
158 174 183
148 164 172
149 167 173
167 184 193
159 176 185
155 172 177
163 179 188
147 164 169
82 108 73
73 100 61
76 104 63
92 116 93
123 142 134
136 154 152
166 184 195
167 185 199
165 183 193
147 164 171
99 122 99
77 103 64
75 102 61
71 98 59
79 108 67
78 106 65
75 102 63
103 125 109
106 128 113
85 111 76
78 105 64
76 103 63
85 113 70
165 183 197
166 183 195
166 182 193
164 181 192
155 172 180
126 146 141
85 109 79
80 108 67
77 104 64
75 101 62
78 106 65
144 162 167
166 185 199
156 174 181
135 154 151
82 107 73
76 103 63
74 100 61
74 100 61
77 105 64
74 100 60
78 105 64
79 106 65
77 104 64
79 105 70
123 143 134
135 153 152
116 136 127
73 99 59
75 102 62
73 99 60
74 100 61
73 100 61
74 101 61
78 105 63
76 102 61
72 97 59
75 101 61
72 97 58
100 121 103
143 160 164
87 111 85
71 96 58
73 98 58
87 110 81
156 173 183
159 175 184
145 161 169
149 166 170
156 172 179
155 171 178
159 174 185
152 169 177
170 187 200
152 169 176
157 174 183
158 173 178
137 154 156
104 125 108
77 103 65
69 93 56
70 95 58
66 90 54
141 157 161
159 174 181
148 165 172
147 164 172
163 180 191
151 168 176
145 162 167
144 160 163
160 174 179
152 168 176
150 165 172
156 172 178
141 157 160
140 158 161
144 161 165
154 170 181
129 146 143
120 138 133
87 110 86
138 155 157
147 163 172
143 159 165
135 152 152
162 177 186
142 159 163
139 155 158
147 165 172
160 175 186
154 170 176
153 170 177
139 155 158
157 172 183
154 169 176
161 176 186
153 168 177
159 175 185
150 166 173
148 164 170
105 123 115
64 88 52
69 95 56
71 97 58
74 100 61
74 100 60
71 95 60
93 115 95
108 126 121
140 156 162
146 163 168
155 170 178
151 168 176
147 162 168
141 158 161
156 172 183
154 169 178
145 160 164
144 160 167
144 159 163
95 116 98
67 91 54
69 94 56
67 91 54
73 99 60
66 91 53
68 92 55
73 99 60
69 94 56
70 95 56
69 93 54
67 91 54
71 97 59
69 93 55
66 90 53
65 89 52
68 92 55
67 92 54
63 86 50
66 90 54
137 153 157
138 154 158
147 162 169
143 158 164
146 162 167
138 154 158
134 150 149
117 135 130
102 120 112
73 97 64
71 95 60
72 97 58
62 85 49
68 93 55
72 97 58
66 91 53
71 96 58
67 91 54
64 88 51
66 88 54
135 150 153
131 146 147
143 158 165
134 149 150
145 161 168
148 164 172
145 161 166
149 165 173
142 158 162
137 152 157
145 159 166
149 166 171
144 160 164
141 157 164
138 154 158
143 158 163
148 163 169
154 169 179
142 158 163
128 144 145
67 88 59
66 91 53
67 90 54
68 92 56
66 90 53
67 91 55
67 92 54
73 99 60
65 88 52
65 89 52
65 89 52
66 89 53
65 89 53
69 94 56
69 94 56
70 95 56
71 96 58
65 89 52
69 94 56
90 111 90
147 164 172
142 156 161
149 164 168
148 164 170
142 158 163
138 153 156
150 165 174
134 150 152
147 163 170
135 152 153
150 165 171
140 156 159
131 147 147
117 133 130
114 132 125
111 127 122
109 126 115
103 121 111
90 109 95
118 137 131
132 147 150
149 164 171
143 159 165
134 150 153
144 159 164
136 151 154
138 155 156
138 155 155
144 159 167
134 151 154
134 149 151
143 160 163
139 155 161
155 169 177
141 156 160
160 176 186
138 154 157
153 169 182
91 111 95
63 87 51
70 94 57
64 88 51
70 95 57
65 89 52
69 93 56
73 99 60
64 88 51
67 91 54
65 89 52
66 90 54
63 86 51
64 87 51
70 95 56
67 91 54
69 94 56
65 88 52
88 109 90
152 168 176
143 158 166
139 155 161
141 158 161
123 140 138
144 160 165
152 166 174
147 162 170
148 164 169
143 159 165
143 159 163
134 150 155
147 163 169
141 158 163
142 159 162
154 170 180
133 149 150
138 154 157
71 96 57
68 92 55
67 91 53
66 90 52
70 95 57
68 92 55
65 89 52
70 94 57
70 95 57
69 95 57
68 93 54
67 91 55
66 91 53
72 97 58
69 94 55
72 97 58
74 97 64
139 156 157
148 163 168
139 155 160
157 172 181
150 164 170
153 171 180
143 158 163
142 159 163
141 156 159
145 162 167
153 168 174
148 164 170
146 161 164
154 170 178
149 165 170
148 164 171
119 136 130
92 114 95
106 127 114
88 108 86
115 135 127
124 144 139
129 148 143
127 144 141
145 161 166
150 167 172
153 169 174
149 165 171
159 175 182
149 166 173
145 162 166
149 166 173
93 115 93
72 97 59
66 91 53
72 98 59
77 104 63
69 93 55
73 98 58
72 98 59
70 95 57
71 96 57
78 104 63
73 99 60
69 93 55
72 97 59
93 115 93
155 171 180
148 163 171
146 163 171
155 172 184
144 161 165
153 170 177
154 171 179
151 167 173
142 157 162
152 168 175
159 175 183
148 164 169
144 161 165
131 148 146
67 91 54
70 96 57
72 98 58
73 99 60
90 115 90
130 148 146
149 166 175
143 161 165
119 137 129
108 129 113
85 109 79
75 102 61
129 147 144
157 173 180
156 174 184
164 180 191
159 177 186
162 177 186
153 168 178
165 182 195
152 170 177
164 180 192
163 180 189
142 161 163
88 110 84
75 102 61
75 102 62
72 99 60
69 95 56
85 111 78
120 140 129
139 158 159
162 180 190
164 182 192
98 121 99
74 101 62
76 102 61
77 105 64
69 95 56
76 104 63
76 103 62
74 100 60
81 106 73
131 151 148
118 139 129
76 103 66
166 183 193
163 180 190
161 180 188
127 148 145
82 109 75
74 100 61
76 103 64
74 101 61
77 104 64
74 100 61
71 97 58
157 174 183
125 142 139
76 102 64
74 100 60
75 102 62
73 100 61
77 104 63
76 103 63
75 101 61
76 102 61
74 101 60
90 114 87
126 145 142
149 166 172
160 177 185
163 179 189
105 126 111
75 102 62
78 105 64
75 101 61
72 98 58
69 95 57
76 103 62
74 101 61
69 94 55
79 105 70
119 138 127
145 161 165
160 176 185
159 176 184
165 181 193
137 154 152
94 116 95
88 111 85
149 166 174
145 161 167
162 178 187
154 171 179
149 167 173
163 180 190
141 156 157
156 172 180
158 175 183
143 160 163
106 124 113
76 101 66
77 104 64
75 102 63
74 100 60
70 95 56
70 95 57
73 99 59
136 152 153
149 166 174
155 171 180
147 164 170
156 172 180
154 170 178
154 169 176
155 172 178
151 167 174
154 170 177
154 170 177
151 168 174
149 165 172
133 151 149
112 131 122
72 95 66
72 98 59
66 90 52
76 103 63
134 150 150
145 162 168
149 166 175
166 181 192
153 169 177
156 173 184
151 166 174
153 169 179
146 162 168
156 171 180
147 164 169
143 159 163
150 166 171
151 167 174
139 156 160
141 156 159
149 164 170
164 179 188
151 166 174
135 151 153
72 98 59
73 99 60
88 109 87
97 116 103
131 147 147
145 162 165
165 181 190
152 167 174
140 156 156
145 161 167
157 173 178
154 170 176
139 156 158
149 165 169
145 161 168
140 156 158
146 161 164
141 157 161
153 169 176
119 138 129
65 89 52
72 98 59
71 95 57
65 89 52
66 91 53
69 94 56
68 92 55
69 93 55
69 93 55
67 91 54
71 96 57
67 90 54
73 99 59
64 87 51
70 95 58
72 98 59
66 90 52
70 95 57
72 98 59
113 131 121
121 137 136
124 141 137
104 123 112
95 115 96
70 92 59
67 92 54
64 87 51
67 91 53
68 93 55
63 87 51
69 95 56
63 86 51
69 94 56
66 90 53
65 90 52
66 90 54
69 94 56
68 93 55
65 89 52
120 135 134
145 161 166
140 155 158
145 160 162
152 168 175
149 164 169
141 156 160
146 162 166
151 166 174
161 176 186
140 156 161
150 164 172
155 170 177
143 160 164
148 165 169
144 162 168
143 159 162
141 156 160
152 168 177
145 160 168
89 108 94
65 89 52
69 94 56
69 94 55
70 95 58
71 96 59
66 90 53
72 96 57
67 91 53
66 90 53
65 90 53
68 93 55
64 89 52
69 93 56
72 98 59
67 91 54
65 88 52
67 92 55
69 92 55
70 95 56
136 151 153
146 161 168
132 147 149
136 153 155
121 138 136
109 127 118
104 123 109
92 112 96
80 101 75
79 103 71
64 87 51
62 85 49
67 92 54
70 94 55
67 92 55
67 91 54
73 98 59
68 91 54
66 90 53
93 113 95
136 151 152
143 159 163
141 156 162
140 155 163
129 146 146
142 157 165
142 157 160
145 161 168
149 165 171
140 155 160
147 163 168
145 161 161
151 166 172
135 152 155
135 152 153
137 151 152
150 166 174
154 171 180
132 148 148
66 90 54
69 93 56
69 94 56
66 89 52
65 90 53
74 100 61
66 90 52
72 97 59
71 96 58
67 91 54
71 96 57
65 89 52
67 92 54
74 100 60
71 96 57
69 93 56
66 90 54
63 87 51
128 144 143
153 169 175
147 162 169
146 162 166
145 161 165
145 160 169
140 157 159
141 156 161
151 167 174
145 161 165
140 156 158
139 155 160
138 155 156
138 154 160
149 165 172
141 157 160
156 171 177
148 165 170
96 116 98
70 95 57
72 97 58
73 99 60
72 97 58
67 92 54
67 92 54
70 96 57
70 95 56
68 92 55
66 91 54
67 90 53
74 99 59
71 97 58
65 90 53
72 97 57
74 101 61
93 113 99
157 173 182
145 161 167
146 162 167
143 159 162
149 165 170
157 173 182
158 175 185
144 159 163
144 160 165
140 156 159
149 164 168
143 159 163
146 162 165
150 167 175
149 167 174
136 151 154
91 115 87
72 98 59
70 96 58
67 93 55
71 96 57
72 98 60
72 97 59
73 99 59
68 94 56
75 100 64
82 105 78
101 121 105
101 120 107
107 125 116
117 134 128
125 143 143
80 104 74
79 102 74
68 92 55
72 98 59
72 98 59
71 96 56
75 101 61
72 98 59
70 95 57
71 96 57
69 94 56
68 92 56
66 91 53
74 101 61
104 124 108
152 170 178
161 178 188
157 173 180
151 168 176
151 168 174
169 186 197
143 159 163
164 181 193
156 173 179
153 170 175
150 167 175
152 168 175
147 163 167
126 144 142
72 97 57
88 111 88
137 155 155
154 170 177
164 179 186
166 182 193
160 177 187
158 174 179
156 173 182
148 165 170
153 171 176
126 145 142
153 170 175
149 167 172
149 167 175
159 175 186
164 181 193
163 179 189
164 180 189
159 175 184
163 180 189
163 179 190
151 169 174
154 172 178
82 105 78
74 101 61
78 106 65
75 101 61
73 100 61
79 106 65
74 101 61
81 107 72
101 121 104
133 150 149
102 124 107
79 107 65
81 109 67
75 102 62
75 101 62
81 108 66
77 105 64
77 104 63
86 111 80
133 153 150
150 168 176
151 170 173
116 138 122
80 107 68
75 102 62
78 106 64
78 105 65
73 99 60
70 96 57
82 110 68
100 123 102
132 150 147
73 100 60
71 97 58
78 104 63
73 100 61
78 105 64
73 100 60
70 95 57
77 105 63
71 97 58
105 126 110
135 153 148
152 170 177
158 176 185
165 182 193
161 177 187
146 163 167
99 119 105
75 101 61
71 96 57
74 101 61
68 93 55
75 102 62
75 101 60
108 128 113
149 167 173
160 176 185
161 180 191
160 177 186
156 172 179
159 176 186
151 169 172
156 172 179
165 182 192
136 154 156
142 160 160
164 180 191
144 161 165
148 165 172
162 178 185
144 162 164
142 159 163
125 144 139
84 109 74
72 99 60
72 98 59
75 102 62
72 97 58
70 95 56
77 104 64
75 102 61
76 103 63
74 100 60
134 150 150
155 171 178
153 169 176
154 171 176
147 163 165
159 175 186
148 164 172
150 166 174
157 173 182
149 165 172
131 147 150
115 133 123
86 108 84
71 96 58
72 98 59
78 104 64
71 97 57
73 98 59
68 92 54
137 155 155
142 158 160
157 173 181
157 173 182
154 170 178
150 165 173
148 163 167
157 173 182
162 177 187
151 166 171
145 161 166
146 162 168
151 167 174
148 165 171
157 172 180
148 164 171
153 169 176
141 159 163
145 161 164
121 138 134
127 144 144
143 159 162
143 159 162
156 171 178
149 165 171
151 167 175
154 170 178
153 168 175
144 160 163
161 177 184
155 172 182
136 152 155
148 164 171
150 165 174
144 162 165
159 176 185
144 160 164
152 168 174
155 171 180
128 145 145
64 88 51
69 94 56
71 96 56
71 96 58
70 95 57
71 98 58
70 95 56
70 94 56
62 85 49
66 91 53
68 92 55
72 98 59
66 89 53
75 100 61
70 94 57
78 100 74
87 108 88
116 132 127
127 145 143
127 144 142
62 84 49
73 99 60
67 91 54
71 95 57
72 97 58
68 93 55
69 93 56
63 87 50
64 88 51
68 92 55
63 87 51
68 93 55
66 91 54
60 83 48
71 96 58
70 95 57
66 90 52
71 96 57
67 92 55
91 114 90
139 156 158
141 156 162
151 167 175
134 149 151
143 159 164
149 164 170
151 166 174
141 157 160
136 152 154
138 153 153
137 154 157
140 156 159
144 161 165
153 169 178
138 152 156
141 157 159
154 170 177
139 156 160
140 157 161
139 156 159
71 97 58
71 95 57
68 92 55
70 95 57
67 91 54
67 91 53
68 93 55
70 95 56
69 93 55
70 95 55
66 90 53
64 88 52
69 93 59
79 101 74
108 126 119
119 136 131
129 144 144
119 136 130
128 145 147
113 133 122
67 91 54
66 90 53
70 95 56
70 95 58
70 95 57
69 93 56
71 96 58
64 87 51
67 92 55
68 93 55
68 92 56
65 89 52
66 90 53
68 94 56
64 87 52
69 94 56
62 86 48
69 94 56
66 90 53
133 149 150
138 154 157
142 159 162
135 151 152
148 163 172
144 160 165
145 161 167
139 155 156
149 165 170
139 155 161
148 164 170
154 169 178
141 157 161
145 161 166
141 157 165
147 161 168
147 162 170
132 149 150
149 166 171
90 109 93
69 94 56
68 93 55
68 93 55
63 86 49
67 92 55
67 92 54
69 94 57
73 97 58
71 96 57
70 96 58
68 93 55
62 85 50
67 91 54
68 93 56
68 93 56
68 92 55
68 93 55
81 101 79
136 150 153
141 157 160
143 159 163
143 159 164
148 164 171
146 163 168
139 156 161
147 162 165
143 158 160
146 162 167
148 164 169
154 171 179
144 160 167
143 160 162
157 171 181
148 163 169
150 166 174
134 151 152
79 103 72
73 98 59
68 93 55
70 95 57
73 98 59
68 93 56
71 96 57
69 94 56
66 90 53
72 97 58
72 97 58
70 95 57
75 101 61
68 93 55
72 97 57
69 95 57
72 97 59
128 145 145
159 175 183
150 164 167
158 173 181
143 159 164
139 155 155
150 166 172
148 164 170
150 166 172
147 164 170
159 175 184
140 156 156
158 173 183
155 170 179
156 173 184
140 157 157
140 156 160
71 94 59
72 97 57
66 91 53
72 98 58
70 95 57
68 93 55
69 94 56
72 97 58
74 100 61
75 100 61
69 94 55
69 95 57
70 94 56
72 98 59
72 97 58
108 126 119
163 179 188
142 159 166
135 152 152
128 147 143
111 130 123
108 129 114
85 107 82
82 105 78
73 99 60
70 96 57
70 95 57
70 96 57
72 98 59
73 100 60
122 141 136
158 175 183
136 152 154
145 162 165
154 172 181
151 169 175
161 178 187
155 171 180
157 173 180
153 170 179
159 175 183
157 174 183
165 181 193
132 151 149
112 131 123
162 178 188
155 172 180
157 173 182
161 176 185
149 166 171
151 167 173
156 172 178
151 169 176
155 173 177
158 176 186
164 182 194
143 159 160
123 142 135
84 109 76
103 124 108
128 146 145
148 165 168
162 178 190
158 174 186
159 176 185
169 185 197
165 181 191
164 181 191
146 163 169
85 109 78
74 101 61
75 102 62
77 104 64
75 101 61
73 99 59
73 99 59
73 100 60
73 99 60
77 105 65
113 135 121
119 138 131
93 116 90
76 103 62
76 104 63
76 103 63
79 107 66
80 107 66
80 108 69
133 153 152
75 102 62
80 107 65
81 109 68
79 106 65
74 101 61
75 103 63
79 106 68
110 132 115
138 156 155
160 177 184
141 159 161
77 103 63
77 104 64
74 101 61
79 106 65
74 101 61
78 106 65
76 102 65
104 126 109
155 172 180
163 180 192
160 178 187
164 182 193
157 175 185
170 187 200
162 178 188
156 173 181
92 113 92
75 102 61
74 102 62
72 98 59
83 107 76
123 144 136
144 161 164
156 173 181
164 181 188
155 173 181
154 172 179
170 187 199
168 185 196
152 168 176
153 170 177
159 176 186
149 164 170
137 155 154
75 101 61
96 118 95
131 148 143
144 162 168
127 146 142
96 119 96
75 102 62
69 94 56
76 102 63
66 91 54
66 90 54
69 94 56
74 101 61
70 96 57
71 96 56
71 97 59
69 94 55
75 101 62
138 156 154
170 186 200
163 178 188
161 177 185
149 165 171
159 176 184
161 178 188
124 141 135
102 122 105
88 110 84
71 96 58
72 98 59
73 98 59
67 92 55
68 93 55
61 84 49
72 98 59
70 95 56
71 97 58
115 134 123
150 167 174
150 165 171
156 173 181
154 169 177
142 159 162
154 168 177
149 165 171
156 172 183
158 174 182
147 163 167
151 167 176
147 164 170
146 160 163
160 177 187
121 138 134
126 144 142
98 120 100
73 98 61
78 104 66
147 163 168
143 158 163
159 175 181
150 167 172
146 162 167
145 161 166
145 161 169
161 177 186
156 171 181
151 166 175
153 169 177
148 165 169
150 167 173
151 168 176
150 167 174
144 160 167
156 171 177
146 162 169
154 170 179
150 165 172
75 100 63
72 97 58
70 95 56
73 99 60
65 89 52
72 98 59
70 95 57
72 97 58
70 96 57
72 97 58
72 98 58
91 110 92
118 135 126
124 140 137
137 153 156
153 167 176
126 142 140
149 165 173
150 165 172
149 165 170
79 103 72
67 91 54
65 89 52
73 98 60
74 99 59
69 94 55
63 85 50
68 93 55
64 87 51
65 90 52
67 92 55
71 97 58
70 96 58
68 92 55
69 93 56
70 95 56
73 98 59
66 90 53
71 96 57
71 95 57
144 161 166
147 162 169
132 149 150
133 149 149
142 158 163
153 170 178
138 155 158
145 162 168
150 165 169
143 160 166
140 156 161
133 149 148
151 164 173
151 168 175
156 172 181
146 162 166
122 139 136
144 160 164
144 159 164
148 165 169
86 107 87
70 95 56
72 97 58
62 85 49
70 95 56
73 96 67
87 108 88
109 129 118
110 128 120
112 127 123
109 126 120
134 151 150
148 164 170
148 163 169
153 167 176
148 164 169
143 159 167
147 163 169
145 160 166
145 160 165
80 105 72
63 86 50
73 98 59
69 94 56
71 96 57
65 88 51
71 97 58
72 98 58
72 98 59
70 94 56
71 97 58
68 92 54
64 87 50
70 95 57
66 91 53
63 85 50
67 92 55
66 90 53
69 94 56
101 120 107
149 165 172
152 167 174
135 152 154
140 157 161
141 157 160
154 170 178
146 161 166
148 165 170
148 163 171
136 151 153
141 157 163
149 165 171
152 167 175
137 153 155
140 156 160
157 173 182
139 154 157
149 165 170
140 157 162
75 99 62
68 93 55
64 89 52
65 89 52
63 86 49
69 94 56
71 95 57
67 91 54
67 91 54
69 93 55
72 98 59
68 91 54
70 95 57
64 87 52
69 93 55
68 92 56
66 90 52
68 93 54
125 142 139
141 156 160
149 165 171
151 167 173
139 154 157
146 159 164
144 160 165
147 163 169
146 162 165
144 160 166
150 165 173
154 169 177
147 162 168
148 165 173
139 156 157
145 162 169
154 169 176
154 171 179
124 140 137
74 100 60
69 94 57
71 97 59
69 94 56
71 97 58
68 93 55
67 92 54
66 90 53
69 94 56
74 100 61
73 98 59
69 94 55
72 99 59
72 97 58
73 98 59
67 91 54
83 107 79
148 164 170
152 169 175
142 158 161
146 162 170
147 161 167
158 175 185
153 169 180
159 176 186
143 159 164
141 157 161
135 153 155
147 164 170
140 157 159
143 159 165
147 165 172
149 167 172
121 141 132
71 97 59
69 95 57
67 91 53
70 96 57
76 102 62
73 99 60
77 103 62
70 96 57
74 100 61
72 98 59
74 100 60
72 98 59
72 98 60
73 99 59
68 93 55
133 151 149
156 171 180
153 169 176
149 165 169
148 165 169
165 181 188
149 166 171
131 148 148
154 170 178
146 163 166
124 142 141
130 150 147
111 130 117
94 118 94
79 103 68
123 141 137
149 166 174
158 175 184
146 163 168
152 168 173
152 169 175
154 171 180
154 171 179
154 169 175
150 168 171
122 141 138
83 106 76
71 97 58
73 100 60
129 146 143
152 170 177
146 164 167
155 172 179
157 173 179
151 168 173
166 182 192
158 177 187
162 179 187
158 174 181
161 177 185
152 168 177
159 175 182
105 125 111
81 108 66
72 98 58
69 95 57
94 116 91
100 121 105
135 152 152
150 168 174
158 174 181
160 177 188
157 174 182
140 158 161
97 120 100
74 100 61
75 102 62
73 100 60
73 100 60
75 102 62
77 104 64
81 109 67
78 105 64
76 103 62
125 144 136
167 182 192
141 160 161
122 143 134
91 116 88
76 104 63
79 106 65
79 107 66
77 105 64
79 106 65
78 105 64
81 109 66
79 106 66
83 110 73
125 146 137
158 174 184
156 173 182
170 187 199
167 185 198
135 154 150
72 98 59
79 107 66
79 106 64
76 103 63
89 112 88
137 156 154
147 164 168
170 187 200
164 180 190
164 180 190
158 176 186
165 181 193
162 180 190
165 183 196
164 181 192
173 190 204
94 117 94
74 100 60
109 129 117
128 146 143
162 179 189
156 174 183
152 170 179
172 188 200
158 176 185
170 185 197
155 172 178
152 168 177
157 174 183
150 168 174
151 167 172
160 176 186
155 171 180
148 166 167
75 100 64
108 130 112
140 158 160
157 174 183
137 155 156
107 127 117
76 103 66
73 99 60
72 98 59
76 102 62
75 101 62
73 100 60
76 103 63
75 102 62
72 98 59
72 98 59
70 96 57
76 102 62
120 138 132
152 168 174
157 172 181
158 175 182
142 160 163
117 137 129
68 93 54
74 99 60
72 98 59
74 100 60
72 97 59
71 96 58
67 91 54
66 90 54
70 96 58
72 98 59
70 96 57
70 96 58
74 100 60
101 120 107
150 165 171
151 166 172
149 164 170
146 163 167
140 157 158
151 169 174
153 168 174
144 160 165
150 166 173
154 170 177
152 168 177
139 156 158
109 129 117
73 97 66
72 98 59
73 99 60
72 98 59
63 87 50
70 95 56
140 157 161
146 162 166
149 166 171
151 168 176
155 171 178
134 150 156
148 163 167
152 169 174
140 157 159
146 161 169
138 155 158
155 173 182
136 152 156
151 167 176
159 174 180
153 169 179
152 166 175
149 164 172
150 167 174
148 164 169
82 104 81
68 92 55
71 97 58
71 96 58
74 99 59
69 93 55
72 96 60
88 109 87
105 124 113
131 147 147
136 153 156
148 164 169
143 157 162
146 163 170
152 167 175
155 172 179
141 158 159
152 170 177
149 165 173
145 161 164
94 115 92
70 95 57
69 93 56
69 94 56
67 91 53
67 91 54
71 96 57
68 92 55
66 90 53
67 91 53
73 98 59
70 95 57
66 90 54
68 91 53
68 92 55
72 97 58
68 93 56
70 95 58
70 95 57
66 90 53
118 138 130
146 162 168
152 167 174
135 152 157
160 176 184
150 165 171
153 169 176
158 173 185
140 155 155
145 163 166
144 161 165
141 158 163
144 160 164
135 151 154
133 148 148
150 165 172
150 165 169
150 167 174
153 168 177
148 164 169
122 138 135
119 136 131
115 133 128
139 157 158
143 159 163
147 163 168
134 151 152
140 157 162
152 168 172
129 144 145
143 159 163
151 166 170
147 162 169
139 155 160
155 170 179
146 162 168
148 163 170
155 170 177
147 164 170
147 161 168
102 121 108
70 96 56
65 89 52
65 88 52
70 95 57
71 96 57
68 94 55
68 92 55
70 95 58
67 91 54
71 96 57
66 90 53
71 97 59
73 99 59
69 93 55
65 89 53
64 89 50
69 93 55
70 94 56
69 92 60
133 149 152
144 159 166
153 169 176
156 172 178
145 161 169
153 168 176
132 148 149
140 157 160
142 157 163
151 167 173
135 151 155
144 160 163
142 157 162
151 167 174
140 157 157
141 158 163
157 172 179
156 171 178
145 161 166
100 120 101
73 98 58
67 92 54
69 94 56
64 87 51
67 91 53
68 93 55
67 92 54
66 91 54
70 94 55
72 97 58
70 96 56
70 96 58
71 97 58
70 95 57
71 96 57
67 91 54
72 98 59
67 91 56
143 160 165
152 169 175
147 161 165
149 165 171
153 168 175
148 164 168
148 165 171
149 164 169
149 165 172
149 164 171
144 161 166
154 170 179
143 158 162
149 166 175
150 166 172
141 157 163
154 170 178
165 181 193
89 110 85
71 97 58
72 98 59
66 90 53
67 91 53
74 100 61
68 93 56
73 99 60
68 91 53
68 93 55
67 92 55
65 89 53
65 89 53
68 93 56
70 94 56
67 91 55
73 99 59
104 124 108
152 169 178
146 162 165
153 168 178
146 162 165
144 160 163
143 159 164
150 167 177
143 158 163
148 164 170
146 163 170
153 169 178
150 167 174
156 172 182
146 162 166
142 158 164
155 170 180
108 129 115
70 95 56
76 102 62
70 94 56
73 98 59
71 96 57
70 95 57
71 97 58
69 94 55
73 99 59
70 96 58
76 102 62
70 95 58
71 97 59
66 91 53
73 98 60
143 160 165
147 164 170
161 178 188
156 173 181
152 170 179
152 169 175
149 166 174
154 172 179
157 174 180
158 174 181
168 185 195
157 173 182
150 167 174
153 170 177
150 165 173
114 134 130
111 130 118
124 144 138
148 164 171
150 167 170
159 175 181
130 147 148
110 130 116
78 104 69
76 103 63
74 101 60
70 95 56
77 104 63
81 108 72
144 162 165
153 171 179
154 171 178
161 179 190
153 169 176
161 179 187
163 180 190
159 175 185
160 179 188
154 172 178
162 179 190
155 172 177
160 177 184
101 123 105
71 97 58
72 97 58
77 104 63
70 96 57
72 100 60
80 108 66
86 111 83
124 145 136
145 163 166
157 175 184
152 170 175
86 111 78
76 104 64
73 99 59
79 106 65
73 99 60
74 100 60
79 106 65
78 105 65
71 96 57
76 103 62
131 151 146
167 184 196
161 178 187
171 188 202
148 167 170
129 149 140
86 111 83
80 108 67
80 108 67
75 102 61
89 115 80
137 158 158
164 181 192
165 183 193
156 173 182
163 179 192
158 175 186
161 178 188
110 132 119
80 107 65
77 104 64
83 108 74
142 160 160
160 176 188
169 186 199
152 170 177
170 188 203
160 177 187
165 183 196
163 179 189
156 173 183
168 183 196
166 181 190
157 174 183
155 172 181
117 139 122
148 166 171
157 175 184
156 175 183
145 164 167
159 175 184
160 177 187
153 169 175
163 179 192
160 177 187
160 177 188
161 178 188
166 180 191
153 169 174
156 173 181
160 177 188
155 172 179
131 150 147
145 161 166
158 174 182
157 175 183
158 174 182
154 172 180
159 175 183
154 170 175
132 149 149
105 127 107
76 104 63
72 97 58
71 98 58
75 101 62
74 101 61
73 99 59
72 98 58
72 98 59
72 97 57
130 148 147
149 165 170
118 136 133
87 111 83
76 102 61
70 96 56
77 104 63
74 100 61
70 95 58
70 96 58
74 100 60
74 101 60
70 95 56
67 92 54
72 98 59
73 98 58
76 103 63
73 99 60
77 103 62
98 118 99
154 168 176
163 179 191
155 173 183
152 169 176
151 167 175
152 169 175
151 167 174
144 161 167
135 152 152
105 124 110
76 102 62
68 92 54
71 96 57
77 103 62
72 97 58
68 93 55
73 99 60
71 97 58
76 102 62
136 152 153
149 164 169
152 168 177
150 167 169
136 153 152
159 174 183
144 160 165
156 172 181
155 171 179
155 171 179
153 170 176
144 160 165
154 170 173
152 168 177
148 164 172
146 162 167
156 172 179
148 164 172
147 162 169
152 169 178
111 132 118
74 101 61
69 92 57
99 118 101
114 132 126
134 151 151
143 160 165
158 173 182
165 180 190
151 167 172
153 169 175
143 160 163
145 161 167
145 161 166
153 168 174
148 163 168
146 161 168
142 159 164
151 167 174
127 143 143
116 135 125
64 87 50
69 94 55
66 90 53
74 100 61
70 94 56
67 92 54
71 96 57
68 93 55
71 96 58
65 89 52
68 92 54
71 95 57
74 100 61
69 94 56
69 93 56
66 90 54
71 96 57
68 93 55
73 98 59
84 107 81
146 162 166
146 163 169
152 167 174
142 159 164
152 166 173
146 161 167
154 170 177
143 158 165
148 163 170
142 159 163
150 165 171
144 160 165
146 162 168
108 127 118
119 137 128
103 124 107
93 115 94
70 95 56
65 89 51
81 105 73
149 163 170
154 169 177
145 160 164
156 172 181
148 164 168
143 159 164
140 156 159
141 158 162
149 164 170
138 154 161
153 168 175
150 165 171
138 156 159
143 159 163
146 161 165
154 169 176
137 153 155
156 172 179
140 156 161
140 156 158
72 94 65
66 91 53
68 92 55
73 99 60
70 94 57
66 91 53
68 92 56
66 89 53
69 94 56
71 96 57
72 97 59
71 96 57
67 92 54
69 94 56
70 94 56
69 94 56
68 93 55
67 91 53
68 92 54
104 121 112
151 165 171
142 158 164
135 151 153
145 161 164
147 163 170
151 167 175
151 167 175
145 161 168
144 161 166
158 172 183
140 156 163
146 161 166
149 166 173
150 166 171
146 161 166
157 173 181
160 177 187
144 161 166
141 158 161
71 96 60
67 92 54
73 99 59
64 87 50
66 91 53
69 93 56
69 94 56
67 91 54
71 96 57
70 95 57
70 96 58
72 98 59
70 95 57
69 94 57
67 91 54
70 95 57
67 92 55
69 94 56
106 126 112
145 161 167
156 173 180
141 158 164
143 158 164
144 159 163
159 175 187
151 166 175
144 160 164
152 168 174
139 155 159
150 167 173
141 156 162
148 164 167
151 166 171
154 170 177
163 179 190
142 158 164
150 166 170
75 100 63
73 98 58
71 97 58
73 99 60
75 102 63
68 93 56
68 93 55
71 96 57
76 103 62
74 100 61
70 96 58
71 96 58
70 96 57
69 94 56
74 100 61
71 97 58
70 95 56
126 143 141
148 165 170
150 167 175
152 169 176
150 166 175
145 162 165
145 161 167
153 169 176
148 165 171
157 173 182
150 166 170
148 164 172
143 161 164
153 169 173
150 166 173
156 173 181
147 162 166
91 115 90
72 97 58
72 98 59
72 98 59
73 99 60
69 94 56
73 98 59
73 99 60
77 103 63
68 94 56
69 94 56
74 100 61
70 96 57
75 101 62
73 99 60
84 107 79
148 165 170
152 170 181
153 169 176
155 171 178
146 163 169
153 170 178
155 171 177
157 174 185
160 176 185
157 173 180
153 170 180
160 175 185
162 179 190
162 178 188
155 171 179
95 118 96
75 101 61
108 128 113
140 158 162
154 170 177
139 157 154
125 145 140
114 134 125
89 112 89
81 106 73
74 101 61
77 105 64
72 98 58
81 106 74
145 162 166
155 172 181
152 169 176
160 176 185
160 177 188
143 160 166
157 175 182
161 178 190
158 176 185
158 175 185
167 184 194
165 182 194
153 171 179
89 113 84
75 102 62
78 104 64
78 106 65
73 99 58
73 99 59
74 101 62
75 101 61
77 104 63
76 103 65
116 135 123
115 135 123
87 111 83
78 104 66
74 101 62
74 100 60
74 101 61
76 102 62
78 106 65
74 100 61
77 104 63
75 101 62
128 147 143
159 176 185
159 176 184
165 183 194
170 187 201
160 178 187
142 160 162
94 119 92
133 153 150
160 178 188
164 181 191
158 176 187
175 191 202
169 186 197
167 186 200
161 178 190
164 180 190
84 110 78
115 136 122
151 169 174
165 182 193
163 179 190
160 177 185
168 184 196
160 177 186
158 175 186
166 181 190
158 175 186
151 167 175
163 180 188
165 182 193
158 176 185
131 150 145
85 109 79
160 176 185
162 180 193
161 177 186
171 187 199
165 182 192
150 168 173
157 174 186
146 164 168
168 185 199
167 184 198
158 175 182
153 171 178
160 176 183
149 166 172
118 136 129
96 117 101
73 100 60
105 127 112
159 176 184
169 185 196
151 168 174
147 164 170
160 177 186
161 178 187
160 174 181
153 171 176
164 181 192
147 163 167
137 154 154
107 125 112
80 106 68
74 101 61
74 101 61
77 104 63
85 109 80
120 139 135
115 133 127
75 101 61
76 103 62
76 103 63
74 100 60
71 97 59
77 103 62
70 95 56
72 98 60
74 99 61
69 94 55
73 99 60
72 98 59
72 98 59
73 99 59
74 100 61
73 99 60
76 102 62
75 103 63
105 125 115
146 162 168
148 164 165
147 164 171
143 160 165
136 152 153
115 135 126
90 113 91
75 101 60
72 97 58
76 102 61
75 102 62
69 95 57
70 95 57
73 99 60
70 96 58
72 97 58
67 92 54
69 93 55
69 95 57
103 123 109
144 160 163
140 156 159
153 169 177
147 163 168
154 170 176
150 167 178
152 169 177
157 172 180
162 178 189
154 172 179
134 149 151
151 167 175
154 170 180
161 176 187
150 167 172
149 165 171
143 159 161
155 171 178
141 157 160
110 128 122
122 139 131
139 154 155
146 162 168
150 167 174
150 166 174
150 166 173
142 160 165
157 172 179
150 167 171
152 168 176
147 162 168
154 170 176
148 163 169
156 172 178
138 153 157
163 178 188
146 163 170
155 172 183
145 161 166
147 164 171
70 94 56
71 96 58
70 95 56
69 94 56
73 98 59
75 101 61
68 92 54
67 92 55
75 101 61
67 92 54
69 94 55
70 94 56
64 88 51
69 94 56
74 99 59
70 95 57
69 94 56
66 91 54
69 94 56
67 91 55
138 155 160
159 175 186
151 168 177
146 164 169
139 155 160
144 160 163
140 157 160
127 143 143
126 144 142
94 113 98
91 112 94
74 99 62
70 95 56
68 93 55
72 98 57
73 98 59
66 91 54
69 94 55
69 93 56
69 94 56
122 140 136
143 159 164
143 159 165
150 165 171
152 169 178
156 171 178
144 160 168
143 159 163
142 158 162
143 159 163
136 152 156
155 172 179
143 159 161
146 163 166
162 177 186
143 159 163
149 166 173
150 167 175
131 148 148
151 166 174
96 118 95
65 90 53
68 93 54
68 94 56
66 90 53
72 97 58
72 97 59
65 89 52
69 94 56
68 93 54
73 98 59
69 93 56
66 90 54
67 92 55
67 91 54
68 93 55
70 94 57
70 94 56
73 99 60
75 99 65
141 156 160
151 166 172
154 169 176
133 148 149
146 162 165
140 155 155
155 171 178
151 166 172
142 157 160
141 156 163
145 161 167
161 177 186
144 161 166
148 163 170
139 156 159
161 176 183
148 164 169
146 162 166
150 166 173
101 119 111
66 90 53
71 97 58
66 90 53
71 97 59
68 93 54
68 92 54
71 97 59
74 99 59
73 99 59
70 95 57
70 96 58
70 95 56
71 96 57
69 94 55
71 97 58
68 92 54
71 96 58
71 96 61
143 161 164
146 161 167
148 163 168
147 162 169
157 173 183
141 156 163
137 153 155
143 158 165
157 172 181
149 165 171
145 162 168
137 154 155
141 158 162
145 162 167
149 165 170
151 168 175
153 168 176
146 161 168
114 131 123
73 98 59
75 102 62
67 92 54
69 94 56
61 84 49
70 95 57
70 95 58
71 96 58
74 100 62
72 97 59
72 97 59
72 98 59
73 98 59
73 99 60
74 101 61
73 98 60
90 111 88
141 158 162
155 171 178
148 164 168
155 171 177
154 170 175
153 169 174
146 162 167
151 167 176
142 160 164
145 160 165
158 175 186
153 170 177
162 179 189
157 173 181
154 171 177
159 176 184
139 155 159
66 90 53
74 100 60
75 102 62
74 100 59
69 93 55
69 94 55
67 92 54
70 95 57
72 98 58
72 97 59
70 95 57
68 93 54
71 97 57
73 99 60
70 95 56
100 121 102
150 168 173
149 165 173
154 170 179
150 167 171
153 169 176
155 172 177
152 168 173
158 175 184
154 170 176
158 175 183
149 166 170
156 172 179
150 165 171
147 164 168
111 132 120
143 160 162
153 169 178
153 171 178
158 175 185
153 170 176
160 175 186
155 171 180
162 178 188
151 168 173
146 163 170
139 158 158
113 134 123
95 116 98
97 120 97
148 164 167
156 175 183
170 186 198
162 177 185
164 181 191
162 179 188
166 183 194
162 179 189
165 182 191
162 180 191
162 179 189
162 180 187
152 168 176
91 116 88
75 102 61
76 102 62
70 95 57
76 102 62
74 101 60
75 100 60
78 105 64
75 102 62
77 104 64
78 105 65
91 114 91
152 171 176
136 153 153
106 127 110
87 111 86
76 103 63
77 104 63
78 105 65
76 103 64
79 107 67
73 99 60
106 128 111
161 178 185
165 182 194
164 179 188
159 176 187
171 188 202
163 180 191
164 181 193
167 184 195
160 177 184
173 191 205
162 180 187
159 174 184
164 181 194
160 179 190
151 170 175
159 177 185
170 188 202
164 180 191
158 176 185
160 177 185
167 184 196
162 179 191
157 174 181
162 179 188
159 176 185
168 185 199
162 178 186
141 159 162
108 130 116
76 104 63
72 99 60
97 121 96
158 175 185
159 175 183
162 179 189
161 179 189
154 170 178
150 168 177
159 176 186
157 174 182
158 176 184
158 174 181
155 171 180
151 168 176
122 141 131
83 108 74
78 105 64
71 97 59
73 99 59
96 119 100
153 169 172
169 185 196
160 175 184
172 188 201
152 167 172
151 168 172
168 184 195
160 177 187
157 173 182
154 172 181
170 186 198
152 170 177
155 171 180
123 143 136
90 114 87
133 151 149
156 171 177
152 168 175
126 145 142
79 106 65
73 99 59
70 96 57
76 103 63
74 101 61
74 101 60
74 101 61
74 100 60
66 91 53
78 104 63
72 98 59
77 104 63
77 104 64
74 100 61
70 95 56
67 93 55
75 102 62
72 98 58
77 100 71
155 173 183
134 152 150
102 120 107
85 108 82
71 96 58
70 95 57
74 101 61
72 97 59
70 96 57
75 101 62
70 96 57
68 93 55
70 95 57
69 95 56
71 97 57
70 95 58
71 97 57
74 99 60
74 100 60
87 108 85
158 174 182
148 164 171
156 172 180
159 174 183
162 178 190
146 162 169
166 181 192
151 167 173
155 170 178
155 171 177
149 165 172
157 173 183
142 157 162
148 164 168
144 160 163
123 141 135
93 112 95
78 101 73
72 97 58
87 110 84
153 169 176
151 167 173
158 174 182
150 165 170
155 170 178
156 172 182
154 170 177
160 177 186
159 174 184
151 167 176
148 164 171
150 166 173
156 172 179
149 165 171
156 172 179
156 171 179
144 160 166
152 169 174
148 164 170
152 168 177
79 101 75
72 97 58
68 93 56
63 87 51
68 92 56
68 93 55
65 90 53
71 96 57
67 91 53
68 92 55
70 95 56
75 101 60
74 101 61
69 94 56
73 98 59
72 98 58
68 93 55
68 93 55
71 96 59
70 94 56
118 137 134
129 146 148
121 139 134
88 111 89
104 125 109
67 91 53
70 96 58
72 98 59
73 98 58
70 95 57
63 86 50
74 100 60
64 88 51
64 88 51
71 96 58
67 91 54
69 94 56
70 95 56
72 98 58
73 98 59
102 121 110
149 166 170
145 161 166
153 169 176
151 166 171
154 169 176
136 153 154
136 154 156
151 166 171
151 166 175
141 159 164
149 164 171
151 168 176
138 155 155
150 165 173
146 163 168
159 175 187
148 164 170
143 160 164
142 158 163
143 160 165
68 92 56
72 97 59
76 101 62
66 90 53
72 98 59
63 87 50
67 93 56
71 96 57
72 98 59
71 96 57
69 93 56
67 92 54
68 93 55
69 94 56
67 91 54
72 98 59
77 104 63
67 92 55
70 95 57
110 129 120
148 164 170
158 175 187
149 165 171
141 157 164
141 157 161
149 166 170
146 162 170
159 173 180
159 175 185
147 163 172
146 162 166
158 174 182
155 171 179
141 158 164
152 168 174
138 155 157
145 161 166
145 161 164
142 159 161
70 94 60
67 92 56
69 93 55
77 104 63
73 98 60
68 93 55
68 92 55
73 99 59
69 94 55
69 95 56
72 97 57
72 97 58
75 100 59
70 95 57
74 100 61
71 96 57
71 96 58
66 89 52
101 123 106
152 168 175
150 166 172
145 161 166
151 168 174
141 158 163
149 164 171
145 161 162
153 169 177
152 168 176
132 148 146
153 170 181
138 154 158
143 160 162
155 171 179
148 164 170
152 167 171
147 163 170
145 162 166
85 107 80
66 90 53
69 94 56
68 92 56
75 102 62
73 99 60
72 97 59
70 95 56
72 98 57
76 103 62
73 99 59
76 102 62
68 94 55
69 94 56
71 96 57
69 94 57
73 99 60
118 137 134
151 167 173
155 172 177
142 159 164
161 177 187
154 171 180
152 168 174
146 162 170
157 173 181
152 167 173
153 169 177
146 163 166
158 175 185
145 161 164
157 174 183
154 170 176
148 164 171
125 143 140
62 86 50
65 90 54
73 98 60
68 93 55
73 100 61
72 97 59
73 98 59
75 101 62
72 98 59
72 98 58
64 88 52
71 96 57
74 100 60
75 101 62
80 107 65
110 130 118
152 169 175
160 176 183
160 176 185
158 175 183
153 170 178
156 173 182
158 175 185
149 165 171
144 162 164
128 145 143
107 127 114
77 102 64
71 97 57
71 97 58
119 139 131
152 168 177
160 176 183
149 166 172
155 170 180
164 180 192
149 167 172
159 175 185
157 173 182
159 175 183
165 182 193
166 182 194
163 180 190
147 164 170
158 175 182
113 132 124
126 144 140
150 168 177
156 173 183
156 174 180
148 166 172
160 177 189
163 179 189
156 174 185
160 177 187
152 169 178
161 178 186
149 167 172
88 112 84
75 102 61
78 105 64
79 106 65
71 97 59
74 101 62
77 105 65
81 109 67
78 106 64
80 107 66
77 104 63
90 115 85
158 175 183
170 187 201
156 173 183
148 165 168
134 155 152
86 110 81
79 107 65
80 108 66
78 106 65
78 106 65
115 136 125
168 185 195
169 187 202
161 179 191
155 173 179
164 181 192
168 184 197
172 190 205
174 190 203
166 183 194
164 182 192
168 185 197
133 152 150
94 118 95
104 126 109
169 185 199
167 184 196
164 181 187
167 185 198
165 181 190
163 181 192
165 182 193
167 185 198
161 177 188
161 178 187
128 146 140
87 110 84
81 109 67
76 103 63
75 102 61
80 107 66
116 136 124
163 179 188
161 178 187
162 179 189
163 180 191
163 179 192
160 176 185
165 181 193
151 168 172
154 172 179
128 147 146
93 117 90
72 98 59
75 102 62
74 100 61
72 98 59
71 97 58
79 108 67
100 121 101
159 174 179
154 171 179
158 175 187
161 178 186
164 181 192
158 175 183
158 176 184
170 187 200
150 168 177
164 179 188
150 167 170
136 155 156
94 117 90
75 102 62
73 99 59
74 100 61
97 117 100
114 134 123
113 132 122
73 97 60
75 102 62
71 97 58
75 101 61
76 103 62
73 98 59
70 96 57
72 98 59
72 97 57
71 97 58
77 103 63
77 103 62
72 98 58
72 97 58
73 100 61
71 97 57
80 107 65
89 109 90
132 150 149
81 106 75
72 98 59
74 100 61
73 98 58
77 103 63
73 99 60
71 96 57
73 99 59
75 102 62
76 102 62
73 98 59
76 103 62
76 103 62
73 99 59
68 93 55
71 96 58
76 102 62
77 103 62
70 95 57
76 101 63
148 165 168
145 162 166
156 172 180
158 175 185
147 164 172
150 166 174
150 167 174
159 176 187
154 170 178
145 161 167
146 163 168
117 136 129
110 130 120
72 98 59
72 98 58
74 100 61
67 92 55
71 97 59
68 93 55
69 94 56
147 163 170
154 171 179
147 163 169
140 157 160
159 176 187
152 169 175
150 166 171
146 163 169
149 165 172
159 175 185
153 169 178
144 160 163
151 166 172
149 165 171
148 164 169
149 164 169
141 157 161
153 170 177
145 162 167
148 163 168
108 128 116
75 100 60
75 101 61
73 99 60
71 97 58
67 92 54
66 90 53
72 98 58
66 91 54
70 96 57
73 99 60
73 99 59
65 90 52
70 95 57
69 94 56
88 110 86
89 112 88
98 119 104
127 144 140
151 167 173
140 156 158
70 96 58
69 94 55
74 100 60
71 96 58
70 96 56
66 90 53
67 91 55
69 93 55
75 101 62
70 95 57
70 95 56
73 99 60
69 94 56
69 94 56
69 94 57
71 96 57
64 88 51
71 96 58
66 91 54
68 92 58
139 154 159
143 158 165
153 169 176
152 168 174
151 167 173
161 177 185
146 162 165
153 169 174
135 152 151
147 163 168
154 169 177
143 159 165
148 165 170
142 157 160
144 159 162
157 173 183
152 169 175
156 172 181
141 157 162
148 165 171
80 103 73
68 93 55
70 95 57
71 96 57
77 104 64
70 95 56
72 97 59
76 102 62
68 93 56
69 94 56
72 97 59
72 98 59
66 91 53
64 88 52
66 91 53
77 103 63
65 90 52
73 98 58
64 88 52
74 98 63
149 165 170
145 160 164
141 157 162
155 170 176
145 161 167
140 156 159
148 165 169
151 168 175
151 168 172
147 164 168
140 156 160
153 170 177
148 165 173
143 159 165
148 165 171
158 175 186
160 176 184
142 158 163
153 169 177
105 124 113
68 92 54
69 94 56
72 97 58
68 93 55
69 94 55
70 95 56
80 105 69
79 104 71
92 112 91
92 114 94
95 115 95
97 118 100
94 113 96
112 131 122
115 135 125
114 134 126
116 134 124
99 119 105
134 151 152
114 134 126
124 141 135
102 122 109
118 136 130
110 128 117
104 123 110
115 134 124
113 132 120
120 139 134
109 128 114
113 131 124
111 129 118
102 121 108
105 126 109
110 128 119
100 122 105
112 132 120
110 130 116
114 133 122
117 134 124
120 139 132
132 151 149
121 140 134
115 134 129
115 132 127
114 133 126
106 127 112
106 126 116
112 129 119
108 129 117
93 115 93
89 111 87
97 117 99
79 101 75
77 102 67
133 150 149
159 175 182
144 161 168
154 170 176
160 176 187
152 167 174
151 167 174
151 166 172
154 170 179
156 173 180
148 165 170
152 169 177
159 175 181
155 171 181
165 182 192
152 169 174
156 172 183
94 115 97
73 99 59
74 100 60
70 96 57
75 102 62
78 105 63
69 94 55
69 94 56
69 94 55
68 94 55
72 98 59
73 99 61
72 98 59
73 99 61
74 100 60
73 98 58
126 144 141
158 175 183
161 176 185
163 179 189
156 173 182
124 143 139
121 140 135
95 117 96
75 101 61
72 99 59
68 94 56
68 93 55
73 99 60
75 101 61
67 91 53
124 142 136
162 179 190
144 160 163
151 167 173
155 173 184
167 183 197
161 178 189
158 176 184
159 176 186
162 179 190
157 173 181
155 173 180
160 177 185
153 170 179
135 153 153
74 100 61
75 101 61
76 101 67
96 119 97
111 131 119
143 160 163
146 165 167
167 183 194
157 174 182
162 178 189
159 175 186
156 174 183
144 162 165
82 107 74
75 102 62
73 100 59
72 99 59
74 101 61
72 99 59
73 99 60
74 101 61
82 109 67
72 99 59
76 103 62
118 139 128
156 174 183
172 189 203
162 179 190
166 184 196
169 185 194
160 178 183
127 147 145
100 123 104
80 108 69
81 110 68
117 137 129
164 180 190
166 183 194
161 178 186
158 175 183
171 188 203
161 178 189
167 183 195
161 179 190
129 148 142
84 111 76
77 105 64
75 102 62
118 137 126
166 182 191
163 180 189
164 181 192
162 179 188
159 177 190
168 185 195
162 179 189
146 163 166
114 134 124
83 110 74
76 103 62
77 104 64
75 102 62
74 101 61
69 94 57
77 103 62
109 131 119
163 179 189
155 173 182
159 176 187
154 170 177
169 186 198
161 177 189
144 160 163
106 125 113
77 102 67
74 101 62
68 93 56
72 98 59
78 105 64
73 98 59
77 104 63
74 101 61
77 104 64
97 119 99
159 176 185
157 175 184
164 181 192
163 178 189
165 183 194
151 167 174
158 174 183
163 179 192
143 160 163
109 129 116
72 98 59
70 96 58
71 97 57
73 99 59
74 100 61
76 103 61
77 104 63
74 99 59
112 132 117
162 177 185
137 154 155
131 152 146
96 117 98
81 105 77
76 103 62
75 101 62
75 101 60
74 99 60
72 98 58
76 103 62
71 96 57
71 96 58
78 103 68
103 124 112
144 161 162
143 160 165
151 167 172
154 170 178
86 108 82
72 98 59
75 101 61
71 96 57
70 96 56
69 94 55
75 101 62
72 97 58
72 98 58
77 103 63
72 97 58
75 101 62
77 103 63
74 99 60
73 99 60
70 96 57
69 94 55
75 102 62
71 97 58
77 104 62
142 159 163
145 163 169
148 164 171
160 175 184
154 169 177
162 177 186
137 153 156
135 152 153
104 124 112
85 108 81
71 96 58
71 96 58
73 99 60
70 96 57
73 98 59
72 97 58
73 98 59
79 106 64
69 94 57
71 96 57
138 155 157
150 166 174
153 169 177
148 164 170
152 168 177
152 169 176
139 156 159
141 158 159
135 152 154
145 161 165
152 167 172
153 170 179
143 160 165
154 170 179
145 160 168
151 168 175
144 160 166
146 162 169
145 162 169
155 171 180
127 144 140
68 91 54
65 89 51
72 97 58
74 99 60
66 91 54
72 98 59
73 98 59
68 93 55
70 95 56
76 101 69
103 121 109
119 138 131
117 136 129
146 162 168
139 156 160
149 165 171
138 155 157
151 167 176
149 164 170
141 156 159
86 109 81
67 91 53
73 99 59
75 102 62
68 93 55
70 95 56
69 94 56
74 101 61
69 94 55
70 95 56
67 92 54
74 100 61
70 95 57
62 86 50
70 95 58
73 99 60
69 93 56
71 96 57
68 93 55
69 94 57
116 134 127
146 163 170
142 159 165
142 158 161
144 160 163
149 165 170
144 161 167
149 165 170
143 159 163
150 166 173
150 166 173
142 158 162
139 156 159
158 173 183
146 163 168
159 175 183
143 158 162
138 154 155
155 170 176
155 171 180
119 138 133
73 99 60
65 89 53
72 97 58
73 98 59
76 102 62
69 94 56
67 91 54
71 96 58
68 93 56
67 92 54
75 101 61
72 98 59
73 98 59
73 99 59
66 89 52
67 91 53
76 102 62
70 95 57
71 96 57
117 135 128
149 165 171
159 174 184
148 164 172
159 175 186
151 168 174
153 169 177
158 176 185
147 163 169
140 156 159
137 152 155
145 162 165
134 151 151
131 148 144
121 139 134
118 136 130
111 131 122
99 118 104
98 118 102
98 118 102
125 143 140
151 168 173
148 165 170
152 168 173
155 170 179
157 172 181
147 164 169
150 166 173
144 161 166
144 161 165
148 164 169
151 166 172
151 167 174
150 167 174
147 163 170
154 170 177
149 164 170
155 169 173
132 149 149
75 101 61
71 98 58
71 96 58
73 99 59
71 96 58
66 90 52
72 97 58
76 102 62
63 87 51
68 93 55
74 100 61
71 95 56
65 90 52
65 88 51
71 97 57
71 97 58
71 95 57
71 98 59
137 154 154
151 168 174
159 175 184
155 172 179
162 177 188
157 173 181
141 158 159
150 165 171
160 177 188
156 172 180
155 172 179
164 180 190
141 158 162
152 168 174
151 167 173
158 175 183
160 176 185
148 165 169
81 105 75
83 107 74
89 111 89
82 104 78
89 113 83
116 135 125
116 134 124
108 128 114
114 134 125
129 147 144
148 165 172
140 156 156
141 159 161
136 154 153
148 165 170
143 159 163
157 174 183
78 105 66
73 100 60
68 92 55
77 104 64
74 101 61
75 102 62
70 95 57
71 97 58
71 96 57
76 102 61
71 97 58
77 104 63
71 97 58
72 99 59
70 95 57
88 110 87
145 163 166
131 148 146
100 120 104
84 108 76
72 99 60
76 103 64
69 95 56
69 94 56
75 101 61
70 96 57
72 98 60
75 101 61
76 103 63
69 94 56
76 101 64
142 160 160
159 176 186
154 171 177
161 177 184
164 182 193
157 173 182
158 175 185
151 169 175
150 168 173
163 180 191
157 173 179
158 173 182
168 185 194
160 179 191
114 134 123
74 100 60
74 101 61
73 100 60
75 102 62
76 102 62
76 103 62
81 107 72
102 124 105
120 139 133
141 159 159
151 169 177
156 173 182
142 160 160
83 109 72
76 103 63
74 99 59
80 108 67
73 99 59
79 106 65
76 104 64
69 95 56
79 107 66
79 106 64
72 99 61
107 130 114
166 182 194
160 178 188
155 173 183
165 183 195
153 170 176
160 177 186
167 185 198
167 184 196
138 156 157
118 140 130
105 126 115
164 183 193
171 188 202
157 174 182
162 180 191
148 167 171
116 137 127
84 110 75
77 105 64
77 103 62
76 103 62
74 101 62
147 165 169
166 183 194
162 179 190
166 184 194
157 174 180
167 184 195
138 155 152
106 128 112
73 100 60
76 102 62
73 99 59
78 106 65
73 100 60
78 105 64
74 100 60
79 106 64
79 107 65
119 140 131
160 176 185
167 184 196
150 168 176
156 173 182
143 161 163
97 120 97
77 104 63
74 101 62
77 104 63
77 104 64
74 101 61
72 98 58
75 101 62
76 103 62
75 102 62
73 99 60
72 98 58
105 125 111
166 182 191
162 178 188
166 182 193
162 178 189
159 176 182
152 168 171
128 149 146
87 110 84
75 101 61
77 105 64
72 97 59
76 102 62
76 102 61
75 101 61
76 102 62
72 97 58
78 104 64
74 100 61
107 127 116
152 169 175
161 177 184
155 171 179
157 174 181
156 172 180
139 156 158
139 157 157
101 123 102
87 112 80
73 99 60
80 105 69
115 134 123
135 151 150
150 167 170
162 178 190
163 179 189
146 162 167
160 177 186
162 178 187
100 121 101
75 101 61
77 105 64
70 94 57
70 96 57
68 93 55
75 101 61
75 101 61
74 101 61
76 102 62
76 103 62
67 92 54
74 101 62
66 90 53
72 98 58
69 95 56
75 101 61
75 101 61
72 97 58
74 101 62
131 148 146
136 153 155
154 170 178
140 158 158
114 134 124
96 118 97
69 95 56
72 98 59
71 96 58
77 104 63
74 101 61
72 98 58
73 98 60
73 99 60
69 95 55
74 100 60
72 98 58
72 98 59
72 96 58
73 98 58
110 129 122
143 159 162
151 168 176
155 172 177
150 165 172
153 169 177
163 179 189
148 165 171
162 178 190
149 166 172
153 170 179
140 156 161
153 169 175
141 158 163
163 179 190
161 176 185
144 160 163
148 164 172
140 158 159
151 167 173
140 156 158
72 97 61
73 98 60
68 94 55
74 99 60
72 97 60
99 119 100
113 131 122
139 157 156
147 163 169
148 165 171
135 151 151
155 171 180
148 164 174
150 166 172
154 169 175
153 170 177
158 174 185
150 167 173
144 161 167
153 169 177
122 142 136
69 94 55
70 94 56
72 98 58
66 91 54
69 94 56
69 93 56
67 91 54
75 101 62
70 95 57
72 97 59
68 93 55
72 97 59
72 97 58
68 93 54
71 96 58
70 95 57
70 94 56
72 98 59
78 104 63
85 105 83
141 158 161
143 160 163
148 163 166
145 161 165
144 160 163
156 171 181
147 162 170
142 158 163
149 165 170
148 164 168
152 168 173
144 160 164
143 160 163
159 175 186
155 172 181
149 165 171
144 159 163
152 169 177
141 158 164
150 167 175
84 107 80
70 96 57
67 92 54
71 96 57
74 101 61
72 98 59
69 93 55
71 96 58
69 94 56
69 94 56
68 93 54
69 94 56
71 96 58
72 98 59
65 89 52
72 98 58
74 98 67
79 102 78
93 116 93
108 126 115
120 138 132
120 139 131
105 124 112
103 124 107
87 108 86
94 115 95
82 105 77
72 98 59
68 93 55
72 98 59
70 95 56
65 89 53
66 91 54
74 99 59
73 100 60
63 87 51
68 93 55
71 97 58
68 93 55
134 152 151
149 165 172
158 175 184
156 171 179
138 155 161
145 162 168
152 169 176
146 162 163
150 165 171
151 166 174
151 166 172
151 167 174
145 162 166
150 167 173
150 166 171
150 167 172
149 165 171
156 172 181
157 173 182
96 116 99
75 102 61
69 94 56
72 99 59
69 95 56
68 93 55
72 98 59
67 92 54
73 99 59
70 95 57
68 93 56
73 98 59
74 100 60
70 95 57
76 102 62
72 98 58
68 93 55
70 96 56
83 107 81
160 177 188
155 170 179
140 156 163
146 161 169
145 162 165
150 166 171
144 160 164
140 157 160
157 174 183
153 170 176
149 165 172
148 165 171
148 164 170
148 164 172
150 166 173
157 172 176
153 169 179
118 137 131
69 94 56
73 98 59
67 93 56
69 94 55
75 101 62
71 97 59
71 97 58
70 97 58
67 92 55
74 99 60
75 100 60
75 102 62
76 103 63
71 96 57
78 103 69
82 108 71
118 137 130
135 153 153
124 143 139
127 146 141
134 153 150
108 128 114
96 115 98
88 112 87
82 106 78
75 101 62
72 98 59
79 104 69
103 125 108
132 149 149
140 158 160
152 169 175
145 163 167
74 100 60
73 99 59
71 98 59
73 100 60
71 97 58
74 100 60
73 99 59
72 98 59
75 101 61
77 104 64
71 97 58
72 99 60
72 98 59
75 103 63
82 105 78
145 163 166
166 182 193
158 174 183
150 167 172
162 179 190
152 170 176
166 183 194
167 184 197
170 187 201
154 171 178
162 180 191
168 184 196
156 173 183
160 178 186
105 127 110
73 100 60
72 98 59
75 102 62
81 109 67
69 95 56
75 102 62
73 99 60
76 103 63
72 98 59
72 98 60
102 123 105
123 143 136
107 129 117
89 115 81
75 102 62
73 99 59
79 107 66
81 108 67
71 97 57
80 108 66
78 105 64
76 104 63
79 107 66
79 106 64
98 123 96
170 187 200
160 178 187
169 187 199
164 182 193
165 182 191
159 176 187
165 182 194
159 177 184
164 182 194
165 183 195
159 177 185
138 157 158
150 168 169
122 143 135
74 101 61
73 99 59
82 110 68
77 105 65
81 108 66
78 105 64
78 106 64
147 164 166
161 178 184
166 184 196
160 178 187
134 154 154
92 117 88
75 103 63
72 99 59
75 103 63
75 102 61
79 107 66
76 102 63
71 97 58
78 107 66
78 106 65
77 104 64
75 101 62
123 141 136
163 179 189
156 174 182
114 134 121
83 110 73
80 108 66
74 101 61
74 100 59
76 103 64
76 103 64
76 103 63
72 97 59
78 106 65
75 101 61
73 100 60
74 101 61
76 102 63
76 103 62
106 125 113
165 183 195
162 180 188
148 166 173
126 144 144
100 122 103
75 102 61
76 103 62
71 96 57
72 98 60
72 98 59
73 99 59
75 102 62
74 101 62
74 101 61
74 101 62
76 103 63
73 99 60
78 105 64
94 117 93
164 181 192
152 169 176
169 186 199
149 165 170
166 183 195
155 172 181
162 179 186
146 163 169
132 151 151
98 121 98
111 129 119
131 150 147
134 151 151
155 172 182
160 177 187
159 175 184
147 163 168
152 168 176
165 180 191
111 129 120
74 100 60
78 104 64
72 98 60
74 101 62
70 96 58
70 94 56
74 100 60
72 97 58
74 100 61
76 103 62
70 96 58
71 96 58
69 94 56
74 101 60
71 97 58
73 99 60
72 98 58
74 101 60
83 105 79
114 133 127
110 131 115
77 101 67
75 100 61
73 100 60
68 94 56
71 96 58
69 94 56
70 95 56
68 93 56
71 96 58
75 101 62
72 98 58
73 99 60
73 98 59
66 91 55
75 101 61
72 97 58
74 100 60
70 95 56
114 134 122
154 172 179
165 180 190
149 165 170
153 168 175
144 160 164
153 169 173
146 162 164
145 161 168
147 163 167
157 173 182
147 163 172
153 169 179
162 177 187
158 175 185
153 169 179
145 161 165
160 177 185
155 171 179
157 174 187
155 171 179
107 128 113
103 124 108
123 141 138
138 156 160
158 174 182
156 172 178
154 170 180
144 159 166
156 174 184
154 170 175
157 173 182
151 168 175
160 177 186
155 171 180
147 163 169
160 175 184
144 160 165
152 168 176
144 161 167
156 172 182
128 146 144
72 98 58
69 95 57
69 95 57
74 99 60
70 97 57
71 96 58
69 93 55
70 95 57
75 101 62
71 97 58
66 89 52
71 96 57
72 97 58
68 93 54
68 93 55
72 96 58
72 98 60
64 89 51
71 96 57
68 93 54
137 155 152
149 166 174
160 176 183
147 164 171
144 160 163
141 159 164
148 166 170
143 158 161
154 170 179
159 174 182
139 156 159
143 160 165
154 170 176
149 165 171
146 162 168
142 158 162
148 165 171
140 156 161
129 145 142
134 150 151
112 131 122
68 94 55
69 93 56
75 101 60
72 97 58
68 92 54
70 95 59
74 97 65
93 114 92
107 127 116
118 137 126
118 135 129
126 143 141
130 149 148
146 163 171
141 159 161
152 169 177
148 163 166
154 170 177
154 169 177
108 129 116
73 99 59
71 96 58
69 94 55
74 101 61
72 98 59
70 95 58
69 94 55
77 104 63
72 97 58
76 103 64
67 92 54
69 94 56
72 97 57
75 102 62
67 91 53
70 96 57
72 98 58
67 92 54
83 106 82
140 157 160
154 170 179
147 165 171
147 162 167
153 170 179
149 167 176
140 157 161
152 167 173
154 171 177
146 163 168
150 167 172
146 163 167
155 172 179
152 168 177
155 171 180
145 161 165
157 172 184
145 161 165
133 150 148
80 104 72
74 100 61
67 91 55
70 96 57
68 93 55
74 100 62
71 97 58
69 94 56
70 95 56
74 101 60
72 97 58
70 95 56
71 96 57
72 98 59
75 102 62
74 100 61
73 99 60
70 95 57
125 144 138
148 164 171
152 169 177
148 164 169
156 172 179
159 177 189
151 168 172
152 170 179
152 169 177
147 164 169
156 171 179
154 171 181
157 173 181
157 174 184
154 170 178
158 174 184
146 163 171
155 171 178
92 116 88
73 99 60
69 95 56
71 97 59
77 104 63
76 103 64
78 106 64
72 98 59
76 102 62
71 96 58
76 103 62
76 103 63
72 97 59
76 102 61
72 97 58
69 94 56
75 100 64
146 162 166
154 171 176
158 175 185
157 174 184
159 175 186
149 168 174
139 156 156
127 146 143
104 125 109
89 111 89
94 117 94
101 123 103
121 139 134
119 137 132
131 149 147
152 167 174
122 141 130
71 97 61
78 105 64
72 99 59
75 102 62
74 100 60
78 104 64
81 108 66
77 104 63
72 98 59
73 99 61
77 104 63
76 103 63
78 105 63
77 103 62
111 132 116
162 180 191
164 180 190
156 173 181
160 177 186
160 177 187
157 174 180
146 164 171
169 187 201
158 174 183
163 180 189
160 177 186
160 176 185
161 178 188
170 187 199
99 122 99
74 101 61
80 107 65
75 102 62
78 106 63
76 103 62
75 102 62
72 98 59
76 103 63
78 105 64
78 106 65
73 100 61
74 101 62
134 153 151
147 166 172
134 152 153
113 132 124
95 120 89
76 103 62
73 98 59
76 103 63
79 106 65
75 102 61
78 106 64
77 105 64
113 134 123
164 182 193
168 185 196
168 184 194
163 181 188
170 187 202
174 191 205
169 187 198
168 186 197
163 182 193
161 179 191
150 169 176
78 106 64
77 104 63
76 103 63
80 108 66
80 108 66
73 99 60
81 110 68
75 102 61
74 102 62
157 175 183
151 170 178
133 154 149
93 116 94
78 106 65
81 109 67
77 105 64
75 101 61
73 100 60
76 103 62
73 99 59
77 104 63
80 107 65
77 104 64
74 100 61
71 97 58
78 105 64
114 132 123
110 130 117
78 105 64
75 102 61
78 105 63
72 98 60
80 107 65
71 97 58
76 102 62
72 98 59
77 104 64
75 103 62
70 95 58
83 110 68
71 97 58
77 103 63
79 106 65
75 102 63
102 123 102
140 158 157
115 135 123
74 101 61
76 104 64
79 106 65
75 102 61
78 105 64
74 101 61
74 99 60
72 98 59
72 98 59
76 103 62
73 99 60
76 102 62
75 102 62
71 97 57
69 94 56
74 100 61
99 120 100
167 184 198
152 169 177
163 179 189
154 170 177
156 173 180
137 155 160
101 123 106
73 99 63
76 103 63
71 97 57
75 101 61
78 106 65
72 98 59
79 103 71
95 118 93
100 121 106
118 137 129
142 161 162
151 167 172
120 138 132
78 105 64
70 96 58
76 103 63
75 101 61
72 98 58
71 96 58
70 95 56
75 101 61
76 102 62
72 97 59
77 104 63
70 95 57
76 102 62
72 98 59
70 96 57
98 120 101
121 140 137
134 152 151
150 167 174
126 144 137
70 95 58
74 100 61
74 100 60
70 96 57
75 100 60
74 100 60
74 100 61
74 100 61
73 98 59
71 97 58
75 101 61
76 102 62
67 91 53
73 98 60
72 98 59
74 100 60
69 95 57
76 103 62
70 95 57
79 104 69
147 163 169
151 168 173
149 164 167
151 165 169
147 163 170
144 160 169
150 167 173
161 177 189
146 163 168
158 174 184
151 167 175
149 165 170
165 181 191
146 162 168
156 174 182
137 155 157
130 148 147
108 127 116
99 120 102
79 104 68
121 139 132
155 170 177
152 167 173
151 167 174
146 162 166
156 173 183
151 168 177
148 164 169
155 171 179
156 173 185
144 160 162
158 175 183
146 163 169
160 175 183
155 172 179
153 169 179
166 182 193
153 170 178
146 162 167
150 167 173
147 163 172
75 100 63
70 95 56
67 91 54
76 102 61
71 96 57
72 97 58
66 91 53
66 91 55
71 97 58
70 95 57
71 96 56
69 94 55
70 95 57
73 98 59
71 97 58
68 92 55
70 95 56
76 102 63
71 96 58
78 105 64
114 133 123
150 167 175
164 180 190
152 168 176
160 176 185
158 174 183
154 170 177
145 163 168
147 162 168
142 157 161
156 172 182
143 160 165
148 163 169
146 163 171
147 163 172
141 157 162
150 165 172
164 180 188
147 164 169
139 155 157
124 143 140
103 124 108
111 129 121
125 145 141
135 152 152
138 155 159
153 170 179
156 173 180
147 164 169
148 163 172
150 167 176
152 168 177
151 167 173
147 164 170
153 168 177
158 173 182
159 175 182
146 163 166
159 176 187
158 174 184
143 160 162
73 99 59
72 97 58
72 97 59
76 102 62
73 98 60
71 96 57
69 94 56
71 97 57
71 96 57
74 99 59
70 94 56
69 94 56
70 96 57
70 96 58
72 98 59
70 95 56
70 95 57
70 95 57
72 97 58
118 136 132
157 174 181
151 169 177
149 166 171
155 171 178
151 168 178
155 171 180
145 161 168
156 173 182
150 167 174
156 171 179
158 174 183
139 155 159
152 168 175
149 166 173
153 170 177
160 177 187
154 171 178
152 168 175
123 141 136
74 100 60
67 92 54
74 100 61
69 94 56
72 98 59
70 96 58
71 97 58
75 101 61
75 101 61
71 96 58
73 99 60
76 102 62
76 103 63
68 93 57
74 100 60
71 97 59
71 96 57
79 102 76
149 165 170
153 170 176
159 175 187
157 174 183
156 172 180
142 159 161
148 165 169
146 162 166
155 173 183
162 178 189
143 160 164
157 172 179
151 168 175
159 176 184
159 175 184
143 161 164
151 167 175
142 159 160
72 99 60
74 100 60
64 89 51
68 93 55
71 97 59
75 101 62
74 101 61
70 95 57
72 98 59
71 97 57
77 103 62
69 94 56
81 108 66
69 95 56
71 96 57
72 98 59
81 104 76
140 157 157
136 154 155
113 131 121
99 120 103
72 98 58
78 106 65
71 97 58
78 105 65
74 99 60
76 103 63
76 103 62
70 95 56
76 103 62
69 95 57
80 108 66
72 98 59
141 158 161
153 170 177
138 156 159
126 144 141
129 149 146
109 129 116
98 120 98
77 102 64
71 97 58
75 102 62
73 98 60
80 107 66
73 100 60
77 104 63
77 103 62
117 136 128
154 171 179
153 171 180
157 174 181
160 177 186
166 183 195
155 172 180
160 177 187
152 170 178
165 182 194
160 177 187
154 173 180
164 181 192
164 182 194
152 170 174
81 106 72
77 105 65
73 98 59
78 106 64
72 99 59
80 107 65
73 100 61
73 99 59
79 107 65
76 103 63
75 102 63
80 108 67
76 103 63
126 145 142
167 184 197
165 181 189
159 177 186
156 174 183
137 157 159
100 122 105
81 106 72
75 102 62
80 108 67
74 101 62
73 100 60
126 147 141
161 179 187
166 184 198
163 179 189
168 186 201
164 183 193
169 187 200
164 181 192
160 179 190
168 184 193
159 178 190
76 103 63
76 103 62
79 106 65
76 104 63
76 104 63
76 103 63
78 107 65
80 109 67
99 124 99
124 144 136
82 108 73
77 104 64
80 107 66
74 102 62
78 105 64
77 104 63
77 104 64
76 103 62
77 105 65
77 105 64
75 101 61
74 102 62
74 101 61
94 119 95
127 145 139
160 177 184
118 138 132
73 100 60
74 99 60
77 105 64
76 103 63
75 102 62
77 103 62
76 103 62
82 110 67
75 102 61
72 98 58
80 108 66
73 99 58
67 93 54
74 101 61
75 102 62
88 114 84
130 150 147
125 143 139
75 102 62
73 100 60
73 100 60
74 100 61
76 102 62
75 103 63
72 97 58
76 103 63
79 106 65
73 99 61
74 101 61
78 104 64
72 98 59
76 102 62
77 104 63
74 100 60
72 97 59
78 104 64
90 114 88
161 177 187
140 156 160
134 153 156
101 123 97
78 103 68
71 96 58
68 93 57
76 103 62
73 99 60
77 103 62
75 102 62
77 104 63
69 95 56
75 101 61
71 96 57
73 98 60
69 95 56
79 106 65
72 98 61
103 125 109
137 154 155
123 141 133
105 126 113
78 103 68
70 96 57
76 103 62
70 95 56
75 101 62
72 99 60
76 103 63
75 101 60
83 107 74
99 120 101
118 137 132
143 158 163
160 176 185
154 170 176
148 164 167
157 172 181
142 159 162
71 97 58
69 94 56
77 104 63
72 97 60
77 105 64
71 96 57
71 96 57
72 97 58
76 103 62
74 100 60
75 101 61
68 93 55
67 92 54
70 96 58
73 99 60
75 102 62
68 93 55
69 95 56
71 97 59
74 100 61
140 158 161
152 169 175
148 165 169
151 168 174
155 172 180
148 164 169
149 165 172
149 165 169
152 167 174
153 169 179
156 173 183
150 165 170
143 162 164
110 128 118
107 128 114
75 101 64
72 97 58
74 101 61
73 99 60
71 97 58
97 119 99
154 170 181
145 161 167
156 172 180
152 169 174
142 158 163
143 159 164
138 156 159
162 177 188
151 168 174
155 171 178
162 178 185
165 182 192
143 160 165
152 168 177
151 167 172
149 165 173
146 161 166
150 167 178
153 169 177
147 163 170
115 135 124
67 91 55
76 103 62
70 95 57
69 94 57
73 99 60
71 97 59
69 93 55
73 99 60
75 101 61
73 100 60
68 93 56
67 92 54
67 91 54
68 93 54
71 97 58
72 98 59
77 104 64
70 95 57
71 97 58
79 104 71
148 164 171
160 176 185
160 177 186
153 170 176
147 164 170
135 152 154
146 163 167
151 169 174
160 176 185
151 167 175
148 163 167
134 151 149
128 146 140
116 136 130
104 122 112
96 117 98
86 109 82
76 101 65
68 91 54
65 90 53
143 161 164
154 171 180
143 160 166
153 170 177
150 166 172
157 173 180
140 157 159
140 156 160
153 168 177
157 173 182
143 160 163
153 170 177
162 177 186
157 174 181
146 162 168
156 173 178
145 161 166
156 171 181
158 174 185
157 173 183
96 117 98
71 96 57
71 96 57
74 99 60
72 98 59
72 97 59
69 95 57
68 94 56
68 93 54
70 95 57
74 99 59
70 96 57
66 91 54
76 102 62
71 96 57
77 103 63
67 92 55
72 98 58
74 100 60
75 99 65
151 168 172
148 166 171
144 161 165
148 164 169
157 173 184
148 164 172
161 177 186
141 156 161
143 159 164
150 167 172
155 172 179
142 159 165
152 168 174
156 173 180
158 175 184
149 165 172
156 173 181
157 173 183
143 158 160
84 106 81
71 98 59
70 94 56
75 101 61
70 96 57
74 100 61
76 102 62
73 100 60
74 100 60
69 95 57
73 100 60
68 93 55
75 102 62
75 102 62
69 95 56
73 98 59
70 95 56
73 99 60
112 132 123
146 163 170
153 170 175
163 180 190
156 174 184
158 174 182
155 172 180
149 166 173
158 175 185
155 170 178
149 166 173
156 173 179
146 161 167
160 177 188
147 164 171
151 166 170
160 177 186
151 168 175
121 139 130
77 104 63
74 100 61
75 101 61
71 97 57
72 98 59
72 98 59
76 103 62
75 101 61
67 91 53
71 96 58
86 110 82
113 134 121
124 143 135
126 144 136
137 155 156
149 168 174
123 143 137
75 102 61
75 101 61
74 101 60
75 102 61
75 102 62
78 104 63
75 101 62
73 98 58
78 105 64
68 94 55
76 103 62
75 102 62
74 101 61
72 98 58
69 94 55
90 112 86
158 175 182
153 171 178
151 169 177
151 168 175
158 176 186
167 184 197
157 175 187
155 172 180
136 153 154
137 156 156
134 153 148
113 133 120
94 116 93
79 105 70
70 96 57
141 158 159
159 176 186
164 183 193
168 185 196
164 180 190
159 177 187
154 171 178
151 169 175
161 178 189
164 181 193
163 179 189
163 180 190
150 169 176
156 173 179
144 162 161
79 105 70
75 101 62
74 101 62
80 108 66
77 104 63
74 101 61
70 97 58
74 101 62
82 109 67
76 103 62
75 102 62
71 98 58
76 104 63
141 159 162
165 182 193
161 178 190
165 181 192
165 183 196
161 178 187
165 181 193
148 166 173
130 150 146
102 125 104
85 109 79
76 103 62
120 141 134
172 189 202
156 173 182
168 185 197
162 180 192
161 178 187
164 181 191
167 184 194
174 191 205
173 189 202
74 102 63
77 106 64
81 109 67
80 107 65
76 104 63
80 107 65
105 127 108
147 167 170
148 168 174
77 105 64
76 103 63
80 107 65
79 106 65
74 101 61
80 108 66
76 104 64
79 106 65
78 106 65
78 107 66
77 104 64
74 101 62
107 129 110
145 162 166
152 171 181
161 179 190
159 176 184
111 132 118
76 103 63
79 106 65
76 103 62
76 103 64
75 102 62
77 104 64
77 104 63
75 101 61
78 105 65
80 108 66
74 100 60
76 103 63
75 102 63
112 133 120
148 165 168
161 178 189
159 176 185
144 161 162
77 104 63
76 102 62
76 104 63
72 98 59
76 104 64
79 106 65
78 106 65
76 102 62
76 104 64
72 99 59
71 97 58
80 107 66
75 102 62
77 104 64
73 100 60
74 100 60
75 102 62
74 100 64
111 131 118
115 135 124
79 104 69
76 103 63
74 99 60
78 105 64
75 101 61
76 103 63
72 98 59
72 97 58
77 104 64
79 106 65
73 99 59
71 96 57
74 100 60
74 99 60
72 99 59
72 98 58
75 101 61
75 102 62
106 128 111
161 177 188
158 174 184
156 172 180
155 173 183
147 165 172
145 161 166
129 148 145
103 123 110
99 121 99
106 127 113
137 155 156
161 177 187
151 168 178
148 166 171
154 170 180
149 164 168
152 170 178
144 161 166
155 172 183
155 171 178
71 96 58
75 101 62
69 95 57
77 103 63
71 98 59
71 96 57
73 99 58
73 99 60
72 98 59
74 99 58
70 96 56
72 97 58
73 99 59
74 99 60
73 100 60
72 98 58
73 99 59
75 102 62
73 99 60
75 101 61
126 145 144
153 170 178
150 167 174
165 181 190
142 158 164
149 165 172
159 176 188
143 161 165
130 147 145
117 136 124
89 111 90
78 106 65
77 103 62
69 94 56
72 98 59
77 103 63
74 100 60
71 96 57
69 94 57
71 97 58
74 100 62
154 172 179
151 167 173
153 170 178
145 161 165
146 163 169
154 170 178
152 168 175
160 177 185
162 178 188
145 161 166
153 169 176
157 175 185
138 154 155
155 171 180
151 167 173
156 171 176
153 170 179
150 167 170
144 162 165
154 170 177
139 156 158
73 99 60
70 95 56
74 100 60
67 92 55
70 96 57
74 100 60
71 96 58
74 101 61
68 92 56
69 94 56
70 96 58
72 98 59
67 92 55
73 100 60
70 96 57
72 98 59
71 97 58
74 100 59
71 97 58
74 101 61
118 136 131
166 182 193
157 173 181
155 172 180
143 158 163
134 151 152
123 141 140
101 121 107
101 122 101
82 106 77
67 92 54
70 95 56
70 96 57
71 97 58
69 93 55
63 87 50
69 94 56
69 94 55
70 95 57
73 99 59
114 133 123
148 164 171
152 169 177
154 170 176
148 164 171
144 161 165
146 161 167
145 161 166
148 165 170
157 173 183
148 163 169
150 168 173
149 165 171
155 171 178
152 167 174
155 171 177
153 170 177
156 174 182
144 161 165
154 170 175
130 147 148
70 95 57
72 98 59
76 102 62
74 100 61
74 99 60
65 90 53
69 95 56
77 104 63
72 98 59
72 98 58
68 93 56
71 96 58
72 97 58
72 97 58
70 95 57
71 96 57
73 99 60
73 99 60
67 93 55
114 132 128
158 175 184
158 173 181
154 171 178
154 170 176
141 157 159
156 173 183
158 175 184
154 171 179
144 162 168
150 166 174
154 170 179
152 168 173
148 164 168
155 171 181
145 161 168
145 162 167
160 178 188
155 172 178
132 151 148
69 94 56
74 101 61
70 95 58
75 101 61
71 96 58
69 93 55
75 102 61
70 95 57
69 95 56
72 97 58
67 93 55
75 102 62
67 92 54
74 100 61
64 88 51
77 104 63
73 99 59
77 103 63
141 158 160
154 170 178
146 163 169
155 172 181
148 165 172
152 169 177
151 169 174
151 167 173
150 165 169
152 168 172
155 172 182
154 171 179
163 179 190
154 172 182
154 171 177
159 175 185
151 168 175
155 170 174
92 114 92
71 97 58
72 98 59
71 97 58
84 107 80
98 120 101
111 130 122
116 137 126
144 162 165
149 166 170
154 171 179
159 175 182
161 178 187
151 168 176
152 169 176
164 181 192
162 179 190
113 132 118
73 99 60
73 99 59
77 104 64
70 96 58
77 104 63
74 100 61
73 100 60
78 104 64
73 99 59
76 103 63
73 99 60
75 101 61
73 99 59
69 95 56
76 102 62
117 137 129
158 175 184
160 177 187
162 179 189
151 167 174
155 172 182
144 160 166
157 174 182
163 180 188
151 168 174
144 160 163
152 169 176
154 172 179
164 182 194
160 176 184
134 152 146
126 145 141
137 156 152
142 161 162
152 170 178
163 179 188
158 175 183
153 170 178
160 177 182
165 181 192
157 172 180
159 176 185
167 184 196
168 184 195
161 177 184
126 147 143
77 104 63
74 102 62
80 107 66
76 103 64
77 105 65
83 111 69
76 103 62
71 98 59
77 105 64
75 102 63
77 105 64
76 104 63
88 112 89
151 170 177
159 176 183
163 180 191
168 185 198
162 178 185
158 176 186
157 173 181
159 177 185
163 180 191
159 177 187
142 159 161
135 155 153
139 158 161
156 173 181
150 168 175
163 181 192
164 180 189
163 180 189
170 186 198
165 183 196
171 188 204
78 105 64
78 105 64
77 105 64
78 106 65
118 138 128
158 175 183
165 181 191
164 181 192
144 162 165
76 104 63
74 101 62
76 104 63
76 104 64
80 107 66
77 104 64
77 104 64
76 103 62
80 108 66
81 107 73
126 146 141
147 166 172
159 177 187
159 177 186
164 178 189
158 176 186
159 176 184
111 133 118
76 103 62
79 107 65
75 102 62
77 104 63
75 102 62
80 107 66
75 102 62
74 101 61
81 109 67
83 111 69
94 117 92
138 157 158
157 173 182
160 179 190
158 174 181
168 184 196
164 180 188
140 158 161
69 94 56
72 97 58
78 106 65
77 104 64
76 103 63
80 107 65
76 102 62
76 102 62
75 101 61
78 105 64
76 102 62
75 102 62
78 106 65
75 101 61
76 103 62
96 120 94
139 157 158
160 177 189
154 172 180
76 103 63
77 104 64
74 101 62
71 97 57
70 95 57
73 99 59
75 102 62
73 99 60
76 103 62
76 103 63
74 100 59
80 107 65
80 108 66
73 99 61
73 99 59
71 97 57
77 104 64
75 102 63
77 104 64
102 124 107
157 174 182
163 180 191
155 172 180
159 175 183
165 181 191
144 161 167
126 145 136
102 124 108
72 97 57
72 98 60
78 104 69
104 125 108
123 143 136
137 154 154
141 159 161
150 168 174
158 174 183
148 165 170
150 167 173
165 182 193
84 108 73
74 100 60
75 101 61
72 98 59
76 102 62
75 102 62
73 100 60
75 101 62
72 97 58
73 99 60
73 99 59
71 97 59
71 96 57
73 100 60
73 98 59
75 101 61
76 103 63
72 98 59
71 97 58
73 100 60
120 139 132
147 164 170
161 178 189
139 157 158
123 140 134
107 128 111
92 114 89
75 101 62
68 92 55
77 104 65
72 97 59
72 97 58
74 101 61
73 99 60
72 98 59
73 99 60
70 95 57
77 103 62
70 96 58
71 97 58
70 95 57
138 157 157
148 164 170
150 167 175
142 159 163
154 172 181
151 167 174
149 166 171
153 171 178
151 168 175
159 176 183
159 176 185
156 173 181
149 166 175
159 175 184
160 177 186
150 168 174
151 167 172
151 167 173
154 170 177
160 177 186
151 166 172
79 104 68
73 99 60
73 98 59
72 98 59
70 95 57
75 102 61
74 101 63
70 96 58
69 95 57
76 102 62
75 102 61
73 98 58
70 96 57
78 105 63
73 100 59
74 100 60
72 98 59
76 102 65
89 112 87
106 125 117
124 143 136
99 120 102
89 110 88
72 98 59
76 103 63
73 99 59
70 96 57
70 95 56
69 95 56
72 97 58
68 93 55
77 104 64
74 100 61
70 95 56
71 96 58
73 99 60
68 93 55
70 96 58
73 99 59
75 101 61
75 100 63
154 170 175
154 170 179
150 166 172
155 172 180
149 166 172
152 168 173
157 172 181
152 167 175
147 164 169
157 174 179
150 165 173
141 157 161
149 166 174
161 177 186
171 186 199
143 161 166
149 165 170
158 175 185
148 165 171
152 169 177
81 105 74
74 99 60
70 95 56
73 99 60
73 98 59
71 96 58
70 96 58
75 101 61
72 98 59
72 98 59
72 97 59
73 98 59
73 98 59
69 94 56
76 103 63
72 97 59
75 102 62
74 99 60
73 99 59
77 102 67
151 168 174
149 165 170
157 174 180
153 170 177
161 178 190
143 159 161
149 166 171
156 173 182
158 174 185
160 177 187
160 175 183
149 165 168
144 161 167
156 173 181
149 164 169
151 168 175
159 175 184
152 169 177
163 179 189
89 111 87
74 100 60
70 96 57
75 101 61
75 101 60
77 103 62
71 96 57
74 100 60
69 94 56
72 98 59
72 98 58
68 93 55
74 100 61
72 98 59
72 98 60
72 97 58
71 97 58
69 95 57
104 125 111
155 172 182
151 167 173
163 179 188
152 168 175
158 174 183
162 179 188
157 174 183
151 167 177
157 174 184
153 170 178
161 177 187
160 176 185
155 171 176
151 169 179
159 175 185
136 153 157
140 157 157
114 135 125
128 147 145
141 157 159
157 173 180
157 174 184
153 169 176
153 169 177
159 175 183
157 174 181
155 171 178
164 181 191
159 176 186
166 183 193
154 172 177
146 162 167
154 170 178
146 163 169
147 164 172
90 114 86
80 107 66
76 103 62
73 100 60
71 96 57
73 100 61
73 99 60
74 99 60
72 97 58
70 95 57
71 97 57
78 105 64
72 98 59
78 105 64
75 102 62
75 101 61
135 154 153
156 174 183
159 176 184
163 181 191
153 169 177
144 162 167
156 173 181
155 172 177
155 171 178
158 175 184
158 175 184
165 182 193
165 180 193
164 180 189
153 170 174
153 172 180
81 107 73
76 103 63
72 99 60
86 108 83
100 122 100
112 132 118
137 156 153
146 163 164
150 168 174
175 192 204
149 167 173
152 169 176
154 171 181
155 171 177
112 132 117
73 100 61
77 104 64
75 102 62
74 100 60
73 100 60
74 101 61
75 102 62
77 103 62
78 105 64
74 101 62
74 100 62
76 102 62
98 121 98
155 173 181
170 187 202
155 173 178
158 176 186
167 184 197
169 186 198
174 190 203
154 172 181
166 184 196
168 185 197
162 179 191
173 191 205
133 153 147
125 146 138
135 154 153
154 172 181
158 175 184
173 189 205
160 178 187
167 185 198
77 104 64
79 107 65
122 143 136
158 175 183
166 184 193
180 197 214
171 188 203
165 181 194
128 147 140
81 109 67
80 108 66
74 101 60
82 110 68
76 103 62
76 103 63
72 98 59
93 116 90
130 148 143
161 178 184
169 187 199
161 178 190
164 183 198
169 186 198
169 186 200
160 177 189
159 175 183
86 110 85
74 100 61
78 105 64
72 98 60
76 103 63
78 106 64
76 103 63
76 103 63
78 104 69
120 140 131
136 154 154
163 180 191
165 182 194
166 182 191
155 172 180
163 180 193
166 182 191
160 176 184
141 159 159
75 102 62
75 102 61
80 107 65
73 100 60
78 105 64
74 100 61
81 109 68
76 103 62
74 100 60
79 105 65
77 104 63
78 105 65
83 109 73
133 153 151
148 166 168
153 168 174
166 183 195
157 175 183
166 182 194
77 104 66
78 105 65
77 103 62
77 104 63
75 101 60
79 106 65
76 103 63
77 105 64
76 104 63
73 99 60
75 102 62
73 100 60
75 101 61
75 101 61
72 98 59
71 96 58
77 104 63
74 102 63
76 103 62
76 103 66
153 169 174
157 174 183
147 164 170
116 135 125
85 109 82
76 103 63
75 101 61
76 103 63
71 97 57
72 97 58
78 105 65
72 99 59
73 98 60
72 97 59
76 102 62
74 100 60
72 98 59
89 112 84
86 109 82
114 134 124
110 128 114
94 114 95
97 118 99
90 114 89
69 95 57
69 94 56
73 100 60
77 104 63
71 96 58
71 97 58
69 94 57
76 102 61
68 93 55
70 95 56
74 100 60
74 100 61
69 95 57
79 106 65
73 99 60
79 103 70
123 141 135
107 128 114
94 116 95
70 96 57
72 99 59
75 102 62
69 94 56
76 102 61
67 91 55
72 98 58
70 95 57
75 101 61
73 99 60
73 99 60
75 101 62
70 96 57
77 104 63
70 95 57
75 101 61
75 101 61
77 103 62
116 136 125
152 169 180
154 171 178
149 167 176
143 160 162
156 173 182
161 177 189
166 181 190
153 169 175
158 175 183
143 157 164
154 170 178
158 175 185
149 166 171
156 172 180
158 174 181
155 170 176
149 165 171
146 163 169
151 167 177
155 172 179
112 132 119
72 97 59
73 99 59
71 97 58
74 100 61
71 97 58
72 98 58
71 96 58
70 96 57
74 100 60
78 105 63
73 98 61
94 114 96
111 131 120
127 144 143
145 162 167
150 167 174
151 168 175
146 161 167
152 168 175
153 170 177
71 97 59
76 103 63
73 99 60
75 102 62
74 100 59
74 100 61
71 96 57
76 102 61
72 98 59
73 100 61
69 94 56
74 100 61
74 100 60
75 101 61
69 95 55
69 93 54
69 94 56
71 97 59
75 101 61
71 97 58
115 134 127
157 172 180
155 171 180
160 177 185
150 167 175
151 168 175
148 165 170
155 171 178
153 170 176
149 166 172
151 167 172
152 167 174
158 175 183
156 172 179
153 170 178
158 174 183
156 173 181
157 172 181
142 159 163
151 167 172
133 150 150
73 99 59
72 98 59
69 95 56
73 99 59
70 96 58
75 101 61
67 92 55
74 100 60
74 100 60
75 101 61
72 98 58
74 100 61
71 96 56
72 98 58
74 100 61
71 96 57
75 102 61
72 97 59
74 101 61
124 142 139
144 160 161
150 166 172
157 174 184
154 170 179
157 173 182
150 166 173
150 168 174
155 171 179
160 177 186
146 164 169
153 170 179
146 162 170
151 167 174
158 174 185
153 169 176
160 177 188
157 173 180
151 167 174
126 144 139
69 94 55
74 99 60
70 96 57
72 98 59
70 96 57
76 102 62
73 98 59
72 98 59
75 101 60
76 103 62
75 101 61
74 100 61
74 100 61
72 97 60
71 96 57
70 96 57
70 95 56
74 101 61
141 158 160
153 170 177
159 176 184
155 172 179
147 163 164
154 172 178
151 167 177
145 160 163
149 167 174
144 162 166
127 147 142
118 136 130
103 124 108
94 117 94
72 98 59
72 98 58
75 101 61
72 98 58
144 161 167
165 182 191
160 176 185
158 173 183
159 177 183
163 180 189
154 171 176
149 166 171
161 178 187
162 180 189
151 168 173
151 167 174
153 169 176
148 163 168
144 161 165
158 175 184
154 172 181
138 155 156
76 103 63
67 93 54
73 99 60
77 104 63
76 102 62
75 101 61
75 101 62
74 100 60
77 104 63
75 102 62
76 103 63
74 101 61
75 102 62
76 104 63
73 99 60
78 104 71
151 167 175
156 172 180
169 185 199
154 171 178
152 168 173
156 174 182
152 169 178
167 184 197
160 176 185
157 173 185
155 171 178
168 185 194
165 182 192
157 174 182
149 165 169
127 145 141
76 104 63
69 95 58
75 102 62
78 106 65
68 94 55
74 100 60
71 97 57
76 103 63
93 117 91
122 142 137
130 150 146
153 169 175
154 171 178
165 183 193
104 127 110
73 99 60
78 105 65
78 104 63
76 104 63
77 104 64
72 98 59
74 101 61
74 102 62
77 104 64
74 101 61
75 102 62
75 102 62
96 119 98
160 177 186
164 180 190
168 186 200
163 180 192
163 181 193
167 184 195
167 184 197
166 184 195
161 179 190
170 186 198
166 184 196
167 184 196
109 133 115
79 107 66
81 109 66
111 133 119
139 159 159
151 169 175
161 179 188
120 141 130
161 178 186
161 178 185
173 191 203
165 182 195
174 190 203
167 183 195
161 179 187
116 138 124
85 114 71
79 107 66
80 109 67
76 103 63
80 108 66
99 121 102
137 157 156
152 170 175
162 179 189
160 177 189
156 174 182
157 174 182
159 176 186
165 183 194
154 171 176
163 181 192
156 173 181
78 104 69
70 95 56
78 105 63
81 109 67
77 104 63
84 113 69
98 121 99
132 151 149
153 171 179
166 183 195
168 184 193
165 182 193
161 179 189
170 186 197
168 184 197
160 176 186
160 178 189
162 179 189
133 151 149
79 106 65
78 105 63
82 110 67
77 104 63
73 99 59
76 103 64
77 103 62
73 100 60
77 103 63
85 110 80
114 134 122
145 163 166
160 176 186
162 179 192
164 181 194
167 184 196
156 173 182
154 172 179
158 174 181
99 122 100
76 103 63
75 102 62
69 94 55
75 103 63
78 104 64
76 102 62
75 101 61
76 103 62
81 109 68
76 103 63
77 103 62
74 101 60
72 98 58
73 99 60
74 100 60
76 103 62
71 96 58
77 102 67
112 134 119
117 136 127
87 110 82
76 102 62
76 103 62
80 108 66
77 104 63
77 103 62
75 101 62
72 98 59
77 104 62
73 99 60
70 96 57
74 100 61
76 103 63
73 99 59
80 107 65
81 108 67
69 95 57
74 101 60
76 102 62
130 147 143
157 174 183
154 170 177
166 182 194
159 175 185
157 173 181
139 156 160
131 148 145
125 145 134
106 128 113
85 107 83
82 105 77
81 106 73
81 109 66
63 87 51
83 108 74
96 119 100
131 151 148
143 160 163
153 169 177
154 170 178
82 108 73
74 100 60
68 94 56
79 106 65
78 104 63
69 95 57
71 97 57
73 99 60
77 103 62
73 99 60
71 97 58
75 101 60
73 99 60
75 101 61
75 102 62
79 106 65
74 101 62
70 96 57
72 98 59
76 103 64
93 114 92
156 173 183
166 180 190
161 177 184
147 162 169
163 179 190
159 175 185
149 166 171
152 168 175
158 174 182
147 165 170
163 178 187
150 167 175
164 180 191
146 162 166
152 169 180
149 165 170
153 170 181
154 171 180
159 176 186
153 168 177
129 147 144
76 102 63
75 101 60
70 95 56
68 92 55
70 96 57
89 110 87
115 135 128
114 134 125
129 146 146
143 161 164
159 176 185
160 176 184
155 170 178
150 167 176
160 176 187
147 163 170
149 166 173
156 172 181
154 170 179
165 180 192
99 120 106
66 91 53
69 94 55
71 96 59
69 94 56
73 99 59
74 101 60
71 96 57
66 90 54
75 101 61
69 94 56
72 98 59
75 102 61
68 94 55
72 98 59
73 100 60
67 92 55
70 96 57
70 96 56
71 97 58
83 106 81
149 166 171
149 165 174
140 157 160
157 172 180
152 168 176
160 178 186
151 168 175
158 174 183
157 174 182
150 167 175
155 171 176
157 174 181
160 176 186
159 176 185
157 173 182
155 171 177
154 171 179
163 179 191
160 176 186
156 170 179
86 107 83
73 100 60
74 100 60
73 98 59
70 95 56
70 96 57
71 96 57
73 99 60
71 98 59
69 94 56
70 95 56
70 96 57
76 102 62
69 95 56
74 100 60
69 94 56
70 95 56
74 101 61
73 99 59
80 104 71
143 160 166
154 169 175
148 164 167
159 175 184
151 167 170
164 180 188
146 163 169
150 167 172
153 169 176
154 171 179
150 167 174
154 171 179
161 177 187
165 182 194
159 175 183
155 171 178
158 176 185
148 163 169
159 176 182
81 104 76
74 99 58
70 95 56
72 99 60
74 100 59
77 103 63
71 97 59
71 96 56
69 95 56
73 99 60
75 102 62
74 100 61
72 98 59
75 100 61
71 97 58
69 94 56
71 96 57
83 107 77
119 140 129
128 147 146
129 148 145
111 132 120
100 121 102
104 126 109
75 101 61
75 101 61
73 99 59
75 101 61
71 96 57
77 104 64
76 103 63
71 97 58
69 95 56
72 98 59
75 102 62
74 100 60
83 108 79
151 169 174
158 174 181
162 177 186
157 172 178
166 183 195
160 176 185
147 163 169
155 171 178
150 167 175
150 166 170
150 168 172
159 174 183
159 176 185
157 174 183
158 176 187
156 173 181
160 176 184
107 129 114
76 103 63
79 106 65
73 98 58
76 102 61
78 106 66
70 96 58
74 100 61
76 102 62
79 107 65
75 101 61
72 98 59
76 103 63
75 101 62
65 90 52
74 100 60
113 134 123
151 169 175
154 170 176
157 174 184
155 173 181
165 182 192
171 188 201
173 190 205
154 170 178
163 179 190
167 184 196
159 177 185
166 182 192
167 184 196
159 177 187
161 178 187
111 132 118
79 107 66
73 100 60
76 103 63
75 101 61
79 107 66
77 104 63
76 103 63
80 107 66
76 104 63
77 105 64
74 101 61
74 101 62
87 112 79
99 122 99
123 143 135
110 131 114
86 111 81
76 104 63
79 107 66
78 105 64
81 108 67
77 104 64
74 100 61
76 103 63
77 105 64
83 112 70
76 104 63
121 143 135
153 171 179
163 179 190
160 176 185
164 181 189
162 180 191
173 189 203
162 179 189
173 190 203
165 182 193
155 174 185
164 181 191
172 188 199
105 129 108
81 109 67
78 105 64
79 107 66
79 107 67
89 114 85
160 178 188
168 185 196
171 188 204
154 171 181
168 185 197
167 185 196
166 183 192
165 182 192
103 125 105
78 105 64
80 107 66
82 110 71
108 130 112
141 160 159
157 176 186
159 176 187
175 192 209
157 174 181
166 183 196
156 174 184
162 178 187
163 180 191
167 184 194
173 189 203
165 182 196
162 179 191
80 105 73
76 103 63
77 104 63
80 107 69
121 142 130
152 172 178
163 178 187
161 176 184
155 172 181
161 177 187
172 189 202
170 186 199
161 177 186
160 176 185
161 177 187
162 178 187
169 186 198
169 185 197
141 159 159
76 103 63
77 104 65
75 102 62
76 103 63
78 105 64
76 104 64
80 106 68
101 122 104
130 150 148
159 176 185
161 178 185
157 174 182
167 183 195
153 169 177
167 184 196
173 188 201
162 178 187
157 174 183
163 180 191
91 114 89
76 103 62
73 99 59
75 101 61
76 103 62
78 105 65
77 104 64
74 100 60
75 102 61
72 98 59
73 99 60
73 100 60
73 99 60
75 101 61
74 100 60
84 108 78
113 133 120
131 151 147
160 176 185
162 177 186
95 119 95
74 101 60
74 101 61
75 101 63
75 101 61
71 96 58
77 104 63
76 102 62
70 95 57
72 99 59
73 99 59
73 98 59
78 105 64
77 103 63
72 98 58
76 103 64
78 105 64
74 100 61
71 97 58
78 105 64
113 133 123
149 166 173
156 173 183
166 182 191
163 180 193
165 182 193
171 187 200
151 169 175
151 168 175
165 181 190
157 173 180
156 172 178
139 157 157
122 141 133
80 104 73
108 128 113
121 141 133
133 152 151
131 148 146
147 163 168
151 168 175
102 121 107
73 99 60
72 98 59
71 97 57
72 98 59
75 102 62
77 103 62
73 99 60
73 98 58
70 95 57
73 98 60
74 101 61
68 94 56
67 92 55
70 96 57
73 99 59
77 104 63
75 101 62
71 96 58
78 104 63
73 98 63
150 167 176
154 171 181
153 170 178
158 175 183
153 171 178
158 173 181
148 164 170
164 179 189
154 171 178
151 168 177
142 159 162
151 168 174
162 178 187
155 172 179
154 171 179
144 161 167
147 163 169
152 169 175
148 165 170
158 174 183
144 162 165
91 114 95
115 137 123
126 145 138
138 155 156
149 166 172
149 166 173
155 173 180
154 169 175
150 168 174
160 176 188
155 172 179
157 174 182
149 167 176
163 180 190
156 173 180
159 174 183
147 163 172
147 164 169
154 170 179
142 158 162
134 151 153
70 95 57
68 93 55
75 101 62
69 95 55
70 96 57
74 100 61
72 98 58
72 97 58
72 98 58
74 101 60
69 95 57
73 99 59
75 101 62
73 99 60
73 99 58
74 100 61
79 106 65
73 98 59
78 105 64
75 101 61
132 148 146
152 169 176
160 176 184
155 172 177
156 173 183
150 167 173
157 173 182
161 177 185
153 169 176
149 165 170
157 174 184
158 173 182
145 161 167
157 173 182
150 166 173
159 174 183
151 167 172
158 174 180
151 167 177
153 169 176
116 135 129
71 97 58
76 103 62
72 98 58
76 103 63
72 98 59
77 103 64
70 96 58
74 100 60
72 98 59
73 99 61
66 90 52
76 103 62
75 101 61
71 97 58
75 101 61
72 98 58
74 100 60
71 96 57
75 102 62
126 143 139
143 160 161
160 177 186
156 174 182
152 169 177
148 165 171
161 178 192
150 168 173
158 175 186
158 176 186
149 167 173
162 178 186
156 172 180
159 175 184
147 165 168
156 173 181
149 165 172
153 169 179
157 174 182
137 154 155
73 98 58
81 108 66
77 104 63
75 101 61
75 102 62
78 105 64
77 102 68
89 114 85
91 112 95
117 137 125
103 123 110
121 139 134
134 151 151
140 159 159
156 171 179
158 174 180
164 181 191
164 179 189
118 137 125
77 104 64
77 103 63
71 96 58
77 104 64
73 99 60
76 103 63
75 102 62
75 101 61
73 99 60
68 93 55
72 98 59
76 103 63
76 102 62
76 102 62
73 100 60
74 100 60
75 102 62
116 135 125
151 168 176
159 175 182
159 175 183
164 180 190
153 170 176
161 178 189
160 175 183
159 176 185
164 181 189
148 165 172
153 170 176
166 182 193
151 169 175
154 170 177
161 177 187
166 183 195
147 164 168
78 103 70
78 105 65
76 103 63
76 102 62
74 100 60
76 102 62
74 100 60
73 99 60
75 102 62
78 106 65
78 105 64
71 98 59
79 107 66
76 103 63
73 100 60
76 102 63
121 141 134
166 183 194
154 171 180
158 174 182
160 176 186
160 176 184
165 181 190
150 167 176
156 174 180
164 181 190
154 172 180
161 179 190
158 175 184
161 178 189
167 183 195
157 175 183
100 123 101
78 105 63
77 105 65
75 101 62
77 105 64
77 104 63
77 104 64
77 104 63
79 107 66
68 93 55
77 104 62
75 101 61
77 104 63
76 104 63
92 116 93
162 178 188
167 184 198
158 175 183
140 159 161
120 138 134
110 133 119
84 110 74
74 101 61
77 105 65
76 103 62
79 107 65
79 107 65
77 104 62
130 151 147
163 181 188
164 180 193
158 175 186
163 181 190
165 182 193
161 180 191
166 183 194
166 184 197
167 184 194
171 187 202
157 174 182
170 187 199
100 124 104
77 105 64
75 102 61
78 105 64
77 104 64
169 187 200
164 182 195
169 187 201
167 184 196
170 187 201
158 176 183
164 183 196
165 181 193
90 116 84
76 102 62
119 139 125
152 170 178
166 184 195
164 181 192
168 184 197
169 185 198
171 187 199
167 184 197
158 175 184
176 193 209
160 178 188
163 181 193
161 177 185
162 179 192
172 189 201
167 184 197
79 106 66
100 125 101
118 140 133
151 170 176
167 184 195
161 179 187
155 172 182
171 188 200
168 184 192
160 178 190
155 173 182
161 179 188
169 187 200
160 178 189
165 182 194
153 171 180
171 188 200
166 182 192
153 170 174
75 102 62
76 104 63
79 106 65
78 106 64
89 112 86
131 150 146
150 168 173
168 184 195
166 183 197
165 182 192
162 178 189
150 169 177
159 175 185
158 175 183
165 181 194
149 166 171
160 177 187
155 172 179
162 179 188
99 121 104
78 104 64
76 103 62
75 102 61
77 104 63
72 98 58
75 101 62
70 96 58
78 105 63
78 105 64
74 100 61
80 108 66
76 101 64
98 121 101
139 157 157
155 172 181
165 182 193
159 176 184
160 175 183
154 170 177
100 123 102
74 101 61
80 108 67
78 105 63
76 102 62
72 98 59
74 101 61
79 106 66
75 103 62
69 95 57
75 101 61
79 106 64
74 100 60
76 102 62
76 102 62
76 103 62
77 104 63
75 101 61
75 101 60
73 99 60
111 131 118
154 171 178
153 170 178
155 172 178
168 185 198
157 174 183
153 168 174
152 168 174
140 157 158
130 148 144
113 133 121
77 102 69
76 104 64
74 100 60
74 100 59
72 98 58
78 104 63
70 96 57
74 100 61
77 104 63
73 99 60
125 143 135
139 156 158
149 166 170
143 160 164
140 157 159
138 156 159
120 139 132
124 145 138
114 133 124
93 117 94
92 115 91
77 101 67
72 98 59
68 93 54
74 100 59
68 93 55
74 102 60
69 95 57
75 100 60
76 103 62
72 98 59
130 148 144
158 175 182
155 172 182
165 181 193
149 166 173
147 164 169
154 171 179
155 171 178
154 172 180
159 175 185
154 170 175
169 186 202
151 168 174
170 186 198
157 174 184
158 174 184
128 147 144
132 150 148
114 133 124
93 114 92
75 101 64
144 162 167
153 170 178
152 169 177
153 170 177
162 178 189
153 170 176
152 168 177
163 180 188
148 164 170
155 171 180
162 177 187
153 169 177
153 168 174
152 169 177
155 173 183
151 168 172
158 175 186
155 171 180
164 181 194
166 182 192
148 164 171
91 114 89
75 101 62
73 100 60
69 95 56
76 103 63
72 98 59
70 96 58
75 102 62
71 97 58
68 94 55
77 105 64
71 97 58
73 99 60
72 98 59
71 96 58
73 99 60
70 95 57
69 94 56
75 102 61
71 97 58
109 127 116
165 182 194
161 177 188
160 177 186
155 171 178
151 168 174
150 166 174
152 168 175
146 164 165
160 178 188
148 166 175
153 169 178
160 176 184
160 175 185
161 177 188
145 162 165
159 176 186
159 175 182
156 171 182
158 174 182
151 169 175
74 99 63
73 99 60
74 100 60
69 95 57
70 95 57
75 101 62
68 94 55
72 98 59
68 94 56
71 97 57
72 98 60
73 99 60
72 98 59
69 94 56
77 104 64
69 94 56
70 96 58
72 98 59
74 101 62
95 117 98
151 166 171
152 169 177
154 170 178
156 172 179
158 175 184
160 176 181
156 173 183
152 170 177
148 163 171
158 175 184
140 157 160
154 170 177
160 176 187
151 169 175
143 160 162
147 164 167
142 161 162
136 153 152
138 157 156
106 126 113
134 153 154
129 146 143
147 164 168
152 170 176
154 171 177
155 171 178
157 173 183
156 173 180
157 174 182
156 171 178
152 170 178
153 169 179
154 171 177
161 177 186
153 171 178
151 168 174
155 173 180
137 154 155
91 113 92
70 95 60
76 100 66
76 104 63
68 94 56
78 105 64
71 97 58
69 95 57
77 103 63
76 103 63
74 100 61
80 107 66
72 98 59
74 101 61
76 103 62
74 100 59
76 103 63
80 107 68
157 174 180
156 173 178
169 185 197
159 176 182
149 165 173
149 166 171
160 176 187
149 167 173
165 181 193
168 185 198
161 178 187
162 179 188
156 173 182
160 176 185
163 180 192
163 180 192
167 183 194
134 153 149
71 97 58
77 103 62
76 103 62
76 102 62
73 100 60
77 104 63
76 102 63
75 101 61
72 98 58
73 100 60
72 99 59
69 94 56
75 101 61
75 101 61
74 101 60
78 106 65
150 167 172
167 184 196
156 174 179
161 178 187
165 182 191
164 181 191
161 178 187
170 188 202
176 193 206
156 173 182
151 168 173
162 179 188
158 175 182
161 178 188
163 180 189
156 172 177
79 106 67
79 107 66
74 101 61
76 102 63
77 104 64
77 103 61
74 101 62
74 101 61
76 102 62
75 102 62
82 110 67
75 102 62
80 107 66
71 97 58
123 144 135
164 180 191
160 177 186
164 183 198
166 184 197
158 175 184
161 178 187
142 160 164
138 155 155
115 136 125
91 115 90
77 104 63
77 105 64
86 112 79
148 167 172
166 183 192
162 180 190
168 185 196
162 180 190
164 181 191
167 183 197
165 183 195
165 183 196
164 181 192
163 182 193
173 189 201
145 164 173
94 118 92
76 103 62
71 98 59
76 104 62
171 190 205
168 186 200
167 185 197
168 186 199
163 180 189
164 182 194
170 186 200
166 183 193
111 133 115
160 177 188
164 180 190
176 192 207
167 184 197
165 182 195
166 182 194
171 188 201
163 180 191
164 180 190
156 174 181
168 185 198
165 182 193
165 182 191
164 180 188
169 185 196
167 184 196
140 159 161
146 164 166
155 172 176
168 185 196
157 174 181
175 191 204
165 182 194
166 183 194
164 181 192
160 177 187
180 195 210
159 176 183
157 175 185
163 181 194
174 190 204
160 176 185
166 183 193
164 182 193
166 182 194
146 163 167
79 108 67
79 103 70
112 132 119
139 159 157
153 169 178
157 174 183
165 181 191
172 187 200
165 183 193
166 182 194
165 182 193
158 175 185
156 171 178
157 175 181
167 184 194
162 180 189
162 179 190
162 179 190
169 184 196
102 124 109
78 105 65
78 105 64
81 109 67
77 103 62
78 105 64
75 102 62
75 101 61
79 106 65
79 104 67
108 127 114
132 150 151
159 175 182
153 170 179
156 172 179
169 184 194
153 170 176
148 165 170
150 167 174
162 178 188
118 139 127
77 104 63
73 100 60
74 101 61
75 102 62
78 104 64
76 102 62
76 103 63
78 105 63
77 104 63
73 99 59
74 101 60
70 96 57
74 100 60
74 101 61
76 102 62
75 101 61
72 98 59
76 103 62
74 100 60
91 114 89
168 184 195
163 179 190
160 177 186
167 183 195
142 160 162
125 146 143
90 114 85
75 100 60
71 96 58
78 106 65
70 95 58
76 102 62
70 95 57
75 102 62
79 106 64
74 100 61
75 102 62
74 101 61
72 97 58
73 100 61
112 130 117
159 176 183
164 180 191
169 184 193
165 181 193
167 183 195
151 167 176
162 178 189
149 166 173
148 165 172
146 163 166
160 176 185
149 166 172
147 164 166
138 157 158
144 160 160
127 146 143
142 158 160
122 143 137
116 135 125
94 115 93
120 140 134
138 157 156
140 157 164
153 169 174
145 162 168
157 173 180
161 178 188
162 178 187
164 180 189
161 176 186
157 174 182
138 157 159
130 149 143
111 131 118
92 116 88
69 94 56
73 99 60
74 100 60
75 101 61
76 103 62
72 97 57
116 135 125
151 168 175
158 174 183
155 174 183
158 173 182
146 162 167
150 166 171
150 166 172
157 174 181
145 163 168
157 173 182
158 173 182
160 175 185
159 175 183
153 169 175
146 163 165
165 182 194
152 169 176
159 176 187
151 166 173
156 172 179
108 128 117
72 97 58
71 97 57
70 96 58
72 98 59
72 99 59
75 101 61
74 99 59
76 103 62
72 98 60
72 98 59
75 101 61
75 102 60
67 91 53
72 98 60
74 100 60
76 102 63
76 102 62
75 103 63
71 98 59
75 100 64
141 158 160
151 168 173
145 162 165
160 177 186
157 173 183
150 166 172
171 187 197
151 167 174
143 160 164
143 160 164
161 176 184
163 180 190
165 181 193
154 169 178
159 176 184
164 181 189
162 180 192
154 171 178
156 173 180
149 165 171
111 131 120
69 95 57
73 99 59
70 95 56
73 99 59
71 97 58
79 106 65
70 95 58
75 101 61
72 98 58
74 100 60
76 103 62
74 101 61
74 100 60
72 98 59
74 100 60
70 95 57
67 93 54
73 100 60
71 96 58
138 156 155
153 170 176
158 175 185
152 167 174
153 170 177
153 169 175
150 168 174
153 170 177
149 166 172
155 173 183
152 169 173
154 171 177
136 153 152
140 158 160
146 162 165
140 157 159
148 166 170
150 166 175
148 165 173
133 151 151
73 97 60
78 104 66
72 98 59
68 93 55
77 103 63
76 103 64
74 100 60
74 99 61
75 102 61
72 99 60
73 99 60
74 99 60
73 100 60
69 94 55
73 99 59
72 98 58
72 98 59
73 100 62
118 137 131
165 181 190
162 179 190
160 176 186
143 161 166
158 174 183
157 174 182
164 180 190
158 175 180
158 174 180
135 153 155
140 158 163
145 164 167
141 158 160
147 164 170
136 153 152
135 152 153
131 149 148
130 149 147
121 141 132
135 153 149
123 144 134
126 145 142
139 158 155
147 163 167
147 165 171
142 160 163
157 174 183
167 184 197
158 175 183
157 174 185
156 172 179
160 176 183
168 185 195
155 171 175
158 175 184
101 124 102
73 99 60
74 100 60
80 107 65
76 102 62
75 103 62
76 102 63
77 104 64
75 101 61
77 104 63
75 101 61
70 97 59
75 102 62
72 99 60
76 103 61
73 100 61
93 116 90
155 173 179
159 175 183
163 179 187
164 182 192
164 181 193
165 182 194
155 171 179
171 188 204
164 182 192
165 182 192
164 182 194
158 174 184
157 174 181
168 183 195
165 181 191
140 158 158
82 110 68
75 101 61
78 105 64
80 108 67
76 103 63
77 104 64
79 108 66
79 107 66
79 106 65
76 104 63
77 104 64
78 106 66
81 109 67
76 103 63
131 151 148
166 182 192
164 181 192
161 178 188
162 179 190
169 186 198
167 184 194
161 178 190
163 180 189
160 176 184
158 177 186
150 168 174
128 148 147
101 124 103
157 175 185
173 190 204
161 179 189
161 179 187
162 179 188
160 178 190
160 178 188
169 186 198
169 187 199
162 179 189
165 183 196
168 187 199
160 178 190
84 110 76
75 102 62
78 106 65
163 180 188
177 193 206
168 185 198
168 186 197
176 194 211
158 175 182
138 159 157
102 125 105
164 182 195
168 186 199
159 176 183
165 182 193
169 186 198
169 186 200
164 182 194
164 181 190
169 186 197
171 188 200
161 179 192
175 191 205
157 176 186
169 186 198
170 188 200
147 167 170
102 125 105
98 122 95
168 184 193
164 183 195
171 188 202
163 181 189
171 187 197
157 174 183
158 175 184
169 185 195
160 178 187
162 180 190
167 184 194
158 176 184
164 181 194
163 180 191
157 175 184
158 176 183
163 180 192
160 177 187
146 164 168
141 158 158
156 173 183
157 174 182
162 180 189
164 181 191
170 186 200
160 178 188
159 176 185
158 174 184
156 174 182
172 189 201
157 173 180
159 177 187
157 175 182
160 177 188
152 168 178
168 185 198
163 178 190
151 168 176
119 138 130
75 102 62
74 100 61
77 104 63
77 104 62
74 100 61
76 102 64
107 129 109
139 158 158
154 172 180
163 179 189
156 174 180
160 177 187
164 180 190
158 174 182
157 174 183
163 179 190
161 179 188
146 163 167
164 180 190
125 143 139
75 102 61
71 97 58
79 106 65
77 104 64
76 102 62
79 106 64
74 100 61
73 99 59
74 101 61
79 106 64
70 96 57
74 100 60
78 105 64
73 99 60
74 101 61
72 98 59
76 103 63
75 102 62
74 101 61
72 98 59
144 161 165
141 159 159
100 123 105
77 103 66
77 103 63
76 103 62
78 105 64
73 99 61
78 105 64
73 99 59
74 100 59
76 103 62
78 105 64
71 97 59
73 100 60
78 105 63
71 96 58
77 104 64
77 104 62
70 96 58
79 103 70
144 161 165
161 178 187
162 178 187
164 182 193
158 175 184
153 170 177
162 178 188
158 176 184
163 180 191
156 172 179
149 166 173
151 168 175
159 175 182
155 172 183
158 176 188
152 168 173
152 168 175
144 162 165
154 171 177
159 175 184
153 170 177
69 94 56
73 99 60
78 105 65
71 97 58
71 96 58
94 116 90
123 142 135
143 161 164
160 175 185
141 160 163
128 146 144
138 156 154
129 148 145
120 138 133
125 143 138
112 132 124
115 137 124
121 141 132
104 125 105
94 116 94
116 136 126
149 164 171
146 163 166
149 166 173
145 162 166
159 175 182
144 161 167
163 180 192
155 172 177
143 159 163
155 173 180
166 182 192
147 164 167
156 174 185
160 176 183
158 175 183
154 171 179
162 179 191
156 173 183
164 181 191
148 163 167
142 161 164
70 95 57
71 97 59
68 93 54
68 94 56
72 98 58
76 102 61
74 101 62
71 97 57
74 100 60
71 97 59
73 99 60
73 99 59
74 101 60
71 97 59
74 100 61
71 96 58
75 100 60
73 99 60
75 101 62
76 103 62
137 154 153
158 174 184
155 172 182
153 171 176
155 171 180
159 175 183
158 175 187
148 165 169
160 176 186
146 162 166
146 164 169
154 171 178
161 178 187
153 168 176
161 177 186
160 176 185
158 173 182
151 168 174
152 169 175
149 165 170
134 151 150
89 111 88
92 113 95
113 135 120
107 128 110
108 128 116
101 123 103
107 128 114
96 117 98
102 122 108
92 114 95
92 116 88
93 116 95
93 117 91
88 111 80
76 102 65
75 100 63
73 99 60
68 92 58
73 100 60
86 109 87
160 177 187
150 166 172
158 174 182
147 165 169
157 173 182
149 167 175
161 178 188
162 179 191
159 175 182
158 175 186
152 169 176
152 169 179
168 184 198
150 166 173
150 167 172
157 174 181
157 174 182
159 176 184
157 175 186
111 132 115
74 100 61
73 99 59
79 107 66
76 103 62
71 97 58
72 98 59
72 97 59
74 100 60
76 104 62
69 95 57
77 105 64
75 101 62
68 93 55
75 102 62
77 104 64
77 105 63
75 101 61
81 106 70
152 168 174
153 171 180
157 173 182
170 186 198
157 174 182
163 181 193
156 172 183
153 169 175
153 169 173
162 179 189
155 171 180
151 168 176
160 177 186
156 174 183
151 167 176
154 171 179
154 171 177
154 171 180
113 134 121
73 100 59
78 105 64
72 97 58
74 101 61
76 102 62
76 102 62
74 101 62
71 97 58
76 102 62
84 110 72
87 111 86
102 124 100
103 125 106
111 130 120
110 130 117
122 141 134
121 140 133
115 135 128
111 132 116
97 119 99
93 116 89
84 111 74
78 105 63
73 99 60
76 103 63
75 102 62
77 103 63
79 107 66
76 103 63
75 101 61
74 100 60
78 106 65
78 105 63
121 141 134
158 174 184
152 170 179
162 179 189
164 181 190
155 172 182
163 180 190
162 178 186
163 180 190
158 175 187
166 183 196
151 168 173
156 173 182
166 183 193
166 182 192
158 174 184
105 126 108
80 107 66
78 106 65
78 105 64
76 102 62
79 107 66
79 107 66
76 103 63
73 99 60
77 104 64
79 107 65
76 104 63
78 105 65
78 105 64
83 111 72
151 168 172
164 181 193
169 185 199
162 179 187
160 177 186
160 178 188
163 181 190
167 184 196
169 185 196
168 185 196
159 175 184
166 183 194
174 192 208
166 184 195
103 124 108
137 156 158
149 167 171
164 182 193
167 185 197
168 185 196
160 178 189
165 183 193
160 178 190
156 173 181
166 183 193
162 180 191
148 168 173
82 110 68
82 109 67
171 187 200
159 178 188
166 184 198
150 167 175
119 140 126
87 113 78
76 104 64
109 131 115
162 179 189
163 181 192
170 186 197
158 176 189
168 185 197
159 176 185
170 188 200
168 185 197
165 183 195
165 181 190
174 190 203
166 183 195
150 168 175
128 148 143
95 119 96
79 107 66
81 109 67
110 132 114
169 186 200
158 177 188
166 182 193
161 178 189
173 189 202
149 168 172
153 171 178
161 179 189
157 174 183
169 186 199
165 182 193
158 175 183
166 182 195
169 185 197
159 176 184
165 182 195
140 159 161
91 115 85
111 132 117
158 175 184
155 172 181
159 177 188
161 178 191
158 175 183
155 173 181
163 179 191
159 175 183
165 181 193
172 189 200
163 179 187
158 176 185
161 177 188
158 175 186
162 179 189
168 185 198
158 176 184
159 176 186
154 171 179
126 144 139
73 99 60
78 106 64
76 103 61
114 136 120
132 151 146
152 170 175
166 183 196
156 172 181
166 182 192
160 178 188
160 177 185
173 188 201
161 178 187
158 176 184
153 171 179
155 171 177
157 172 181
162 180 190
157 174 183
126 145 141
75 102 62
74 100 60
79 106 65
71 97 58
78 105 64
72 99 59
78 105 64
79 107 65
76 103 63
75 102 62
75 102 63
77 104 64
76 103 62
76 102 63
75 102 62
71 98 59
81 108 70
101 122 106
133 152 150
149 167 173
99 120 100
75 102 61
73 98 58
77 103 64
74 100 61
74 101 61
80 107 66
76 103 62
71 98 58
73 100 61
71 97 57
72 97 58
76 102 62
78 105 65
77 105 64
76 103 63
70 96 57
73 100 60
75 102 62
76 103 63
74 100 60
163 180 190
163 179 190
158 175 186
159 175 184
162 178 186
165 182 192
157 173 181
159 176 188
154 170 178
149 166 175
165 181 189
158 175 188
152 169 178
158 176 184
157 173 182
151 167 175
151 166 173
152 169 174
161 178 185
152 168 175
153 170 177
102 122 105
96 118 98
124 143 136
144 162 167
148 166 173
160 177 188
156 172 179
157 173 181
158 173 181
160 177 186
159 174 183
162 178 184
137 154 157
157 173 182
156 172 184
151 167 171
168 184 196
151 168 177
160 177 187
148 164 169
158 174 183
84 109 77
75 100 61
74 100 61
77 103 63
74 101 61
74 100 61
73 99 59
77 104 66
87 110 84
84 108 79
84 107 78
97 119 98
91 114 92
104 125 107
97 120 97
106 125 113
94 116 93
103 125 105
101 123 104
104 123 110
109 129 114
138 157 156
133 151 150
130 147 144
126 143 137
134 151 151
127 145 141
127 145 141
126 144 140
143 161 161
137 155 156
123 141 137
132 149 149
130 148 147
135 152 152
137 154 155
126 145 139
133 151 149
128 146 141
133 153 151
142 160 163
140 157 157
103 125 106
107 128 113
105 126 112
101 122 107
93 116 94
103 125 109
94 116 93
96 119 96
96 119 96
95 118 97
94 117 92
76 102 68
79 102 74
79 104 69
77 101 67
83 106 80
95 118 96
113 133 122
117 137 129
125 144 141
125 144 137
108 129 115
88 112 84
92 116 89
78 103 71
77 104 64
74 100 61
76 103 62
79 106 65
70 95 57
67 92 54
74 100 61
78 105 65
73 99 59
75 102 62
73 98 59
74 101 61
71 97 58
68 94 55
74 100 61
135 153 152
161 177 186
144 161 167
162 179 190
156 173 181
154 171 178
145 162 168
150 166 171
161 178 187
164 179 188
152 169 177
154 171 179
160 177 189
161 177 186
154 171 178
150 167 175
157 175 184
148 164 170
157 174 182
145 162 165
72 98 58
76 104 63
71 98 58
73 99 59
79 106 65
74 101 61
71 97 58
77 104 63
72 98 60
72 98 58
74 101 60
74 100 61
73 99 60
75 102 62
75 101 61
76 103 63
76 102 63
75 102 62
104 126 108
165 182 193
156 173 180
161 178 186
155 172 178
169 185 199
150 167 173
160 176 184
158 174 182
154 171 178
155 172 178
144 162 165
161 178 190
166 182 192
161 178 188
162 180 191
161 177 185
163 178 187
166 183 194
87 111 80
75 102 62
76 104 64
74 101 60
75 102 62
71 96 56
77 104 62
75 102 62
79 106 65
70 96 56
74 101 61
79 105 64
77 104 62
74 100 60
77 105 64
78 104 63
73 100 60
116 137 124
158 174 181
174 191 205
159 175 186
169 186 199
158 175 184
155 171 177
136 155 154
134 152 151
131 149 147
126 145 139
112 132 121
100 122 101
92 116 90
72 98 62
75 102 62
78 105 64
151 169 172
158 176 183
163 180 190
163 180 191
156 173 183
165 183 197
160 179 188
165 183 194
160 177 187
164 181 192
166 183 195
156 171 179
171 186 196
165 182 192
159 176 185
150 167 174
94 117 96
80 108 67
69 95 57
76 104 63
79 107 66
78 105 64
77 104 63
74 101 61
77 105 64
75 102 62
77 104 63
75 102 62
76 103 63
80 108 67
85 110 78
161 177 187
163 180 192
168 187 201
154 172 181
164 181 191
165 182 193
166 182 195
164 181 190
167 184 196
168 184 197
169 186 196
158 176 186
169 186 200
144 163 168
83 110 73
74 101 61
77 105 64
100 124 105
123 143 137
149 167 168
164 182 196
161 180 188
173 190 202
158 176 185
170 187 198
179 196 211
138 159 156
72 99 59
169 188 202
146 164 170
111 134 123
81 108 69
78 105 64
79 107 66
80 108 67
120 140 131
171 187 201
169 186 201
169 185 198
169 186 197
165 181 193
157 175 184
172 190 206
169 186 198
164 182 191
163 179 191
148 167 172
114 136 120
79 105 67
79 107 65
80 109 67
79 107 66
78 106 65
122 144 133
167 183 193
163 180 191
175 192 207
167 184 195
159 177 187
168 185 197
168 186 198
162 179 190
163 179 190
154 171 179
160 177 187
163 180 190
149 166 171
146 163 165
112 132 121
85 112 77
75 102 62
79 106 65
114 135 123
162 179 188
157 173 179
157 175 184
164 181 188
159 176 185
160 177 188
159 175 182
156 173 181
165 183 196
160 177 187
169 185 198
164 181 192
161 179 187
162 180 190
169 186 197
157 173 179
161 177 188
160 177 186
170 186 198
127 146 140
92 116 92
122 142 135
154 172 181
159 176 185
159 176 186
154 172 179
168 184 198
162 178 185
173 189 198
157 174 181
163 179 187
160 175 181
162 180 191
155 173 181
164 181 194
163 180 191
166 183 193
156 174 182
158 175 185
141 159 159
70 95 56
75 101 60
78 105 64
71 98 57
75 102 61
72 98 58
74 101 62
72 99 60
71 96 58
76 103 62
77 104 64
73 99 60
73 100 60
79 103 68
122 141 136
140 158 158
147 164 174
156 173 181
171 186 198
164 180 191
115 135 123
78 105 65
77 104 64
74 100 60
75 102 62
74 100 60
81 108 66
80 107 65
80 108 66
77 104 64
77 104 64
78 106 65
77 105 64
71 97 59
76 101 61
73 100 60
76 103 63
73 99 59
73 99 59
72 98 58
75 102 62
124 142 139
160 176 187
160 177 186
143 160 162
158 174 181
160 177 187
161 178 187
156 172 181
151 168 175
168 184 196
161 177 185
148 165 172
160 177 188
152 170 178
157 173 181
157 174 182
158 174 182
149 167 174
128 146 143
120 138 128
88 110 84
134 152 150
162 178 189
159 175 182
156 174 183
162 178 189
158 176 185
158 175 184
162 179 188
168 183 193
159 176 187
154 171 179
168 185 195
157 174 184
163 180 189
156 173 179
144 162 171
159 175 184
168 185 199
151 169 176
154 171 180
163 178 188
112 130 118
80 107 66
72 98 59
74 101 61
75 101 60
78 104 64
76 102 62
72 98 59
68 93 56
74 100 61
70 96 57
72 99 60
72 98 58
73 100 60
70 96 57
74 100 61
76 102 62
77 103 62
74 101 60
74 100 60
74 100 60
124 142 138
155 173 181
162 178 186
160 178 188
159 175 185
156 172 181
160 176 186
160 177 188
152 169 177
156 172 179
151 168 173
160 176 186
146 162 166
158 175 184
152 170 180
161 176 186
158 175 181
150 167 173
164 179 188
162 178 187
160 178 187
95 116 94
77 103 63
73 99 60
72 98 59
73 99 60
73 100 60
90 112 88
102 123 102
118 138 131
117 137 131
123 142 135
126 146 139
136 154 155
147 164 166
156 173 183
157 174 183
151 168 176
150 167 170
157 173 179
161 177 184
131 148 148
76 102 62
76 102 63
69 94 56
71 98 58
75 102 62
71 98 58
79 106 65
72 99 60
78 105 64
76 102 62
74 100 61
73 99 60
72 98 59
73 99 60
76 102 62
76 102 61
72 98 58
73 99 59
77 103 63
97 117 101
165 181 188
156 172 179
161 177 186
157 174 181
152 169 177
159 175 184
152 169 176
160 177 186
156 173 179
156 172 181
154 171 179
168 185 197
150 168 175
154 171 177
156 172 180
154 171 176
158 174 183
153 170 178
154 171 175
104 127 108
75 102 62
77 104 63
70 96 57
76 102 62
74 101 61
75 102 62
76 103 63
69 95 56
75 101 61
72 98 59
74 100 60
72 98 59
79 106 65
80 107 65
76 102 61
76 103 62
73 99 59
76 103 64
136 154 152
158 175 184
159 175 185
164 180 190
158 175 182
159 175 187
161 178 189
154 171 179
150 168 174
148 166 172
161 177 185
155 173 182
168 183 194
156 173 182
152 169 177
155 172 179
165 182 194
162 177 184
129 149 147
73 100 62
80 108 66
74 102 61
79 106 65
71 97 58
79 107 65
77 104 63
76 103 62
74 102 61
72 99 59
74 101 61
75 102 62
76 103 62
77 103 63
73 100 60
79 105 64
77 105 65
139 158 159
160 177 184
160 177 186
165 182 194
157 175 182
164 181 190
161 178 187
161 178 188
161 178 190
156 174 184
162 179 187
168 184 194
163 179 188
164 181 193
161 178 186
145 163 165
144 162 164
124 145 138
127 146 140
148 167 173
155 171 178
150 167 174
162 180 190
162 180 192
157 174 181
165 182 193
163 179 189
167 184 195
158 176 186
164 182 195
162 180 193
152 169 176
148 166 173
82 109 70
78 105 65
73 100 60
78 105 65
81 110 68
79 106 65
74 101 61
77 104 63
76 103 63
79 107 66
76 103 63
77 105 64
78 105 64
78 106 65
114 136 124
163 181 191
167 184 195
166 183 194
150 168 173
169 185 197
165 182 193
163 181 192
165 182 193
166 184 197
161 179 190
157 174 184
166 184 197
161 179 190
138 156 155
75 102 61
80 108 66
76 104 63
78 105 64
81 109 67
78 106 63
102 123 100
146 164 167
153 172 178
165 183 194
161 179 186
171 189 201
127 148 140
150 168 174
120 142 131
82 111 68
74 101 60
82 111 68
81 109 68
79 107 65
140 160 162
169 187 201
161 178 186
171 188 201
167 185 200
176 192 206
162 180 191
161 179 187
166 184 198
141 161 164
105 128 108
81 110 68
79 107 66
80 107 66
81 108 67
80 108 67
82 111 69
81 109 67
122 143 129
159 176 187
171 188 199
155 171 177
164 181 194
166 184 197
167 183 195
171 188 200
164 182 193
167 185 197
162 178 190
159 176 185
132 152 149
108 129 109
80 109 67
77 105 64
76 103 63
78 106 65
71 96 58
113 133 121
177 193 206
168 183 192
159 176 187
162 179 190
164 181 194
167 183 193
177 194 209
159 176 184
168 185 198
156 173 181
162 178 188
165 181 194
169 186 200
162 178 188
162 180 191
165 181 192
163 181 193
152 169 173
129 148 147
124 141 136
166 182 193
160 177 186
168 184 197
156 173 182
156 173 182
165 183 194
160 178 189
155 172 183
162 177 186
162 179 188
158 175 181
151 168 176
160 176 184
163 179 190
148 165 171
159 175 183
169 185 197
162 180 192
169 186 199
148 164 168
70 96 57
77 103 63
74 100 60
76 102 61
80 108 66
73 99 60
75 101 61
75 101 62
76 104 63
81 108 66
97 120 99
119 139 128
147 164 170
166 182 192
160 178 190
159 174 184
160 177 185
166 182 193
163 180 190
155 172 178
136 155 155
76 102 62
78 104 64
75 102 61
74 101 62
74 100 59
78 106 65
79 106 66
82 110 68
76 103 63
73 99 60
77 103 62
78 105 65
74 100 61
73 98 58
71 97 58
74 100 61
72 98 59
79 106 65
75 101 61
74 100 61
126 145 138
164 179 187
156 173 180
153 169 175
162 179 188
159 177 185
165 181 194
162 179 189
160 176 187
165 181 192
156 172 181
151 168 174
154 170 174
149 167 170
133 151 148
103 125 106
98 119 102
76 102 62
75 102 62
73 99 60
71 97 58
114 133 123
151 168 173
153 171 180
159 175 183
157 174 185
154 172 185
153 171 176
158 175 184
163 179 187
158 175 182
154 171 178
157 174 185
159 174 181
154 171 180
166 181 191
155 172 180
157 174 184
146 163 166
161 177 187
173 189 206
155 171 177
141 158 160
73 99 61
73 99 59
73 100 60
72 98 59
74 101 61
72 98 59
75 101 62
74 100 60
72 98 59
74 100 60
77 104 63
72 99 59
76 103 62
75 101 62
74 100 60
71 96 57
72 99 60
71 97 59
77 104 63
77 103 62
114 135 121
166 183 197
158 175 186
158 174 181
147 163 169
160 177 186
150 168 174
154 171 178
155 171 179
161 178 185
152 170 177
165 181 192
149 165 171
156 173 180
153 170 176
154 170 177
155 173 183
159 177 187
153 169 175
150 168 175
150 167 173
107 126 114
110 131 119
129 148 146
135 153 153
139 156 158
155 170 177
154 171 178
155 172 181
157 173 183
150 165 171
160 176 187
155 171 180
155 171 180
161 178 189
158 175 181
155 173 183
151 169 174
158 175 185
156 174 181
159 175 183
153 170 178
104 125 107
73 100 61
75 101 62
71 97 58
74 101 60
79 107 65
76 104 63
71 97 58
71 98 59
77 104 63
73 99 60
76 102 62
73 100 60
74 101 61
73 99 59
77 104 64
73 99 59
70 96 57
72 99 59
77 104 63
150 168 178
149 167 173
153 169 175
149 165 173
159 176 187
158 176 186
153 170 177
159 176 187
158 174 179
159 174 184
158 175 183
161 177 186
162 179 189
155 172 179
158 176 185
157 174 183
153 169 178
164 182 193
164 181 193
145 162 166
76 103 62
73 98 60
72 98 59
75 101 61
78 105 64
75 102 61
72 98 58
73 99 60
74 101 61
72 98 60
74 101 62
74 101 61
73 99 60
75 102 63
73 100 60
76 103 63
72 97 59
75 102 62
97 119 100
164 180 192
155 172 178
155 172 180
158 176 184
156 173 178
163 179 190
165 181 191
162 179 189
170 187 198
156 173 182
159 177 187
161 178 189
154 170 179
155 172 181
159 176 185
160 176 185
164 181 195
159 177 188
102 125 106
76 102 62
76 103 62
78 105 64
68 93 55
78 105 62
73 100 61
76 103 62
73 99 59
74 101 61
78 105 64
76 103 63
78 105 65
76 102 62
76 103 62
76 103 62
76 103 63
102 124 108
159 176 184
162 179 189
172 189 202
162 179 189
166 182 191
156 173 181
160 178 186
152 170 177
166 184 197
159 175 185
156 173 182
163 180 191
162 179 189
162 179 188
164 181 193
164 181 194
131 150 145
79 107 66
76 102 62
76 103 62
71 97 59
85 109 76
99 122 101
116 137 126
114 135 124
135 155 158
160 179 192
151 169 177
161 177 189
162 178 187
168 185 197
166 183 193
117 137 129
73 100 60
75 102 62
74 101 62
76 103 62
79 107 65
77 104 64
76 103 63
79 107 66
83 112 70
75 102 62
75 102 62
75 102 61
77 104 64
79 107 66
129 150 144
163 180 190
159 177 188
163 178 189
166 182 194
153 170 178
163 181 193
169 186 198
171 188 202
162 180 189
157 176 185
160 178 185
175 192 206
163 179 188
128 149 143
76 103 63
78 105 65
77 104 64
80 108 67
77 105 65
78 106 65
77 104 63
78 106 64
89 115 86
125 145 139
162 179 187
114 136 123
173 190 203
164 182 193
146 165 165
85 111 78
79 106 66
79 106 65
80 109 67
155 173 179
161 178 189
175 192 209
156 174 184
171 188 203
165 181 193
166 183 196
138 158 155
93 119 85
76 104 63
78 106 64
78 106 65
77 105 65
76 103 63
79 107 66
77 105 64
75 103 63
78 105 64
128 148 139
172 189 200
173 190 202
170 186 198
178 194 208
166 183 195
173 190 203
165 182 196
171 187 201
146 164 166
118 139 125
82 108 70
78 106 65
78 106 64
73 100 60
76 103 63
77 104 63
78 104 63
78 105 64
111 132 120
165 182 193
152 169 172
163 180 192
159 176 186
174 191 207
166 183 193
171 188 201
163 181 191
162 178 187
161 178 187
164 182 194
163 179 190
161 178 186
164 180 190
171 188 199
129 149 147
105 127 111
79 107 69
76 103 64
128 148 145
162 179 189
163 179 189
152 169 177
167 184 197
161 178 187
164 182 194
158 173 181
165 181 192
165 181 192
160 177 187
171 187 199
164 181 194
161 179 189
154 171 179
162 179 192
159 175 184
158 174 181
175 190 202
162 179 192
144 162 166
78 105 65
73 100 60
74 101 62
76 103 63
77 105 64
75 102 62
76 102 62
97 117 99
132 151 149
157 175 179
170 186 197
165 181 192
159 176 186
166 182 192
169 185 198
160 177 185
175 191 206
161 177 187
160 177 187
162 179 189
143 162 168
75 102 61
77 103 63
72 98 58
76 103 62
73 100 60
78 105 64
73 99 60
75 101 61
80 107 65
75 102 61
74 100 60
77 104 63
74 101 61
79 106 65
75 101 62
76 102 62
81 108 66
77 104 63
75 101 61
78 105 64
98 120 101
159 175 185
161 177 184
171 188 201
156 172 181
163 179 186
158 174 180
164 182 192
155 172 179
154 171 181
124 142 134
115 134 122
77 105 65
77 104 64
64 89 52
76 103 63
73 100 61
70 95 57
72 98 60
78 106 65
71 97 57
94 118 93
157 174 181
159 177 187
157 173 180
164 180 191
167 183 194
160 177 187
158 174 182
157 174 186
159 175 185
156 173 179
155 172 179
157 174 181
150 167 176
154 171 177
157 172 181
157 173 184
164 181 191
154 171 177
163 179 189
150 167 173
154 171 179
86 110 74
78 106 65
69 94 56
73 98 60
75 101 61
73 99 59
74 100 60
71 96 57
76 103 62
69 95 57
78 105 64
75 102 62
74 100 61
71 97 58
71 97 57
73 100 61
79 106 65
75 101 60
72 98 59
77 104 63
74 100 60
156 174 184
163 180 191
156 173 181
161 177 187
156 172 180
152 169 174
159 175 182
154 169 176
164 180 191
158 174 184
163 180 191
157 174 182
142 159 162
134 153 154
122 142 134
101 121 106
86 110 83
78 103 72
80 107 67
75 103 63
78 103 65
166 182 193
160 177 185
162 178 189
160 176 186
151 167 173
165 181 191
156 173 179
150 168 175
156 172 180
161 178 186
152 169 175
159 175 186
151 168 177
159 175 185
168 184 196
149 166 172
158 173 181
161 176 189
168 186 201
165 181 194
134 154 151
69 94 55
73 100 60
71 97 58
73 99 60
75 101 61
79 106 65
70 95 57
75 101 61
76 103 63
78 105 64
75 102 62
77 104 64
76 103 62
72 97 59
76 102 62
69 94 56
80 108 66
75 102 63
73 99 59
101 122 107
162 179 190
163 181 194
156 173 182
155 171 180
153 170 176
156 175 184
155 171 178
168 185 195
160 177 188
154 172 181
164 181 193
155 172 180
148 165 166
161 179 188
154 171 181
169 185 195
162 179 191
151 168 174
160 176 185
110 130 118
71 97 59
71 97 57
79 106 65
78 105 64
75 101 61
74 101 61
73 100 60
71 97 59
72 97 58
73 100 60
75 102 62
76 103 63
70 95 57
75 102 61
77 103 62
68 94 55
73 99 60
74 100 61
138 156 157
160 176 184
154 170 178
159 177 188
161 178 190
143 160 166
167 183 194
152 169 175
171 188 198
153 171 178
159 176 184
164 180 192
166 183 191
149 166 171
157 174 183
155 172 180
161 177 186
160 176 182
136 153 155
73 99 59
78 106 65
76 102 62
76 103 63
74 101 61
75 102 62
76 102 62
80 108 66
72 98 59
80 108 67
73 100 60
76 103 63
76 104 64
77 103 63
78 105 64
78 105 64
73 99 58
122 142 136
161 178 187
154 171 177
163 179 189
162 179 189
163 180 190
157 173 182
166 181 194
164 182 193
165 182 191
170 187 198
161 178 189
165 182 192
167 182 191
158 174 184
165 182 193
153 170 177
100 123 103
82 110 68
79 106 65
78 107 66
73 100 59
78 105 64
75 102 62
76 103 62
79 106 64
78 106 65
78 105 65
87 112 85
108 130 117
122 141 132
125 144 137
131 150 145
107 130 111
81 108 69
77 104 62
78 105 65
80 108 66
75 101 61
78 107 66
76 103 62
76 104 63
79 107 66
77 104 63
78 105 63
77 104 63
73 100 61
78 104 71
148 167 173
164 182 193
164 181 192
164 182 193
162 179 192
167 185 199
164 182 194
165 183 195
159 176 185
162 179 189
166 183 197
167 185 195
166 182 194
158 176 186
100 124 101
76 104 63
80 108 66
80 109 67
78 106 66
80 107 66
78 106 64
79 107 66
85 111 81
150 170 174
170 189 203
173 189 203
166 183 194
170 188 203
170 188 200
158 176 183
129 150 142
80 108 66
81 109 67
158 176 182
166 185 198
165 182 193
173 190 203
157 176 185
132 152 151
84 112 75
80 108 67
75 102 63
79 107 65
79 106 65
76 103 62
77 104 63
79 108 66
79 108 66
76 103 62
80 108 67
81 109 67
132 151 147
169 187 200
165 183 195
169 186 200
169 186 197
160 177 186
168 185 198
139 158 158
95 120 95
77 104 63
78 106 65
78 106 65
77 104 63
77 104 63
75 102 62
80 107 66
73 100 61
82 110 68
78 105 65
113 134 123
169 186 199
166 184 197
170 186 198
170 187 200
164 181 192
157 175 184
166 183 193
163 179 188
170 187 199
171 188 204
163 179 188
165 183 195
140 159 160
125 144 138
82 108 74
78 104 63
77 104 63
77 104 63
78 104 63
104 126 110
164 180 191
166 183 195
160 176 182
163 180 190
166 183 195
162 178 189
160 177 188
165 181 191
154 171 179
160 177 187
159 176 184
157 175 183
162 179 188
164 181 192
169 187 199
162 179 189
165 182 191
165 183 194
161 177 189
164 181 190
76 103 62
78 105 66
78 105 63
82 108 74
102 124 104
128 148 144
158 175 186
159 176 185
151 169 176
167 184 196
160 178 188
161 178 187
152 170 179
158 174 184
146 162 167
157 174 180
163 179 189
170 187 200
157 172 177
159 176 185
164 182 192
74 100 60
76 103 63
75 102 62
79 106 65
74 100 60
75 101 61
72 98 59
78 105 64
79 106 65
77 104 63
76 103 63
70 97 58
80 107 66
73 98 59
72 99 59
74 101 61
73 99 60
73 100 61
76 103 63
79 106 65
77 103 64
162 178 185
155 172 179
154 170 177
154 171 174
158 174 184
126 145 142
105 127 109
80 107 69
74 101 62
81 109 67
74 101 60
76 102 63
71 97 58
73 100 60
76 102 61
77 104 63
79 107 66
77 104 63
75 102 62
71 96 59
74 100 60
147 163 167
147 164 169
162 179 188
151 168 176
163 179 190
165 183 195
164 181 192
160 176 185
157 174 181
157 173 180
158 175 184
163 180 189
160 178 185
158 174 181
159 175 181
160 175 185
168 185 198
154 171 178
157 174 179
164 180 189
158 174 185
103 125 108
77 103 63
74 100 61
75 101 61
74 101 61
72 98 58
70 95 57
73 99 59
76 103 63
76 102 61
75 102 62
69 94 55
74 101 61
74 100 60
79 107 66
74 101 61
74 100 61
76 104 63
74 101 61
73 99 59
69 94 55
116 135 129
157 175 184
163 179 188
161 177 185
154 171 179
134 150 151
128 148 144
124 143 138
108 127 116
93 117 92
80 106 70
71 97 58
77 104 63
76 102 62
78 105 64
76 102 62
72 98 58
76 102 62
75 102 61
73 100 60
78 105 64
129 148 143
156 173 182
160 178 188
152 169 181
162 179 189
151 169 176
153 169 175
152 169 175
160 177 187
170 187 202
158 176 186
163 180 190
143 161 168
156 173 180
153 169 173
145 163 168
148 164 169
157 173 179
161 177 187
154 171 182
147 163 165
80 104 74
76 103 63
74 99 60
73 100 60
72 98 59
79 106 65
76 103 62
76 102 62
76 103 62
77 105 64
74 100 61
74 101 62
74 100 61
76 103 63
76 102 62
77 104 63
74 100 60
73 99 60
76 103 63
75 101 61
139 156 155
165 181 191
160 177 187
162 178 190
160 176 181
165 182 191
152 170 177
151 168 174
154 171 179
151 170 178
162 179 190
173 189 202
159 177 186
155 173 183
160 176 186
163 180 192
156 172 177
157 174 182
160 178 189
142 160 162
73 99 60
74 100 60
75 101 62
73 100 60
75 101 61
78 106 65
76 102 62
73 99 58
75 101 61
79 106 65
70 96 57
76 104 63
76 103 62
76 103 63
76 103 62
73 100 60
76 103 62
79 107 64
83 107 75
163 179 189
160 176 185
164 180 191
152 167 173
160 176 184
153 170 177
160 177 185
159 178 189
169 185 197
163 180 190
160 175 182
157 174 184
155 173 182
155 172 179
166 183 193
158 175 183
162 179 188
162 178 189
113 133 121
79 107 66
77 105 64
79 107 65
78 105 65
82 111 69
76 103 63
78 105 64
74 100 59
76 103 63
76 103 62
78 106 66
74 100 60
73 99 59
78 106 65
74 101 61
71 97 58
87 113 80
153 171 178
159 177 185
175 192 206
161 178 187
158 175 184
158 177 185
169 185 198
169 186 200
155 173 179
164 182 193
162 178 187
168 184 195
160 177 185
157 174 182
150 167 173
170 186 197
157 174 183
89 113 85
78 106 66
79 107 66
75 102 62
78 106 65
75 102 62
78 105 64
72 99 60
74 101 61
76 103 62
80 108 67
77 104 64
76 103 64
74 100 60
80 108 67
83 109 77
163 181 190
154 171 176
153 171 176
130 151 144
112 133 120
97 121 96
82 110 71
76 102 62
76 103 63
82 110 68
75 102 62
78 106 65
77 105 64
75 103 63
88 113 82
170 187 201
168 186 200
168 185 195
163 180 190
174 192 205
166 183 194
169 184 195
171 187 200
161 178 187
167 184 197
173 190 204
172 189 201
173 191 205
169 186 199
88 112 84
80 108 67
82 110 69
77 105 65
79 108 67
79 108 66
121 142 135
163 179 191
165 183 196
165 183 195
169 187 199
170 188 200
166 184 194
163 181 192
167 184 195
159 177 187
154 173 180
108 130 112
156 172 175
167 185 197
163 181 190
111 133 119
80 109 67
80 108 67
77 105 64
80 108 66
78 106 66
78 106 64
76 103 63
78 106 65
79 106 65
78 106 64
76 104 63
80 108 67
83 111 69
83 110 68
150 168 169
162 178 186
161 178 190
165 183 193
164 182 192
131 150 149
81 107 71
77 105 65
80 108 68
78 106 65
81 110 68
77 105 64
74 101 61
80 109 67
79 107 65
78 105 64
79 106 65
77 104 63
76 103 63
108 132 113
168 185 196
161 178 189
170 187 199
171 188 202
154 172 180
168 186 199
160 176 185
163 180 188
165 181 192
155 172 179
124 143 136
93 117 91
78 105 64
76 103 63
79 106 65
78 106 65
78 105 64
80 108 67
81 109 68
118 138 127
169 184 193
165 182 190
163 178 188
160 177 186
158 176 185
163 181 192
169 186 199
162 179 190
163 179 190
172 188 200
163 179 187
169 185 195
170 188 202
156 173 183
158 175 184
162 179 192
155 172 180
163 180 192
160 176 186
167 184 195
94 119 92
117 136 127
140 158 159
161 178 188
156 173 181
161 178 188
156 173 182
152 170 179
168 185 197
161 177 187
167 184 194
172 188 201
170 187 201
165 180 189
171 186 196
155 171 178
161 178 191
154 172 181
163 180 189
174 190 203
155 171 178
79 106 68
76 104 63
75 103 63
79 107 65
74 99 59
77 104 64
73 100 60
75 102 62
76 103 63
78 106 65
75 101 61
78 105 64
80 108 66
70 96 58
79 107 65
79 108 67
76 103 63
74 101 61
75 102 62
81 109 67
79 106 64
148 166 167
132 151 147
118 138 127
87 111 82
71 97 59
77 103 62
76 102 62
72 99 60
72 98 59
74 101 61
72 98 59
76 103 62
75 101 61
76 102 61
76 103 62
78 105 63
71 97 58
79 106 65
72 98 59
74 100 60
73 100 60
133 152 149
164 181 192
165 183 196
163 181 194
155 172 180
162 179 190
161 177 186
161 177 185
158 176 187
172 189 203
160 177 182
158 175 183
145 162 167
163 179 187
169 185 197
163 180 189
154 171 179
169 185 195
154 171 180
153 170 177
162 179 187
129 148 146
72 98 58
78 106 64
75 102 62
75 102 61
73 100 61
71 96 57
77 104 63
72 97 58
79 106 65
71 97 58
74 101 61
72 99 59
71 96 58
74 100 60
73 99 59
72 98 59
75 102 62
75 101 62
87 112 79
89 113 86
133 151 147
114 135 127
106 129 112
86 111 78
69 94 55
73 99 60
72 99 59
77 105 64
72 98 59
78 105 64
75 101 62
76 104 64
70 95 57
73 100 60
72 99 59
69 94 56
75 102 63
73 100 61
80 107 66
70 96 58
74 101 61
104 124 110
149 166 171
146 162 168
155 173 183
151 168 173
160 178 190
157 173 182
158 174 180
166 181 190
156 172 181
162 179 191
147 163 168
149 166 173
149 166 171
163 179 191
149 167 173
153 169 175
163 179 188
155 172 179
159 177 187
154 172 180
111 133 123
75 102 62
76 103 63
75 101 61
77 105 63
75 102 62
72 97 58
74 100 61
72 99 59
76 103 62
73 100 61
71 97 58
75 101 61
74 100 61
77 103 62
73 99 59
78 105 64
73 99 60
75 102 61
71 97 59
110 130 119
145 161 165
156 172 178
167 184 196
163 180 191
162 178 186
155 170 177
155 172 180
164 181 189
155 172 182
165 181 188
165 182 191
159 176 185
158 175 184
168 185 195
162 179 189
158 176 185
162 179 190
163 180 191
155 172 180
124 142 134
77 104 64
75 101 61
74 100 61
75 102 62
80 107 66
74 100 60
77 103 62
72 98 59
76 104 63
75 101 61
73 100 60
78 106 65
77 104 63
77 105 64
75 101 61
73 99 60
72 99 59
76 103 63
125 145 139
157 173 182
164 181 192
160 177 185
164 182 194
161 178 186
154 171 178
165 183 196
152 168 177
158 176 186
166 184 194
169 186 200
160 178 188
165 182 193
159 176 187
161 177 187
167 184 195
168 185 199
153 171 177
94 117 92
75 101 61
78 105 65
72 98 59
77 104 63
74 100 60
77 104 62
75 103 62
75 102 61
74 101 60
77 104 63
79 107 66
76 103 63
75 101 61
75 101 61
74 100 61
72 99 59
112 133 119
161 179 190
158 176 190
176 191 205
158 176 186
168 184 195
159 176 184
170 187 202
170 186 197
161 178 185
163 180 192
171 187 198
164 180 191
167 184 196
168 185 198
164 182 193
169 187 201
125 144 140
81 110 68
76 104 64
78 105 64
79 107 66
78 105 64
81 109 67
74 101 62
78 105 63
76 103 63
80 107 66
79 107 66
80 107 66
76 104 64
74 101 60
73 100 61
121 140 128
157 174 182
152 170 178
162 180 193
160 177 183
168 185 199
157 174 182
154 172 178
151 168 174
129 148 145
119 140 128
97 121 99
76 102 62
77 104 63
79 107 66
111 132 118
155 171 179
168 186 200
166 184 196
153 171 182
178 193 209
166 183 194
173 192 208
169 186 199
167 185 199
173 191 204
171 189 201
162 179 189
176 194 210
161 179 188
87 112 79
79 107 66
77 104 64
118 140 126
144 164 164
164 181 192
167 185 199
163 181 194
170 188 201
165 183 197
172 189 203
174 192 205
172 189 202
171 188 202
176 194 209
168 184 196
164 180 190
133 153 148
147 166 170
88 115 78
79 107 66
78 106 65
78 106 65
76 104 63
76 103 62
81 109 68
79 107 66
80 108 66
75 102 62
75 102 62
81 109 67
80 108 67
77 104 64
81 109 67
78 106 65
141 159 160
171 187 199
145 162 168
117 138 127
84 111 74
76 103 63
76 103 62
76 104 64
81 109 67
79 107 66
79 107 65
78 105 64
77 104 64
76 103 62
78 107 66
80 107 66
77 104 63
77 105 63
80 107 65
110 132 118
164 181 193
167 184 196
164 181 191
163 180 192
162 179 191
162 179 188
162 179 189
139 158 158
106 128 112
78 106 65
77 105 64
76 103 62
82 110 68
80 108 66
72 98 58
75 101 62
80 107 65
76 103 63
78 106 65
109 130 113
172 189 203
168 185 198
162 179 190
162 178 190
158 175 184
162 178 187
164 182 193
167 184 195
165 182 191
172 190 206
158 174 185
165 181 193
155 172 179
155 172 180
168 184 193
174 191 204
162 179 189
152 169 179
145 164 162
123 143 136
143 161 164
155 173 181
155 172 184
161 177 183
158 173 182
167 183 198
168 184 195
162 180 189
170 187 198
162 178 187
167 183 197
156 173 181
162 179 190
161 178 188
160 176 186
160 178 190
162 179 190
163 179 190
163 179 190
172 188 200
158 174 183
93 117 91
80 108 66
76 102 62
77 104 63
76 103 62
78 105 64
74 101 61
77 104 64
74 101 61
75 101 61
77 103 63
76 102 62
78 106 64
79 106 64
77 104 63
75 102 62
74 100 60
88 112 86
111 130 120
120 139 133
153 170 176
115 137 128
73 100 61
77 104 64
72 98 58
71 97 58
71 97 58
76 103 63
72 98 60
69 95 57
76 102 62
75 102 62
78 104 64
79 106 65
79 106 65
76 103 63
76 102 61
75 102 61
74 100 61
78 105 64
75 101 61
70 96 56
113 133 122
160 177 187
170 187 199
166 182 194
156 172 179
160 177 188
161 178 189
158 174 181
164 182 196
161 177 184
160 177 187
163 179 189
159 176 185
162 179 189
170 186 199
161 177 186
162 178 188
151 169 174
161 177 186
155 171 178
157 173 180
158 175 185
73 99 59
76 103 62
73 99 60
76 103 63
77 105 64
73 100 60
77 103 62
73 99 58
78 105 63
74 101 61
75 102 63
74 101 62
80 103 74
97 118 100
108 128 115
129 149 145
148 165 169
145 163 169
157 174 183
152 168 175
166 182 191
87 111 80
74 101 62
73 99 60
74 101 61
75 102 62
75 101 61
74 101 61
75 100 59
73 99 60
74 101 61
82 110 68
71 97 59
72 98 59
73 99 59
77 104 64
79 106 64
81 109 67
76 102 62
76 103 62
76 103 63
77 104 64
157 174 179
162 178 187
164 180 189
163 180 189
165 181 194
161 179 188
145 161 168
167 182 193
167 183 194
158 175 185
161 177 185
166 183 194
164 179 188
162 180 189
166 182 191
161 177 187
158 176 189
158 175 185
165 181 191
161 179 187
136 155 158
75 102 61
69 95 56
74 101 61
78 105 64
78 106 65
79 107 66
74 101 61
75 102 62
72 97 58
77 104 63
72 98 58
74 100 61
77 103 63
73 99 60
73 99 59
75 102 62
74 100 60
71 97 58
76 103 62
76 102 62
156 173 182
155 172 182
154 171 178
167 184 195
163 180 189
164 181 192
162 180 191
164 180 190
159 174 182
156 174 182
164 181 192
159 176 187
155 172 181
164 181 187
154 172 179
162 178 188
161 179 189
150 167 175
159 175 184
151 168 174
75 100 63
76 104 63
75 102 61
73 99 60
78 105 64
77 104 63
74 101 61
77 104 63
72 98 60
75 102 62
82 110 69
77 104 64
73 100 60
73 100 59
78 105 64
80 107 67
78 106 65
74 101 61
82 106 74
163 181 190
157 172 180
150 168 172
162 180 189
158 176 184
154 171 178
158 175 183
168 184 197
158 174 183
161 179 190
159 176 184
162 180 190
162 178 189
158 175 184
167 185 198
165 182 193
156 173 182
164 181 191
122 142 134
75 102 61
75 103 63
80 107 66
77 105 64
77 104 63
76 103 62
78 105 64
74 100 60
75 103 62
73 100 61
71 97 58
74 101 61
75 102 62
75 101 61
75 102 62
78 105 65
78 105 65
145 164 166
165 182 194
162 179 189
168 185 196
163 180 192
155 172 181
156 172 181
161 178 188
167 184 196
169 185 197
162 179 189
163 180 192
162 178 188
169 186 196
166 182 193
157 174 185
161 178 188
106 128 112
77 105 64
79 107 65
76 104 63
77 104 63
81 109 67
79 105 64
77 105 64
78 106 65
78 105 64
77 105 65
79 106 65
75 102 62
76 104 64
77 104 63
74 101 61
150 168 174
169 186 199
167 184 196
159 178 186
170 187 199
169 186 198
160 178 187
178 194 209
173 190 202
166 183 194
168 186 200
168 185 197
142 162 163
134 154 151
121 140 132
147 165 170
172 189 203
162 180 192
173 189 200
163 181 194
168 185 198
172 189 202
168 186 197
167 184 193
164 181 192
166 184 193
164 181 194
159 176 186
164 181 194
132 153 149
126 148 141
155 174 183
171 189 203
163 181 192
172 191 208
174 192 207
167 185 198
163 181 191
173 189 202
176 193 209
173 191 208
170 186 195
171 189 202
164 182 192
142 161 163
106 128 112
171 188 203
176 194 210
167 184 194
124 145 138
84 112 72
75 102 62
80 107 66
81 109 66
76 105 65
76 104 64
80 108 67
74 101 62
81 109 68
79 106 65
81 109 67
76 104 63
78 105 64
88 115 78
123 144 132
96 119 97
79 106 65
80 109 67
78 106 65
78 105 64
78 105 63
73 100 59
76 103 63
76 104 63
76 103 62
82 109 68
78 105 64
79 107 66
80 108 67
77 104 64
75 102 61
78 106 64
77 105 64
118 137 129
166 183 194
166 182 194
168 185 197
159 176 184
157 174 181
119 139 129
90 117 83
79 108 67
78 105 65
80 108 66
75 101 61
75 102 62
79 106 64
79 107 66
76 103 63
76 103 63
75 102 62
79 107 65
76 104 63
102 126 103
168 186 199
158 175 182
172 189 202
166 184 193
173 190 204
159 176 183
170 187 199
164 182 194
171 188 199
158 175 186
165 182 196
160 178 187
169 186 198
167 184 197
160 177 187
148 166 173
121 141 131
84 108 75
75 102 61
80 107 66
144 163 166
170 187 200
153 170 179
171 188 200
162 179 190
155 172 178
161 179 189
165 181 191
158 175 184
161 177 186
161 178 189
161 177 185
171 187 201
169 186 200
163 181 193
164 180 190
172 188 199
156 172 183
168 185 199
165 182 191
161 176 186
114 135 124
77 104 64
78 105 64
76 104 63
72 99 59
75 102 62
77 103 62
73 100 60
77 104 63
77 104 63
79 107 66
73 100 60
79 107 66
81 107 70
118 138 126
127 148 143
147 165 167
157 174 184
167 184 196
161 178 189
169 186 199
117 138 128
74 100 59
80 107 66
79 108 67
76 103 63
78 106 65
72 99 59
75 101 61
77 105 63
74 101 61
74 100 61
75 102 62
74 101 61
73 99 60
72 99 60
75 101 60
77 104 63
76 103 63
74 101 61
77 103 63
75 102 61
88 112 81
163 181 193
152 170 176
160 177 187
158 174 181
162 178 189
156 172 181
162 179 191
162 179 189
156 174 183
169 185 195
160 177 188
160 177 186
158 174 183
160 176 185
158 174 182
161 178 189
165 181 191
164 182 194
167 183 196
156 173 183
158 174 179
93 114 93
75 101 60
76 103 62
77 104 64
71 97 58
79 107 66
75 102 62
100 122 101
109 130 118
127 147 140
132 150 146
158 175 181
161 179 186
167 183 195
165 182 191
154 171 180
155 172 181
154 171 178
146 164 169
166 183 194
166 183 196
115 136 126
72 99 59
71 95 57
76 102 63
71 97 58
75 102 61
78 106 64
71 97 58
78 105 64
76 102 63
77 104 64
72 98 60
74 101 61
71 97 58
75 102 61
77 105 64
80 107 66
74 101 61
72 98 59
78 106 65
75 102 63
129 148 145
164 181 192
164 180 189
153 171 180
161 176 185
156 173 182
162 177 187
150 167 171
150 167 174
152 169 175
157 174 183
156 173 181
175 193 208
157 176 186
163 179 187
148 165 170
158 175 186
162 179 188
148 165 175
160 177 185
162 179 190
96 118 98
72 98 59
73 99 58
75 101 60
77 104 64
73 100 60
71 97 59
76 104 63
73 99 59
74 101 61
77 104 64
77 104 64
73 100 60
77 104 64
74 101 62
75 102 62
74 100 61
73 99 59
73 100 60
77 103 63
130 149 146
162 179 188
162 178 187
166 181 192
171 188 201
169 186 198
168 184 193
167 183 194
160 178 187
152 169 173
161 178 188
157 174 182
152 169 178
154 172 180
165 181 194
169 186 198
171 187 199
156 174 182
160 178 188
152 170 176
120 139 131
75 103 63
75 102 62
75 101 61
72 98 59
76 104 63
78 105 64
80 108 66
76 103 62
75 102 63
75 102 62
77 104 63
81 109 67
72 99 59
72 99 59
76 103 63
75 101 61
79 107 66
71 97 58
117 138 130
162 178 188
164 181 192
160 176 185
158 175 184
158 175 187
170 187 200
175 191 204
156 172 180
161 177 188
157 173 180
166 182 194
159 175 181
154 171 179
162 179 187
167 183 196
180 197 213
163 181 190
167 184 196
87 110 84
79 106 65
78 105 65
73 99 59
71 97 58
80 107 65
75 102 63
75 102 62
78 105 66
75 102 62
77 105 64
77 105 65
78 106 66
75 102 62
76 103 62
74 101 62
73 99 59
87 114 83
160 178 186
164 181 191
156 172 181
168 183 192
163 180 191
168 185 198
174 192 207
153 171 180
160 176 187
169 186 198
168 185 197
169 187 200
173 191 206
167 184 195
160 178 187
162 179 189
165 183 194
83 109 72
75 102 62
71 97 58
76 104 64
75 103 62
78 105 66
79 107 66
70 96 58
81 108 67
78 105 64
79 107 65
79 107 65
74 101 62
78 106 66
77 104 63
80 105 72
160 179 184
164 181 193
160 177 186
172 188 200
168 185 197
164 181 191
167 184 193
167 184 195
162 179 188
166 182 194
169 187 201
163 181 193
168 186 199
168 184 194
172 189 202
112 133 120
107 130 113
128 148 142
140 159 158
156 175 182
174 191 208
158 175 183
166 184 196
172 190 205
167 185 198
173 190 204
165 183 196
139 158 157
99 123 103
140 159 161
160 178 187
164 181 190
171 188 199
171 188 202
171 188 201
176 194 208
167 185 197
170 188 199
166 183 195
168 186 198
166 183 196
128 149 144
101 125 106
79 107 65
115 137 123
163 180 191
158 177 187
170 188 204
162 179 191
156 175 181
116 138 128
83 111 71
78 106 65
82 110 68
77 105 64
81 109 67
83 111 68
83 112 70
76 103 63
77 105 64
99 122 99
141 159 160
169 188 202
106 130 110
78 106 65
80 108 67
79 107 65
79 107 65
80 108 67
80 109 67
78 106 66
81 109 67
82 110 67
80 108 67
76 103 63
79 107 65
83 111 69
79 107 65
78 106 65
75 103 62
78 106 64
79 107 65
110 131 118
160 178 188
153 170 174
130 151 142
107 130 111
79 107 65
76 102 61
74 101 61
78 106 65
79 106 65
79 107 66
82 110 68
81 109 68
75 102 62
76 103 63
79 106 65
75 102 62
75 103 62
79 106 65
81 109 67
104 128 107
165 182 195
165 182 193
167 184 198
161 178 185
175 192 207
147 164 170
157 173 181
163 180 190
164 180 190
162 178 188
163 180 191
157 174 182
148 165 170
126 145 136
89 115 83
72 98 59
77 103 63
75 102 62
78 105 64
77 104 64
115 135 127
180 196 212
168 186 198
160 178 188
151 168 174
168 185 199
161 177 189
164 181 193
158 174 181
168 184 197
161 178 189
155 172 183
158 176 185
169 186 197
153 171 177
167 183 194
159 176 186
158 174 183
162 179 187
169 186 196
158 175 185
117 137 127
77 104 63
80 108 66
77 104 64
74 101 61
74 100 61
77 104 64
79 106 65
73 99 59
75 102 61
98 122 98
118 138 128
141 159 160
163 180 189
160 177 184
164 181 194
153 169 177
163 179 191
154 171 179
167 183 196
163 179 187
143 162 166
77 104 64
79 107 66
69 95 57
74 101 60
76 102 62
78 105 65
77 104 63
79 106 65
73 99 60
67 93 56
79 107 66
73 100 61
74 101 60
73 99 59
75 102 62
76 102 62
77 104 63
72 98 59
75 102 62
74 101 61
76 102 63
157 174 184
156 173 181
160 177 185
155 171 179
166 184 195
161 179 188
155 171 180
157 173 179
166 183 194
161 177 187
158 176 183
161 179 189
156 173 181
163 180 191
169 186 199
154 170 178
152 169 175
163 179 190
162 179 188
154 172 180
160 176 187
120 140 130
73 100 61
96 119 94
125 143 139
111 130 118
139 157 158
151 169 177
154 171 177
155 172 182
165 181 191
155 171 181
146 163 170
159 176 184
157 173 182
149 166 170
152 170 176
152 168 176
160 177 187
164 180 190
164 181 191
168 184 194
139 158 157
76 103 63
74 101 60
77 104 63
72 98 59
74 101 61
73 98 58
77 104 64
72 99 59
79 106 65
71 96 58
79 107 65
73 99 60
70 95 58
75 101 61
73 101 60
75 102 63
75 102 63
74 101 61
74 101 61
75 102 62
89 114 87
158 177 185
150 168 174
158 175 182
154 172 179
164 182 194
154 171 177
154 173 182
155 172 180
162 179 189
162 179 192
150 168 176
159 175 184
149 166 173
163 179 190
152 168 177
160 178 187
152 169 176
162 179 190
157 173 184
165 182 196
130 149 146
76 102 62
77 104 64
74 101 60
77 104 64
74 100 60
72 99 60
75 102 63
75 102 62
74 99 60
73 99 60
73 98 59
74 101 61
71 98 59
78 105 64
76 103 63
75 102 61
80 108 67
75 102 62
76 103 62
88 112 84
161 178 186
156 173 182
160 177 187
162 179 187
167 184 196
158 174 183
155 172 179
155 173 183
155 172 180
152 169 176
161 178 189
148 164 169
160 177 186
159 175 187
162 178 190
159 176 186
161 178 186
166 183 195
150 167 171
152 170 175
77 104 66
80 107 66
78 105 64
79 106 65
76 102 62
71 96 57
72 99 61
69 95 56
76 104 64
76 104 63
75 102 62
80 108 67
77 104 62
73 99 59
75 102 61
76 102 62
72 98 60
81 110 68
86 111 78
149 167 172
156 173 180
162 179 191
174 190 205
169 187 198
170 185 193
159 175 186
154 172 180
167 184 195
163 180 190
160 177 187
171 189 203
161 177 187
164 181 193
161 178 188
166 181 190
163 180 190
159 177 186
145 162 167
73 100 60
78 105 64
76 102 62
77 103 62
79 106 65
77 105 64
74 101 61
76 103 62
76 102 62
73 100 60
74 100 61
78 105 64
74 101 62
76 103 63
75 102 62
77 103 63
74 100 60
131 151 143
161 179 192
166 184 195
172 189 201
161 178 188
164 180 189
164 181 192
173 190 203
154 170 178
159 176 183
165 182 191
163 180 192
171 189 204
160 178 188
166 183 195
165 181 193
163 180 189
134 152 152
79 106 65
75 103 63
76 103 62
75 102 62
78 106 65
76 103 63
80 108 66
77 105 64
74 101 61
78 105 64
77 105 64
74 101 61
84 112 70
78 105 63
78 106 65
102 124 105
159 177 187
172 189 201
169 186 198
173 190 205
162 180 189
167 184 194
159 177 189
173 192 208
165 182 195
169 186 198
164 182 193
160 178 186
163 180 190
178 195 209
158 175 185
84 111 76
81 109 67
75 102 62
80 108 67
88 113 82
116 139 125
126 148 139
142 162 166
161 179 187
148 167 167
91 117 87
77 105 64
78 106 65
87 113 80
147 165 170
166 183 196
163 181 191
160 176 184
174 192 207
171 188 202
166 183 193
175 193 207
168 184 193
142 162 164
85 110 76
79 107 66
78 105 65
76 104 63
119 140 132
173 190 204
171 188 202
173 191 205
162 180 191
170 188 201
171 188 200
158 176 186
132 153 148
93 119 89
77 105 65
79 107 66
79 107 66
75 101 61
108 130 114
143 163 164
172 190 202
161 179 190
171 188 201
101 124 104
80 108 67
82 110 68
78 106 65
77 104 64
76 103 62
77 104 63
79 108 66
75 103 63
78 106 66
78 105 64
77 104 63
81 109 67
82 110 68
79 107 65
76 104 63
74 101 60
77 105 65
77 104 63
103 124 103
114 135 123
84 110 75
81 109 67
75 102 61
76 103 63
76 103 63
74 100 60
79 106 64
77 105 63
80 108 67
77 105 63
79 107 66
74 101 61
77 104 64
79 106 64
78 105 64
78 105 64
77 104 63
78 105 65
100 123 103
175 190 203
161 179 189
168 186 196
156 173 180
167 183 193
162 179 189
171 188 203
171 187 199
165 181 191
142 160 160
116 136 127
88 114 84
80 108 67
77 103 63
76 104 63
77 105 64
77 104 64
75 102 62
77 104 64
83 111 69
115 136 127
170 187 200
163 180 193
162 179 191
169 184 197
170 187 197
168 186 199
170 187 201
163 181 192
157 174 185
172 189 203
172 188 202
169 186 198
163 180 192
154 171 177
162 178 188
160 177 189
167 184 197
157 175 182
169 185 195
170 186 198
139 159 160
80 107 65
77 104 64
72 98 59
76 102 61
72 98 58
83 109 75
105 126 108
141 159 159
160 177 184
170 187 199
159 175 186
164 181 191
156 175 185
158 176 186
161 177 184
159 175 185
166 182 194
165 183 193
170 186 197
162 179 188
161 180 191
83 112 69
77 104 63
72 99 60
84 112 70
79 106 64
77 103 63
73 100 59
77 105 64
71 97 58
74 100 60
72 99 60
73 99 58
72 99 61
78 104 63
79 106 65
79 106 65
77 103 63
80 108 65
71 98 58
80 107 66
72 98 59
138 157 158
166 183 196
151 168 174
154 170 178
163 179 188
168 184 195
162 179 190
162 178 190
174 190 203
164 180 189
163 180 191
158 175 183
151 168 173
161 176 184
162 179 188
163 180 190
167 183 193
153 171 175
152 170 176
138 156 157
123 142 136
105 128 106
161 177 185
165 183 197
156 174 182
159 177 187
165 182 194
152 170 180
156 171 178
164 181 191
161 178 190
159 176 188
164 181 192
157 174 185
174 192 206
168 186 199
163 181 195
161 177 183
160 176 186
158 174 181
170 188 199
167 183 194
169 184 194
99 121 103
76 103 62
73 99 59
71 98 58
74 101 62
73 99 58
75 103 62
77 103 63
79 106 64
72 98 59
75 102 62
77 104 64
74 101 61
76 103 62
76 103 62
76 103 64
76 103 62
73 100 60
73 99 59
73 99 59
75 101 61
145 162 168
157 173 183
157 173 183
159 175 184
157 175 183
166 183 193
166 183 195
153 170 177
167 183 193
159 177 186
159 175 181
150 167 171
162 179 189
155 171 176
161 178 188
161 177 186
163 181 193
153 171 181
163 180 190
162 179 190
158 175 184
86 111 83
78 105 64
77 104 63
79 106 64
78 105 64
80 108 66
78 105 63
72 97 59
76 104 64
76 102 62
77 104 63
74 100 61
77 104 63
74 101 61
72 99 59
75 101 61
75 102 62
75 102 62
77 103 63
74 100 60
131 150 150
168 183 194
161 178 186
167 184 196
174 191 204
153 170 178
164 181 191
156 174 183
165 182 193
154 171 180
160 177 186
179 195 209
161 178 190
156 174 183
158 175 184
154 171 179
151 168 178
161 178 187
168 185 197
164 181 192
105 128 111
79 106 65
77 104 63
74 101 61
76 103 63
73 99 59
75 101 61
74 100 60
73 100 60
81 108 66
74 100 61
73 99 60
76 102 62
76 103 62
77 104 63
75 102 62
78 106 65
74 100 61
79 106 64
117 138 130
156 172 181
160 176 185
166 184 196
160 176 185
164 182 194
158 176 186
159 176 186
162 180 192
165 181 194
158 176 186
164 180 190
161 179 189
167 184 194
165 182 193
159 176 181
165 181 191
159 176 187
158 175 186
114 133 121
77 104 63
79 107 65
77 104 63
75 102 62
74 100 60
76 104 63
76 103 64
79 107 66
74 101 61
73 99 60
71 98 58
79 106 65
78 106 65
75 102 62
77 104 64
81 109 67
81 108 69
147 164 170
169 186 198
154 171 179
158 175 185
162 179 190
164 182 195
171 187 200
159 176 187
169 186 199
164 181 191
170 187 200
168 184 195
157 174 182
168 185 198
159 176 185
160 178 186
167 183 195
99 122 99
80 109 67
78 106 65
73 100 60
76 104 63
82 111 69
81 109 67
80 107 66
76 104 64
78 105 64
75 102 62
81 110 68
79 107 65
81 109 68
78 105 63
76 104 63
127 147 145
164 182 194
160 177 187
170 186 198
170 187 198
162 180 189
159 177 186
166 184 195
158 176 186
160 179 189
167 184 195
164 182 194
175 192 207
172 189 201
161 177 186
143 161 161
81 109 67
74 101 61
84 113 70
81 109 67
83 110 68
96 119 96
123 143 134
170 188 202
150 169 175
135 154 153
118 139 124
104 127 110
82 109 70
97 122 96
163 181 191
171 188 198
166 183 196
169 187 198
164 180 191
166 184 197
163 180 190
96 122 94
80 108 66
81 109 67
80 108 66
80 108 67
80 108 66
143 162 165
164 181 191
168 186 199
173 190 202
173 190 203
165 182 192
171 187 198
167 184 198
161 180 192
158 176 186
142 160 162
100 122 102
128 149 146
148 167 172
169 186 197
160 178 187
167 185 198
170 187 198
174 191 205
96 120 98
82 110 68
79 106 65
81 109 67
81 109 67
80 108 67
78 105 64
78 105 64
78 105 64
81 109 67
80 108 66
79 107 65
76 103 62
81 109 67
79 106 65
79 106 65
84 111 74
126 146 138
159 177 185
147 165 166
81 110 68
79 106 64
78 106 65
77 105 64
79 107 65
80 109 67
76 102 62
81 109 68
78 105 65
84 112 69
77 105 64
78 106 65
77 104 64
78 106 65
78 106 64
84 113 69
80 108 67
82 110 69
82 110 68
86 111 82
161 178 189
160 177 185
172 189 202
167 186 199
168 186 199
166 184 197
138 156 158
131 151 148
90 113 86
74 101 61
78 105 64
72 99 60
81 109 66
80 107 65
75 102 62
77 104 63
77 105 64
73 100 60
76 103 63
76 104 64
119 139 129
159 176 186
170 188 203
165 181 192
160 176 185
161 178 188
158 176 185
158 174 180
161 178 190
170 187 200
161 179 187
165 182 192
160 177 186
170 186 198
168 185 198
166 183 195
160 176 185
160 177 186
176 191 205
168 185 197
160 178 188
133 153 152
80 106 65
83 110 68
90 114 87
126 146 141
142 160 162
162 178 188
167 182 191
160 178 187
153 169 175
159 176 184
158 174 179
149 166 172
158 175 186
162 178 188
152 171 177
159 176 187
168 186 197
153 168 175
157 175 186
162 179 186
159 176 183
87 112 81
71 97 59
79 106 65
76 103 63
72 98 59
73 99 59
71 96 57
74 100 60
77 104 64
81 108 67
73 99 59
74 100 60
74 100 59
81 109 68
73 100 61
81 109 67
77 104 63
74 101 60
76 103 63
75 101 61
77 104 63
119 140 132
164 181 193
162 180 191
154 171 180
158 175 187
166 183 196
158 175 182
164 180 188
161 177 187
171 188 199
161 178 186
163 179 189
162 180 189
143 159 164
142 160 159
131 149 144
107 130 111
93 115 93
75 102 62
77 105 64
75 102 62
76 102 62
140 157 161
161 177 185
164 181 191
160 177 186
157 174 181
168 185 197
168 185 197
159 177 187
170 187 201
162 178 187
159 177 187
163 180 188
154 171 177
171 186 198
159 177 185
166 182 192
153 171 180
160 177 187
159 175 185
158 175 185
153 171 178
126 145 139
76 103 63
75 102 63
74 101 61
77 104 64
76 103 63
74 101 61
76 104 63
72 98 59
82 109 68
72 98 58
73 99 60
73 99 60
77 104 63
73 99 59
77 104 63
72 98 59
81 108 67
76 102 62
78 105 64
73 100 61
116 135 124
157 173 182
168 185 198
155 171 178
163 178 187
162 179 190
152 169 174
159 178 186
154 172 180
163 180 190
159 177 184
158 174 182
161 178 187
158 175 184
160 177 187
160 177 184
153 171 176
159 175 184
155 172 180
155 172 179
162 179 190
118 138 131
73 100 60
76 103 63
79 106 65
78 106 65
74 100 60
72 98 59
75 102 63
79 107 65
77 103 62
81 108 65
76 102 62
78 106 65
74 101 61
79 106 65
77 104 63
76 103 62
74 101 61
80 107 66
76 102 62
82 106 75
162 179 188
167 184 196
161 179 188
159 176 186
169 185 198
155 172 178
167 183 193
158 175 185
163 180 190
160 176 183
159 177 187
158 175 181
162 179 188
161 179 189
158 176 185
156 174 182
159 175 185
163 180 189
173 189 203
149 167 171
75 103 62
75 101 61
76 104 63
77 105 64
77 104 65
83 109 76
86 112 78
87 112 82
85 111 81
79 106 70
95 119 92
91 115 91
100 124 98
90 114 87
89 114 84
92 115 90
84 108 76
89 112 85
98 121 100
145 162 166
148 165 168
154 173 180
155 173 179
149 166 171
155 172 180
158 174 180
151 169 176
160 177 186
159 176 186
174 190 204
174 191 206
161 178 186
169 186 198
165 181 194
164 181 190
167 184 199
156 174 182
151 168 176
82 110 67
76 104 63
77 104 63
76 104 64
74 101 62
79 106 65
77 105 65
77 105 64
78 106 65
76 103 62
80 108 66
74 101 61
80 108 66
74 101 61
74 101 60
76 103 62
82 110 68
98 121 101
166 184 195
168 186 197
175 191 206
157 174 184
162 179 189
168 185 195
168 185 197
161 179 190
163 180 191
167 185 198
163 181 192
158 175 185
165 182 194
162 179 190
159 177 187
167 185 197
156 173 179
75 102 65
78 106 66
77 105 64
79 107 65
78 105 65
78 106 65
81 110 68
76 104 63
75 102 62
78 106 65
78 105 64
78 105 64
80 107 66
81 108 66
79 106 65
86 113 80
155 173 178
166 182 195
162 180 191
171 188 201
168 185 199
165 181 192
167 185 198
164 182 193
169 187 200
166 183 192
160 177 185
168 186 200
165 183 192
172 189 203
168 186 199
127 149 141
74 101 61
79 106 68
102 126 104
144 162 167
170 186 196
167 184 195
163 180 190
166 182 194
166 183 194
173 191 206
165 183 195
163 180 192
150 168 173
145 164 166
153 171 179
171 188 199
166 184 198
170 188 201
171 189 202
170 188 201
80 108 67
79 107 66
79 107 66
78 106 65
77 105 63
83 112 69
151 170 174
171 188 202
168 185 196
166 184 196
171 188 201
172 190 202
174 191 206
178 195 211
169 185 198
172 190 204
131 152 151
93 118 86
90 116 84
124 144 138
162 180 190
166 183 194
162 180 190
173 190 203
168 186 197
94 118 92
77 105 64
84 112 70
76 103 62
79 106 65
77 104 64
82 111 69
81 109 67
79 106 64
75 102 63
75 102 63
78 106 65
78 106 65
81 110 68
108 131 110
132 151 149
175 192 208
170 187 200
164 179 187
156 174 182
74 102 61
81 109 67
77 104 63
79 106 65
78 106 65
80 108 67
81 108 66
80 109 68
75 103 63
79 107 65
78 106 66
75 102 62
79 107 65
79 107 66
77 104 63
81 109 66
79 107 66
82 110 69
79 107 66
74 100 61
159 177 188
174 190 203
158 175 182
158 176 188
131 150 144
97 122 102
78 106 65
77 103 63
73 100 60
83 112 68
77 104 64
79 107 65
79 107 66
78 106 66
76 102 63
77 105 64
77 104 64
80 108 66
75 101 61
78 106 64
99 121 102
166 184 195
165 182 192
173 189 202
161 178 189
168 185 198
162 179 189
168 185 199
160 177 187
162 179 189
155 173 182
155 172 179
159 176 186
164 182 196
161 178 187
159 178 187
162 180 192
166 184 197
176 193 206
159 176 185
162 178 190
140 158 160
123 143 138
143 161 167
154 171 180
168 184 193
161 179 189
167 184 197
167 184 198
164 182 190
166 183 195
167 184 195
150 168 173
168 186 197
161 179 190
166 185 198
169 187 199
159 176 186
163 181 193
158 173 180
160 178 186
170 186 198
156 173 180
125 144 137
74 101 62
77 104 63
73 100 59
74 100 61
78 105 64
78 106 65
73 99 59
74 100 60
74 101 61
74 101 61
75 102 62
78 106 65
78 105 64
73 100 60
80 107 66
80 107 65
76 103 62
76 103 63
77 104 64
74 101 61
106 130 109
162 179 189
155 172 180
164 179 191
161 179 189
164 180 192
162 179 190
140 157 159
167 185 200
158 175 181
128 146 143
110 133 118
88 112 85
73 100 60
76 103 62
76 103 62
75 102 62
74 101 61
77 104 63
73 100 60
74 101 60
74 101 60
128 147 145
160 175 182
160 178 188
160 177 186
164 181 191
158 174 182
156 173 180
161 177 187
158 174 181
157 173 181
166 183 194
159 175 184
157 173 181
159 176 183
152 169 177
155 172 180
162 180 191
155 172 181
156 173 182
151 169 176
152 170 175
140 158 160
72 99 59
74 101 61
74 100 61
78 106 65
77 104 63
78 105 63
75 102 62
73 99 60
72 98 58
76 103 63
78 106 64
77 104 63
71 96 57
80 107 65
76 104 63
77 105 64
77 104 63
72 98 59
75 102 62
74 100 61
84 110 77
162 180 188
166 182 195
165 181 195
163 181 194
148 166 172
157 173 180
163 181 193
162 179 191
156 171 178
161 179 190
156 173 176
166 182 191
166 183 194
173 189 203
158 176 187
176 192 206
158 174 180
158 174 180
167 183 193
166 182 192
145 163 167
76 104 63
77 104 64
76 103 63
81 108 66
77 104 64
78 105 64
78 105 64
74 101 60
76 103 63
73 99 60
69 96 58
74 100 60
73 99 60
75 102 63
77 104 63
80 107 66
77 104 63
72 98 59
74 100 60
76 103 63
136 153 149
158 175 184
161 177 184
152 169 176
152 169 174
142 160 165
138 156 158
132 151 150
121 141 135
127 147 142
119 140 132
119 140 131
109 132 116
113 134 122
97 119 102
109 129 115
96 118 97
99 122 105
89 113 84
97 120 97
137 157 155
158 176 184
160 176 186
150 167 173
155 173 181
147 165 170
159 177 186
168 185 196
157 173 181
156 173 180
165 182 194
153 171 177
159 175 184
167 185 196
164 181 195
165 183 195
158 174 181
152 170 177
163 179 188
131 150 149
73 99 60
78 105 63
72 99 59
78 106 64
75 102 62
75 102 61
78 105 64
76 104 63
80 108 66
73 99 60
78 106 68
82 107 78
93 118 91
100 123 102
91 115 88
110 133 118
105 127 107
95 118 95
122 142 132
149 166 171
142 160 160
139 158 159
127 147 140
112 132 121
120 140 134
105 127 111
110 132 118
102 127 104
96 120 94
98 122 102
85 112 77
76 103 61
75 103 62
80 109 67
72 99 59
79 107 66
130 149 147
163 180 191
165 182 194
162 179 191
158 177 188
161 178 187
171 188 202
161 178 189
158 174 181
167 185 197
158 174 181
171 188 203
159 177 188
169 186 196
165 182 194
163 179 187
167 184 199
140 159 160
78 106 65
76 103 63
81 110 67
78 105 63
78 105 65
77 105 63
78 105 64
75 102 62
84 113 69
78 106 65
77 105 65
77 104 63
77 105 65
83 111 69
79 107 65
111 134 119
160 178 187
169 188 203
172 190 204
171 189 202
163 181 194
162 180 190
166 183 194
166 185 197
168 185 197
166 183 197
169 187 200
160 177 186
169 187 199
169 186 198
158 178 188
110 133 118
160 177 185
169 187 198
165 183 197
167 185 197
160 178 189
178 195 211
158 177 183
166 184 197
168 186 200
166 184 199
165 182 191
170 188 202
174 191 201
130 151 145
80 108 69
101 125 103
119 140 129
139 159 162
168 185 199
80 109 67
80 108 66
84 113 70
78 106 66
82 110 69
79 107 66
157 175 181
179 195 209
170 188 202
169 186 198
174 192 207
166 183 195
173 191 205
158 178 186
121 142 135
89 115 84
83 112 70
82 111 69
75 103 62
80 109 67
80 108 67
104 128 109
135 153 148
166 182 191
165 180 187
89 116 82
80 108 66
78 106 65
78 106 65
81 109 67
82 110 68
82 110 68
77 105 64
77 104 64
80 108 67
78 106 64
91 116 91
136 155 156
155 175 185
177 194 208
168 186 200
158 176 185
170 187 200
171 188 198
144 164 168
81 109 67
77 104 62
82 111 68
73 100 61
78 106 64
80 108 66
79 106 64
71 97 58
80 108 67
81 109 67
81 110 67
77 104 64
77 104 64
78 107 65
77 104 63
76 103 63
77 105 64
80 107 65
79 107 66
75 102 62
156 174 180
136 155 151
103 127 105
76 103 63
74 101 62
76 102 62
82 110 68
76 104 63
79 106 64
76 103 63
75 102 62
82 111 69
76 102 62
78 105 64
77 105 63
79 107 66
82 110 69
82 110 68
75 102 62
74 101 60
105 128 106
171 189 202
163 181 190
165 182 194
160 176 185
156 175 187
168 185 197
167 183 194
164 181 192
161 179 192
170 186 197
162 181 194
170 187 202
162 178 189
170 187 201
160 177 185
165 183 196
159 177 187
137 156 158
121 141 130
77 102 67
77 105 64
163 180 189
157 174 182
166 184 198
159 176 184
158 176 187
171 188 202
154 172 179
165 181 192
159 175 181
170 187 200
151 168 176
163 180 191
166 183 194
159 177 187
153 170 177
159 176 185
157 173 180
167 183 195
166 183 195
172 189 204
169 186 199
111 131 121
76 102 63
79 107 65
80 108 66
76 103 63
75 102 62
79 106 64
79 107 66
76 102 62
74 101 60
76 103 62
76 102 62
74 101 61
81 109 67
75 102 63
73 100 60
80 108 67
75 102 62
78 105 65
76 102 62
75 101 62
75 102 62
161 178 186
165 182 195
157 173 180
161 177 187
143 160 162
118 137 128
100 122 103
75 103 63
75 101 61
76 104 63
74 101 60
77 104 63
74 100 61
79 108 66
76 102 62
72 99 59
72 98 59
77 104 63
78 104 64
77 103 62
82 110 68
125 145 137
164 181 192
166 182 191
160 177 187
155 171 181
160 177 186
162 179 188
161 179 190
163 180 187
156 171 179
157 175 185
173 189 203
169 185 197
164 180 190
152 170 180
159 176 186
168 184 194
157 174 185
164 180 189
165 181 191
161 177 187
155 172 180
93 118 89
73 99 60
75 102 63
77 103 62
78 105 64
72 99 59
71 97 58
74 100 59
75 102 62
77 104 63
74 101 62
71 96 58
69 94 55
78 105 64
80 107 65
76 103 62
70 96 59
79 106 64
76 102 62
72 98 58
78 106 65
146 164 170
162 179 191
167 186 199
153 170 177
161 178 189
167 183 193
151 170 176
154 172 178
167 185 198
158 175 183
162 180 188
161 179 188
159 175 185
154 171 181
155 171 179
155 173 182
165 181 192
158 175 184
158 175 187
165 182 192
156 173 181
107 129 109
75 102 61
78 105 64
78 106 64
76 103 63
77 104 63
78 106 65
75 102 62
76 102 65
89 111 90
101 125 105
97 119 101
124 144 136
128 147 146
123 142 138
133 151 151
143 161 163
140 158 162
152 170 174
154 171 177
145 162 165
76 103 63
77 104 64
78 105 63
76 103 63
79 107 66
77 104 63
80 107 66
78 106 66
77 105 64
78 105 65
72 99 59
77 105 63
78 106 65
74 101 62
75 102 61
76 103 63
76 103 62
76 103 63
73 99 59
108 129 119
153 171 180
165 182 195
161 177 189
153 171 181
166 183 195
165 182 194
159 175 183
167 185 195
168 184 195
163 179 189
164 180 191
165 182 194
159 176 185
168 185 197
165 182 194
165 183 194
159 176 188
160 176 184
158 175 188
110 133 119
72 98 59
77 104 63
79 107 67
79 107 66
77 104 62
82 111 69
74 100 60
80 107 65
78 105 64
76 103 63
75 102 62
76 103 63
78 106 64
75 102 61
81 109 67
74 100 60
77 104 64
82 107 76
164 181 191
169 185 195
164 182 191
167 184 196
167 184 195
176 191 202
160 177 184
165 181 191
164 180 192
166 183 196
165 182 195
173 190 204
160 176 186
152 168 174
143 161 162
155 173 178
141 160 160
142 161 163
121 139 133
141 159 160
150 169 172
140 158 158
147 165 165
153 170 177
167 184 196
170 187 198
170 188 201
168 185 198
172 189 202
161 177 189
155 173 182
165 182 194
169 185 198
170 188 203
158 174 185
100 124 100
77 104 64
77 105 65
79 107 66
80 107 66
81 108 66
79 106 65
76 103 63
79 107 65
79 107 66
73 100 60
82 110 68
77 104 63
77 104 63
81 110 68
78 106 65
121 142 131
166 183 194
169 185 196
161 179 188
167 183 195
175 192 206
164 182 191
169 187 201
164 182 192
172 189 203
164 182 192
169 186 196
140 160 160
111 133 117
80 107 65
105 128 108
170 188 202
171 188 202
173 190 202
159 176 187
162 179 188
178 195 210
178 194 209
177 194 210
165 182 192
165 183 193
168 185 196
168 185 199
170 187 201
171 188 199
109 133 114
81 110 68
76 104 63
80 109 67
82 108 72
83 111 68
79 107 66
83 112 70
80 108 66
78 106 65
81 109 67
163 180 189
170 188 200
167 184 196
174 192 207
159 178 189
151 169 176
123 144 136
80 108 69
81 109 67
79 106 65
77 105 65
83 111 69
82 110 68
76 103 62
75 102 62
76 103 63
80 108 67
77 105 64
114 136 125
117 138 126
89 116 82
80 108 66
80 109 67
79 107 65
83 111 68
81 108 67
80 109 67
73 100 60
108 130 112
143 163 163
166 183 194
164 180 189
163 181 191
165 183 194
165 183 194
170 188 201
174 190 203
170 186 199
147 166 170
79 106 65
80 108 67
76 103 63
78 105 63
74 101 61
76 103 63
82 111 69
77 105 64
78 106 64
81 110 68
83 112 70
77 104 62
76 103 63
78 105 63
76 104 63
78 106 65
78 105 63
77 104 63
122 143 131
144 163 163
89 113 83
77 104 64
83 111 68
76 103 62
78 105 65
80 108 66
81 108 66
76 103 63
75 103 63
78 105 64
75 102 62
78 105 64
73 100 61
74 101 62
78 105 64
80 108 66
80 107 66
78 104 63
80 108 66
80 108 66
79 106 68
168 184 195
165 183 195
162 178 189
168 185 199
167 183 195
159 178 189
168 185 197
155 173 181
165 183 195
170 187 199
158 176 184
166 183 195
166 183 194
160 177 184
147 167 170
108 131 116
76 103 63
78 105 64
75 102 62
78 105 64
76 103 63
158 176 185
163 181 191
165 181 193
172 189 203
165 182 194
163 179 189
161 177 185
162 179 190
174 191 206
166 181 192
164 182 192
157 174 185
166 182 194
165 182 195
165 182 193
167 184 195
166 184 195
167 183 193
161 177 185
163 181 191
175 192 206
145 163 166
71 97 59
76 103 63
77 104 63
78 106 64
78 105 64
77 103 63
74 101 61
75 102 62
77 104 64
71 98 59
81 109 66
73 100 61
78 105 65
77 105 64
77 105 64
78 105 64
76 103 63
75 102 62
79 107 66
79 106 64
91 115 89
127 148 144
121 141 131
83 107 78
77 104 62
77 103 62
77 104 63
80 108 66
79 107 66
74 101 62
79 107 66
73 99 60
78 105 64
76 103 63
78 106 64
78 104 63
75 100 60
78 105 64
73 100 60
77 105 64
74 100 60
75 102 62
77 103 64
151 168 177
157 174 185
163 180 192
169 185 194
156 173 182
159 176 187
168 185 196
160 176 183
168 185 196
165 183 196
162 179 188
168 185 198
162 180 191
165 183 193
154 171 180
167 182 191
162 179 190
169 185 195
153 169 174
163 180 190
166 182 191
118 138 128
75 102 62
72 98 58
74 100 61
75 102 63
77 104 64
73 100 61
73 100 61
80 107 65
74 101 61
77 105 64
76 103 62
71 98 58
74 101 63
77 105 64
72 98 59
77 104 64
76 102 63
79 107 66
76 104 63
75 101 61
108 129 114
161 178 188
157 174 183
162 180 193
159 176 185
160 178 187
160 177 185
164 178 187
156 175 185
160 177 188
164 180 190
159 175 184
166 183 192
167 184 195
167 184 196
163 180 191
157 176 190
157 175 184
168 185 195
157 175 184
151 169 174
126 145 138
115 135 126
123 141 133
133 153 150
139 158 159
143 161 159
153 171 177
158 176 182
149 167 175
172 188 200
161 178 187
163 178 186
160 177 185
170 187 200
162 179 190
167 185 199
166 182 193
169 185 197
167 184 193
160 177 185
168 186 199
115 135 124
77 105 64
74 101 61
78 105 65
78 105 64
77 103 63
75 101 62
77 104 63
72 98 59
77 104 63
78 105 64
75 102 61
77 104 63
77 105 64
79 107 66
76 103 63
73 100 60
75 102 62
78 105 64
79 106 64
143 160 162
159 176 184
164 181 193
169 187 198
163 179 188
166 182 194
165 181 193
163 178 184
169 186 199
171 188 203
171 188 201
158 175 187
160 177 187
157 174 182
166 183 193
155 172 181
163 179 189
161 179 191
160 177 188
141 161 165
75 101 61
78 106 65
75 101 61
73 99 60
75 102 63
75 101 61
82 111 68
83 111 69
69 95 56
78 105 63
73 100 61
76 103 63
80 108 66
79 107 67
73 101 61
77 104 64
76 103 62
76 103 62
113 135 121
165 181 191
168 184 197
162 180 192
167 183 192
157 174 181
170 188 201
160 177 186
165 182 194
168 187 200
172 188 198
167 184 196
166 183 195
168 186 198
152 171 178
167 183 191
170 187 201
167 185 198
140 158 157
77 104 64
76 103 64
72 98 59
74 100 61
79 107 66
77 103 65
83 109 74
85 110 76
101 124 103
127 147 141
123 143 136
135 154 151
147 165 168
155 171 178
158 176 185
169 186 198
158 175 184
87 114 78
78 106 65
80 109 67
79 106 65
81 108 66
78 106 65
82 110 67
79 107 66
81 109 67
80 108 67
81 109 68
78 105 64
76 104 63
81 109 67
74 102 62
78 106 64
161 179 189
170 187 202
159 175 186
162 179 187
167 184 195
168 185 196
163 180 189
170 187 201
142 161 164
119 139 129
80 107 69
82 111 69
78 106 66
77 105 64
79 107 66
125 145 139
166 184 197
167 185 194
164 181 194
170 188 200
157 174 184
170 187 199
172 189 202
162 180 191
172 190 204
168 185 197
163 180 189
170 187 200
175 193 208
160 179 187
85 111 79
78 105 65
76 103 62
80 109 67
81 109 68
82 110 68
84 113 71
75 102 62
81 109 67
86 113 78
180 197 212
168 185 195
172 190 203
151 171 175
104 129 104
82 111 69
84 112 69
80 108 66
78 106 65
78 106 65
80 108 67
79 106 65
81 110 68
81 110 68
79 106 65
80 108 66
79 107 66
75 103 63
83 111 71
167 185 201
168 185 198
155 173 179
119 141 130
85 111 76
81 109 67
80 108 66
121 141 130
161 178 186
167 183 193
167 185 199
165 181 193
171 187 199
165 182 193
169 186 200
178 196 211
169 185 197
173 191 206
169 185 197
135 154 151
76 103 63
79 106 65
82 110 68
78 106 64
78 106 63
83 112 70
81 109 67
80 107 65
75 102 61
77 105 64
80 107 65
80 108 66
79 106 64
78 106 65
76 103 62
106 128 109
141 159 159
163 179 187
170 187 199
178 194 209
106 130 111
77 105 65
78 106 65
81 110 68
77 105 65
78 106 65
77 104 64
77 104 64
79 107 65
78 106 65
77 105 65
76 103 62
81 108 67
78 105 64
82 110 67
76 104 63
79 106 65
79 106 64
79 106 64
78 105 65
73 100 61
159 176 188
170 187 200
161 179 189
163 181 190
166 183 196
164 181 192
167 184 198
165 181 192
158 176 186
170 187 199
150 167 172
118 139 131
101 123 103
78 106 64
76 103 62
80 107 65
78 106 66
77 104 64
81 109 67
79 107 65
77 104 63
139 156 157
168 185 200
165 181 192
165 181 189
167 184 196
161 177 187
166 182 192
161 179 190
171 188 201
159 176 187
167 184 196
163 181 194
160 177 187
165 182 194
165 183 194
168 186 201
167 182 191
163 180 188
162 178 187
168 183 195
161 178 188
153 171 178
74 100 61
78 106 65
77 105 64
77 105 64
72 98 58
76 103 62
78 106 66
76 103 62
76 103 62
72 98 59
74 102 62
78 106 64
81 109 67
74 100 60
75 102 62
81 109 68
96 120 96
125 145 140
137 156 156
153 170 178
145 163 166
133 151 147
79 107 66
78 105 64
75 101 62
72 98 60
79 106 65
76 103 63
79 106 66
77 104 64
77 104 63
79 107 66
78 105 64
79 106 64
79 107 66
72 98 59
77 104 63
75 101 62
77 104 64
75 102 61
78 105 64
75 102 62
74 100 60
146 165 166
153 171 176
157 175 184
159 176 185
154 171 179
163 180 189
158 176 186
171 187 200
154 171 178
155 172 180
159 177 190
164 181 189
155 173 181
158 174 183
158 175 185
163 180 189
161 178 186
164 181 193
151 169 171
160 178 187
162 178 188
153 171 178
74 101 61
73 99 60
77 104 63
78 105 64
75 101 61
74 100 60
73 100 60
74 100 61
77 105 64
80 108 67
78 106 66
73 100 59
77 104 63
75 102 62
77 104 63
75 102 62
75 103 62
77 105 64
82 109 68
77 104 64
79 105 67
146 164 168
152 171 180
168 185 197
161 178 187
165 182 192
158 175 186
157 174 183
168 184 194
167 184 194
149 166 173
159 176 185
145 164 169
143 162 162
126 146 137
114 134 123
98 119 99
83 108 76
84 109 77
75 102 62
73 99 59
78 104 66
153 170 178
164 181 193
163 180 191
166 182 192
161 179 190
156 173 182
167 184 198
164 181 193
155 170 177
163 180 190
164 180 190
167 183 193
153 171 178
156 173 181
154 171 178
164 181 193
164 181 193
177 193 206
161 178 188
161 178 187
135 154 156
78 105 64
76 102 61
77 104 64
77 105 64
77 105 65
71 97 58
75 103 63
76 103 63
71 98 57
75 101 61
71 97 58
77 104 63
75 102 62
76 104 63
79 107 66
73 100 60
76 104 62
74 100 61
77 104 63
106 127 114
157 175 182
154 172 181
165 182 194
149 166 172
170 187 200
168 186 198
172 189 203
159 178 189
166 182 194
156 172 179
159 176 186
155 173 182
157 174 183
151 169 176
164 181 192
164 182 193
166 183 196
166 183 193
165 181 193
98 121 98
74 101 61
76 103 62
73 100 61
73 99 58
76 103 63
73 100 60
78 105 65
72 99 59
77 105 63
76 103 62
78 105 64
74 101 61
79 107 65
79 106 65
77 105 64
79 108 67
78 105 65
80 107 74
158 175 182
165 183 196
169 187 200
170 186 197
164 182 194
165 182 193
172 190 203
165 182 190
164 182 193
159 177 186
174 191 203
164 181 192
165 183 194
162 179 190
160 177 187
165 181 192
165 180 191
168 184 197
107 128 112
74 100 61
74 100 60
75 101 61
76 103 62
81 110 68
75 102 61
78 106 65
78 105 63
77 105 64
76 103 62
77 104 63
75 102 61
79 106 65
81 109 68
79 107 65
91 116 83
127 147 139
142 161 164
131 152 147
122 142 133
114 135 121
86 111 78
85 111 76
77 104 64
81 110 68
82 110 68
79 107 66
80 108 67
76 103 62
82 110 68
81 110 68
77 105 65
96 121 93
171 187 200
163 181 192
170 187 201
161 180 192
142 160 164
117 140 128
83 110 74
77 105 64
81 109 67
78 106 65
80 108 67
78 106 65
79 107 67
78 106 66
80 108 67
147 167 168
161 178 188
168 185 198
171 189 204
172 189 203
177 194 210
178 194 206
173 190 204
172 190 203
162 181 192
171 190 206
172 188 198
173 190 203
164 181 194
144 163 165
80 108 66
80 107 65
81 109 67
77 105 64
82 110 68
82 110 68
80 108 65
83 112 69
96 122 97
166 183 191
152 171 174
84 110 77
80 109 67
84 112 69
77 105 63
82 110 68
77 105 64
80 107 66
81 109 67
78 106 65
80 108 67
76 103 62
77 104 63
78 106 65
75 102 62
76 104 63
82 111 69
88 114 82
168 186 197
166 182 192
167 186 199
174 192 207
161 179 190
107 129 112
119 139 128
155 172 180
170 187 199
170 186 198
181 197 212
170 188 203
169 187 199
162 180 190
167 185 198
162 179 189
177 194 208
167 184 197
164 182 193
153 172 176
80 108 66
80 108 66
77 104 63
77 105 64
80 109 67
78 106 64
79 108 66
81 109 68
78 106 65
83 111 69
83 111 69
78 105 64
99 123 99
128 148 144
147 165 170
161 178 188
168 184 196
172 188 201
164 181 190
170 187 200
95 119 92
75 103 62
79 107 66
80 107 65
79 106 64
79 106 65
82 110 68
83 111 69
80 107 66
79 108 66
79 108 66
80 108 66
71 97 59
78 106 64
75 102 61
74 101 62
80 107 66
81 109 67
80 108 67
77 105 64
74 101 61
158 176 184
159 177 189
168 186 199
166 181 193
161 178 187
165 181 191
167 185 198
150 167 173
133 152 146
89 115 85
79 106 65
75 102 63
74 100 60
75 101 61
73 99 60
74 101 61
81 110 68
80 107 66
77 105 65
77 103 63
80 108 66
128 147 140
158 175 183
155 172 179
174 190 203
176 192 206
176 192 208
171 188 200
162 178 187
162 180 190
162 178 187
161 178 188
164 181 191
167 183 196
164 182 193
161 178 190
162 179 187
162 179 189
157 175 182
160 178 191
169 187 201
162 180 190
161 178 188
81 106 78
79 107 65
77 104 63
80 107 66
73 99 59
78 105 64
81 110 68
78 105 64
73 99 59
79 107 66
78 105 64
83 110 70
104 127 110
135 154 150
130 148 145
159 177 183
177 194 207
149 165 171
160 176 183
166 183 196
158 175 186
153 171 178
74 101 62
81 109 67
77 104 63
74 100 62
76 103 62
75 102 61
81 108 66
71 97 59
83 111 69
75 102 61
81 110 67
76 104 64
74 100 60
77 105 64
81 109 67
75 102 62
76 103 62
78 105 63
75 103 62
75 103 63
74 101 61
126 146 138
157 174 185
158 174 180
161 178 187
156 174 183
169 185 197
166 182 194
160 177 184
159 176 187
156 174 182
167 184 196
160 177 185
167 185 197
160 177 188
154 172 183
168 185 196
171 188 199
167 183 195
162 180 187
155 172 179
165 180 190
159 175 184
93 117 91
77 104 64
79 106 64
78 105 64
74 100 61
78 106 65
77 103 63
75 102 62
75 102 61
80 108 67
78 106 64
77 104 63
74 100 61
83 110 68
73 100 60
77 105 64
75 102 62
72 98 58
79 107 65
73 99 60
76 102 61
133 152 149
156 173 180
143 162 163
135 154 154
136 155 154
119 140 129
100 121 100
94 118 93
74 100 66
77 104 64
80 107 66
71 97 58
78 105 64
78 105 64
78 106 65
75 102 62
74 101 61
73 98 58
75 101 60
76 103 63
79 107 67
121 142 131
155 172 179
159 177 185
165 182 191
161 178 188
170 187 199
163 181 191
160 178 188
161 178 188
149 167 174
156 173 181
160 177 185
151 169 176
164 180 192
158 174 182
166 182 194
173 189 201
162 178 186
158 176 186
163 179 190
163 180 191
87 111 85
77 104 63
77 104 63
78 105 64
76 103 63
77 104 63
81 110 67
82 110 69
75 102 62
77 103 63
77 105 65
75 102 62
80 108 67
74 100 61
78 106 65
75 102 62
75 102 62
76 102 62
78 106 66
78 106 65
153 171 177
158 176 186
162 180 189
156 174 182
167 184 197
169 187 198
166 184 194
158 174 182
162 180 190
168 184 194
166 183 196
163 182 194
150 166 173
176 192 205
168 186 199
169 186 199
163 180 192
156 173 180
159 176 187
147 166 169
79 106 68
77 105 64
71 98 59
76 103 62
74 101 61
78 105 64
75 102 62
77 105 64
79 107 66
80 107 65
78 105 64
77 104 63
76 103 62
77 104 63
78 106 65
80 107 66
74 100 60
81 109 67
109 132 116
166 183 195
168 184 195
170 187 202
164 181 194
166 182 193
163 180 193
172 189 203
158 177 186
161 178 187
173 189 201
162 179 188
161 179 189
173 190 204
160 178 187
157 174 184
172 189 200
164 181 191
160 179 189
78 105 65
77 105 64
81 109 68
80 108 67
82 110 68
77 105 64
78 106 64
74 101 61
75 103 62
79 106 66
79 106 66
76 103 62
79 106 65
77 104 64
80 108 66
73 100 61
80 107 68
159 178 188
162 178 189
166 183 192
168 185 196
168 185 198
162 180 191
160 178 187
147 168 173
136 155 155
128 148 144
120 141 130
94 119 94
93 117 88
76 104 64
80 108 67
79 107 66
125 146 137
139 158 159
116 137 123
82 109 72
79 106 65
82 111 69
79 106 65
76 103 62
76 103 62
82 111 69
81 109 67
81 110 68
81 109 68
79 108 67
79 106 65
88 115 78
165 182 192
162 179 190
169 187 201
168 187 202
172 190 205
172 190 206
168 185 196
163 181 194
171 189 205
162 179 188
166 183 194
173 190 201
179 197 214
167 186 200
138 157 157
79 106 66
79 107 66
81 110 68
82 110 68
82 110 68
80 108 66
93 119 85
113 136 123
99 124 97
76 104 64
81 110 68
79 106 66
78 106 65
81 109 68
83 111 68
78 106 65
84 113 71
79 107 65
82 110 68
78 106 64
79 107 64
78 106 66
81 109 67
82 110 68
81 109 67
79 108 66
104 127 108
172 189 201
166 185 198
149 168 171
103 127 106
76 103 63
81 109 67
82 111 69
82 110 71
105 129 107
136 156 152
154 172 176
169 187 197
166 183 194
172 189 201
158 176 184
171 188 201
175 192 204
168 185 199
164 181 193
145 163 165
76 103 63
80 109 67
82 110 68
79 107 66
77 105 64
81 109 67
81 109 68
76 103 63
81 108 66
79 106 65
116 138 128
149 167 170
162 180 190
170 186 199
167 182 192
168 186 198
165 182 193
166 183 195
163 181 192
166 182 194
113 132 118
79 106 65
80 107 66
81 109 66
80 108 66
80 108 66
77 104 63
80 109 67
76 103 62
78 105 65
79 108 66
83 112 70
74 101 61
79 107 66
77 105 64
76 104 64
79 107 65
78 105 65
79 106 64
77 104 64
82 110 68
144 163 165
169 186 198
161 177 188
163 181 189
140 160 159
118 139 130
92 117 87
77 103 62
77 104 64
79 106 65
74 101 61
76 103 63
78 105 64
76 103 63
77 105 64
80 108 67
78 106 65
75 103 63
75 102 62
77 104 63
80 108 67
111 133 120
156 173 181
162 179 190
162 180 191
162 178 187
173 189 204
179 195 214
163 181 191
172 190 205
163 180 191
157 174 187
168 184 197
164 182 191
167 184 193
165 181 191
161 179 190
163 180 191
162 180 190
159 175 184
170 186 199
162 179 189
164 183 194
111 133 113
75 101 61
73 99 60
76 104 62
77 104 64
78 105 64
80 108 66
80 108 69
104 124 111
135 154 149
146 164 169
158 175 186
162 180 192
150 168 172
161 178 186
159 177 186
164 182 192
158 176 183
161 178 188
164 179 190
149 168 173
157 175 181
78 103 68
76 103 62
73 100 61
79 106 65
73 100 60
75 102 62
73 100 61
77 104 62
74 100 60
80 107 66
74 102 62
74 101 61
80 108 66
77 104 63
77 104 63
76 103 62
73 99 60
76 103 64
75 103 63
76 103 62
79 106 64
100 121 102
166 181 193
168 183 194
158 176 185
160 177 188
167 183 193
167 184 197
164 180 190
154 171 179
171 188 201
161 178 188
164 180 191
164 182 195
154 174 184
165 182 189
172 189 201
149 166 172
165 183 193
166 183 196
158 175 181
164 181 192
171 189 204
122 143 133
77 104 63
80 108 66
77 104 63
84 113 70
73 99 60
76 104 64
77 104 63
79 106 64
77 104 64
77 104 63
72 99 60
77 104 64
75 102 62
75 101 60
90 114 84
101 124 102
108 130 116
126 145 139
136 154 151
144 163 166
151 169 173
83 110 75
76 104 63
79 106 65
71 97 57
79 106 65
79 106 65
74 100 60
77 104 64
75 101 61
76 103 62
78 105 63
72 98 58
75 102 62
73 100 60
76 103 64
78 105 64
79 107 65
80 108 66
71 97 58
67 92 55
85 112 77
159 176 186
163 180 190
163 181 193
166 182 191
167 184 195
163 179 189
162 177 184
157 173 182
149 166 170
165 183 194
167 183 191
169 185 197
156 174 183
171 188 199
161 178 188
161 177 187
157 175 184
160 177 185
162 179 191
158 176 189
136 155 156
73 100 60
78 106 65
76 103 63
75 102 62
78 106 65
76 103 63
74 101 60
78 105 65
80 107 66
74 101 61
78 105 65
75 102 62
79 107 66
76 102 62
78 107 66
75 102 61
75 101 61
77 104 63
74 101 62
96 119 98
166 181 190
157 175 184
167 185 198
166 183 194
169 187 201
165 182 194
159 177 187
166 183 195
162 178 189
164 180 190
157 175 183
168 185 199
162 180 189
168 186 197
162 179 189
167 184 195
168 185 197
160 178 188
163 181 191
109 132 117
71 97 58
78 106 65
76 104 64
71 97 58
75 102 62
79 106 65
79 107 65
80 107 65
78 105 64
78 105 65
78 105 64
72 99 59
82 111 68
79 106 65
79 107 65
78 105 65
77 104 63
74 101 61
147 164 167
161 178 187
166 183 195
163 180 192
165 183 196
167 186 199
168 185 199
172 189 200
170 187 202
162 180 192
165 183 195
163 181 193
166 184 197
167 185 197
165 181 191
161 179 187
158 176 183
163 179 191
127 147 142
78 105 65
75 102 62
78 106 65
77 105 64
80 107 65
79 107 65
76 104 64
79 106 65
81 109 67
74 100 60
75 102 62
78 105 64
79 107 66
79 107 66
73 100 60
77 104 63
103 126 107
168 186 197
167 184 197
158 175 183
173 190 206
174 189 201
166 186 198
167 184 195
162 180 191
172 190 206
167 185 195
173 191 208
165 183 194
143 162 163
111 134 120
98 123 99
133 154 151
104 128 107
97 120 99
81 109 67
80 107 66
79 108 67
81 109 66
79 107 66
80 108 67
81 109 67
81 110 68
79 108 66
82 110 69
78 106 65
80 109 67
78 105 65
108 130 112
172 190 203
166 184 194
169 186 198
176 193 206
168 185 198
169 187 201
165 183 194
170 187 201
172 190 205
169 187 201
173 190 201
163 180 191
170 187 200
170 187 198
117 140 130
77 105 65
75 101 60
77 105 64
89 117 82
139 158 157
170 188 200
149 169 173
79 108 67
82 110 68
83 112 70
80 109 67
81 109 67
77 105 64
80 109 67
83 111 69
80 108 67
78 106 66
79 108 66
83 111 68
80 109 68
81 109 67
78 105 65
82 110 68
79 108 66
83 112 70
109 132 115
137 158 157
103 126 105
79 106 64
78 105 65
82 110 68
81 110 68
77 105 64
81 110 69
78 106 65
81 109 67
84 112 69
86 115 77
115 136 120
144 163 165
162 180 189
166 183 193
164 181 193
166 184 196
170 187 201
157 175 183
78 106 65
77 104 65
79 107 65
78 106 65
80 108 66
77 105 65
76 103 63
100 123 99
141 159 158
166 183 194
168 185 200
168 185 200
173 190 203
172 189 202
167 184 196
166 182 193
172 187 200
164 182 192
171 188 203
164 181 191
117 138 123
78 106 66
77 103 62
79 107 66
79 107 65
76 103 62
75 102 61
79 106 65
75 102 62
79 107 66
79 106 65
77 105 64
77 105 64
78 106 65
79 106 65
82 110 67
77 104 62
80 107 66
78 106 66
77 105 64
78 105 64
135 153 151
146 165 169
119 140 130
98 122 99
77 105 64
81 109 66
78 106 64
73 100 61
83 111 68
80 109 66
78 106 65
72 99 59
79 107 65
75 102 61
77 105 65
80 108 65
81 110 68
75 102 62
77 105 65
80 108 66
79 107 65
110 133 116
164 181 194
164 180 192
164 181 191
167 184 197
159 175 184
170 186 199
174 191 203
159 176 184
166 182 190
170 187 200
166 183 194
170 187 200
170 187 200
155 172 179
170 186 196
169 186 196
179 195 210
163 180 189
169 187 200
162 180 190
169 185 197
136 155 152
78 105 64
80 108 66
73 99 59
109 131 116
122 142 134
150 168 173
158 176 187
168 185 196
169 185 197
158 175 182
158 174 182
164 182 192
161 177 187
167 184 197
165 183 193
168 185 200
170 186 196
161 178 188
150 168 173
165 183 193
163 180 191
93 119 90
75 102 61
74 100 61
78 105 64
79 106 65
75 101 62
75 103 64
77 104 63
77 105 64
75 102 62
76 103 62
76 103 63
73 100 60
72 99 59
77 103 62
75 102 62
81 108 66
76 103 63
78 106 65
79 107 66
74 101 61
79 105 67
161 178 188
161 178 189
166 183 194
162 178 190
168 186 198
159 177 185
160 177 186
157 174 182
161 179 189
160 177 185
164 180 190
159 177 186
157 175 186
161 178 186
166 183 192
156 174 182
160 177 187
169 186 197
160 177 189
176 192 206
160 177 186
134 152 152
77 105 64
81 109 67
76 103 63
72 99 60
75 103 62
78 105 65
76 103 63
81 107 68
94 118 94
110 130 116
116 139 127
136 155 152
154 172 179
151 168 176
165 182 193
167 182 194
162 178 184
157 174 184
167 184 194
161 178 188
167 185 197
101 125 107
76 104 63
73 100 60
74 101 61
78 105 64
77 104 63
78 104 64
78 105 65
81 108 66
77 104 63
75 102 62
79 107 66
74 101 61
74 101 61
77 105 64
77 104 64
77 105 64
79 106 64
75 102 61
74 100 60
79 107 66
145 162 164
155 172 178
162 179 190
170 188 198
168 185 198
153 170 179
167 183 194
163 181 195
172 189 203
167 184 196
156 173 182
162 179 189
161 179 188
155 173 180
162 178 188
163 180 189
164 182 191
157 174 180
167 182 191
166 182 193
145 163 168
91 116 86
79 107 65
78 106 64
77 104 64
73 99 59
77 104 63
76 103 63
74 101 62
74 100 60
75 102 61
76 103 62
74 101 61
77 104 63
77 105 65
78 105 64
74 101 61
72 98 59
74 101 61
80 108 66
80 107 66
147 166 170
166 183 192
153 170 179
156 174 183
167 184 196
158 177 187
165 183 193
166 183 195
165 182 195
168 185 197
158 174 180
168 185 197
169 186 198
168 184 197
168 185 199
170 187 199
172 189 202
170 187 201
163 181 192
160 177 183
78 105 67
78 105 63
75 103 63
80 108 66
78 107 66
75 102 62
72 98 59
79 106 64
76 104 63
77 104 64
81 109 67
77 104 62
80 108 67
76 103 63
79 107 66
81 108 66
78 105 63
77 105 64
100 124 104
163 180 189
166 182 191
167 185 197
165 182 192
174 190 203
166 184 196
167 184 196
165 182 192
163 181 189
174 192 207
171 189 205
164 181 189
158 176 188
166 182 192
161 179 190
153 170 179
164 181 193
164 181 193
100 123 100
81 110 68
83 111 69
83 111 69
80 107 66
77 105 64
79 107 66
81 109 66
79 107 65
82 110 67
79 106 65
83 111 69
81 110 68
80 108 66
77 104 64
76 102 62
80 108 66
150 168 171
174 191 203
169 186 199
161 179 192
164 181 191
165 183 193
163 181 190
172 189 200
168 185 196
137 157 153
116 138 124
87 115 81
80 108 67
79 107 66
80 108 67
80 107 65
91 116 85
173 191 208
170 187 198
152 169 174
152 171 176
129 149 146
114 136 119
100 125 101
80 108 67
80 108 67
79 107 66
77 104 63
80 108 67
77 104 63
81 109 68
79 107 66
133 151 146
178 195 211
171 189 202
166 184 195
179 197 215
171 187 196
174 192 207
173 191 206
163 182 195
163 181 188
177 195 212
169 186 197
177 194 209
169 186 198
161 178 189
96 121 94
97 121 92
124 145 134
159 178 187
156 174 184
183 198 211
123 144 136
82 111 69
81 109 67
83 112 70
85 114 71
80 109 67
79 107 67
80 109 68
77 104 64
80 108 67
81 110 69
79 106 65
83 111 69
77 105 64
76 103 63
84 112 70
77 105 64
90 115 83
135 154 151
145 165 165
78 106 64
79 107 65
80 108 67
78 107 66
79 108 66
83 111 69
83 112 69
79 108 66
78 106 65
83 111 69
78 106 65
80 108 66
79 106 65
80 108 67
78 106 65
90 116 82
122 143 132
146 165 170
155 173 178
157 176 183
78 106 65
79 107 66
84 113 70
81 110 68
85 111 77
125 144 135
155 174 181
168 186 199
157 174 183
168 186 201
164 180 190
179 196 210
165 183 196
170 187 201
166 182 194
169 187 199
169 185 198
169 187 200
172 190 206
169 186 197
114 136 119
77 104 64
78 106 66
81 109 67
76 103 62
76 102 61
81 110 68
76 103 63
75 101 61
77 104 63
81 108 67
80 109 67
80 109 67
75 103 62
82 110 67
80 108 66
78 105 65
80 108 66
71 97 59
99 122 103
133 153 149
124 144 135
79 107 66
80 108 67
75 102 61
80 108 67
78 105 64
76 103 63
79 106 64
76 103 63
77 104 63
77 105 64
75 103 62
77 105 65
75 102 61
75 102 61
79 108 67
77 104 63
75 102 62
74 101 61
77 105 64
81 109 67
87 114 81
159 176 185
171 189 203
164 181 189
160 178 189
169 185 197
169 186 199
177 193 206
167 183 192
174 191 207
153 171 179
156 175 186
151 169 177
161 178 186
166 183 194
167 184 196
165 184 195
163 180 192
161 178 187
171 188 200
160 177 186
172 188 199
140 158 160
119 139 128
138 156 155
152 169 175
165 183 196
165 183 194
164 182 193
159 176 184
165 182 193
163 181 192
165 182 192
165 181 192
166 182 193
159 177 188
164 182 194
157 175 183
172 189 201
168 184 195
167 185 196
162 180 191
161 177 187
165 182 194
124 144 138
77 104 64
80 108 67
77 105 64
76 103 63
79 106 65
82 110 68
80 107 67
73 101 61
75 102 61
75 103 62
75 102 62
77 104 64
78 106 65
76 103 63
80 107 66
78 106 65
76 103 62
77 105 64
74 101 62
79 106 65
73 100 61
137 155 157
169 187 200
152 168 174
167 184 197
173 189 204
169 186 200
163 180 191
165 182 192
161 178 187
171 188 204
161 177 187
162 179 189
162 181 192
162 179 191
171 188 201
163 179 187
163 181 190
163 179 189
168 185 197
168 185 198
163 180 191
166 183 192
92 117 88
80 107 68
100 124 101
114 135 117
126 146 138
144 161 162
150 167 172
161 178 187
160 178 188
163 181 194
176 193 207
158 176 185
165 181 189
164 181 189
170 186 197
160 178 187
172 188 200
166 182 193
163 180 192
169 185 195
162 179 191
121 141 131
77 105 63
79 107 65
76 104 63
76 103 63
74 101 61
78 106 65
74 101 61
77 104 63
75 102 62
74 101 61
76 103 62
79 107 66
83 111 69
74 101 62
73 99 60
74 101 60
74 100 60
78 105 64
78 104 64
81 109 67
109 131 115
161 177 186
160 177 187
160 177 185
158 176 184
168 185 196
157 175 183
163 179 190
160 177 188
160 178 188
169 187 199
166 183 197
173 191 205
154 171 175
162 180 189
159 176 183
169 185 198
167 184 196
159 177 186
161 179 191
171 187 198
131 150 146
79 105 64
81 109 67
78 106 65
79 106 65
81 110 67
74 101 61
76 102 62
80 108 66
77 103 63
71 97 58
74 101 60
79 107 66
74 101 61
79 106 65
75 102 62
80 109 67
76 104 63
78 106 65
77 104 64
126 147 137
157 174 181
171 186 197
161 179 189
154 171 178
165 182 193
169 187 201
164 181 192
169 186 201
166 181 193
157 174 183
166 183 195
158 175 183
174 191 205
165 180 190
167 184 195
166 183 195
164 181 191
155 173 183
159 176 186
130 151 145
75 102 63
76 104 64
77 104 63
77 104 64
73 99 60
77 104 64
77 105 65
78 106 65
82 110 68
77 103 63
77 104 63
76 103 62
76 103 62
82 111 68
81 109 67
77 104 64
82 110 68
81 109 68
140 159 159
180 195 207
160 179 189
170 187 202
166 182 191
167 185 197
170 188 201
162 179 188
162 180 192
169 187 201
159 178 188
165 183 196
166 183 195
167 184 196
173 191 204
167 184 196
162 180 189
169 187 202
142 160 161
78 106 65
77 104 64
81 109 68
78 106 65
78 105 64
83 111 69
75 103 62
80 108 66
74 100 60
78 105 64
79 108 66
80 107 66
82 110 68
82 111 68
76 103 63
79 107 65
82 107 76
160 178 187
168 186 199
167 184 197
172 190 205
140 157 157
134 154 151
84 110 76
83 111 69
81 109 67
81 109 68
82 110 68
78 105 64
79 108 67
84 112 69
82 111 68
78 106 64
136 156 154
173 190 205
173 191 205
171 188 201
168 185 197
172 189 202
170 186 197
169 188 200
157 176 183
140 159 160
138 158 152
104 128 112
90 116 86
80 108 66
80 109 68
82 108 71
155 173 181
176 193 207
164 182 193
170 188 201
165 183 194
167 184 195
171 189 203
172 190 204
162 180 191
165 182 194
167 184 196
172 190 205
172 189 205
166 185 198
148 167 172
169 187 200
168 186 199
173 190 203
178 196 211
174 192 206
126 147 140
79 106 65
80 108 67
80 108 67
77 105 64
80 108 66
78 106 65
79 108 67
79 106 65
78 106 65
87 116 72
81 110 68
83 112 69
83 111 69
82 110 68
94 119 93
143 162 164
167 185 198
167 185 196
145 164 169
85 114 71
81 109 68
85 114 71
77 106 65
77 104 62
77 105 65
80 108 66
79 106 66
79 106 66
77 105 64
82 110 68
80 108 66
79 106 65
84 113 70
75 103 62
80 108 67
79 107 66
81 110 68
84 112 70
104 129 108
142 162 160
119 141 131
101 125 103
149 168 172
163 181 191
173 190 202
165 182 195
172 190 202
165 182 193
163 181 192
158 175 181
168 185 197
175 192 205
167 183 191
174 191 206
167 184 194
169 186 196
173 190 207
168 185 200
157 177 185
130 151 145
83 112 69
80 108 66
80 109 67
81 109 67
81 109 67
80 108 66
81 109 67
79 107 66
80 108 67
78 105 64
78 106 65
80 108 66
78 105 64
77 103 62
74 101 61
102 124 103
122 144 134
161 178 190
172 189 202
164 182 193
127 146 141
81 109 68
80 107 66
77 104 63
82 110 69
75 102 62
82 111 68
79 106 65
72 98 59
78 105 65
78 106 66
81 110 69
76 105 64
79 106 65
74 101 61
81 109 67
81 110 68
77 104 64
78 105 64
79 106 65
76 104 63
78 106 65
160 177 190
168 185 197
169 186 199
171 188 203
169 186 200
162 178 187
166 182 192
161 178 187
163 180 192
164 182 195
162 179 189
162 180 190
172 189 201
166 183 196
170 186 198
162 180 191
159 177 188
159 177 186
129 148 147
126 146 139
94 118 91
94 119 92
170 187 200
170 186 196
170 188 201
166 183 194
161 179 188
166 183 195
164 181 193
170 187 197
163 181 193
166 185 197
165 184 195
168 186 199
166 183 191
165 182 193
159 176 185
167 185 198
168 185 195
169 186 198
169 187 198
158 175 183
170 187 202
142 161 162
78 105 65
79 106 65
74 100 60
78 105 65
77 104 63
80 108 66
83 112 69
78 106 64
75 101 61
77 104 63
72 98 58
73 100 60
77 104 62
78 105 64
84 112 69
74 100 61
76 103 63
81 109 68
80 108 66
78 106 65
78 105 64
119 140 133
160 177 186
169 187 201
156 173 180
160 176 183
165 181 192
167 185 199
157 175 185
164 181 191
161 177 188
163 180 191
174 191 206
165 182 193
165 182 193
168 185 196
158 176 186
158 175 183
161 179 190
157 173 182
150 170 173
130 150 146
112 135 123
130 149 145
167 184 197
168 185 197
175 191 203
162 180 189
166 182 194
164 182 195
171 187 199
171 187 201
161 179 188
156 174 184
170 188 202
158 175 183
163 180 192
161 178 190
157 174 181
167 185 198
164 181 191
161 178 189
164 182 194
157 175 185
159 176 184
76 102 62
77 105 64
76 103 62
78 105 64
80 108 66
76 103 63
77 104 64
75 101 61
76 103 62
77 104 64
76 102 62
76 104 64
80 108 67
75 101 60
77 105 65
78 105 65
76 103 64
80 107 66
76 102 62
78 106 65
76 103 63
161 178 187
171 189 203
161 179 187
161 178 185
168 186 200
166 184 195
163 180 190
170 187 199
168 185 197
162 180 192
159 176 186
167 184 195
162 180 191
163 179 191
173 189 204
172 188 201
153 171 180
160 177 186
164 180 194
162 179 189
153 171 180
82 109 70
81 109 67
73 99 61
72 98 59
79 107 66
77 105 64
80 108 66
80 108 66
76 103 62
79 106 65
73 100 60
76 104 63
79 107 66
80 108 67
79 107 65
76 104 63
77 104 63
78 106 65
81 109 68
79 106 66
159 177 187
166 184 197
162 179 190
169 187 201
169 186 201
160 178 187
165 182 191
158 176 185
171 188 202
168 184 197
170 188 202
166 184 198
162 179 187
168 184 197
166 184 197
168 185 194
174 191 202
165 182 194
169 185 197
157 175 183
78 106 65
76 103 62
80 107 65
78 106 64
78 105 65
79 106 65
76 103 63
81 110 68
78 105 65
79 107 65
78 106 65
77 104 64
74 102 61
73 100 60
78 106 64
77 105 63
80 107 64
77 105 64
96 120 97
167 184 193
165 184 197
161 178 188
165 182 191
169 186 199
166 183 195
164 181 191
171 187 201
170 188 200
171 188 201
174 191 207
169 186 198
168 186 197
170 186 199
162 180 192
174 192 207
176 193 204
168 186 199
102 125 104
75 102 61
80 108 66
76 103 63
79 107 65
80 108 66
81 109 67
79 107 65
77 105 63
81 109 67
77 105 64
80 109 67
78 105 64
81 109 66
80 108 66
74 102 62
92 117 89
140 159 160
126 146 140
109 132 111
79 108 66
78 105 64
79 107 66
82 111 68
81 109 67
79 108 67
80 108 67
78 106 64
81 110 68
78 106 65
80 108 66
78 105 64
81 109 68
81 111 69
155 173 177
163 181 194
171 189 206
163 181 191
180 197 212
175 193 206
165 183 197
179 196 211
169 186 198
172 190 203
161 181 189
168 186 199
160 179 188
151 169 174
134 154 150
126 145 138
166 183 193
169 187 201
167 183 195
168 187 198
170 187 198
174 192 208
170 189 204
174 191 203
180 197 211
170 188 202
175 193 208
178 196 210
172 191 206
172 189 204
174 192 208
169 186 200
176 193 208
179 197 214
172 190 203
121 143 130
80 108 66
84 113 71
83 111 69
82 111 69
81 110 68
79 108 66
80 108 67
79 107 66
79 107 66
80 108 66
80 109 67
81 109 68
115 137 124
153 171 176
172 190 203
171 189 202
169 186 197
172 189 204
139 159 156
81 108 66
81 110 68
78 105 64
81 109 69
78 106 63
82 110 68
77 105 64
81 109 68
76 103 64
82 110 68
79 107 66
85 114 72
80 108 67
77 105 64
80 108 66
80 107 66
77 104 64
82 109 67
81 108 66
100 125 106
137 156 155
104 128 107
76 103 63
96 120 94
114 136 124
139 157 159
150 168 173
166 182 192
165 182 193
167 183 194
168 186 199
169 186 198
161 178 186
167 184 198
162 179 188
165 182 193
182 199 214
171 187 197
163 180 192
164 182 191
130 150 147
81 108 66
79 107 66
81 109 67
80 109 67
80 108 66
74 102 62
76 103 63
80 108 66
78 105 64
77 104 63
76 102 62
80 109 67
96 121 91
143 162 163
166 183 194
175 192 207
161 178 190
162 179 190
168 185 199
172 190 202
145 162 165
73 100 61
77 104 63
80 108 67
76 103 62
78 106 65
76 103 62
75 102 62
74 101 60
76 103 63
78 106 65
80 108 66
82 109 67
81 109 67
75 102 62
75 103 63
76 102 62
80 108 67
77 105 65
75 102 63
78 106 65
75 102 62
155 173 178
160 177 190
167 184 197
171 188 201
168 185 198
156 174 183
164 180 191
171 186 198
173 188 200
162 179 190
171 187 200
168 185 198
169 186 199
161 179 191
147 167 170
134 153 150
99 123 99
77 104 63
81 110 69
80 107 66
75 101 61
79 106 65
158 177 186
158 176 184
158 174 180
167 184 198
163 180 192
164 181 192
164 182 194
159 176 185
165 181 191
174 191 206
170 187 201
171 188 201
165 182 194
162 179 191
167 182 193
169 185 197
160 176 183
172 190 204
164 180 191
166 183 196
165 183 196
157 175 184
85 112 75
82 110 68
81 109 67
72 99 60
76 103 63
79 107 66
81 110 67
74 101 61
79 106 65
75 101 61
78 106 65
79 107 65
77 104 63
77 105 64
78 106 65
74 100 61
75 102 62
75 102 62
77 105 64
76 103 63
80 108 67
100 124 99
172 189 202
164 181 194
161 179 188
155 172 179
163 178 188
162 179 187
157 173 181
158 175 186
166 183 197
170 186 198
175 193 211
158 175 187
148 166 170
131 150 145
134 153 151
100 122 100
88 113 81
76 103 63
78 104 64
77 105 63
74 101 61
109 130 115
159 176 186
172 189 203
165 182 194
157 174 185
158 176 186
163 180 188
167 184 196
166 183 195
168 185 198
159 176 184
164 181 190
163 180 192
165 181 191
168 184 198
163 179 186
167 184 195
166 183 195
158 175 182
163 180 190
167 183 194
163 179 188
104 126 104
75 102 60
76 103 62
72 99 60
75 101 62
74 101 62
79 106 65
79 107 66
78 106 64
78 106 65
77 104 64
75 103 63
75 103 63
76 104 64
77 104 64
78 105 64
76 103 63
79 107 65
81 109 67
81 109 67
76 103 62
129 148 143
159 176 183
166 183 192
154 172 180
168 184 192
163 179 190
161 178 188
161 178 187
171 188 200
163 181 193
167 185 197
167 183 192
157 175 185
168 185 197
168 185 198
159 177 188
171 188 203
166 184 194
167 185 197
168 185 198
163 180 192
111 134 119
79 106 64
78 106 65
76 103 63
75 101 62
77 105 64
82 110 68
72 99 60
77 104 64
75 102 61
77 103 62
72 98 59
75 101 61
78 106 64
76 104 63
75 102 62
77 104 63
81 109 67
81 109 67
75 102 62
114 135 123
153 171 180
163 181 192
168 186 198
166 183 193
161 178 190
164 182 193
161 179 189
167 184 196
167 185 196
162 179 190
170 187 199
172 189 202
171 187 202
162 180 190
168 185 197
158 175 182
163 181 194
170 188 202
169 185 197
122 143 135
77 105 64
76 103 63
79 106 65
81 108 67
78 106 65
80 107 66
81 109 66
80 107 66
81 108 66
80 108 66
79 108 67
78 106 65
78 105 64
77 105 65
77 105 63
80 107 66
76 104 63
79 107 66
147 166 169
165 184 197
170 187 200
170 187 197
158 176 184
159 176 185
161 179 189
168 186 197
164 182 194
160 178 186
164 183 195
172 187 199
169 186 200
166 184 196
169 187 199
172 189 199
165 183 194
161 178 188
148 167 172
80 109 67
78 106 66
76 104 63
81 109 67
77 104 63
80 108 67
83 112 70
77 104 64
80 108 66
82 111 68
80 108 66
92 118 87
124 145 137
138 157 160
146 164 166
161 179 188
162 179 189
105 127 108
76 104 63
79 107 66
80 108 67
76 104 64
79 107 66
79 108 66
77 104 63
79 107 66
79 107 66
77 105 63
81 109 67
78 105 64
77 105 64
80 108 66
79 106 65
99 124 97
167 184 195
163 181 190
165 183 196
172 191 205
173 190 203
175 192 205
170 188 202
172 190 207
171 189 203
166 183 195
164 180 188
168 186 199
176 194 211
167 184 195
177 194 209
137 157 156
87 114 81
120 142 133
140 160 162
145 164 168
164 182 192
165 184 195
170 187 200
168 185 197
175 194 210
167 185 196
172 190 204
167 185 197
172 190 207
172 190 203
168 186 197
175 192 204
174 192 206
165 183 196
106 131 110
81 109 67
80 109 67
84 113 71
82 111 69
82 110 68
86 115 71
81 109 67
81 110 68
83 112 69
84 110 73
130 152 146
160 180 191
168 185 197
169 187 202
165 183 193
170 187 199
171 187 201
165 182 193
135 155 151
78 106 65
82 111 70
79 107 65
82 109 67
78 106 65
78 106 65
79 106 66
80 109 68
78 106 66
80 108 66
76 103 64
80 109 67
82 110 68
80 109 68
80 108 67
76 103 62
80 108 66
98 122 99
139 160 162
150 168 174
78 105 64
78 106 64
78 106 65
83 111 68
73 100 61
77 104 63
82 110 68
89 115 84
117 139 128
141 160 160
162 180 189
152 171 179
171 187 201
158 176 185
174 191 206
166 183 195
170 187 198
172 188 199
164 182 193
168 184 196
144 163 164
80 108 66
79 107 66
78 106 64
76 104 64
77 105 65
81 109 68
81 109 67
82 110 68
77 105 65
97 122 96
127 147 143
162 179 187
171 188 201
167 184 195
171 189 203
174 190 204
174 192 204
160 177 187
168 186 199
166 183 193
156 175 183
76 103 63
80 107 65
79 106 64
81 109 66
79 107 66
81 108 67
78 105 65
75 101 61
81 109 68
82 110 68
80 108 65
77 104 63
76 103 62
80 107 65
80 108 66
75 102 61
82 110 68
81 109 68
78 105 64
75 101 61
77 104 64
136 154 153
169 187 200
175 191 204
171 188 199
169 186 199
172 189 202
174 191 206
167 184 198
159 177 185
164 181 190
157 175 185
145 163 164
127 146 138
81 107 73
75 103 63
76 103 62
83 111 69
77 104 63
74 101 61
80 108 66
80 108 66
79 107 66
148 165 171
169 185 197
162 180 192
164 182 193
170 188 202
169 185 198
156 174 182
163 179 188
172 188 201
167 184 194
168 185 196
167 183 192
168 186 196
167 183 195
160 176 184
167 184 196
167 184 194
159 176 186
153 170 174
169 186 199
163 180 190
168 184 198
96 120 99
73 100 60
76 103 63
79 106 66
79 107 65
78 106 65
76 103 62
78 105 65
77 104 63
81 108 67
77 105 64
77 104 63
81 110 68
75 103 63
75 102 62
81 109 67
79 107 65
75 102 62
73 99 60
74 101 62
77 105 64
77 103 63
146 166 169
159 177 190
169 185 198
171 187 200
165 181 191
160 178 188
162 179 189
150 168 171
135 155 157
111 132 117
90 114 86
77 104 64
78 104 63
74 101 61
77 104 63
80 108 67
78 106 65
81 109 67
78 105 65
80 109 67
78 106 65
87 113 80
155 173 182
161 177 188
164 182 191
162 178 188
160 176 186
161 178 190
173 189 202
165 182 192
165 183 196
165 182 193
156 173 181
169 186 199
167 183 194
159 176 183
162 179 187
161 177 184
168 184 196
171 188 204
164 182 193
167 184 194
160 177 186
145 164 168
73 100 60
75 101 60
75 102 61
78 106 66
81 109 67
74 101 62
77 105 64
79 106 65
77 105 66
78 105 64
74 100 59
80 108 67
75 102 61
73 100 60
76 103 63
77 105 64
75 102 62
78 106 65
73 99 60
76 103 62
95 120 94
159 175 183
154 171 180
164 181 190
161 179 188
154 171 176
155 172 179
158 176 186
164 180 189
169 185 196
155 173 183
173 190 203
164 182 194
166 184 196
150 167 169
167 184 196
161 176 187
165 182 196
166 184 197
165 182 191
166 184 196
148 167 171
77 104 63
77 104 64
77 105 64
77 104 64
76 103 63
72 98 58
76 103 63
81 108 66
77 105 64
76 103 62
76 104 63
79 107 65
78 106 65
76 104 63
76 104 63
78 106 64
83 111 69
79 107 66
77 105 64
79 107 66
152 169 178
167 184 195
164 181 191
176 193 208
161 178 189
160 176 187
167 184 193
174 191 205
176 194 210
163 179 189
168 184 196
171 188 201
166 182 193
173 190 205
161 178 188
171 188 201
154 172 182
158 176 187
167 185 196
151 168 175
82 109 71
79 106 65
78 105 64
80 108 66
80 108 67
79 107 66
80 108 67
79 107 65
79 107 65
78 105 64
80 108 66
77 105 64
77 104 63
79 108 66
78 106 65
74 101 60
78 107 66
80 108 67
91 119 81
160 178 187
176 194 209
169 186 196
172 189 201
162 180 192
157 175 185
172 188 200
163 181 191
173 191 206
171 190 207
165 183 195
168 186 199
162 179 190
170 187 202
167 184 198
168 185 196
160 178 188
170 187 200
114 137 122
81 109 68
81 109 68
79 107 66
83 112 69
79 108 67
90 117 81
110 132 115
132 152 151
153 172 177
167 185 198
175 191 204
159 177 189
167 184 197
167 185 199
164 181 192
165 182 193
164 182 190
85 112 76
80 109 68
81 110 67
80 108 67
82 110 67
82 111 69
75 103 63
83 112 69
81 109 67
79 107 66
79 107 67
79 106 65
77 105 64
76 104 64
76 104 64
79 107 66
131 153 149
174 193 208
171 187 199
169 188 204
170 188 199
176 192 207
163 180 192
171 188 201
179 196 211
164 182 194
162 181 192
168 186 199
181 198 217
161 180 192
173 190 207
168 186 199
94 120 93
78 105 64
79 107 66
82 111 68
82 110 69
101 125 103
116 137 126
150 169 173
142 161 162
170 188 201
172 190 204
174 193 209
166 184 197
174 191 206
169 187 199
174 191 207
165 184 196
174 192 207
92 119 86
84 113 70
79 106 65
76 104 63
79 107 66
79 107 66
80 108 67
80 108 67
87 113 80
135 155 152
171 189 203
175 192 207
175 192 205
177 194 209
173 190 203
166 184 196
172 190 205
173 191 206
170 188 202
138 158 154
81 109 68
81 109 67
80 108 66
84 114 70
82 111 70
77 105 64
81 108 66
80 109 68
81 109 66
78 106 65
80 108 67
80 109 67
75 103 63
74 102 61
82 111 69
126 147 142
154 173 180
165 183 195
165 183 196
152 169 174
76 105 64
80 108 67
78 105 64
79 107 65
80 107 65
80 107 66
80 108 66
82 111 69
81 108 66
82 111 69
78 106 65
78 106 65
102 126 103
116 138 126
142 160 156
156 174 179
164 180 190
169 187 200
165 182 192
169 187 202
134 154 156
82 111 68
79 108 66
78 106 65
79 107 65
78 106 65
80 108 66
91 117 86
135 155 152
160 178 186
165 182 194
166 183 195
173 189 202
170 187 201
169 185 197
175 193 210
173 191 205
164 183 196
173 190 205
174 189 202
171 189 201
167 184 194
80 110 68
80 108 66
73 99 60
83 110 68
77 104 64
78 105 65
81 109 67
77 104 64
81 109 68
76 104 63
79 108 66
81 110 68
83 112 70
74 101 62
79 107 65
81 109 68
80 107 65
78 106 65
74 101 62
75 102 62
82 111 69
123 141 133
163 180 192
163 181 191
162 179 189
160 177 187
164 180 191
166 184 195
152 170 176
129 149 143
101 125 105
75 102 62
77 105 65
80 109 68
80 108 66
77 105 64
79 106 64
78 105 64
78 105 64
81 110 68
80 107 66
78 106 64
77 104 63
136 156 155
163 180 192
162 179 191
164 182 195
165 181 193
162 180 192
166 183 194
166 183 194
165 183 194
160 178 186
165 182 195
172 189 202
168 184 196
166 183 195
157 174 183
161 179 192
172 188 200
170 186 198
167 184 195
163 180 190
169 185 195
160 177 184
120 142 131
79 106 65
79 108 66
79 108 66
77 105 64
74 101 63
79 106 65
75 102 62
78 104 64
78 106 65
78 107 65
74 101 61
80 108 67
82 111 68
79 107 67
78 106 65
77 104 63
81 109 68
79 106 65
78 105 63
78 104 63
79 106 66
123 142 138
151 169 175
135 154 153
125 146 140
120 140 130
79 105 73
78 106 65
78 106 64
73 100 60
82 111 69
77 104 63
78 105 65
77 105 65
77 104 64
77 104 63
74 101 62
78 105 64
79 107 66
80 109 67
78 106 64
77 105 64
76 103 63
138 156 159
170 187 199
158 176 186
164 181 192
163 178 187
173 188 198
161 179 189
164 181 191
158 175 184
167 182 190
165 181 193
166 183 196
171 188 202
157 174 179
161 180 190
157 175 186
165 181 189
164 181 192
172 189 202
162 180 191
165 182 195
167 184 197
78 105 67
76 103 63
78 105 65
74 100 59
77 103 63
80 108 66
78 105 65
74 101 60
76 103 62
77 105 64
79 107 66
74 102 62
77 104 63
76 103 63
78 105 64
79 107 66
76 103 62
78 105 64
77 105 63
80 108 67
78 105 63
151 168 172
157 176 186
159 177 187
167 185 199
168 183 192
166 183 194
164 180 189
178 194 208
171 188 202
173 191 207
172 190 205
167 184 196
155 173 181
160 178 190
158 176 187
165 182 192
167 184 196
161 180 190
163 180 188
182 197 212
163 179 191
102 125 106
78 106 65
77 105 64
75 102 61
76 103 63
78 106 65
80 108 68
81 109 67
77 104 64
80 109 67
82 110 69
79 107 66
82 110 68
81 109 68
78 106 65
77 105 65
79 106 65
77 105 64
76 103 62
83 111 69
120 142 131
165 182 191
163 181 191
160 178 191
170 186 196
161 180 192
167 183 192
169 185 196
154 171 181
172 189 204
162 179 189
162 178 188
170 188 200
163 179 189
175 192 206
162 180 189
160 179 189
170 188 202
157 174 184
164 181 191
126 148 139
74 101 60
76 104 63
82 110 68
81 109 66
76 103 63
83 111 69
81 110 69
77 104 64
79 107 65
81 110 68
78 105 64
76 104 64
79 107 65
80 107 66
78 105 64
77 104 64
76 104 64
78 106 65
127 146 142
170 187 199
163 180 187
167 184 196
165 182 193
167 186 200
171 188 202
165 182 193
167 185 198
175 192 205
167 185 195
165 184 194
173 190 203
164 182 193
170 187 198
156 174 183
159 177 184
167 185 197
156 174 182
86 112 82
94 119 98
123 142 134
137 159 157
161 180 191
175 191 203
167 185 198
177 194 211
161 178 186
169 186 197
164 182 195
165 182 194
165 182 190
169 188 202
170 188 201
172 190 203
171 188 202
131 152 150
80 110 68
79 108 66
75 103 63
83 112 70
78 105 65
78 105 65
79 107 65
79 107 65
82 111 68
84 113 70
82 111 68
84 113 69
78 106 66
79 106 65
77 105 64
77 105 67
158 176 183
168 185 195
171 188 200
164 181 192
175 193 208
166 184 195
169 187 200
164 182 192
172 188 201
175 192 206
177 195 209
171 189 201
176 194 210
166 183 194
167 185 195
160 179 191
84 112 74
81 110 68
80 109 67
79 107 66
80 109 68
79 107 66
81 110 68
80 108 67
83 110 71
107 130 110
125 146 137
138 157 155
174 190 204
168 186 200
168 185 200
173 190 206
171 191 206
90 118 83
79 108 66
80 108 67
83 112 69
80 108 67
81 110 68
97 122 96
131 152 149
164 182 195
171 189 202
164 182 193
167 185 198
172 189 204
166 183 194
174 191 204
176 194 213
182 199 214
167 186 199
171 188 199
139 160 160
77 105 64
79 108 67
80 109 67
80 108 66
81 110 68
81 110 68
77 105 64
85 113 70
78 106 66
80 109 68
78 105 64
77 105 64
97 121 94
146 165 164
162 181 194
174 192 210
169 185 198
174 190 204
170 188 201
145 165 169
82 110 68
80 109 67
81 109 67
85 114 71
79 107 66
80 109 67
79 106 65
82 111 69
78 107 65
81 109 66
77 105 65
80 108 67
81 109 68
78 105 64
81 109 67
80 109 68
83 112 70
103 125 106
119 138 127
137 155 151
133 154 151
81 108 72
81 108 66
78 105 64
84 110 75
120 140 129
150 168 173
175 192 206
180 197 213
153 171 177
173 188 198
168 184 194
169 186 196
175 192 207
171 187 201
164 182 196
161 178 189
167 186 202
168 185 198
170 187 199
171 187 198
166 183 195
75 103 62
78 105 64
82 110 67
79 107 65
76 103 62
77 105 64
81 109 67
83 112 69
75 103 62
78 105 64
81 109 68
73 100 60
79 107 66
82 110 67
78 105 65
80 108 67
81 109 67
77 105 64
77 104 64
80 107 66
80 107 67
118 140 125
169 186 197
166 184 197
174 191 206
139 158 158
121 142 130
87 111 87
74 100 60
75 102 63
83 112 70
78 106 64
77 104 65
77 105 64
79 107 65
82 111 69
79 107 65
81 109 67
80 107 66
80 107 65
77 104 63
74 101 61
75 102 62
129 150 142
163 181 192
178 194 209
167 183 195
166 183 196
162 179 190
167 184 195
161 177 186
174 191 204
166 183 194
166 184 196
154 172 179
166 183 192
161 178 187
164 181 195
155 171 178
174 190 201
164 181 191
168 185 198
158 175 186
156 174 183
168 185 196
126 145 143
77 104 63
75 101 61
78 106 65
76 103 62
79 107 66
79 106 65
77 105 63
79 107 67
77 104 63
78 106 65
76 103 63
78 106 65
77 104 64
72 98 58
77 104 63
75 102 62
75 102 62
89 115 83
110 133 117
135 154 153
146 164 168
142 161 165
80 108 67
81 109 67
76 104 64
77 104 63
72 98 59
73 100 60
79 107 66
77 104 63
73 100 61
77 105 63
76 104 63
78 105 64
79 107 66
76 103 63
80 108 67
80 108 67
77 105 64
77 105 65
81 108 67
78 105 64
79 107 66
117 135 126
165 182 192
169 186 198
158 176 183
164 182 193
164 180 190
162 181 194
171 188 200
167 185 197
170 187 201
156 173 181
162 178 188
171 188 201
164 180 191
159 176 186
169 185 196
168 185 197
158 176 185
160 178 186
167 184 195
168 184 198
166 183 196
120 140 130
78 106 65
79 107 65
78 105 64
75 102 62
74 101 61
80 107 65
78 105 64
80 107 66
78 105 64
75 102 62
77 105 64
75 102 62
80 108 67
79 107 65
78 104 64
79 106 64
77 103 63
78 105 63
76 104 63
78 106 65
114 135 122
163 180 192
169 186 201
167 185 197
165 183 192
171 189 203
156 172 181
167 184 194
155 172 182
170 187 201
171 188 200
164 182 193
169 185 195
172 189 203
174 191 205
162 179 187
160 178 188
164 182 193
162 179 188
171 187 198
170 187 200
150 168 172
77 104 64
78 106 65
79 107 65
78 106 66
76 104 64
80 108 68
82 111 69
80 108 66
75 102 61
81 108 66
76 103 63
77 105 64
78 106 65
77 104 64
73 100 61
77 104 63
73 99 59
79 106 65
82 110 68
77 103 68
147 164 166
160 178 189
154 171 177
164 180 188
169 186 197
173 190 203
163 180 190
166 182 193
174 191 203
165 181 192
166 183 192
161 178 188
170 188 200
163 179 192
162 180 190
166 184 195
164 181 191
170 186 199
165 182 194
151 169 176
83 109 73
76 103 62
77 104 63
80 107 66
81 109 67
75 102 61
75 102 62
80 109 67
77 104 63
82 110 68
78 105 65
78 107 65
78 105 64
77 105 65
79 108 67
79 108 67
75 103 62
76 103 63
87 114 84
166 184 195
171 189 204
168 186 199
167 185 198
168 185 194
176 193 208
173 190 201
168 185 197
165 183 193
172 188 199
168 186 198
158 175 184
161 179 190
164 181 192
162 181 192
136 155 153
121 141 131
106 130 107
129 151 143
174 191 205
166 183 195
158 176 184
164 182 194
173 190 205
164 181 191
158 175 183
180 197 212
164 182 194
164 183 194
161 179 191
163 180 193
166 183 197
168 186 198
163 181 192
168 186 198
169 188 199
105 128 106
82 111 69
79 106 66
78 105 64
79 107 66
78 106 65
81 109 67
81 109 68
78 107 66
80 108 66
81 109 67
84 112 70
80 109 68
77 104 64
82 111 69
82 111 69
100 123 106
173 192 208
168 185 196
169 188 204
170 187 201
174 191 206
170 188 202
165 184 197
164 181 192
168 185 197
166 184 196
175 193 207
169 188 202
174 192 207
168 185 196
169 188 204
145 164 168
77 104 64
80 109 67
82 111 69
79 107 66
82 110 68
82 111 69
82 111 69
80 108 67
83 111 69
79 108 67
82 110 68
167 184 194
175 192 206
176 193 209
163 182 193
160 178 187
81 110 68
82 111 69
79 108 67
84 114 71
97 122 98
147 167 170
176 192 205
174 192 205
178 196 212
176 194 209
173 191 203
169 188 200
174 190 203
179 195 213
174 191 203
165 182 191
158 176 184
171 188 200
178 196 215
139 158 155
77 104 63
79 107 65
79 108 66
80 109 68
82 111 68
79 106 65
84 112 70
76 104 63
81 108 66
84 111 72
116 139 127
151 170 174
165 182 190
167 185 199
170 187 199
173 190 204
167 184 198
165 184 197
177 193 206
155 173 180
77 105 65
82 111 69
82 109 68
79 106 65
81 109 67
80 107 66
79 106 65
78 106 66
82 109 68
82 111 69
75 102 62
81 109 68
79 107 66
81 109 67
74 101 61
80 108 67
80 108 66
79 108 67
76 103 63
83 111 68
114 136 118
172 189 201
134 153 150
98 124 96
123 144 139
141 162 162
161 180 192
171 189 202
163 181 190
174 191 207
172 189 202
169 186 201
178 196 212
162 179 190
170 187 202
174 192 205
168 186 200
164 182 195
175 192 209
172 190 203
163 179 190
164 181 190
89 114 83
81 110 68
81 109 68
84 114 71
72 99 59
80 109 67
75 102 61
78 106 65
80 107 66
80 107 66
78 105 64
74 102 62
80 107 66
75 102 61
84 113 71
76 104 64
78 105 64
81 109 68
77 105 64
78 106 65
79 107 67
105 128 110
140 158 161
111 134 116
86 113 78
79 107 66
80 109 67
78 106 65
82 111 69
76 104 63
78 105 65
79 107 66
83 112 70
82 111 68
78 106 64
78 106 65
80 108 66
76 103 62
76 103 63
78 104 63
76 103 63
78 105 64
79 107 66
103 126 108
159 177 186
160 176 186
164 182 197
169 186 202
159 176 185
169 187 201
171 189 200
165 183 195
168 186 197
171 188 200
166 183 196
164 181 192
169 185 199
176 193 206
166 183 195
171 189 204
166 183 194
163 181 192
156 173 183
160 178 187
166 184 196
164 181 192
76 103 63
78 105 64
75 103 63
82 109 67
75 102 62
78 106 64
79 107 65
77 104 64
78 106 65
76 103 62
77 105 65
77 105 64
81 108 66
93 118 92
110 133 114
141 159 163
167 184 194
165 183 194
164 182 193
161 179 186
166 183 193
161 179 190
84 112 76
75 102 61
81 108 66
76 102 63
78 106 65
73 99 60
80 109 66
75 101 61
76 104 64
79 107 65
77 105 64
79 106 65
78 106 64
79 106 64
78 105 65
75 103 62
78 106 65
76 103 62
76 103 62
74 101 61
80 108 67
90 115 87
158 176 185
162 180 190
168 186 197
161 179 188
158 174 183
165 183 194
168 185 198
158 176 184
168 185 198
167 184 194
167 185 198
164 181 190
164 182 192
162 179 192
165 182 193
164 182 193
161 178 188
169 185 197
161 180 192
171 189 203
165 181 189
135 155 154
80 108 66
80 108 66
75 102 62
76 104 63
81 109 67
81 110 68
76 103 62
78 106 64
72 99 59
81 108 66
77 104 64
78 106 65
74 101 61
75 102 62
76 103 63
77 104 63
76 104 63
77 104 63
81 109 67
79 107 66
78 106 66
170 186 198
169 186 197
160 178 187
167 184 195
166 183 195
166 184 193
162 179 189
168 184 197
170 188 199
159 177 187
171 188 199
170 187 198
164 182 194
161 180 190
164 182 193
169 185 196
160 177 185
164 181 193
168 184 197
161 178 186
172 189 203
88 112 86
78 106 65
77 104 64
79 106 66
77 105 64
76 103 62
77 105 63
75 102 62
82 110 69
76 104 63
78 107 66
78 106 65
79 107 66
77 105 64
75 101 61
84 113 70
80 107 65
79 107 66
80 109 67
79 107 66
128 149 143
169 187 201
171 187 200
168 185 197
171 188 201
166 183 194
168 185 197
162 180 190
163 181 192
175 193 208
157 174 184
169 186 198
170 188 199
169 187 199
169 187 201
169 186 199
167 185 197
167 185 197
162 179 189
167 183 194
116 138 124
76 102 62
75 103 62
81 109 67
76 103 63
85 113 70
78 105 65
77 104 63
81 108 66
79 107 66
80 108 66
72 98 59
78 105 64
78 105 64
74 102 62
77 105 64
79 108 67
78 106 64
76 103 63
111 133 119
165 183 194
164 181 189
169 185 196
160 177 186
172 189 204
168 184 195
170 187 200
154 171 177
159 177 186
143 162 165
116 137 123
102 125 105
80 108 66
77 105 66
80 109 68
75 102 62
75 102 62
83 109 72
158 177 185
165 182 192
166 184 196
177 195 210
172 190 202
165 183 197
158 176 185
164 183 195
171 190 203
171 189 203
164 182 194
173 189 202
164 182 194
162 179 189
169 186 200
172 188 200
167 185 196
142 163 165
82 111 68
77 106 65
83 112 69
77 104 63
75 102 61
80 108 67
84 113 69
74 100 62
79 107 65
86 115 72
80 108 66
81 110 67
79 108 67
82 111 69
79 107 66
81 110 68
134 154 154
172 189 201
170 188 202
174 192 208
177 194 208
167 185 198
173 190 205
172 189 204
168 187 199
170 189 202
169 187 201
176 193 208
166 186 200
160 177 187
174 192 207
176 193 208
123 143 134
78 107 66
80 109 68
79 108 66
79 107 66
80 108 66
81 110 67
81 109 68
81 110 68
79 107 66
84 114 71
169 189 206
174 192 208
171 189 203
169 186 197
165 183 194
76 104 64
80 108 67
115 138 125
158 177 186
178 195 211
173 190 205
173 190 203
171 188 199
173 191 207
174 192 207
182 198 213
171 189 201
169 187 200
178 196 211
169 187 200
170 187 201
164 182 195
175 192 205
168 185 196
132 152 150
83 112 70
81 110 68
78 105 65
79 108 66
82 111 69
78 106 65
78 106 63
89 115 84
128 149 141
163 181 192
165 183 194
172 188 199
162 180 190
168 184 194
167 185 199
177 193 206
172 188 201
174 192 205
168 186 197
145 164 167
82 111 69
78 106 64
82 110 68
80 108 66
80 109 68
78 106 65
78 106 65
82 109 68
83 112 69
78 106 65
80 108 66
81 110 69
82 111 69
81 109 67
79 107 66
82 111 69
84 113 70
74 101 61
81 110 68
94 117 88
120 140 128
92 117 87
80 108 66
79 106 65
81 109 67
79 107 66
78 106 65
87 113 82
105 128 109
119 141 131
128 148 145
154 174 181
167 185 197
172 188 201
171 187 196
161 179 190
160 177 187
156 173 182
171 188 203
169 187 200
166 183 195
166 184 196
96 122 97
76 104 64
78 106 65
81 110 68
81 109 67
80 108 67
82 111 69
82 110 68
78 105 64
77 104 63
79 107 65
80 109 67
78 107 65
78 106 65
80 108 67
80 108 67
81 109 66
80 108 65
100 125 102
135 155 153
148 167 173
166 184 197
85 114 74
77 105 64
78 106 64
82 110 67
80 108 66
78 106 65
82 110 68
76 103 63
76 104 64
81 109 67
79 107 66
82 111 68
74 101 61
78 106 66
78 106 64
84 112 70
78 106 65
80 108 66
81 109 67
78 106 65
79 106 65
88 115 79
165 183 193
175 192 206
173 190 202
170 188 202
165 182 194
163 181 189
167 185 197
156 174 185
168 187 198
173 190 205
164 180 192
158 176 186
161 178 187
164 182 193
175 192 205
161 179 188
161 179 190
166 182 193
166 184 196
169 187 201
175 192 205
155 172 180
85 110 80
76 104 63
76 102 63
81 109 68
76 103 62
77 103 63
81 110 68
79 106 65
84 108 81
115 137 125
137 157 156
140 160 163
164 182 192
158 175 183
165 183 196
160 177 188
160 178 188
160 178 189
175 191 204
169 185 198
156 173 184
167 184 195
96 120 94
74 101 61
76 103 63
75 102 62
81 109 67
80 108 67
74 101 60
76 103 62
76 104 63
77 104 63
78 105 64
73 99 59
81 108 66
78 106 65
77 105 65
81 109 68
79 106 65
78 106 64
83 112 70
75 102 62
76 103 62
76 103 62
148 166 171
164 179 188
160 177 187
167 184 193
169 187 201
167 184 198
172 188 202
165 183 198
163 179 191
153 171 180
167 183 193
164 183 195
174 190 203
170 187 202
160 177 187
162 179 192
170 186 198
163 180 190
171 186 197
159 176 186
170 187 198
155 174 181
80 106 73
73 99 60
75 102 62
79 107 65
79 106 65
77 106 66
77 104 63
78 106 65
79 107 66
80 108 67
76 103 62
77 104 64
80 108 66
81 109 67
79 107 66
78 105 64
78 106 65
78 106 65
80 109 67
78 106 65
76 103 62
135 154 150
166 184 197
160 176 185
164 183 196
172 189 203
169 187 202
171 190 205
159 176 186
162 179 190
162 178 187
168 185 196
180 197 213
165 182 195
163 180 191
163 181 191
163 181 191
172 190 204
163 181 191
174 191 207
172 189 203
159 177 187
131 152 145
81 109 67
79 107 65
76 103 62
79 107 65
72 99 60
76 104 63
78 106 66
80 108 66
77 105 65
74 101 62
78 106 65
82 111 69
76 103 63
76 104 62
78 104 69
87 114 80
94 119 96
104 127 105
103 126 110
113 134 124
150 168 176
151 169 175
146 164 168
148 166 166
134 153 155
125 145 142
130 150 146
122 143 132
130 150 147
137 157 155
115 137 124
121 142 136
124 146 140
121 143 134
126 146 142
124 143 135
120 142 134
114 136 126
124 145 133
112 134 116
139 159 158
141 159 157
144 163 166
123 143 135
135 153 153
126 146 139
140 159 159
146 165 168
136 155 154
144 163 164
120 140 131
136 155 154
115 136 125
126 147 140
128 149 143
115 136 126
119 139 130
116 138 125
101 124 106
153 171 178
155 174 181
165 182 194
125 145 138
126 145 142
101 124 102
90 115 83
79 107 66
79 107 65
80 108 67
81 108 65
76 104 63
80 108 67
82 110 67
81 110 68
79 108 66
78 106 65
78 106 65
119 137 128
167 184 195
167 185 194
167 184 194
170 186 198
174 191 205
165 183 195
161 178 188
164 181 192
168 185 198
166 184 193
172 190 206
171 190 204
176 193 209
168 185 197
170 188 199
171 187 202
164 182 193
122 144 137
80 107 65
76 104 63
77 105 64
80 108 67
83 111 69
80 108 67
77 106 65
79 107 66
77 105 65
80 109 67
84 113 70
78 106 65
77 105 64
77 105 63
81 110 68
80 108 67
154 173 182
169 186 200
169 187 199
173 190 204
172 190 204
177 195 213
176 194 210
183 201 219
172 189 202
171 187 198
169 188 201
171 190 205
161 179 189
177 195 212
174 192 209
167 186 195
91 119 83
78 106 64
81 109 67
80 108 67
83 112 69
79 107 66
79 107 66
80 108 66
82 111 69
85 114 70
172 191 209
180 198 213
169 188 204
170 188 201
152 169 173
121 142 133
162 179 187
168 187 200
175 192 207
165 183 194
172 190 201
164 181 195
168 185 196
180 198 214
169 187 199
182 199 214
173 191 206
170 188 204
169 186 198
173 191 203
169 187 199
169 186 198
175 194 212
173 191 204
132 153 145
80 109 67
79 107 67
80 109 67
83 112 69
84 113 71
105 130 106
131 150 144
171 189 205
165 183 195
169 186 197
171 189 205
177 195 212
166 183 197
176 193 207
172 190 206
172 188 201
175 192 209
164 181 193
166 182 192
155 173 176
82 110 68
82 111 68
81 108 66
80 108 67
76 104 63
79 107 65
79 107 66
80 107 66
78 106 65
76 104 63
83 111 69
78 106 65
75 103 62
79 107 65
83 111 68
82 111 68
87 114 81
124 145 139
152 171 174
174 189 203
161 180 189
77 105 65
83 111 68
81 109 67
78 107 66
80 108 66
84 114 71
77 105 64
81 110 68
81 110 67
81 109 67
83 112 70
77 104 64
84 110 76
102 127 108
116 138 122
126 146 141
140 160 160
157 175 179
170 188 201
173 189 202
167 183 195
105 127 111
79 107 66
83 112 70
76 103 63
83 111 68
79 107 66
74 100 59
76 103 63
80 109 67
77 105 65
79 108 66
84 112 70
80 108 67
81 109 67
84 113 73
115 137 125
130 149 144
151 170 175
170 187 200
162 181 193
171 188 200
167 185 195
94 119 90
76 103 62
80 108 67
76 103 62
79 107 66
80 108 66
79 107 66
80 108 67
78 105 65
76 103 62
77 105 64
80 107 65
80 108 67
77 104 64
77 105 65
79 107 66
77 105 63
76 102 62
78 105 65
78 105 65
79 107 66
78 106 65
160 178 187
170 188 201
166 183 195
166 183 194
169 186 200
165 182 192
164 181 194
179 195 209
165 182 193
170 187 199
165 182 191
173 190 203
166 182 193
168 186 200
159 176 186
165 182 194
169 188 203
177 193 207
166 184 198
168 186 198
172 190 204
160 179 193
125 146 140
78 106 64
78 106 65
80 108 66
98 121 98
128 149 140
139 157 155
153 171 179
170 187 199
163 180 192
162 180 193
159 177 188
171 188 201
168 184 197
169 186 199
170 187 199
164 180 190
163 180 191
167 185 197
168 186 198
172 189 201
163 180 189
131 150 146
81 109 67
78 106 65
82 110 68
78 106 65
78 107 65
78 105 64
81 110 68
77 105 64
74 102 61
78 106 65
79 106 65
78 106 65
81 109 68
83 111 68
78 106 64
75 102 63
81 109 67
79 106 65
75 102 62
78 106 65
74 101 61
116 137 127
169 186 198
172 190 204
167 183 197
163 180 192
162 181 191
170 187 200
160 177 187
170 188 201
165 182 191
167 184 195
158 177 188
170 188 201
160 178 189
164 180 190
165 182 192
163 180 186
174 192 207
174 191 206
174 192 206
151 168 176
167 184 195
122 143 134
78 105 64
79 106 65
81 108 66
79 106 65
77 104 63
81 109 67
77 105 64
77 105 64
75 103 63
80 109 67
79 107 66
79 107 65
76 103 63
76 103 63
79 107 66
76 103 63
78 106 65
81 109 67
76 104 64
78 107 65
92 116 88
172 189 200
161 178 192
166 184 197
156 174 181
166 184 195
170 187 200
167 184 194
167 185 198
171 188 202
172 190 204
170 187 202
160 179 189
167 184 194
161 179 190
156 174 182
171 188 202
168 186 197
170 188 200
161 179 189
153 170 176
156 174 182
101 124 104
115 135 122
117 138 128
122 143 134
146 164 164
129 149 145
139 158 159
135 154 151
151 170 175
152 171 175
148 167 172
156 175 181
174 192 207
159 177 187
170 189 202
173 190 202
162 180 191
161 177 185
171 188 201
168 185 196
134 154 149
85 113 70
74 100 61
78 106 65
75 102 62
85 114 70
77 105 65
74 101 62
77 104 63
78 106 65
82 111 68
78 106 66
79 108 66
79 107 66
82 110 68
79 107 66
81 109 68
78 106 64
78 106 65
78 106 64
135 154 157
169 187 199
166 184 196
167 184 196
164 183 195
164 182 190
171 189 201
179 197 214
170 187 200
162 180 192
166 183 194
170 187 200
166 185 198
167 184 197
158 175 184
145 165 168
129 148 141
119 141 133
112 135 120
125 146 137
159 177 188
163 180 191
177 195 212
172 189 203
165 182 193
160 180 192
171 188 202
160 178 187
156 174 182
151 169 172
153 171 176
137 156 155
140 158 159
145 163 166
119 141 128
124 146 134
117 138 128
107 130 112
154 172 177
165 183 192
165 181 194
175 192 207
172 190 205
164 181 192
171 188 199
172 189 204
176 193 207
165 183 196
167 185 197
172 190 204
158 175 182
172 190 206
167 184 196
160 177 188
180 198 216
169 187 202
82 109 70
76 103 63
83 112 69
77 105 65
80 108 67
82 111 69
75 103 63
79 106 65
75 103 63
82 110 69
79 108 67
78 106 65
79 108 66
81 110 69
81 109 67
79 107 65
113 136 121
173 192 206
169 185 197
171 189 205
162 181 194
163 181 194
173 191 205
168 186 199
160 177 188
170 188 204
171 190 207
176 193 207
167 185 197
169 187 199
174 192 206
175 193 210
145 165 168
82 111 69
77 105 64
83 112 69
82 110 69
79 107 66
82 111 69
79 107 66
82 111 69
80 109 68
179 196 211
163 181 192
174 191 206
149 168 170
138 158 158
163 181 192
165 182 192
176 193 210
172 191 205
170 188 202
165 182 192
175 191 204
169 186 200
177 194 210
176 193 207
166 184 195
169 185 197
172 190 203
171 188 200
172 191 206
169 187 200
168 186 200
171 187 199
175 192 206
118 141 130
80 109 67
79 107 67
83 112 69
113 134 121
160 178 185
161 179 192
169 186 199
169 186 199
158 175 184
171 189 202
170 187 199
169 187 200
168 185 198
169 186 200
166 186 198
171 188 201
156 176 188
170 187 201
172 190 205
154 173 184
78 105 64
79 106 64
78 106 64
78 106 65
78 105 65
81 109 67
76 103 62
80 109 67
79 107 66
81 109 67
77 105 64
80 108 67
77 104 63
81 109 69
100 124 102
138 158 157
169 187 200
170 187 199
169 187 199
168 186 200
156 174 180
78 106 66
81 109 68
80 108 67
80 108 67
77 105 64
77 105 64
77 105 64
80 108 67
83 112 69
73 99 58
74 101 60
79 106 65
81 110 68
78 105 64
82 110 69
78 106 65
81 110 68
78 106 65
84 111 77
92 117 89
100 124 105
124 145 137
125 146 142
116 138 126
103 128 107
82 110 68
76 104 63
81 109 67
75 101 61
82 111 69
77 105 64
79 106 65
78 105 64
115 138 123
133 153 150
165 182 193
171 189 202
160 180 190
176 193 208
157 174 183
170 187 199
176 192 205
166 184 196
105 128 111
77 105 64
81 109 68
80 108 66
75 102 63
76 104 63
78 106 65
75 103 63
81 109 67
79 107 66
82 110 68
75 102 62
80 108 66
80 108 67
82 111 69
75 101 60
78 106 64
77 104 64
73 100 60
76 104 64
78 105 65
81 109 67
139 158 161
168 186 199
163 179 186
160 179 189
155 174 180
164 181 190
168 186 199
172 189 204
167 184 194
165 183 194
176 193 209
172 190 205
165 183 193
167 185 198
161 178 185
170 188 202
169 187 200
167 182 192
166 183 196
166 184 195
173 190 206
162 180 189
141 160 162
127 149 144
134 154 153
149 168 173
168 186 199
158 175 184
160 178 185
165 182 192
164 181 190
168 185 198
173 189 203
169 187 201
169 185 198
174 191 203
172 188 198
166 184 195
162 180 189
154 172 179
165 182 192
168 184 195
160 178 187
172 190 204
155 173 178
78 105 64
76 104 64
77 103 64
79 108 67
80 108 66
76 104 63
74 101 61
78 106 65
80 108 67
82 110 67
77 105 64
77 104 63
77 105 64
78 105 64
79 107 66
79 106 65
78 106 65
77 105 64
78 105 64
75 103 62
78 105 64
101 123 104
172 189 201
161 177 189
164 181 193
160 176 185
169 186 198
174 192 206
172 189 200
166 183 193
164 180 191
176 193 208
168 185 198
164 181 193
155 174 184
157 174 182
166 183 193
170 188 199
156 173 180
158 176 186
162 179 190
169 186 199
161 178 188
141 160 161
77 105 63
73 100 60
76 103 62
79 106 65
77 104 63
79 106 64
83 111 68
79 106 65
76 104 63
77 105 64
76 103 63
77 105 65
76 103 62
79 106 65
76 104 64
83 112 70
75 103 63
80 108 67
76 102 62
73 100 61
74 101 60
156 175 184
161 177 185
166 183 195
175 192 207
165 182 193
170 186 199
170 187 197
161 178 189
156 173 179
151 169 174
147 165 171
133 153 150
128 149 144
105 128 112
108 131 114
109 131 116
93 116 91
81 105 74
78 105 65
74 102 61
77 104 64
147 165 168
162 181 192
176 193 207
163 180 191
163 180 191
160 177 187
168 186 197
169 185 201
163 181 191
166 183 194
167 185 197
172 188 201
162 179 191
167 185 197
161 178 188
160 177 185
161 178 190
161 178 187
164 181 191
171 189 202
158 176 185
80 107 69
80 107 66
79 106 65
77 104 63
78 106 65
81 110 68
75 103 62
82 111 69
80 108 65
80 108 67
77 105 64
80 108 67
76 104 64
81 110 69
79 106 65
78 105 64
79 106 64
82 109 67
76 104 64
100 123 101
165 182 192
158 176 183
163 180 192
172 189 201
169 187 203
157 175 185
155 173 179
155 173 180
137 156 155
129 150 148
113 135 121
98 124 99
78 105 70
78 106 66
80 108 66
82 111 69
82 111 69
76 103 63
79 107 66
149 167 171
169 186 198
171 189 203
166 184 197
167 184 194
163 181 192
169 185 197
166 183 195
168 186 198
166 183 193
172 189 203
171 188 200
171 190 207
169 187 201
170 188 201
171 190 204
174 190 203
167 184 196
149 167 171
80 107 69
80 109 66
89 115 84
96 122 92
120 142 133
119 141 129
117 139 125
140 160 162
150 169 172
149 167 172
156 175 185
169 186 195
162 180 189
177 195 212
173 190 205
170 188 203
171 188 201
132 153 147
79 108 66
80 108 67
79 107 67
81 110 69
82 111 68
81 110 67
84 112 69
81 109 67
83 112 70
84 113 69
82 110 68
76 104 64
80 108 67
78 106 64
76 104 63
79 108 67
135 156 155
166 183 193
173 191 204
165 184 197
171 187 199
167 184 195
161 179 188
165 182 194
178 195 211
164 181 192
177 195 211
175 191 204
164 181 191
175 192 205
171 187 198
176 192 207
121 143 128
82 111 69
83 112 70
82 111 68
86 115 72
78 107 66
85 115 72
79 107 66
78 106 64
166 184 196
142 162 166
96 121 95
78 106 65
132 154 149
163 181 190
172 191 208
170 188 202
171 188 201
176 193 208
171 189 202
170 188 203
169 186 198
167 184 197
180 196 212
174 191 205
173 191 204
172 191 206
172 190 204
175 192 204
174 191 205
179 197 212
176 193 207
171 188 201
114 138 123
90 117 85
124 145 136
162 181 193
169 188 201
163 181 192
177 196 211
167 186 198
174 191 206
180 197 212
169 187 199
170 188 204
171 188 201
178 196 214
176 195 211
175 192 205
176 194 209
165 183 195
174 192 208
162 181 190
159 175 182
80 108 66
80 108 66
80 109 68
75 102 61
83 111 68
80 109 68
81 110 69
79 108 67
82 110 69
80 108 66
78 106 64
91 117 89
116 137 126
169 186 197
162 179 190
174 192 204
170 188 201
176 193 207
176 193 207
162 180 189
162 179 187
80 109 68
80 108 67
80 108 66
78 106 65
78 106 64
80 107 65
80 108 66
79 106 65
80 109 67
79 108 67
81 109 67
81 109 67
78 106 65
80 109 67
80 108 66
79 107 66
78 106 65
78 105 64
78 105 65
79 107 66
81 109 68
141 160 161
166 183 197
170 186 198
174 191 204
168 185 199
163 181 191
157 174 183
131 151 147
131 151 149
89 114 87
129 149 141
156 175 183
171 188 202
171 188 200
156 174 181
162 179 187
171 189 201
169 186 199
166 183 194
162 180 191
164 181 190
162 180 192
119 141 128
77 105 64
75 102 62
83 112 70
82 110 67
78 105 64
81 109 67
76 103 62
77 104 64
79 106 66
76 104 62
80 108 67
79 107 66
79 108 66
80 108 66
79 106 65
76 103 62
80 108 66
77 105 65
79 108 66
77 103 63
78 105 64
117 138 127
177 193 207
165 182 195
162 180 190
164 182 192
165 182 192
166 183 195
165 182 192
160 178 188
169 187 200
170 188 202
166 183 198
170 188 201
170 188 203
161 179 187
175 193 208
161 179 191
163 182 196
155 172 179
144 162 163
116 137 126
90 115 85
101 123 105
158 175 183
169 187 199
165 182 195
166 182 193
166 182 194
176 193 206
164 182 195
170 187 200
166 183 194
157 175 184
173 191 204
172 189 203
169 185 194
161 178 187
168 185 197
166 182 192
161 178 188
170 187 201
163 181 192
173 189 203
171 188 201
160 178 189
81 107 74
80 108 66
80 109 67
76 103 62
82 109 67
79 107 65
76 103 64
80 108 66
78 106 65
79 107 65
76 103 63
81 108 66
82 111 69
77 104 64
76 103 62
80 108 67
80 108 67
80 106 65
78 105 64
80 108 67
79 107 65
75 103 62
160 177 185
172 189 201
170 187 198
174 192 207
172 190 204
161 178 189
169 188 201
169 186 199
158 175 183
170 187 200
170 186 198
166 182 193
174 191 206
170 188 202
163 180 191
163 180 190
172 188 201
162 180 191
168 186 197
173 189 202
168 185 197
170 186 196
92 117 89
77 105 64
83 111 69
78 105 64
77 104 63
79 107 66
75 103 63
79 106 65
80 107 65
81 109 67
84 112 69
83 113 71
79 107 66
76 104 64
79 107 66
77 105 64
77 104 63
79 106 65
86 113 78
100 126 99
104 128 110
133 154 149
132 152 149
111 132 119
114 136 124
103 127 104
108 129 112
86 111 76
79 107 66
74 100 61
80 108 67
80 108 66
78 105 64
78 106 65
78 106 65
80 108 67
76 104 64
79 107 66
79 107 66
78 106 65
79 107 66
82 110 68
103 126 105
169 187 202
171 188 200
161 179 188
172 188 201
166 183 193
177 194 208
169 186 197
166 183 193
160 178 186
174 192 207
162 180 191
170 187 201
166 185 197
174 190 203
172 189 202
168 186 201
168 185 197
169 186 199
172 189 203
179 196 213
126 148 142
79 107 65
79 106 66
80 107 66
75 102 62
79 108 67
79 106 65
77 105 65
80 108 66
79 108 66
78 106 65
80 108 66
79 106 65
79 107 66
77 105 64
81 110 67
79 108 67
77 103 62
92 117 87
108 131 115
136 156 152
140 159 159
124 144 136
113 134 121
102 126 101
79 107 66
77 105 64
77 105 64
80 108 67
81 109 68
78 106 65
79 107 66
77 105 64
78 107 66
81 110 68
82 111 68
81 109 66
81 109 67
81 109 67
106 130 114
160 179 189
168 186 199
165 183 197
171 189 201
165 183 191
172 189 201
162 180 191
173 190 206
170 188 202
169 186 198
155 173 179
167 184 197
169 186 198
163 181 191
164 182 196
173 189 201
165 182 194
166 184 195
125 145 139
81 109 68
77 105 64
82 110 68
80 108 66
79 107 66
79 107 66
80 108 67
81 109 67
79 107 67
80 109 67
81 109 67
81 109 67
90 116 86
105 128 107
116 138 126
118 139 128
146 165 169
110 132 114
109 131 115
98 123 95
83 111 68
81 110 68
81 109 68
77 105 64
80 109 67
80 109 67
82 111 69
80 110 69
81 109 67
79 107 66
77 105 63
78 106 65
79 107 67
91 117 86
159 177 186
176 193 207
169 187 200
170 188 201
172 190 203
162 181 191
166 183 194
169 188 201
167 185 200
163 181 191
168 186 201
172 190 204
170 187 200
177 195 213
178 195 209
162 180 189
88 115 82
82 112 70
78 106 65
83 112 69
78 107 66
81 110 67
82 110 68
83 113 70
97 124 96
82 110 68
78 107 66
80 108 66
144 164 166
171 188 202
175 194 211
172 190 205
173 190 204
175 192 207
172 190 204
179 197 213
176 194 210
178 195 211
176 194 210
174 191 205
171 189 205
170 187 197
173 192 207
174 191 204
174 191 205
163 180 191
170 188 200
152 171 176
140 159 160
171 188 202
172 190 206
178 196 211
177 195 212
171 188 200
181 198 215
173 191 208
169 187 200
171 189 203
182 199 217
174 192 208
175 192 206
165 183 196
168 185 198
173 191 204
174 191 205
176 193 205
169 186 197
168 185 196
152 171 178
79 108 67
82 111 69
78 106 64
80 108 66
79 107 66
79 107 66
79 107 67
81 109 68
79 107 65
122 145 135
146 164 164
173 190 202
174 190 201
176 195 211
176 194 211
168 186 200
175 192 205
166 184 197
165 184 197
168 186 200
163 181 192
81 109 68
79 107 66
79 106 65
80 107 66
80 108 67
84 113 70
76 103 62
83 112 70
79 108 66
78 105 64
82 111 68
79 107 66
78 106 65
79 107 65
79 107 66
78 106 66
78 105 64
79 107 66
78 105 64
77 105 65
82 111 69
144 163 164
172 190 206
167 184 197
167 185 198
169 187 199
160 178 189
142 162 164
126 147 141
79 106 67
74 101 61
80 108 67
75 103 62
84 112 72
93 117 93
112 137 118
130 150 144
135 155 152
141 160 159
142 161 164
161 178 187
171 189 202
166 184 195
131 152 149
75 102 62
75 103 63
78 106 65
74 101 61
81 109 67
79 107 66
83 111 69
77 105 65
74 101 62
78 107 66
82 110 68
80 108 66
78 106 64
76 104 64
80 107 66
78 106 65
79 108 66
81 109 67
81 109 67
80 108 66
79 107 66
118 141 129
172 189 204
173 190 203
160 177 186
165 183 194
165 183 194
171 189 203
165 183 195
173 191 205
172 190 206
169 187 198
166 183 196
168 186 200
168 186 198
146 164 167
139 158 156
107 129 112
81 108 71
85 113 71
78 107 65
80 107 66
76 103 62
74 101 61
162 179 191
173 190 204
174 190 204
158 175 185
165 181 194
172 189 201
158 176 182
168 185 195
169 187 199
158 175 183
163 180 190
165 182 192
158 175 185
161 179 190
172 189 202
165 183 195
167 183 193
166 184 194
165 184 198
168 186 197
166 184 199
158 176 184
112 135 120
78 106 65
74 101 62
79 107 66
77 105 64
78 106 66
76 103 62
78 105 65
81 109 67
77 105 64
78 105 64
71 98 59
77 104 63
74 101 61
76 103 62
77 104 63
82 110 69
79 106 66
81 109 68
81 109 67
77 104 64
78 105 64
135 154 150
164 182 194
161 180 190
164 182 195
171 189 201
167 183 193
178 195 210
166 183 193
160 177 184
172 189 202
165 182 193
160 178 189
158 177 189
170 188 200
169 186 200
169 187 200
162 180 190
166 183 195
170 186 198
164 181 192
181 198 215
165 183 194
124 145 137
79 107 66
73 101 61
77 104 63
77 105 64
76 104 63
81 110 68
76 103 63
76 103 63
79 107 66
91 116 88
106 128 108
128 148 143
117 138 129
143 162 163
140 159 161
145 164 165
165 183 193
170 186 195
168 185 194
173 191 206
162 180 190
86 112 80
76 104 64
78 106 65
79 106 65
84 113 70
75 102 62
81 109 67
74 100 61
75 102 61
78 105 64
77 105 64
81 109 68
77 105 64
80 108 66
81 110 67
78 106 66
74 101 61
79 107 66
83 112 70
82 110 68
74 101 61
156 174 182
158 175 184
172 188 200
171 188 199
171 189 204
163 180 191
164 181 191
168 185 200
164 180 192
173 191 205
175 192 206
168 185 199
173 190 204
167 184 195
169 187 200
163 181 189
170 189 202
167 184 200
164 182 195
162 180 191
162 180 191
80 108 67
81 109 67
77 104 63
80 107 66
81 109 67
77 106 65
76 103 63
80 108 66
83 110 74
99 123 100
106 129 109
120 140 129
121 141 132
137 156 155
151 170 176
159 177 187
172 189 204
171 189 205
168 186 201
155 172 178
83 111 72
81 110 68
79 107 66
77 104 63
82 111 69
79 107 65
82 111 68
80 109 68
78 106 64
83 111 69
80 108 66
74 102 62
81 110 69
82 111 69
81 109 68
78 105 65
81 110 67
83 112 69
79 107 65
142 161 162
161 179 189
173 190 203
168 186 198
177 195 212
170 187 200
168 185 196
163 179 189
173 190 202
169 188 203
176 194 209
172 189 203
173 190 206
168 186 199
163 181 190
171 188 200
178 196 214
163 180 190
167 185 195
82 109 70
83 112 69
80 108 67
81 110 69
83 112 70
79 108 67
80 108 66
81 109 67
80 107 66
78 105 64
78 106 65
78 106 65
82 110 68
81 110 68
79 108 68
85 114 71
77 105 64
109 131 115
168 187 200
174 191 202
169 188 204
159 178 187
166 184 192
149 168 171
131 151 144
117 139 125
118 140 127
96 121 94
82 110 68
81 108 66
81 110 67
80 109 68
81 109 67
82 110 69
121 143 134
170 188 201
176 193 207
173 190 204
170 188 202
171 190 205
177 194 211
170 186 198
175 192 206
173 192 208
166 184 196
165 182 190
174 192 207
176 192 204
168 186 197
173 191 207
148 169 174
78 106 65
82 111 69
81 110 69
85 115 72
83 112 70
82 110 68
85 114 71
82 110 68
83 111 69
82 111 69
81 109 67
154 171 175
179 197 213
182 199 216
174 191 206
174 191 206
174 191 205
166 184 196
171 189 202
171 189 204
174 191 205
167 185 194
181 197 212
177 195 213
178 195 212
177 194 210
171 189 205
177 194 210
154 172 179
124 146 139
82 111 69
161 179 188
180 197 211
171 188 201
179 197 214
172 190 204
172 189 202
170 188 202
169 186 196
167 185 197
165 182 192
171 188 201
171 189 202
171 191 206
162 180 191
178 196 211
174 192 207
175 193 206
164 182 193
174 192 207
173 189 202
152 171 174
78 106 66
80 108 67
81 109 67
82 111 69
83 112 69
81 108 66
95 120 96
127 148 141
161 178 186
166 184 198
170 188 200
171 188 201
171 189 202
164 182 194
173 190 204
175 192 206
170 188 198
174 191 206
173 189 204
177 194 209
162 180 190
77 105 64
84 112 70
82 112 70
75 102 62
78 106 65
83 112 69
81 109 68
81 109 68
83 112 69
78 105 64
81 109 67
80 108 66
81 109 67
83 112 70
81 108 66
76 103 63
78 107 64
81 109 67
79 107 66
83 112 69
81 109 67
119 142 130
169 185 198
164 183 197
146 164 165
114 135 125
88 115 81
80 109 67
79 108 66
75 102 62
77 104 63
80 108 66
80 108 66
75 102 62
81 109 68
81 108 67
76 104 63
80 107 65
77 104 64
81 109 66
81 109 66
82 111 72
84 111 76
117 139 122
140 159 158
139 158 158
132 153 149
120 141 129
108 130 115
98 122 100
89 115 89
80 108 66
84 112 69
82 111 70
76 103 63
79 108 66
78 106 65
78 106 64
78 107 66
80 108 68
80 108 67
79 106 65
77 105 64
81 109 67
75 102 62
82 108 75
171 189 199
169 186 199
163 180 191
162 180 192
173 191 210
150 167 176
170 188 202
176 193 208
165 182 192
155 173 180
149 169 174
108 129 113
88 114 80
76 103 64
79 107 64
81 109 67
77 105 64
74 101 60
81 109 67
80 109 67
80 108 67
76 103 63
150 170 174
170 187 200
160 177 187
174 192 207
153 171 179
163 180 191
161 179 191
172 189 200
169 185 196
161 178 186
167 183 195
176 191 203
158 175 182
170 188 204
162 179 187
171 188 200
162 180 191
169 186 201
165 182 193
164 181 194
167 183 194
162 179 191
129 148 142
80 108 66
78 106 66
80 108 67
78 106 65
79 107 65
81 108 67
80 108 66
83 112 70
80 109 67
78 105 64
81 110 68
79 107 67
78 105 64
80 107 67
77 105 64
79 108 66
80 108 67
78 106 65
75 101 62
77 105 65
81 109 68
107 130 110
164 181 190
156 173 181
167 184 196
171 189 206
167 185 195
159 177 187
169 186 199
173 189 201
166 183 192
157 173 179
161 178 186
169 186 199
160 179 191
170 188 201
171 188 201
166 183 192
164 182 192
159 177 185
159 177 186
157 175 184
164 182 191
148 167 173
79 107 67
80 108 66
95 120 91
112 134 119
130 150 146
146 166 169
151 169 174
165 181 189
163 180 189
168 185 197
167 184 196
163 181 193
164 182 193
170 186 197
156 173 183
171 188 201
171 187 198
164 182 192
169 185 197
171 188 201
167 185 195
120 139 132
80 109 67
79 107 66
79 107 66
77 105 64
78 106 65
81 109 68
79 107 65
81 108 66
77 105 63
79 107 65
80 108 66
75 103 63
77 104 63
75 103 62
77 104 63
79 106 64
77 105 64
79 107 66
81 109 67
78 107 65
113 133 115
159 176 188
160 178 187
170 188 201
170 188 202
164 180 188
154 171 183
166 183 194
164 181 191
168 186 199
171 188 201
169 185 195
170 188 203
170 187 201
159 178 187
163 182 194
170 186 197
169 187 198
166 184 195
170 187 198
153 171 178
108 130 115
112 134 121
105 128 111
136 155 153
147 165 168
147 165 168
154 171 176
157 174 182
172 190 205
179 196 212
178 195 210
165 182 191
160 178 187
158 175 184
171 188 202
161 179 190
161 180 190
165 182 192
171 188 201
164 183 195
134 154 149
76 103 62
80 109 67
81 109 68
77 105 64
82 110 68
80 108 67
79 107 66
78 106 66
79 107 65
78 106 65
84 113 70
79 107 67
78 106 66
79 107 66
78 106 66
79 107 65
77 105 64
80 109 67
99 122 97
166 183 195
169 186 198
171 188 201
166 183 193
161 179 188
174 191 206
172 189 201
170 187 201
175 192 208
174 193 208
171 189 206
169 187 199
167 184 197
166 184 196
165 183 194
170 188 202
165 182 193
170 188 203
131 152 148
80 108 66
82 111 68
80 109 67
81 109 67
80 108 67
77 105 65
79 106 65
77 105 64
77 105 64
75 103 62
76 104 64
75 103 63
80 109 67
78 106 64
81 110 68
82 109 67
84 113 71
147 167 170
171 187 201
164 182 193
181 197 213
168 186 199
173 190 203
169 187 201
174 192 208
172 189 200
171 188 201
171 188 202
162 181 194
152 171 172
136 157 156
121 142 130
102 126 105
92 118 88
147 165 167
175 192 207
178 196 213
173 191 204
178 195 212
165 183 193
172 190 203
162 179 187
168 186 199
172 189 201
177 195 213
170 188 200
170 189 204
178 196 213
174 192 208
170 189 205
116 138 126
83 112 70
82 110 68
79 109 67
79 107 66
82 110 68
82 111 69
78 106 65
81 109 67
80 108 67
84 113 71
158 177 183
168 186 200
176 194 211
178 195 209
177 194 209
169 187 199
175 193 208
174 190 206
174 191 204
171 188 201
176 195 210
178 195 209
167 185 198
165 183 198
170 188 203
159 178 187
103 128 105
82 110 68
81 110 69
84 113 71
166 184 196
171 189 203
165 182 194
181 199 217
168 186 198
173 191 206
176 194 210
168 185 200
165 183 195
174 192 208
179 195 210
175 192 208
171 188 201
170 188 202
169 187 200
175 193 210
167 185 196
167 185 197
176 193 207
173 190 204
152 170 176
79 108 67
80 108 67
83 112 70
87 115 73
117 139 127
154 174 182
168 186 198
172 190 206
179 197 212
167 185 197
170 186 198
171 189 202
176 192 205
162 180 190
173 190 203
175 193 207
167 185 197
166 184 195
168 186 199
176 194 209
168 186 200
81 109 71
76 103 63
79 107 66
80 108 66
71 97 58
81 109 67
85 113 71
84 113 71
79 107 65
79 107 66
79 107 66
79 106 65
80 108 67
79 107 65
79 106 65
79 107 67
78 105 65
83 112 70
79 108 67
78 105 63
82 110 71
121 143 134
130 151 149
86 111 81
78 106 65
79 107 66
80 109 67
84 113 70
81 109 67
81 109 67
77 105 64
78 105 64
79 108 67
84 112 69
79 107 65
81 109 67
83 112 69
80 108 67
79 108 67
77 104 64
78 105 64
76 103 63
83 112 69
94 119 91
162 179 190
175 192 207
167 184 197
173 191 204
167 185 197
165 183 193
168 185 195
168 186 200
153 170 174
149 167 172
155 174 180
137 157 157
133 151 147
121 142 135
127 148 143
115 137 125
92 119 91
91 116 87
78 105 64
78 107 66
80 108 67
76 103 63
167 183 194
163 181 192
169 187 199
172 190 206
160 179 190
164 182 193
127 148 141
118 139 124
90 114 86
86 115 72
77 104 64
74 102 61
80 108 67
79 107 66
77 105 63
82 112 70
78 106 66
82 110 68
78 106 65
75 102 61
79 106 66
79 107 65
133 154 153
173 191 207
166 183 193
171 187 198
176 194 210
166 183 194
167 183 195
162 179 190
175 191 207
162 179 189
173 189 202
172 190 204
168 185 197
173 189 200
169 186 198
171 188 201
163 181 193
158 176 186
167 184 196
170 188 201
172 188 201
163 181 191
154 172 180
81 109 67
83 112 70
74 102 62
87 117 73
79 108 67
78 105 64
76 104 62
78 106 65
76 103 63
76 104 63
81 110 68
77 105 64
81 109 68
82 109 67
77 104 63
80 108 67
75 101 61
79 108 66
78 106 65
78 106 65
81 110 69
80 108 67
162 180 190
163 179 188
163 181 189
170 188 200
175 193 208
166 184 197
170 187 200
181 197 212
170 188 203
171 188 201
171 188 202
174 191 205
172 190 204
154 171 179
170 186 198
168 185 196
168 185 197
148 167 173
135 155 153
138 156 157
123 144 134
114 134 122
146 164 167
169 187 199
162 180 192
166 183 193
169 187 199
169 188 200
164 181 192
168 185 196
167 185 197
173 189 202
162 180 192
167 184 197
159 176 185
165 183 196
170 187 200
168 185 197
166 184 195
161 179 190
167 184 193
179 195 210
166 183 192
140 157 158
79 108 66
82 110 67
77 105 65
82 111 69
78 105 64
82 111 69
75 102 62
82 110 68
78 106 65
78 106 64
80 108 67
78 106 65
75 102 62
76 104 63
74 101 62
79 107 66
81 109 67
82 110 68
78 105 64
79 106 64
88 115 82
160 179 190
169 186 200
170 188 200
170 188 201
168 185 198
166 183 194
175 192 207
170 187 199
157 175 184
156 173 179
144 162 164
147 166 168
137 156 153
129 149 146
132 153 150
107 128 113
122 143 133
93 120 88
82 110 70
75 102 61
100 123 102
164 181 190
171 188 200
171 188 201
167 185 198
166 183 194
166 184 194
161 179 189
170 187 202
164 181 190
167 185 197
165 182 195
175 192 205
153 171 178
173 191 204
170 188 201
172 190 204
169 187 202
164 182 193
166 184 194
158 177 185
78 106 64
78 106 65
80 109 67
85 114 71
79 108 67
82 110 68
83 111 68
79 107 67
79 107 67
80 108 67
81 110 68
78 106 65
79 107 65
80 108 67
81 110 68
81 110 68
77 105 64
82 111 68
85 115 72
146 166 168
163 181 193
169 187 201
170 186 197
161 179 189
165 182 191
168 186 200
171 189 205
176 193 209
166 183 194
169 187 199
167 184 197
168 187 200
171 188 201
163 180 189
167 185 196
173 192 208
174 192 209
160 178 188
89 115 86
83 111 69
81 110 67
83 112 69
80 109 66
81 109 67
80 108 66
81 110 67
80 108 67
82 111 68
79 107 65
79 107 66
77 105 64
78 107 66
81 110 68
79 108 67
78 106 64
92 119 83
171 189 203
168 186 199
167 185 197
168 187 198
172 190 205
169 185 196
171 189 204
168 187 200
170 187 200
176 194 209
177 195 212
169 187 199
172 191 207
170 188 202
178 196 211
169 188 202
162 181 193
103 127 108
109 131 117
143 164 165
143 161 165
157 176 188
169 187 198
173 190 204
164 181 190
173 192 209
167 185 197
171 189 203
173 191 207
164 183 195
175 193 208
168 186 198
163 181 191
90 117 88
84 113 70
82 111 70
83 111 69
83 113 71
85 114 71
83 112 70
76 105 64
78 106 65
80 109 68
165 183 193
172 190 203
175 193 206
177 195 210
180 197 214
173 191 206
165 184 196
171 190 204
175 193 208
170 187 200
174 192 205
168 185 197
170 189 203
139 158 156
94 120 89
75 103 62
78 106 65
83 110 67
84 113 70
78 107 66
161 180 188
170 188 203
180 197 212
177 196 211
167 187 202
168 185 198
167 186 200
170 189 205
169 188 204
176 193 207
171 187 197
167 185 198
173 191 205
176 194 210
170 188 202
178 195 210
177 194 209
179 196 213
173 190 205
171 188 201
164 182 192
83 112 70
100 125 99
140 161 161
157 175 183
171 189 201
175 193 207
172 190 203
171 188 202
169 186 196
170 188 201
173 191 208
177 195 212
164 181 193
170 187 199
177 194 208
172 190 205
169 187 201
169 186 197
173 190 202
171 190 205
175 191 204
89 114 87
76 104 63
81 109 67
77 105 64
80 108 66
84 113 70
81 109 67
78 106 66
78 106 66
75 102 62
76 104 64
80 109 67
79 107 65
81 110 68
82 111 69
85 114 72
80 108 66
86 114 74
111 132 120
133 152 152
167 185 196
162 180 187
80 108 67
81 110 68
77 104 63
78 105 64
80 108 66
77 105 64
79 106 65
79 106 65
80 108 66
82 109 67
80 109 67
81 110 67
76 103 62
80 107 66
80 107 66
80 108 67
78 106 64
84 113 71
81 109 67
78 105 63
80 108 67
88 114 84
165 183 197
164 181 190
169 186 198
168 186 199
164 182 193
178 195 210
168 184 193
170 186 197
170 187 199
164 182 195
164 183 195
161 179 189
165 182 195
169 185 197
170 188 202
170 188 201
176 193 208
168 186 197
172 189 202
168 185 194
159 176 181
150 170 176
137 156 155
130 150 146
156 174 183
165 184 194
136 155 155
119 141 128
108 130 115
110 131 114
95 119 92
79 106 68
72 100 60
79 108 67
78 104 63
78 105 64
83 113 70
78 106 66
80 108 67
78 105 64
78 105 65
78 105 64
80 107 66
80 108 67
114 136 122
174 190 202
173 191 205
171 189 202
160 176 184
167 185 198
169 186 199
169 186 197
166 183 196
160 177 184
168 185 198
163 180 189
165 183 194
167 184 195
160 177 186
175 191 204
167 183 195
161 178 187
168 186 200
175 192 206
170 187 201
173 190 202
171 188 202
94 118 90
81 110 68
73 99 60
82 111 69
79 107 66
76 104 63
81 109 67
78 105 65
78 106 64
77 104 64
81 109 68
81 110 68
80 109 67
81 109 67
77 105 64
75 102 61
74 101 61
82 111 69
76 103 63
81 109 66
79 106 65
79 107 66
147 165 167
168 185 197
173 190 204
164 181 191
174 191 204
165 182 193
163 181 194
169 187 199
166 184 196
175 191 204
167 185 198
148 168 171
139 158 157
132 152 146
104 125 105
96 121 95
82 110 70
78 106 65
82 111 68
79 107 66
77 105 65
80 109 67
141 161 163
167 184 197
167 184 196
172 189 204
166 183 194
167 185 198
168 184 194
168 186 197
171 188 202
164 182 194
167 184 195
179 196 213
171 189 203
165 182 190
164 181 192
166 184 197
168 186 198
170 187 200
168 187 201
165 182 194
172 190 202
162 180 190
88 113 81
81 110 69
77 104 64
78 106 65
82 111 69
80 108 67
81 109 68
79 106 64
78 105 65
77 104 63
80 108 67
79 107 66
79 107 66
76 104 63
78 106 65
81 109 71
84 111 74
101 126 102
94 118 91
107 129 111
116 138 123
150 170 175
137 157 152
114 137 123
113 137 120
119 139 127
105 129 108
93 117 93
76 103 63
76 104 63
75 101 62
80 108 67
77 105 64
82 110 68
76 103 63
78 107 66
82 111 69
82 109 67
77 104 63
78 105 64
77 105 64
81 109 67
160 179 188
170 186 197
166 184 196
174 191 206
179 195 209
169 187 200
176 193 208
177 194 209
170 188 200
167 185 196
172 189 199
164 183 192
164 182 194
168 186 200
165 182 193
169 186 197
174 192 208
170 187 200
178 195 211
170 187 198
125 147 141
81 109 68
78 106 64
75 103 63
78 106 65
80 108 66
81 108 66
81 109 68
80 109 67
78 105 64
80 108 67
79 107 66
78 105 64
77 105 65
79 107 66
78 106 65
80 108 66
82 111 68
77 105 63
98 124 99
169 187 197
165 183 196
167 185 198
170 189 204
172 190 205
176 194 211
163 182 192
169 185 198
173 191 206
168 186 198
177 194 208
173 191 206
168 185 195
166 184 196
171 188 200
166 183 192
168 185 197
175 193 209
141 161 161
80 109 67
82 111 70
79 107 65
82 111 69
80 108 66
81 110 68
75 103 62
80 108 66
84 113 70
80 108 66
80 108 66
77 105 65
81 109 67
83 112 69
77 104 63
80 109 68
78 106 65
127 147 142
176 194 208
161 179 190
174 193 208
170 187 200
170 187 200
181 198 213
176 193 209
178 195 211
177 194 210
171 188 200
174 192 207
172 191 205
173 190 205
174 190 202
167 184 196
166 184 197
143 162 161
79 107 66
81 109 67
84 113 70
79 106 65
83 111 69
103 127 105
116 138 126
137 157 153
159 177 184
161 179 189
166 186 200
179 197 213
175 192 206
173 190 204
169 186 197
155 173 176
83 112 69
80 108 66
83 113 71
78 107 66
83 112 71
85 113 70
86 115 72
79 108 67
83 112 70
175 193 208
178 194 209
180 198 213
168 186 197
169 187 200
169 187 200
175 192 206
180 196 212
170 188 202
166 184 197
167 185 195
126 148 141
93 120 90
83 111 69
80 108 66
80 109 67
83 111 68
83 111 69
82 111 69
80 109 68
175 193 209
163 181 191
177 194 209
172 190 204
172 190 204
173 190 203
170 188 200
174 193 208
177 193 207
168 187 200
178 195 210
175 193 209
172 188 201
172 190 205
171 188 202
168 187 201
165 184 194
162 180 192
166 184 197
171 188 198
156 173 177
157 176 180
166 184 197
164 182 196
169 186 199
175 192 206
167 185 198
180 196 212
165 183 193
172 190 204
175 193 209
175 192 205
177 194 208
176 194 210
173 190 202
169 186 199
176 192 207
179 196 209
172 191 206
176 193 208
175 191 207
163 181 190
95 121 95
81 110 68
78 106 65
81 110 68
84 114 71
81 110 68
79 106 66
80 107 66
80 109 67
80 109 68
81 109 68
83 111 69
81 110 68
81 108 67
76 104 64
103 126 100
128 151 146
167 185 195
172 189 205
167 186 199
173 191 206
166 183 195
80 108 66
83 113 70
79 107 65
85 114 71
81 109 68
76 104 63
85 114 71
81 109 68
75 102 62
80 108 68
75 102 62
81 110 67
77 105 64
79 107 66
81 110 68
77 104 64
78 106 65
78 106 65
80 108 67
76 104 63
82 111 69
78 106 65
154 173 180
168 186 198
178 195 212
174 191 206
168 186 197
172 189 204
174 190 203
160 178 190
172 190 203
172 188 202
164 182 192
180 197 215
167 185 198
173 189 201
175 192 206
170 188 200
173 189 202
168 185 196
170 188 200
170 188 201
150 169 173
136 157 154
141 159 159
164 181 193
177 194 209
175 192 208
165 183 196
166 184 195
168 186 200
174 190 204
163 182 193
169 187 202
176 195 211
158 177 184
160 177 184
153 171 179
150 169 172
143 163 163
134 155 153
146 165 166
116 136 124
126 147 140
129 148 144
107 131 113
115 136 123
162 181 191
158 177 188
167 184 194
159 177 184
166 183 192
175 191 205
167 184 197
166 183 195
163 180 190
159 177 186
172 189 202
163 182 194
165 182 194
171 189 203
175 191 205
165 182 193
160 178 190
171 189 203
162 181 191
174 192 207
169 186 201
172 188 203
130 150 143
75 102 61
78 105 65
79 107 66
79 106 65
75 102 63
79 107 66
75 103 63
80 108 67
79 107 66
82 109 67
79 107 66
80 108 66
78 106 65
81 109 67
81 109 67
80 108 67
79 107 65
85 113 70
76 103 63
80 108 67
81 109 67
125 147 139
172 188 199
172 189 204
170 188 199
160 177 186
147 166 173
135 155 154
123 144 137
101 124 105
94 119 93
80 107 66
79 107 66
77 104 62
79 108 66
81 108 66
77 105 64
74 101 61
79 107 66
83 112 70
80 108 67
77 105 64
79 106 65
113 136 122
167 184 196
165 184 197
165 183 194
169 186 198
173 190 203
157 175 184
168 186 195
171 188 198
170 187 198
166 182 192
167 185 197
170 188 200
164 182 191
164 181 192
168 185 195
171 188 199
170 188 199
166 184 196
165 182 193
164 180 191
160 177 186
130 149 146
110 132 116
107 128 115
123 145 135
121 142 133
126 146 139
124 144 136
132 151 147
146 165 167
146 164 168
140 159 159
156 174 180
150 169 175
163 181 190
168 187 200
171 189 201
174 191 205
164 181 191
163 180 191
171 188 201
167 185 196
168 185 196
77 104 64
76 104 63
77 105 64
78 107 66
80 108 67
78 106 66
76 103 63
81 111 69
75 102 61
80 108 67
79 106 64
81 109 68
80 108 66
80 108 67
80 108 67
78 106 64
73 99 60
81 109 67
79 106 64
82 110 68
127 147 143
165 184 196
175 193 211
176 194 210
167 185 197
169 187 202
175 192 210
160 177 188
173 190 202
168 185 196
171 187 200
160 179 190
170 186 197
169 186 198
182 198 214
169 186 198
174 191 205
168 186 199
172 190 203
176 193 207
166 183 193
77 106 65
80 108 66
80 109 67
79 107 66
80 108 67
79 107 66
78 105 64
82 110 68
78 107 65
79 107 65
81 110 68
80 108 67
79 107 65
81 109 67
76 105 64
81 110 67
81 110 68
82 111 69
84 113 70
144 164 165
168 186 200
163 180 188
173 189 201
164 182 193
168 185 197
158 175 185
169 189 205
176 193 209
169 187 200
168 185 197
164 182 193
166 184 195
176 193 207
166 183 194
165 182 194
163 180 190
173 192 208
168 185 198
102 127 104
81 109 68
80 108 66
83 112 69
78 106 65
79 108 66
82 111 69
81 108 66
81 109 68
83 112 69
81 109 67
81 110 68
80 108 66
82 110 68
86 116 73
77 105 64
84 113 72
88 115 78
154 173 180
168 185 199
175 193 210
178 195 210
178 195 210
172 190 204
175 192 206
169 186 198
171 189 204
174 192 207
166 184 196
165 183 194
169 187 200
171 189 205
167 185 199
175 194 212
170 189 204
110 133 117
82 111 69
78 107 66
84 112 70
79 106 66
82 110 69
81 109 67
83 112 70
80 109 67
81 110 68
89 116 81
123 145 133
126 148 139
142 163 163
150 170 175
163 182 195
123 146 134
81 110 68
83 111 69
82 110 67
82 110 68
87 116 73
80 108 66
78 106 65
90 118 83
183 201 220
175 192 208
177 194 209
174 191 203
168 186 198
171 188 199
164 183 195
180 197 212
166 185 196
125 148 140
85 113 70
83 113 71
80 109 67
84 114 71
82 110 68
77 106 65
79 107 65
83 112 70
81 109 67
82 109 70
171 188 199
169 186 198
168 187 198
178 196 210
176 193 206
178 195 210
164 182 193
171 187 201
173 192 208
168 186 198
162 180 190
174 191 206
177 195 210
175 193 209
176 194 210
168 187 200
178 196 212
161 180 188
130 150 145
101 125 103
111 134 118
179 196 213
171 190 203
172 190 204
171 188 200
177 195 211
172 190 204
177 195 211
177 195 209
173 190 204
169 186 197
169 187 202
167 184 196
179 196 211
173 192 207
168 184 196
167 185 201
173 189 203
162 179 186
181 198 215
176 192 207
165 183 194
98 122 98
82 110 69
76 104 64
81 109 68
78 106 66
81 109 67
78 106 66
83 112 69
78 106 66
77 103 63
84 113 70
79 106 65
100 124 98
133 153 152
165 182 192
164 181 194
171 188 201
167 186 197
162 180 191
172 189 204
170 188 201
166 184 196
88 115 82
78 105 64
80 109 68
83 112 69
82 111 69
78 106 65
81 109 67
83 112 70
81 109 67
80 108 66
82 110 68
79 108 67
78 106 65
79 107 66
83 112 69
82 110 69
75 102 62
79 107 66
79 107 66
80 108 66
82 111 69
78 106 64
154 172 177
168 186 198
176 193 208
174 191 203
172 189 202
177 194 209
169 187 199
172 189 201
171 188 203
160 178 189
170 188 201
167 184 192
174 191 205
168 186 200
166 183 196
164 182 192
160 179 189
138 157 154
129 149 143
89 116 84
80 108 67
77 104 63
123 144 137
176 193 207
172 190 205
178 195 212
167 184 195
167 184 196
168 187 200
172 189 202
175 192 207
163 180 189
173 191 206
168 186 197
164 181 192
169 186 199
164 182 191
163 181 191
172 190 203
173 191 205
171 189 205
166 183 196
159 177 190
170 187 197
161 179 188
103 127 107
79 107 66
78 106 65
78 106 65
79 107 65
84 110 73
89 115 84
87 114 81
102 126 104
94 118 92
108 131 111
104 127 110
107 129 111
120 141 132
123 144 137
119 140 128
132 152 148
135 154 154
122 142 136
130 150 146
140 161 161
135 155 157
134 155 152
113 135 126
121 143 129
129 149 143
119 141 130
105 128 110
102 125 105
116 137 119
100 124 102
104 128 108
116 138 125
103 128 107
100 123 103
103 128 109
104 127 104
109 132 114
99 122 100
97 121 97
91 116 86
89 115 86
95 121 95
92 117 88
107 130 114
143 160 160
122 142 136
111 132 117
99 122 100
95 118 97
96 121 95
100 123 102
96 121 93
91 116 87
114 136 118
109 131 113
94 119 92
101 124 101
96 119 96
115 138 125
100 123 104
107 129 113
116 139 123
124 146 135
126 147 140
123 144 134
121 142 134
142 160 161
140 160 159
128 148 143
140 159 157
119 141 131
123 144 136
127 148 143
130 149 145
123 144 137
117 139 126
111 136 120
115 139 126
112 133 118
97 121 97
108 131 113
90 117 85
88 114 79
92 120 80
82 110 68
78 106 64
78 106 65
91 116 89
172 189 203
166 184 198
176 193 208
169 186 197
163 180 190
173 190 202
160 179 192
173 190 204
174 190 203
169 187 201
167 183 192
174 191 206
172 189 202
167 185 195
166 184 198
164 181 192
164 182 195
159 177 186
171 188 200
170 188 202
168 186 201
104 127 110
83 111 69
81 110 68
85 114 71
85 114 71
78 106 65
78 106 64
78 106 65
78 106 65
79 107 65
79 107 65
78 107 66
78 107 65
79 108 67
77 105 64
81 110 68
79 107 65
78 107 65
82 111 69
78 106 65
81 108 72
168 184 194
166 185 200
167 185 197
166 183 193
166 184 195
167 185 197
163 180 190
164 182 192
171 188 200
163 180 187
166 184 195
167 185 199
161 180 189
170 187 201
172 189 200
166 184 194
165 181 190
165 182 193
177 195 214
170 188 199
104 127 108
77 105 65
82 111 69
81 109 67
80 108 67
78 106 65
77 105 64
79 108 66
78 106 64
81 110 68
82 111 69
79 108 67
79 107 65
79 107 66
81 109 67
83 112 70
78 106 65
82 110 68
80 108 66
91 117 88
171 188 201
165 183 196
172 190 204
169 185 197
173 189 202
168 185 197
169 186 198
183 200 216
177 195 210
177 194 209
168 184 195
166 184 195
176 194 209
168 185 197
167 183 194
162 180 189
174 191 206
163 182 195
140 160 161
78 106 65
79 107 65
81 109 68
79 107 66
79 106 65
78 107 66
76 103 63
82 111 69
84 113 70
81 109 68
81 110 68
83 112 69
79 107 66
81 110 68
79 107 67
82 111 69
80 108 67
121 142 130
173 190 204
167 185 196
174 192 207
167 186 201
178 195 212
174 191 204
164 183 196
167 185 196
169 187 201
168 185 195
169 187 204
172 190 204
176 193 209
164 182 192
169 185 197
171 188 199
159 180 190
82 110 70
82 111 69
83 112 69
82 112 70
82 110 68
81 110 68
82 111 68
79 108 67
78 107 66
84 113 70
80 109 67
80 110 68
85 115 72
83 113 71
82 111 69
99 123 97
145 164 163
125 148 140
107 129 112
88 115 83
83 112 70
82 111 69
81 109 66
101 125 104
177 194 208
172 190 206
168 187 202
179 197 213
176 195 213
171 189 203
161 181 192
125 145 136
82 110 71
81 110 67
82 111 69
86 115 72
79 107 65
83 112 69
78 107 65
84 114 71
81 109 68
80 108 66
80 109 66
91 117 87
171 188 203
168 186 200
179 197 214
180 199 219
170 187 200
178 195 213
176 194 209
167 185 198
170 187 199
167 185 196
165 183 196
174 191 206
182 199 215
176 193 206
170 188 203
159 177 183
122 142 135
89 116 84
80 108 67
81 110 68
106 130 111
167 185 198
168 186 198
168 185 195
174 193 207
171 189 203
177 193 207
182 199 215
174 191 205
178 197 217
169 187 200
179 196 211
174 192 205
165 183 196
166 184 197
177 194 207
172 189 202
176 194 210
166 185 199
171 188 203
171 189 202
174 192 206
101 124 103
76 104 64
79 107 65
80 108 67
83 112 70
80 108 66
79 106 65
81 110 69
81 110 68
90 117 85
122 142 135
155 175 182
159 176 188
170 188 202
165 182 194
165 182 194
171 188 201
171 188 202
169 187 201
173 192 207
172 190 204
169 187 200
97 123 97
83 111 68
83 112 70
78 105 65
81 109 68
81 109 67
81 110 68
80 107 66
75 103 62
79 107 66
78 105 64
75 103 63
81 109 67
80 109 68
83 112 70
80 108 66
84 113 71
83 111 68
77 105 64
81 109 67
79 107 65
78 105 64
141 160 161
153 170 177
166 183 194
170 187 200
167 185 198
173 191 206
176 192 205
169 186 199
171 189 203
161 180 191
175 193 207
170 188 199
175 192 207
151 169 174
144 162 164
98 123 99
79 106 65
77 105 64
81 110 67
80 108 67
80 107 65
77 104 64
106 129 108
165 182 193
172 190 204
176 192 205
166 184 195
169 186 199
164 180 191
172 189 203
167 184 197
173 191 205
173 189 201
164 181 191
166 183 193
172 190 206
167 185 198
173 190 202
175 192 208
174 191 205
166 183 196
167 185 198
170 188 199
167 184 195
164 181 189
117 139 129
76 103 63
79 107 66
81 109 67
73 100 60
74 101 61
79 107 66
79 107 66
78 106 65
76 103 63
81 110 68
81 110 67
79 107 66
83 112 71
79 107 65
79 106 65
79 107 66
75 101 61
82 110 67
78 105 64
83 111 70
79 107 65
87 112 79
168 185 197
165 182 192
165 181 195
174 192 207
163 181 193
173 189 202
171 187 201
175 193 209
171 188 199
175 193 209
164 182 193
172 190 202
168 187 203
174 192 207
166 183 195
146 165 170
136 156 154
115 136 125
96 121 96
83 111 69
79 107 66
82 110 68
141 161 161
160 177 187
164 183 194
168 187 202
166 184 197
169 186 199
176 194 209
171 189 203
173 189 202
163 181 190
166 184 195
177 194 210
168 185 200
178 195 210
165 183 194
167 182 191
177 194 211
172 190 204
166 183 195
169 187 200
175 191 204
160 179 190
119 141 132
83 112 69
73 100 61
83 111 69
83 112 70
79 106 64
83 111 69
76 103 63
82 110 68
82 110 68
82 111 68
77 104 64
77 104 64
80 108 67
81 108 66
75 102 61
78 106 65
76 103 62
77 105 64
83 112 69
80 109 68
79 106 65
135 156 157
169 186 199
172 190 204
167 184 194
167 186 199
167 185 197
163 182 194
171 189 202
165 183 195
174 192 206
167 184 196
166 184 196
173 189 203
169 185 195
175 194 210
169 187 202
168 185 197
168 185 198
159 177 185
168 186 198
170 187 197
140 160 160
78 106 65
79 107 65
78 106 65
80 109 67
78 106 65
77 104 64
81 109 67
81 109 67
76 104 63
76 104 64
77 105 64
78 106 65
82 110 67
79 107 66
76 103 63
78 106 66
82 111 69
80 109 67
77 105 64
80 109 68
118 137 128
168 185 198
178 194 208
170 187 198
171 189 203
168 186 200
168 185 198
168 184 194
168 185 197
168 185 196
168 186 199
169 186 200
163 182 197
166 184 196
179 196 213
174 192 206
164 182 194
168 184 196
174 192 206
175 193 209
157 175 184
78 107 66
77 104 64
78 107 65
76 104 63
82 110 68
78 106 64
77 105 65
75 103 63
74 102 62
74 101 61
77 104 64
78 106 66
79 107 66
83 112 70
83 112 69
81 109 68
77 104 63
84 114 71
81 110 68
150 170 171
172 189 202
167 184 197
162 178 186
169 186 198
172 190 206
159 177 186
171 188 202
166 184 195
175 194 210
173 190 204
171 189 203
168 186 199
173 190 205
178 195 208
173 191 204
172 189 202
178 195 210
173 190 204
120 142 133
78 106 65
77 105 65
81 110 67
80 108 66
83 111 69
82 111 69
81 110 67
84 113 70
82 112 70
77 105 64
82 111 69
80 109 67
84 113 71
78 106 64
80 109 67
78 107 67
75 103 64
149 168 173
173 190 204
173 190 201
166 185 200
171 187 199
166 184 198
178 196 213
175 191 204
172 190 206
172 190 205
170 189 204
176 193 208
176 193 207
175 191 204
180 197 216
179 196 209
171 187 198
131 152 147
79 108 67
79 107 66
81 109 68
80 108 67
81 110 68
82 111 70
79 107 66
82 112 70
77 105 64
82 111 69
80 108 67
84 114 71
77 104 63
80 109 67
81 110 68
126 147 140
169 187 198
180 198 217
170 188 199
82 111 69
79 107 65
80 108 66
107 131 107
169 187 200
177 195 210
177 194 208
168 186 199
152 171 174
123 146 135
81 111 69
81 110 68
81 109 67
80 110 68
79 107 66
85 115 72
81 109 68
81 110 68
80 108 67
77 105 65
81 110 68
81 110 68
83 111 69
94 121 93
173 191 204
171 189 202
175 191 204
174 191 206
177 193 209
171 189 205
177 196 215
173 191 207
176 193 207
171 189 204
181 199 218
175 192 206
167 185 196
150 170 174
114 138 122
84 113 70
82 110 68
82 111 69
82 111 69
82 110 69
107 130 110
174 191 205
167 186 199
173 190 202
175 193 206
168 185 197
173 191 208
160 177 186
177 196 214
165 182 195
176 193 207
171 189 204
175 192 205
167 185 198
167 185 198
161 179 189
171 188 201
169 186 197
170 188 200
168 186 198
175 191 203
176 194 209
114 137 123
82 110 67
80 108 67
78 106 65
77 105 65
78 106 65
90 116 81
113 134 121
148 167 171
172 190 204
160 176 187
177 194 210
169 188 201
170 188 203
165 184 197
185 201 218
169 186 197
166 183 194
175 192 206
169 187 199
181 198 215
165 184 195
124 145 136
83 112 69
81 110 68
81 109 67
78 105 65
79 107 66
80 109 67
84 113 70
79 107 66
77 104 64
79 106 66
80 109 67
78 106 64
79 108 68
78 106 65
82 111 69
79 106 66
82 110 68
77 104 63
78 105 65
78 105 64
80 108 66
138 159 157
172 190 204
176 193 211
168 186 199
168 186 200
160 178 189
162 179 192
168 185 197
176 194 210
171 188 200
154 172 181
124 144 135
91 117 88
77 104 64
80 108 66
79 106 65
80 108 66
82 111 69
78 106 66
81 109 67
83 111 68
79 107 66
80 109 67
161 177 186
170 188 203
171 189 205
163 180 190
165 183 193
171 188 201
171 188 201
171 188 202
177 194 210
172 188 201
169 186 198
170 188 202
173 192 207
169 186 197
164 183 194
166 184 195
166 184 196
176 195 211
163 182 192
161 180 190
162 180 190
163 180 189
138 157 156
79 107 66
79 107 66
78 106 64
78 106 65
79 106 65
77 105 65
79 108 67
79 106 65
78 106 64
80 108 67
79 107 65
81 109 67
77 105 63
77 105 64
75 103 62
80 108 67
79 107 66
76 104 63
79 107 66
81 109 67
80 109 67
78 106 64
148 167 170
164 182 195
180 196 212
169 186 198
161 179 190
164 181 193
168 187 200
166 183 196
174 192 206
163 179 188
150 168 173
132 152 146
117 137 128
95 120 95
80 109 68
85 114 71
78 105 65
80 108 67
79 106 64
80 108 68
81 110 68
80 107 66
120 141 131
164 181 192
175 192 207
166 183 195
165 182 191
161 179 191
162 180 190
169 186 198
159 177 188
162 180 189
176 194 211
166 183 195
162 179 191
172 189 203
173 191 207
176 193 207
169 187 201
165 183 196
174 190 203
176 193 209
169 188 201
177 193 207
152 170 176
75 103 63
84 112 70
80 108 66
81 110 68
80 108 66
79 107 66
77 105 65
76 103 62
81 110 68
81 109 67
79 108 66
81 109 67
77 104 64
81 109 67
79 107 66
77 104 64
78 107 66
81 109 68
79 107 66
77 105 64
74 101 60
107 128 111
180 197 214
172 189 204
175 193 210
165 182 191
172 190 203
176 193 206
159 177 187
171 187 200
175 191 204
164 182 192
169 186 201
167 185 197
167 185 200
167 184 199
171 188 202
171 188 202
176 193 207
167 186 201
174 190 204
169 186 199
182 198 215
97 121 97
79 108 66
81 109 68
77 105 65
80 108 66
78 106 64
82 111 68
77 105 64
81 109 67
78 105 65
77 105 63
79 107 65
82 111 69
75 103 63
79 107 66
78 105 64
78 106 65
77 104 63
78 107 65
81 109 68
85 111 79
174 191 206
174 191 207
175 193 207
173 190 204
171 188 203
165 182 193
167 184 198
179 196 209
162 180 191
168 185 195
173 190 204
157 176 184
168 186 201
164 182 194
173 190 203
168 187 201
168 185 198
170 188 199
166 184 196
164 183 195
117 138 128
81 109 68
82 110 68
82 109 67
78 106 66
81 109 67
83 111 68
80 108 66
80 108 66
78 106 65
76 104 64
81 110 68
82 110 68
77 105 64
81 109 67
78 105 64
78 106 64
82 111 69
80 109 67
90 116 83
175 192 208
173 190 203
175 193 206
173 190 206
174 192 209
175 191 204
172 191 205
171 188 200
176 193 208
172 191 206
162 180 190
172 190 202
174 191 205
171 189 204
169 187 201
173 191 207
173 191 205
163 181 193
159 176 187
79 108 66
77 104 63
79 107 65
82 110 68
80 108 66
82 110 68
86 115 72
80 108 66
83 112 70
81 110 68
82 110 68
82 111 70
78 106 64
82 111 69
77 106 65
82 111 69
81 110 68
95 122 97
172 190 202
167 186 200
166 184 195
168 186 200
171 190 206
165 183 197
171 189 204
178 196 213
171 190 204
177 195 210
172 190 205
167 186 199
168 186 199
169 187 203
171 188 200
163 181 191
171 190 203
92 118 90
82 109 67
82 110 68
80 109 67
79 107 66
80 109 67
80 109 68
78 106 64
80 109 68
80 108 66
77 105 64
81 109 67
83 112 69
81 110 68
83 112 69
83 112 69
151 171 178
177 194 209
179 197 214
83 112 69
81 110 68
81 109 67
121 143 133
173 192 208
175 193 209
150 171 177
108 131 112
80 108 67
82 110 69
82 110 68
80 108 67
86 115 72
82 112 70
77 106 65
84 114 72
80 109 67
80 109 67
82 111 70
82 111 69
83 112 70
82 112 69
81 110 68
105 130 104
172 191 206
164 182 192
176 195 212
167 183 195
171 188 200
178 195 212
167 183 194
177 195 210
173 191 205
175 192 205
171 189 203
131 152 147
93 119 88
78 107 66
85 114 71
80 108 67
80 109 68
85 114 72
77 105 64
82 112 70
114 136 119
168 187 201
168 186 197
167 184 197
170 188 202
174 193 212
169 187 201
172 189 204
168 186 200
169 185 198
182 200 217
170 187 200
167 185 200
178 195 210
171 188 200
171 190 203
179 197 215
170 187 198
169 186 197
166 185 198
174 191 206
174 191 205
131 152 146
81 110 68
84 113 71
81 109 67
115 137 122
132 151 149
166 184 194
165 183 195
170 187 199
172 188 202
171 187 198
163 181 192
168 185 197
173 190 205
166 183 193
176 193 207
169 186 199
171 188 201
180 197 212
169 187 199
175 192 206
175 192 207
108 133 114
77 105 64
82 111 69
82 111 69
80 108 67
82 111 69
80 108 67
80 109 68
78 105 64
79 107 66
77 105 65
81 110 69
80 109 67
79 107 65
78 105 64
75 102 62
83 112 69
76 104 62
80 108 66
81 109 67
81 110 69
80 109 67
118 140 130
175 193 207
165 183 195
173 192 208
177 193 206
171 187 200
165 183 191
140 159 160
115 136 127
83 110 75
77 104 64
80 108 66
77 104 63
80 108 66
77 105 65
75 102 63
80 109 67
79 108 68
79 107 66
79 107 65
79 106 64
80 108 66
78 105 64
158 176 182
167 185 199
176 192 208
165 182 192
170 188 199
170 187 196
175 193 208
166 184 197
167 186 201
166 182 193
175 192 208
166 184 197
171 188 201
169 186 197
169 187 201
166 184 198
160 177 186
160 178 188
172 189 204
173 190 205
165 182 193
172 189 203
133 154 150
79 106 65
79 107 65
78 105 65
79 107 66
81 109 67
81 110 68
79 108 67
77 104 63
80 109 67
81 108 67
78 106 66
78 106 65
75 103 63
79 107 64
79 108 67
79 106 66
80 108 67
80 108 67
83 111 68
79 108 67
79 106 65
79 107 66
139 160 158
172 190 205
166 184 196
173 190 203
164 182 195
147 165 171
134 155 150
117 138 129
88 116 80
79 107 65
79 107 66
80 109 68
81 110 68
79 107 66
80 109 68
82 110 69
77 105 64
81 108 67
81 110 68
78 106 66
78 107 66
79 106 65
101 125 99
166 184 195
171 189 201
173 190 204
162 179 188
166 184 194
164 181 189
172 190 203
168 185 196
166 184 198
163 181 190
169 187 200
172 189 205
162 180 190
165 182 192
167 185 197
169 186 199
169 187 198
171 188 199
173 192 208
172 190 205
170 186 198
165 182 194
92 117 93
78 107 66
77 104 64
80 107 65
82 110 68
79 107 66
76 104 63
80 107 66
77 104 65
81 110 68
80 108 66
81 109 67
82 111 70
81 109 67
82 110 68
78 106 65
77 105 64
76 104 64
79 108 67
80 109 67
81 109 68
87 114 78
158 175 186
175 192 207
165 183 191
171 188 202
165 184 196
165 183 194
173 190 206
175 193 208
169 185 195
166 184 195
165 182 193
178 195 211
174 192 208
164 182 191
171 189 203
165 183 196
174 192 208
165 181 191
167 184 195
162 180 191
175 192 206
121 143 134
81 110 68
76 104 64
79 107 65
82 111 69
81 109 67
77 105 64
82 111 68
81 110 68
81 110 68
74 101 60
80 108 66
78 105 64
79 108 66
77 104 64
80 109 68
81 109 68
78 106 65
80 109 68
80 109 68
79 107 66
154 173 180
171 189 203
166 184 197
170 188 202
171 189 203
170 187 201
174 190 204
169 187 200
165 183 193
175 193 209
167 185 197
171 188 200
164 182 193
163 182 194
172 189 202
175 192 207
166 184 196
173 191 206
174 192 206
168 185 199
155 173 183
81 110 68
79 107 65
81 110 68
81 110 68
80 108 67
78 106 65
81 109 66
77 105 65
79 107 66
79 107 65
80 109 67
82 110 68
82 111 69
83 112 70
79 107 66
83 112 69
86 115 71
81 109 67
81 109 67
132 153 150
173 191 204
165 184 197
175 193 208
175 192 206
167 185 198
175 193 207
170 187 200
186 204 223
167 185 198
165 181 191
168 186 199
168 185 199
164 181 192
156 176 187
162 181 193
172 189 201
171 189 202
176 194 210
124 146 136
83 113 70
82 110 69
81 109 67
82 110 69
82 111 70
76 103 63
81 109 67
83 112 70
80 108 66
80 108 66
78 106 66
83 112 69
80 109 67
77 105 64
80 109 67
80 108 67
81 109 67
131 150 147
175 193 210
174 192 206
162 180 190
168 186 199
179 196 212
168 185 198
175 193 206
177 195 211
169 187 199
178 196 213
175 191 203
163 182 195
173 190 206
181 199 215
168 187 201
176 194 209
154 172 177
84 114 72
82 112 70
86 115 71
83 111 69
81 111 69
85 114 71
81 110 68
84 113 71
83 113 71
83 112 70
84 113 70
84 113 69
76 103 64
82 111 69
85 115 72
104 129 106
176 194 207
178 195 212
80 109 68
83 111 68
81 109 67
134 156 152
144 164 166
112 136 115
81 110 69
81 109 67
81 110 68
83 112 70
85 114 71
81 110 68
82 111 69
83 112 70
80 109 66
82 112 70
82 110 68
83 112 69
83 112 70
81 110 68
77 105 64
81 110 68
81 110 69
93 118 91
176 193 209
178 195 210
169 188 202
176 193 206
176 192 206
178 195 209
172 189 202
170 188 200
162 181 193
116 138 127
79 107 65
78 105 64
81 110 68
81 109 67
84 113 70
79 108 66
84 112 69
77 104 63
80 109 68
86 116 73
110 134 116
174 192 207
162 181 193
177 194 208
172 190 203
161 179 190
174 192 205
176 194 209
177 194 211
170 189 203
179 196 213
173 191 206
175 193 208
175 193 209
168 185 199
168 187 201
180 197 212
177 193 208
176 193 205
171 188 202
175 193 207
177 196 213
120 142 131
94 121 94
135 156 155
170 189 204
170 188 201
174 191 204
167 185 197
173 190 203
173 190 203
167 183 193
176 194 209
178 196 212
173 191 207
175 192 205
170 189 204
177 194 211
171 190 207
167 185 198
168 185 198
175 192 209
178 195 211
175 193 208
121 142 131
82 111 69
81 110 68
81 109 67
79 107 67
83 111 69
81 109 67
83 112 69
81 110 67
78 107 66
80 108 67
77 105 64
77 106 64
81 109 67
81 110 68
79 107 66
83 111 69
80 109 67
83 112 69
83 112 69
82 109 67
79 107 66
101 125 104
166 184 197
162 180 189
154 172 178
131 151 143
100 124 99
79 107 66
80 108 66
79 107 66
81 110 68
78 106 65
82 110 68
80 108 66
78 106 64
80 108 66
81 110 68
81 109 68
80 108 67
81 110 68
82 110 68
80 109 67
80 108 67
79 106 64
148 166 170
172 188 201
171 189 201
174 191 203
172 189 204
168 185 197
161 178 187
170 187 201
165 181 190
160 179 188
175 192 207
177 196 212
166 182 193
178 195 211
169 187 200
176 193 208
170 187 199
171 188 201
176 193 207
169 187 198
169 186 198
168 187 202
171 188 200
82 110 68
75 102 62
78 106 65
80 109 67
78 106 65
75 102 62
76 104 63
79 107 66
83 111 69
79 107 65
80 109 68
75 102 62
80 108 66
84 112 69
75 104 65
82 110 68
80 109 67
80 108 67
80 108 66
84 112 69
81 110 67
86 111 79
134 154 151
136 156 155
116 139 124
96 119 97
80 109 67
80 108 66
78 106 66
82 110 68
78 106 65
80 108 67
80 108 67
81 109 67
79 107 65
79 108 67
78 106 65
78 106 66
83 112 69
78 106 65
79 107 66
82 110 68
75 102 62
77 104 64
81 110 68
148 166 171
172 189 202
161 179 189
173 191 206
173 191 204
175 193 209
175 192 205
172 189 204
170 188 202
161 180 191
170 188 200
165 184 195
175 193 207
173 191 205
175 192 204
166 185 198
158 175 183
169 185 197
161 179 187
169 186 196
172 190 204
168 186 200
123 144 136
80 109 67
80 108 67
78 105 64
82 111 69
76 105 65
81 109 67
79 107 65
76 103 63
78 105 64
82 110 67
78 105 63
83 112 70
81 109 68
81 110 68
80 109 68
82 111 69
77 104 64
83 111 68
76 104 64
76 105 64
76 104 62
137 157 155
175 192 206
170 187 201
169 187 201
171 190 205
167 186 200
172 190 203
173 190 206
171 189 205
168 186 198
161 178 187
166 184 195
166 184 194
176 192 207
172 191 205
159 177 189
163 179 188
167 185 196
172 190 203
170 187 199
162 181 191
162 180 189
75 102 62
78 106 65
79 107 66
82 111 69
80 108 66
78 106 65
78 106 65
80 109 67
82 110 68
77 104 64
78 106 66
80 108 66
75 103 62
82 110 68
80 108 67
78 105 64
81 109 67
78 106 65
79 107 65
82 111 68
90 116 84
170 188 200
172 189 202
170 188 200
175 192 206
174 191 205
173 189 201
159 177 187
172 189 202
167 183 194
167 185 198
167 185 199
174 192 209
167 185 198
172 190 204
177 194 210
168 187 201
171 188 202
174 192 207
160 178 187
173 190 203
110 133 115
78 106 64
83 112 69
79 107 66
78 106 65
81 111 69
80 108 66
78 106 65
82 111 69
79 107 66
79 107 66
79 106 65
76 103 63
79 107 65
83 112 70
79 107 66
79 107 66
80 108 67
82 111 69
91 119 84
161 178 187
169 186 197
173 191 204
174 192 208
170 187 202
166 184 197
177 194 209
174 191 204
173 190 204
170 188 201
175 193 207
172 189 202
175 192 205
176 194 212
167 185 196
171 189 201
170 187 202
166 185 198
163 181 191
83 112 73
79 108 67
80 109 67
79 107 66
81 109 67
80 108 66
81 110 68
78 106 65
81 110 69
79 108 67
84 113 71
80 109 67
81 109 68
79 108 66
81 109 68
78 107 65
82 111 69
89 116 80
171 189 203
167 186 198
173 190 203
178 195 210
166 184 196
162 180 189
170 189 204
169 188 202
175 192 207
166 184 196
175 193 208
173 192 210
169 188 201
172 190 203
180 199 218
169 187 200
172 189 204
116 140 126
82 111 68
81 109 68
82 110 68
82 112 70
79 108 66
83 113 70
84 113 70
84 113 71
81 110 68
81 110 69
80 108 66
82 111 68
80 108 66
81 111 69
78 107 67
124 145 136
179 196 214
80 108 66
83 112 72
129 152 147
115 137 123
80 109 68
78 107 66
84 114 71
86 116 72
82 111 69
80 110 68
81 110 67
81 109 67
85 114 70
79 107 66
77 105 64
82 110 68
80 109 68
82 110 68
80 108 67
81 110 68
83 112 68
82 111 69
79 108 67
108 131 116
174 191 203
173 191 207
171 189 204
176 194 208
170 188 202
175 192 205
155 173 177
106 129 108
82 111 69
83 112 69
81 110 68
85 115 71
82 110 68
84 112 70
84 114 71
80 108 67
77 103 63
78 106 65
81 109 67
85 115 72
107 130 111
175 192 206
169 185 196
174 192 208
172 190 203
177 195 211
171 190 203
173 192 208
170 187 200
171 188 199
177 195 209
175 192 206
185 202 219
163 181 189
176 194 212
173 192 207
165 184 196
177 194 212
167 184 198
172 191 207
168 186 198
137 156 155
146 165 168
168 187 201
179 195 211
170 188 200
177 193 208
179 197 212
171 187 200
168 186 197
177 194 209
169 186 200
178 196 210
174 191 205
181 199 217
165 182 193
173 190 205
169 187 200
177 195 211
168 186 200
177 194 210
164 182 192
177 195 209
175 193 210
136 157 152
84 113 70
84 113 71
79 107 66
84 112 70
82 110 67
79 107 66
75 103 62
80 109 68
82 110 68
84 113 71
78 105 64
80 109 67
80 108 66
81 110 68
85 114 71
79 108 67
80 108 67
79 107 67
80 108 67
74 101 62
81 110 68
112 135 115
131 152 148
90 117 85
79 108 67
79 107 66
78 106 65
77 105 65
82 111 69
82 110 68
85 114 71
82 110 69
80 109 67
77 106 65
80 107 66
85 115 72
77 105 64
83 112 70
80 108 67
83 111 69
83 112 70
75 103 62
81 109 67
80 108 66
134 153 151
164 182 191
174 190 202
166 184 196
169 186 199
169 185 196
174 192 206
165 184 197
167 183 195
162 180 191
170 187 196
174 191 205
174 192 206
179 196 212
168 186 198
173 190 205
172 190 205
171 188 201
171 188 201
178 195 212
168 188 203
162 180 190
176 194 211
97 120 98
79 107 66
79 107 67
78 106 65
80 108 66
82 111 69
77 104 64
81 109 67
78 106 65
80 109 67
77 105 64
79 107 66
83 112 69
81 108 67
80 109 68
82 110 68
82 111 67
93 119 90
134 154 148
140 160 160
162 180 188
163 182 194
162 180 191
79 107 66
80 108 67
83 112 70
79 107 65
76 103 63
82 110 68
76 104 63
83 112 70
77 104 64
81 110 68
80 108 66
79 109 68
82 110 68
83 112 70
78 106 65
80 108 67
77 105 64
77 104 63
82 111 68
72 98 59
78 105 64
79 107 66
131 150 145
179 195 209
170 186 198
175 191 206
173 188 200
169 184 195
160 178 187
171 187 200
172 190 204
170 187 198
170 188 200
171 189 202
164 181 189
174 192 208
174 191 207
178 194 208
175 192 206
170 187 199
176 193 207
173 191 203
176 193 208
168 186 199
143 163 167
79 107 66
80 107 66
78 105 65
82 111 69
81 109 67
83 112 70
80 108 67
84 113 70
84 112 70
80 108 67
77 104 63
81 110 68
77 105 64
79 108 66
81 110 67
79 107 65
81 109 67
78 106 66
79 107 66
79 107 66
81 109 67
103 127 105
173 190 205
160 177 184
167 184 194
180 198 215
171 188 201
170 188 202
167 185 196
170 188 201
172 189 203
168 185 197
171 188 199
170 188 200
163 182 194
169 186 199
167 184 198
177 194 207
170 187 198
178 195 212
170 187 200
174 190 204
172 191 204
99 124 99
82 109 67
81 110 68
79 106 65
81 110 68
81 108 67
80 108 66
76 104 64
82 111 68
79 106 65
77 105 64
81 109 67
82 111 69
77 104 63
81 108 66
81 109 67
83 112 70
81 109 67
79 108 67
81 109 67
79 106 65
152 171 175
162 180 191
172 190 203
173 191 208
168 186 199
166 184 197
174 191 204
170 188 202
171 189 200
175 194 210
171 188 200
179 197 213
171 187 200
174 191 204
174 191 205
170 188 202
174 191 207
164 182 194
170 187 197
173 192 208
156 175 183
78 106 65
83 112 70
82 111 69
83 111 69
82 111 69
77 105 64
78 106 65
81 109 66
81 110 68
79 106 66
78 107 66
81 109 67
79 107 66
77 105 65
83 111 69
78 106 65
79 107 65
79 108 67
81 110 69
138 157 158
166 183 193
173 190 206
171 189 201
175 193 209
158 175 184
166 184 197
165 182 195
174 192 205
175 193 209
175 193 209
171 189 203
168 186 199
171 189 201
175 193 206
170 187 198
169 187 203
171 190 203
177 195 211
125 146 140
82 111 68
79 108 67
80 110 68
80 108 67
84 113 70
82 111 69
82 110 69
83 111 69
79 107 66
82 110 69
81 110 68
80 109 67
83 112 69
75 103 63
82 111 69
82 110 68
82 111 68
127 149 143
171 189 201
173 191 205
170 188 202
168 186 199
174 192 207
168 186 197
179 197 214
179 196 212
176 193 209
176 194 210
165 184 197
174 192 206
176 194 210
172 190 204
180 197 212
165 184 196
165 183 193
85 112 74
82 112 69
83 112 70
83 112 70
83 112 69
81 110 68
83 111 69
82 111 69
77 105 64
84 113 70
82 111 69
83 113 70
82 111 69
78 107 66
82 111 69
85 114 74
160 179 187
