P3
400 225
255
174 197 0
174 197 0
173 197 0
175 198 0
174 197 0
174 198 0
173 197 0
175 198 0
174 197 0
172 195 0
174 198 0
174 197 0
174 198 0
174 197 0
172 196 0
174 198 0
174 197 0
175 198 0
175 197 0
173 196 0
175 198 0
172 196 0
174 196 0
173 196 0
175 198 0
174 197 0
174 198 0
174 198 0
171 195 0
174 197 0
173 197 0
174 197 0
174 197 0
174 197 0
174 197 0
174 198 0
175 198 0
171 195 0
173 196 0
174 198 0
175 198 0
172 196 0
172 197 0
175 198 0
174 197 0
173 197 0
172 196 0
175 198 0
174 197 0
174 197 0
174 198 0
173 196 0
174 198 0
174 197 0
174 197 0
174 196 0
172 195 0
171 196 0
174 197 0
173 197 0
173 197 0
173 197 0
174 197 0
174 197 0
174 197 0
174 198 0
174 197 0
172 196 0
174 197 0
174 197 0
175 198 0
175 198 0
174 197 0
174 198 0
173 196 0
173 197 0
174 197 0
172 196 0
172 196 0
174 197 0
172 196 0
174 197 0
175 198 0
174 198 0
174 196 0
174 197 0
173 197 0
174 197 0
173 197 0
172 196 0
173 197 0
173 196 0
174 197 0
175 198 0
170 194 0
173 197 0
172 196 0
174 198 0
175 198 0
176 199 0
173 197 0
175 198 0
172 195 0
173 196 0
172 196 0
173 196 0
173 196 0
174 198 0
172 195 0
171 194 0
173 196 0
173 196 0
174 197 0
172 195 0
174 196 0
172 196 0
172 196 0
173 197 0
173 197 0
171 194 0
174 197 0
174 198 0
174 197 0
173 196 0
173 196 0
173 196 0
172 195 0
173 197 0
173 196 0
175 198 0
172 195 0
170 193 0
172 195 0
173 197 0
172 196 0
175 197 0
173 197 0
173 196 0
175 198 0
174 197 0
173 196 0
172 196 0
174 197 0
173 196 0
172 196 0
175 198 0
174 196 0
172 196 0
173 196 0
175 198 0
171 194 0
174 197 0
174 197 0
171 195 0
173 197 0
174 197 0
174 197 0
174 197 0
172 195 0
174 197 0
173 197 0
174 197 0
174 197 0
175 197 0
173 197 0
170 194 0
174 197 0
172 195 0
172 196 0
172 195 0
171 194 0
175 198 0
172 196 0
174 197 0
172 195 0
173 197 0
174 197 0
173 196 0
173 196 0
174 197 0
172 196 0
172 196 0
173 196 0
171 195 0
172 196 0
175 197 0
174 197 0
173 197 0
174 197 0
173 196 0
175 198 0
170 193 0
172 195 0
172 195 0
172 195 0
172 195 0
171 195 0
173 196 0
172 195 0
174 197 0
173 196 0
173 196 0
171 194 0
171 195 0
171 194 0
172 196 0
174 197 0
173 196 0
170 194 0
172 195 0
171 195 0
175 198 0
172 196 0
172 196 0
173 196 0
171 194 0
174 197 0
173 196 0
172 195 0
173 196 0
172 195 0
175 197 0
175 198 0
171 195 0
173 196 0
175 198 0
173 195 0
174 197 0
172 195 0
173 197 0
173 196 0
172 195 0
174 197 0
175 197 0
174 197 0
174 196 0
171 195 0
172 195 0
173 197 0
172 194 11
174 196 16
169 190 22
166 186 25
169 184 47
163 179 37
166 183 34
171 185 53
161 172 56
153 163 54
152 159 61
154 161 63
152 157 69
151 154 68
155 155 75
143 142 73
151 151 78
159 155 87
136 132 80
149 143 88
145 140 84
143 137 84
143 139 87
150 145 89
152 147 91
154 150 95
153 147 93
158 154 98
153 148 91
159 155 101
161 157 102
159 154 97
153 149 95
158 154 98
155 150 95
155 151 98
156 152 98
151 147 96
162 157 103
163 159 104
156 152 100
159 155 102
153 150 99
159 155 101
161 157 103
159 155 102
156 153 101
161 157 105
165 161 106
166 164 110
156 153 101
162 158 104
162 159 104
162 160 106
166 162 108
164 161 107
162 160 107
163 160 107
163 160 106
166 163 108
165 162 108
165 162 108
167 164 109
163 160 107
166 164 110
160 158 105
169 166 110
163 161 107
162 160 107
163 161 108
167 164 109
163 161 108
160 157 104
166 164 110
165 163 109
155 153 102
159 158 106
160 158 105
160 157 105
164 162 108
158 156 104
164 162 108
166 164 110
169 166 110
161 160 108
158 155 103
162 160 107
168 165 110
158 155 103
162 159 106
159 156 104
157 155 104
171 167 111
163 161 107
165 162 108
166 164 109
166 163 108
165 161 107
165 162 108
166 164 109
163 160 107
163 160 106
159 157 103
166 161 106
160 156 104
157 153 101
163 158 104
163 160 105
162 158 104
158 154 101
161 157 103
161 157 103
161 156 103
165 161 105
160 156 104
163 159 104
158 153 100
151 148 93
159 154 101
155 151 98
154 149 97
155 150 97
163 159 103
161 157 101
156 152 97
152 147 93
152 148 94
154 150 95
152 146 89
149 144 90
153 147 91
150 145 89
137 133 79
159 152 90
142 140 78
143 139 80
150 151 75
146 149 63
144 153 53
152 160 63
148 159 47
160 172 49
167 179 53
167 185 36
167 186 32
167 188 16
171 190 25
171 194 11
172 196 11
174 196 11
174 198 0
175 197 0
172 196 0
175 198 0
175 197 0
174 197 0
174 197 0
173 197 0
174 197 0
174 196 0
175 198 0
174 197 0
173 197 0
173 196 0
173 196 0
175 198 0
172 196 0
175 198 0
173 196 0
172 196 0
174 197 0
174 198 0
174 197 0
175 198 0
174 197 0
172 196 0
173 197 0
174 197 0
174 197 0
173 197 0
172 196 0
172 196 0
174 197 0
171 195 0
174 197 0
175 198 0
174 197 0
173 197 0
173 196 0
174 197 0
173 196 0
172 196 0
173 197 0
175 198 0
174 198 0
174 197 0
171 195 0
173 197 0
171 195 0
173 197 0
173 197 0
175 197 0
174 197 0
173 196 0
175 198 0
172 196 0
174 197 0
175 198 0
173 197 0
174 197 0
173 196 0
173 196 0
173 197 0
172 196 0
174 197 0
175 198 0
174 197 0
172 196 0
173 197 0
174 197 0
174 197 0
172 196 0
174 197 0
174 197 0
174 198 0
174 196 0
173 197 0
173 197 0
174 197 0
173 197 0
173 196 0
173 197 0
173 196 0
173 197 0
172 196 0
175 198 0
173 197 0
172 196 0
173 197 0
175 198 0
175 198 0
175 198 0
173 196 0
173 197 0
173 197 0
173 197 0
174 197 0
173 197 0
173 197 0
174 197 0
173 197 0
175 198 0
173 195 0
172 195 0
175 198 0
174 197 0
173 197 0
172 194 0
172 197 0
171 195 0
173 196 0
173 196 0
174 197 0
173 197 0
173 196 0
175 198 0
173 196 0
174 197 0
174 197 0
173 197 0
175 198 0
175 198 0
175 198 0
174 197 0
174 197 0
174 197 0
173 197 0
174 197 0
174 197 0
173 196 0
173 196 0
173 197 0
171 195 0
172 195 0
172 196 0
173 197 0
174 198 0
173 196 0
171 195 0
174 196 0
173 196 0
171 195 0
173 197 0
174 196 0
173 196 0
174 197 0
172 196 0
173 197 0
172 196 0
172 195 0
173 196 0
172 196 0
172 196 0
173 196 0
175 198 0
171 195 0
175 198 0
172 195 0
171 194 0
172 196 0
175 198 0
174 197 0
171 193 0
172 195 0
174 197 0
172 197 0
172 195 0
170 193 0
176 199 0
171 195 0
173 196 0
174 198 0
172 195 0
174 197 0
173 196 0
174 196 0
175 198 0
171 194 0
174 197 0
173 195 0
173 197 0
171 195 0
170 194 0
172 195 0
175 197 0
175 197 0
172 196 0
174 197 0
172 195 0
172 196 0
173 196 0
172 195 0
172 195 0
172 195 0
172 195 0
173 197 0
172 195 0
173 196 0
171 195 0
175 198 0
175 197 0
172 195 0
172 196 0
172 195 0
174 196 0
169 193 0
168 192 0
174 196 0
172 196 0
174 196 0
174 197 0
173 197 0
171 194 0
173 196 0
175 198 0
173 197 0
173 196 0
173 196 0
175 197 0
173 196 0
171 195 0
174 197 0
173 196 0
174 198 0
172 196 0
173 196 0
174 196 0
173 196 0
174 197 0
174 196 0
171 194 0
173 196 0
174 196 0
175 198 0
174 197 0
172 196 0
172 196 0
172 196 0
175 198 0
175 198 0
171 195 0
174 197 0
172 195 0
169 192 0
174 198 0
173 196 0
172 195 0
174 198 0
172 196 0
172 195 0
169 190 19
169 190 19
173 192 36
168 185 39
161 180 28
164 181 36
158 173 45
157 170 53
166 177 60
156 164 59
151 159 53
158 165 64
150 154 71
154 159 68
149 146 78
148 148 77
147 145 77
153 148 86
146 140 84
158 152 95
150 144 86
149 144 91
149 145 90
153 147 93
148 145 90
156 151 95
149 145 91
148 144 90
149 145 93
159 155 98
153 149 96
162 156 100
154 151 98
162 157 102
159 155 102
163 160 103
160 156 100
162 158 104
167 163 108
154 151 99
153 149 98
154 151 99
158 155 103
160 157 104
165 161 105
161 158 105
156 153 102
163 159 105
159 157 104
161 158 104
160 158 105
159 156 104
163 160 106
168 165 110
166 164 109
166 162 108
170 166 110
166 163 109
165 162 108
161 158 105
167 164 109
165 163 109
165 162 108
168 166 111
162 160 107
163 160 107
167 165 110
164 161 108
162 160 107
169 166 111
161 159 106
163 161 108
168 166 111
164 162 108
171 167 111
164 161 108
167 163 109
166 164 110
167 164 110
169 167 111
164 162 108
161 160 107
163 161 108
157 156 104
161 159 106
164 162 109
161 158 106
161 158 106
166 164 110
167 165 110
162 160 107
167 165 110
162 159 106
162 159 106
160 157 104
162 160 107
169 166 110
160 157 104
165 161 107
162 159 106
158 155 103
162 160 106
156 153 102
160 156 104
151 148 98
157 154 102
163 159 106
158 154 101
164 160 104
164 160 106
163 160 104
160 156 103
150 146 95
158 154 102
159 155 100
165 160 104
151 147 95
159 156 101
159 154 97
151 147 95
157 152 96
159 154 99
156 152 99
157 152 97
144 139 88
154 150 94
154 148 94
152 148 93
155 149 93
148 143 90
152 147 93
150 145 89
149 144 89
147 142 86
136 133 77
147 143 80
160 159 87
153 152 79
144 148 64
153 164 57
162 169 67
155 166 52
161 172 57
161 175 45
160 178 30
164 184 30
168 187 34
173 194 22
173 196 0
174 196 16
173 197 0
173 196 0
174 198 0
173 197 0
173 196 0
173 196 0
173 197 0
176 198 0
175 198 0
173 196 0
173 196 0
174 198 0
173 196 0
173 197 0
176 198 0
175 198 0
176 199 0
175 198 0
172 195 0
174 198 0
174 197 0
174 197 0
172 196 0
172 196 0
174 198 0
174 198 0
172 195 0
173 197 0
172 196 0
174 197 0
174 198 0
174 198 0
173 197 0
174 197 0
174 196 0
173 196 0
174 197 0
175 198 0
174 198 0
174 198 0
174 198 0
173 196 0
173 196 0
175 197 0
176 199 0
173 197 0
175 198 0
175 198 0
173 197 0
174 197 0
175 198 0
174 196 0
173 197 0
173 197 0
170 194 0
174 197 0
173 197 0
174 197 0
173 197 0
171 194 0
174 198 0
173 197 0
173 197 0
171 195 0
174 197 0
173 196 0
174 197 0
175 198 0
173 197 0
174 197 0
172 196 0
172 196 0
172 196 0
176 199 0
174 197 0
174 198 0
173 197 0
174 198 0
174 198 0
173 196 0
173 197 0
173 196 0
174 197 0
175 197 0
175 197 0
173 196 0
173 197 0
173 197 0
173 196 0
171 195 0
173 197 0
175 198 0
174 197 0
172 195 0
174 198 0
174 197 0
171 196 0
173 196 0
173 197 0
174 198 0
173 196 0
173 197 0
173 197 0
175 198 0
174 197 0
173 197 0
173 197 0
173 197 0
173 197 0
174 197 0
174 197 0
174 198 0
173 195 0
175 197 0
174 198 0
174 197 0
174 198 0
175 198 0
174 198 0
173 196 0
172 196 0
174 197 0
172 196 0
175 198 0
172 195 0
173 197 0
174 197 0
171 195 0
173 197 0
174 197 0
174 197 0
172 195 0
172 195 0
173 196 0
172 196 0
173 196 0
175 198 0
175 198 0
174 197 0
173 196 0
171 194 0
173 197 0
174 197 0
173 195 0
172 196 0
174 197 0
174 197 0
172 196 0
171 195 0
173 197 0
174 197 0
174 197 0
173 196 0
173 196 0
173 197 0
173 197 0
172 195 0
172 196 0
173 197 0
173 196 0
173 197 0
173 196 0
174 197 0
172 196 0
175 198 0
171 195 0
175 198 0
173 197 0
171 194 0
173 197 0
174 197 0
172 196 0
174 197 0
171 194 0
172 196 0
174 197 0
172 195 0
172 196 0
173 196 0
173 197 0
172 196 0
171 194 0
172 196 0
174 197 0
174 197 0
172 195 0
171 195 0
174 196 0
174 197 0
173 197 0
171 195 0
174 197 0
172 195 0
173 196 0
172 195 0
173 196 0
174 197 0
171 194 0
173 196 0
170 194 0
172 195 0
170 192 0
170 193 0
173 195 0
175 198 0
172 195 0
173 197 0
173 197 0
173 196 0
171 195 0
172 195 0
174 197 0
172 196 0
173 195 0
175 198 0
174 197 0
172 195 0
174 197 0
173 196 0
173 196 0
173 197 0
171 194 0
172 196 0
174 197 0
174 196 0
174 196 0
174 196 0
175 198 0
172 196 0
174 197 0
173 195 0
174 197 0
171 194 0
170 192 0
174 198 0
173 196 0
172 195 0
173 196 0
170 194 0
175 198 0
173 196 0
172 195 0
170 193 0
175 197 0
173 195 0
172 194 0
173 197 0
174 197 0
171 192 0
171 193 16
171 192 16
170 192 19
166 186 25
163 181 34
165 180 42
160 174 47
157 171 41
161 172 56
159 168 60
163 172 58
151 156 62
150 156 62
153 155 69
149 154 65
155 153 77
145 144 75
143 140 83
139 136 80
154 147 87
150 145 89
148 142 87
155 150 93
148 142 88
154 150 95
151 146 93
149 145 92
154 148 93
153 149 95
161 156 98
156 151 95
155 151 97
151 148 96
151 147 96
154 150 97
162 157 103
154 151 97
159 155 101
162 157 103
163 159 104
157 153 101
158 154 101
153 150 99
161 158 104
159 156 103
158 155 103
164 161 108
162 160 107
161 157 103
159 156 104
167 164 109
155 152 101
160 158 105
165 162 108
168 165 109
166 162 108
168 164 109
163 161 108
162 160 108
171 166 110
165 162 108
161 158 106
166 163 108
163 161 108
166 163 109
165 162 108
166 164 110
163 162 108
165 163 109
166 164 110
156 155 104
164 162 108
164 162 108
160 158 106
167 165 111
161 159 107
165 163 109
165 162 108
163 161 108
160 159 106
163 161 108
169 165 110
166 164 109
166 163 109
166 163 108
168 166 111
167 164 109
166 164 109
166 164 110
167 164 109
166 163 109
171 168 112
160 157 105
164 162 108
166 163 109
156 153 102
167 164 108
162 160 106
165 162 108
159 157 104
157 154 101
165 162 108
167 163 107
165 162 108
164 160 106
161 157 103
162 158 104
162 159 105
157 153 101
166 161 106
164 160 105
167 162 106
163 159 103
163 158 104
159 155 101
161 157 103
156 152 99
154 150 97
159 155 101
155 151 97
155 150 97
161 156 101
157 152 96
153 148 95
157 153 97
164 158 100
152 146 93
156 150 94
154 149 94
146 142 87
154 149 93
151 146 90
155 148 91
148 143 87
145 140 86
158 152 88
149 145 85
154 152 84
144 146 71
156 157 72
151 157 65
153 163 56
158 170 48
155 166 52
155 169 42
168 181 56
164 182 37
171 190 36
168 189 19
170 191 19
173 195 11
169 194 0
173 197 0
175 198 0
174 196 0
174 198 0
174 198 0
174 198 0
174 197 0
173 197 0
174 197 0
174 196 0
175 197 0
174 198 0
174 198 0
173 196 0
171 194 0
174 197 0
174 197 0
173 197 0
174 197 0
175 198 0
173 197 0
173 196 0
174 198 0
174 197 0
175 198 0
173 197 0
174 198 0
174 197 0
176 198 0
174 197 0
173 197 0
176 199 0
173 197 0
175 198 0
171 195 0
175 198 0
173 196 0
174 197 0
175 198 0
172 196 0
173 197 0
174 197 0
175 198 0
172 196 0
174 197 0
174 197 0
173 197 0
174 197 0
174 197 0
173 196 0
174 197 0
174 197 0
174 197 0
173 196 0
174 197 0
174 198 0
173 196 0
175 198 0
173 197 0
176 199 0
172 197 0
171 195 0
174 197 0
174 197 0
172 195 0
175 198 0
175 198 0
172 196 0
174 197 0
173 197 0
172 196 0
175 197 0
174 197 0
174 197 0
173 197 0
172 197 0
174 197 0
175 198 0
172 195 0
173 197 0
174 198 0
172 196 0
172 196 0
172 196 0
172 197 0
174 197 0
174 198 0
173 196 0
173 197 0
174 197 0
172 196 0
173 196 0
172 196 0
175 198 0
175 198 0
174 198 0
170 195 0
172 196 0
174 198 0
175 198 0
174 197 0
173 197 0
174 197 0
171 195 0
174 197 0
174 197 0
173 196 0
174 197 0
174 196 0
174 197 0
174 197 0
173 195 0
173 196 0
173 196 0
175 198 0
173 196 0
173 196 0
170 194 0
174 197 0
174 197 0
173 196 0
173 197 0
172 195 0
175 198 0
173 196 0
173 197 0
173 196 0
175 197 0
172 195 0
171 195 0
174 197 0
173 197 0
172 195 0
173 196 0
173 196 0
174 197 0
171 195 0
172 196 0
173 197 0
171 194 0
174 197 0
174 197 0
175 197 0
175 198 0
174 197 0
174 197 0
173 196 0
173 196 0
173 196 0
172 196 0
172 196 0
172 196 0
171 195 0
174 197 0
173 196 0
175 198 0
173 197 0
170 194 0
174 197 0
174 197 0
172 195 0
173 197 0
175 198 0
173 197 0
173 196 0
173 195 0
172 196 0
173 196 0
172 195 0
172 196 0
173 196 0
174 197 0
173 197 0
173 196 0
173 197 0
172 196 0
173 196 0
172 196 0
172 195 0
172 195 0
174 197 0
174 197 0
174 196 0
173 197 0
172 195 0
175 198 0
173 196 0
174 198 0
171 193 0
174 198 0
175 198 0
173 195 0
174 197 0
173 196 0
172 194 0
173 196 0
175 198 0
174 197 0
171 195 0
175 197 0
172 195 0
171 194 0
172 196 0
174 197 0
170 194 0
172 196 0
173 196 0
173 197 0
175 198 0
171 194 0
173 196 0
173 197 0
172 196 0
175 198 0
174 197 0
173 196 0
172 195 0
172 195 0
173 195 0
175 198 0
173 196 0
172 195 0
175 198 0
172 195 0
175 197 0
172 195 0
172 196 0
173 197 0
174 197 0
172 195 0
173 196 0
173 196 0
174 197 0
172 196 0
172 195 0
172 194 0
174 197 0
171 194 0
174 197 0
172 196 0
173 196 0
174 197 0
172 196 0
173 197 0
170 193 0
173 196 0
173 196 0
172 195 16
172 194 22
160 180 19
166 186 11
165 183 32
162 178 41
167 183 42
160 173 45
161 173 48
162 171 56
151 161 48
160 170 58
152 157 63
145 151 59
157 159 73
152 151 74
146 147 77
148 144 85
149 145 86
151 145 88
148 142 88
157 153 92
152 146 93
145 140 84
155 150 94
155 150 94
151 147 93
157 152 98
152 147 93
151 147 94
159 154 98
152 149 96
158 153 98
166 161 103
149 145 94
162 157 102
157 153 99
158 155 100
152 149 97
159 156 104
154 151 101
164 159 104
158 154 104
159 155 102
158 156 103
162 159 106
164 160 106
167 163 107
159 155 102
160 157 105
162 158 104
158 156 105
165 162 106
171 166 110
163 161 107
159 156 104
160 158 105
164 161 108
164 161 108
167 164 109
166 163 109
163 160 107
160 158 106
167 163 108
165 163 109
166 163 109
163 161 108
166 164 109
162 161 108
163 160 107
167 164 109
166 164 109
164 161 108
163 160 106
170 168 112
166 163 109
167 164 109
165 163 109
170 167 111
164 162 108
166 164 110
165 162 108
165 163 109
169 166 111
168 166 110
166 163 109
164 161 108
168 166 111
167 166 111
168 165 110
163 160 107
164 162 108
166 163 108
161 159 107
162 159 106
166 163 108
168 164 109
166 163 108
163 160 107
169 165 110
165 162 108
164 161 108
164 162 108
169 164 108
169 165 109
161 158 105
156 152 101
164 162 106
169 165 109
167 163 107
165 161 106
162 158 105
162 158 102
161 158 104
169 163 106
155 152 99
166 163 108
164 160 103
156 152 100
161 156 101
163 157 101
151 146 93
150 146 95
152 148 95
154 149 96
156 152 96
155 151 95
161 155 99
152 148 94
150 145 93
147 142 87
150 144 89
147 142 89
150 143 87
150 145 88
151 145 88
146 140 84
145 140 83
156 153 82
148 146 80
158 157 78
148 148 73
149 156 58
158 167 60
155 165 58
160 175 47
167 181 44
165 181 45
170 191 22
166 186 30
170 190 25
171 192 22
174 197 0
175 198 0
172 196 0
174 197 0
175 198 0
174 198 0
173 197 0
174 197 0
174 197 0
172 196 0
175 198 0
172 196 0
175 198 0
174 198 0
173 196 0
173 197 0
173 197 0
175 198 0
172 195 0
172 196 0
171 194 0
173 197 0
176 198 0
175 198 0
174 198 0
173 196 0
174 197 0
175 198 0
174 198 0
174 197 0
172 196 0
171 195 0
174 198 0
174 197 0
174 197 0
172 196 0
173 197 0
174 197 0
173 197 0
172 195 0
175 198 0
174 198 0
175 198 0
173 197 0
174 197 0
172 196 0
173 196 0
173 196 0
173 196 0
174 198 0
174 198 0
175 198 0
174 197 0
174 198 0
173 197 0
172 195 0
172 196 0
174 197 0
171 195 0
172 197 0
176 198 0
173 196 0
174 198 0
175 198 0
175 198 0
176 199 0
173 197 0
174 198 0
174 198 0
172 195 0
176 199 0
172 195 0
171 195 0
173 196 0
175 198 0
174 198 0
173 196 0
173 197 0
175 198 0
174 198 0
174 198 0
174 198 0
175 198 0
175 198 0
174 197 0
171 196 0
171 194 0
174 198 0
174 197 0
175 198 0
175 198 0
172 196 0
174 197 0
173 197 0
174 197 0
172 195 0
175 198 0
174 197 0
172 196 0
176 198 0
174 197 0
175 198 0
172 195 0
175 197 0
174 198 0
173 197 0
174 197 0
173 196 0
170 194 0
174 197 0
172 195 0
175 198 0
173 196 0
174 198 0
172 196 0
173 197 0
171 195 0
173 195 0
174 197 0
172 196 0
173 196 0
173 197 0
172 195 0
171 195 0
176 198 0
172 196 0
172 195 0
173 196 0
174 197 0
174 196 0
174 197 0
173 195 0
175 198 0
170 194 0
172 196 0
173 197 0
171 194 0
175 198 0
172 195 0
174 196 0
171 195 0
175 198 0
170 194 0
174 197 0
172 196 0
172 196 0
174 197 0
175 198 0
173 196 0
173 196 0
170 193 0
172 196 0
174 197 0
173 197 0
171 194 0
174 197 0
172 195 0
172 195 0
172 195 0
173 197 0
174 197 0
173 196 0
174 197 0
174 198 0
171 195 0
172 196 0
173 196 0
173 196 0
174 197 0
172 195 0
172 196 0
173 197 0
173 196 0
174 197 0
174 197 0
172 196 0
174 197 0
174 197 0
174 197 0
174 197 0
174 197 0
172 196 0
173 196 0
172 196 0
169 193 0
174 197 0
172 196 0
174 196 0
175 197 0
174 198 0
172 194 0
174 197 0
173 197 0
171 194 0
173 197 0
172 195 0
173 196 0
174 197 0
171 194 0
172 195 0
175 198 0
173 196 0
172 195 0
172 196 0
169 193 0
171 194 0
174 196 0
173 196 0
171 193 0
172 195 0
173 197 0
172 196 0
174 197 0
173 196 0
174 196 0
174 198 0
172 195 0
172 195 0
173 196 0
175 198 0
171 195 0
171 195 0
172 195 0
172 195 0
173 197 0
171 194 0
174 196 0
169 192 0
172 195 0
172 195 0
174 197 0
172 195 0
173 195 0
172 195 0
172 195 0
173 196 0
174 197 0
172 196 0
171 194 0
172 195 0
172 195 0
174 195 0
172 194 0
175 197 0
171 194 0
169 193 0
173 195 0
174 197 11
171 192 11
169 188 19
168 189 25
167 186 22
169 185 44
166 183 39
159 173 45
160 175 42
158 172 49
151 162 53
158 166 60
155 158 68
147 151 63
151 153 72
149 147 75
152 149 80
142 140 76
148 143 80
149 144 86
144 139 82
157 151 91
148 143 87
146 141 86
151 145 89
150 145 90
152 147 94
153 149 94
150 146 93
156 151 96
151 147 94
152 148 93
159 155 100
157 151 99
148 144 92
151 148 97
157 152 97
147 143 94
165 161 106
152 148 98
162 158 104
159 155 101
163 160 105
160 156 101
159 156 104
157 153 102
163 159 105
160 156 103
158 155 104
158 156 105
162 158 106
160 157 104
165 161 107
168 164 109
161 158 105
158 156 104
166 163 108
165 163 109
163 160 107
163 161 108
166 163 109
166 163 109
165 162 107
166 164 110
167 164 109
167 164 109
169 166 111
167 164 110
163 160 106
166 164 109
170 167 111
167 163 109
165 163 109
168 165 110
166 163 109
166 163 109
168 165 110
167 165 110
166 163 109
165 163 109
163 161 108
163 162 108
169 165 110
163 161 108
167 164 109
166 164 109
165 162 108
166 164 109
169 166 110
168 164 109
164 161 108
158 156 104
162 159 106
163 160 107
163 160 106
164 161 108
168 165 109
159 157 104
161 158 105
166 163 108
164 161 107
166 163 106
168 165 109
159 156 104
166 163 108
165 162 106
169 165 109
168 165 109
157 154 101
169 164 107
161 158 104
157 154 101
160 157 104
162 158 103
162 158 103
161 157 102
166 163 108
165 160 104
161 157 101
164 159 105
163 158 103
162 157 100
159 154 100
164 160 104
159 154 98
162 157 101
163 157 101
155 150 95
158 153 97
161 156 99
158 153 96
150 146 88
151 145 91
156 151 93
163 157 96
151 145 87
152 148 90
139 134 80
146 141 84
150 146 84
151 148 84
155 154 79
152 154 71
141 147 59
153 161 60
159 170 54
164 176 56
161 173 52
155 169 41
162 177 44
167 186 34
169 188 19
171 192 25
171 194 0
174 196 0
172 196 0
174 197 0
173 196 0
174 197 0
174 198 0
175 198 0
174 198 0
174 197 0
173 197 0
175 198 0
173 197 0
175 198 0
172 196 0
174 197 0
176 198 0
174 197 0
174 197 0
173 197 0
173 197 0
174 197 0
172 196 0
174 198 0
173 196 0
173 197 0
174 197 0
174 198 0
175 198 0
174 197 0
174 197 0
174 197 0
174 197 0
175 198 0
173 197 0
173 197 0
171 194 0
174 197 0
172 196 0
174 197 0
175 198 0
175 198 0
174 197 0
175 198 0
176 198 0
174 197 0
174 197 0
173 196 0
176 198 0
175 198 0
173 197 0
175 198 0
176 199 0
174 197 0
173 196 0
174 198 0
173 197 0
171 194 0
174 196 0
174 197 0
172 196 0
172 196 0
174 197 0
176 198 0
173 197 0
172 196 0
174 198 0
173 196 0
174 197 0
174 197 0
173 197 0
174 197 0
171 195 0
176 199 0
174 198 0
173 196 0
174 198 0
173 196 0
174 197 0
174 197 0
174 197 0
172 196 0
172 196 0
174 197 0
174 198 0
174 197 0
174 198 0
173 197 0
174 198 0
171 195 0
173 197 0
173 196 0
174 197 0
173 196 0
173 197 0
174 197 0
174 197 0
173 197 0
172 196 0
176 199 0
172 195 0
172 196 0
174 197 0
174 198 0
174 198 0
173 196 0
173 196 0
174 197 0
171 195 0
173 196 0
171 194 0
173 196 0
173 196 0
173 196 0
175 198 0
172 196 0
173 196 0
173 197 0
175 198 0
171 194 0
174 198 0
175 198 0
174 197 0
172 195 0
175 198 0
171 195 0
171 195 0
172 195 0
175 198 0
177 199 0
172 196 0
174 197 0
172 196 0
175 198 0
171 195 0
174 196 0
174 197 0
173 196 0
173 196 0
170 194 0
172 194 0
173 197 0
175 198 0
173 196 0
173 197 0
173 197 0
173 197 0
174 197 0
175 197 0
173 195 0
173 196 0
172 196 0
170 194 0
174 196 0
174 197 0
174 196 0
170 194 0
172 195 0
173 196 0
170 195 0
173 196 0
173 197 0
174 197 0
175 197 0
172 196 0
172 196 0
172 196 0
173 196 0
171 194 0
174 197 0
173 196 0
172 196 0
173 196 0
174 198 0
174 197 0
173 196 0
174 198 0
175 198 0
171 194 0
175 198 0
172 195 0
171 193 0
176 198 0
173 197 0
173 197 18
175 198 0
173 197 0
173 197 0
174 197 0
170 193 0
172 195 0
174 197 0
171 195 0
174 197 0
173 196 0
172 195 0
173 197 0
174 197 0
173 196 0
171 195 0
174 196 0
171 195 0
173 196 0
174 198 0
172 195 0
172 195 0
174 197 0
172 195 0
175 198 0
173 196 0
169 192 0
173 196 0
173 196 0
173 196 0
172 196 0
172 195 0
175 198 0
174 196 0
171 195 0
172 195 0
173 196 0
174 198 0
172 196 0
173 196 0
171 195 0
173 196 0
172 196 0
173 195 0
172 195 0
171 195 0
172 196 0
171 194 0
172 196 0
173 196 0
175 198 0
173 196 0
173 196 0
174 197 0
173 196 0
170 194 0
173 197 0
171 194 0
173 196 0
173 196 0
172 195 0
171 193 0
169 192 0
173 196 11
173 194 19
172 193 19
170 191 25
162 183 25
170 188 34
166 181 39
159 175 44
160 176 44
158 168 51
156 167 54
152 160 60
151 154 66
149 152 67
150 152 69
147 145 75
139 139 69
135 132 74
147 142 85
147 141 86
138 134 84
147 143 86
153 148 90
136 131 82
150 146 90
146 142 90
157 153 95
158 153 97
153 147 93
150 147 95
155 150 96
162 157 100
149 145 90
161 156 101
158 154 102
160 156 98
154 150 99
159 155 101
161 157 103
163 160 105
163 159 104
157 153 99
162 158 105
160 156 104
162 159 105
152 150 102
160 157 105
163 160 105
154 151 100
162 158 106
158 155 103
158 156 104
160 157 105
165 163 108
162 160 106
165 162 109
161 158 105
159 156 104
162 160 107
164 162 108
158 156 104
158 157 105
170 167 111
167 163 109
163 160 106
168 165 110
168 165 109
168 165 110
168 165 111
163 161 108
164 161 108
163 160 106
165 162 108
168 165 110
165 162 108
165 162 108
166 164 109
169 166 111
166 164 110
172 169 112
166 164 110
161 158 106
167 164 109
169 167 111
168 165 110
166 164 109
167 165 110
167 165 110
166 164 109
166 164 109
171 167 110
164 161 108
165 163 109
167 164 109
166 164 109
168 165 110
165 162 108
166 163 108
166 163 109
166 162 108
161 158 105
168 165 110
165 162 108
164 162 108
168 163 108
160 156 103
163 160 106
162 158 104
160 157 103
166 162 106
160 156 101
163 159 105
159 156 102
166 161 104
159 155 101
160 157 104
158 154 99
162 157 103
166 162 104
163 159 104
163 157 102
163 159 104
156 153 99
162 157 102
161 155 100
161 156 100
155 149 93
160 155 99
165 159 101
159 155 93
148 143 90
150 146 94
153 148 91
155 150 96
156 149 91
155 149 93
161 155 95
148 143 82
153 148 91
146 141 84
151 146 84
146 143 81
148 149 73
147 149 72
163 169 67
152 161 61
159 169 53
157 169 45
164 176 54
165 183 36
164 182 34
166 186 22
167 187 22
172 194 11
170 192 0
174 198 0
175 198 0
174 198 0
175 197 0
173 197 0
174 197 0
175 198 0
174 197 0
176 198 0
172 196 0
173 196 0
175 198 0
174 197 0
174 198 0
173 197 0
174 197 0
174 198 0
174 198 0
173 197 0
174 197 0
175 198 0
174 197 0
171 195 0
174 197 0
173 196 0
173 197 0
175 198 0
173 196 0
174 197 0
172 196 0
173 197 0
172 196 0
176 199 0
174 197 0
173 197 0
173 197 0
175 198 0
172 196 0
175 198 0
173 196 0
174 196 0
173 197 0
172 195 0
173 197 0
172 195 0
173 196 0
171 195 0
174 197 0
173 196 0
172 195 0
174 197 0
172 195 0
172 196 0
174 198 0
175 198 0
174 197 0
174 197 0
174 197 0
171 195 0
173 196 0
174 198 0
174 197 0
173 197 0
173 197 0
174 197 0
174 198 0
175 198 0
175 198 0
172 196 0
173 196 0
171 195 0
176 199 0
173 197 0
173 196 0
173 196 0
175 198 0
174 196 0
174 197 0
173 196 0
173 196 0
174 197 0
174 198 0
173 196 0
173 197 0
172 196 0
174 197 0
172 196 0
176 198 0
173 197 0
171 194 0
174 197 0
174 197 0
174 197 0
173 196 0
173 196 0
173 197 0
174 198 0
173 196 0
172 196 0
174 197 0
175 198 0
175 198 0
174 197 0
174 197 0
174 197 0
172 195 0
173 196 0
172 196 0
171 194 0
175 198 0
174 196 0
173 196 0
173 196 0
172 196 0
173 195 0
172 195 0
173 197 0
175 198 0
174 197 0
173 197 0
174 198 0
173 197 0
174 197 0
171 195 0
173 196 0
172 195 0
172 196 0
172 196 0
173 197 0
173 196 0
174 197 0
171 194 0
174 197 0
169 193 0
173 196 0
174 197 0
171 195 0
172 195 0
177 199 0
173 197 0
172 196 0
173 197 0
174 197 0
174 197 0
174 197 0
170 193 0
175 198 0
174 197 0
173 195 0
172 195 0
174 197 0
174 197 0
174 197 0
174 197 0
172 195 0
172 195 0
173 196 0
174 197 0
175 198 0
171 194 0
173 197 0
174 198 0
172 196 0
172 196 0
173 196 0
172 195 0
172 195 0
174 196 0
169 192 0
173 197 0
172 195 18
175 198 0
173 197 18
170 192 31
165 190 51
169 191 36
170 193 36
162 186 62
166 190 54
165 189 57
167 190 54
158 182 74
163 187 60
165 189 60
164 188 60
166 189 57
170 193 40
161 185 63
166 190 54
167 191 47
167 190 54
170 193 31
170 194 0
170 193 18
171 194 18
171 195 31
175 198 0
172 195 0
175 197 0
174 197 0
174 197 0
173 196 0
169 193 0
171 194 0
174 196 0
171 195 0
173 196 0
173 196 0
173 196 0
174 197 0
172 196 0
173 197 0
171 194 0
174 198 0
171 193 0
174 197 0
172 196 0
172 195 0
172 196 0
174 197 0
175 197 0
173 197 0
172 195 0
174 196 0
174 197 0
171 195 0
173 196 0
173 195 0
173 196 0
175 197 0
171 194 0
172 195 0
174 197 0
172 195 0
173 197 0
173 197 0
171 194 0
170 193 0
170 195 0
171 195 0
172 196 0
170 193 0
172 196 0
174 197 0
169 193 11
173 196 11
166 188 16
168 189 19
162 181 30
165 181 37
167 183 37
159 172 43
157 169 48
159 172 43
145 154 56
160 167 63
145 150 61
145 150 60
146 149 67
151 150 77
148 149 72
150 146 78
148 143 86
141 136 81
150 145 88
151 146 86
149 144 85
143 139 88
144 139 85
157 152 94
149 144 93
154 149 94
154 149 96
160 154 99
153 148 94
160 155 101
152 148 96
159 155 101
153 149 96
159 154 100
155 152 97
158 153 101
158 155 102
153 150 99
161 156 104
158 155 102
163 158 104
164 160 106
161 158 105
158 154 103
166 162 107
160 157 104
166 161 107
159 155 103
158 156 105
162 158 105
160 158 105
160 157 105
159 155 103
169 165 110
165 162 108
167 164 109
164 161 108
162 160 107
163 159 106
165 162 108
167 164 109
166 164 109
170 167 111
164 161 107
164 161 108
165 162 108
165 162 108
168 164 110
168 165 110
164 161 108
165 163 109
165 162 108
168 165 110
168 165 110
171 168 112
169 165 110
166 163 109
164 162 108
169 166 110
160 158 106
163 161 108
163 161 108
167 164 110
170 167 111
167 164 109
164 162 108
166 164 109
169 166 110
165 163 109
166 162 108
166 163 109
167 164 109
165 162 108
166 163 109
168 165 109
166 164 109
163 161 107
167 164 109
170 167 112
167 163 109
164 161 107
165 162 108
168 165 109
164 160 105
163 161 106
167 163 108
160 157 104
170 166 109
161 158 103
164 159 104
165 160 106
162 159 105
166 161 106
160 157 103
166 162 105
166 161 105
161 156 102
160 155 101
160 155 100
158 155 99
160 154 99
158 154 99
157 154 99
159 153 98
157 153 99
158 154 99
157 152 98
160 154 99
155 151 95
159 153 95
154 148 94
150 146 92
158 153 95
146 141 86
153 147 90
156 150 90
140 135 80
141 136 82
133 127 77
152 147 83
145 140 81
146 144 73
156 157 77
158 162 66
151 157 59
151 161 57
162 174 52
155 168 44
158 174 39
164 182 25
167 186 36
170 191 22
172 193 22
175 197 16
173 196 11
173 197 0
175 198 0
175 198 0
173 196 0
174 198 0
175 198 0
175 198 0
175 198 0
175 198 0
174 197 0
172 196 0
174 197 0
173 197 0
173 196 0
174 197 0
173 197 0
172 197 0
175 198 0
172 196 0
174 197 0
174 197 0
174 197 0
171 195 0
173 197 0
173 196 0
173 197 0
173 197 0
171 196 0
173 196 0
172 196 0
174 197 0
174 197 0
174 196 0
173 197 0
174 197 0
173 197 0
173 197 0
173 197 0
176 198 0
175 198 0
173 197 0
173 196 0
171 195 0
174 197 0
174 197 0
173 196 0
173 196 0
176 199 0
175 198 0
174 197 0
174 198 0
173 197 0
173 196 0
173 197 0
173 195 0
173 196 0
174 196 0
175 198 0
172 195 0
172 195 0
173 197 0
173 196 0
173 197 0
175 198 0
173 197 0
174 197 0
172 196 0
173 197 0
175 197 0
174 197 0
173 196 0
173 196 0
175 198 0
173 197 0
174 198 0
174 197 0
172 197 0
175 198 0
174 198 0
171 194 0
175 198 0
174 197 0
173 197 0
174 197 0
173 196 0
172 196 0
172 196 0
172 195 0
172 196 0
171 194 0
175 198 0
175 198 0
173 196 0
170 194 0
173 197 0
175 198 0
174 197 0
175 198 0
174 198 0
173 196 0
173 196 0
174 197 0
173 196 0
170 193 0
173 196 0
174 198 0
174 198 0
175 198 0
174 197 0
172 196 0
173 196 0
173 196 0
172 196 0
176 199 0
174 197 0
172 194 0
173 197 0
172 196 0
174 197 0
172 196 0
173 197 0
172 196 0
172 195 0
174 197 0
173 196 0
171 195 0
172 195 0
172 195 0
172 196 0
172 195 0
173 197 0
172 196 0
174 197 0
170 194 0
172 196 0
172 196 0
173 197 0
171 194 0
174 198 0
175 197 0
172 196 0
171 195 0
174 196 0
171 195 0
172 195 0
172 195 0
173 196 0
172 196 0
174 197 0
172 196 0
170 194 0
173 197 0
171 194 0
172 196 0
171 195 0
176 198 0
173 196 0
174 197 0
172 195 0
171 195 0
173 196 0
171 194 0
175 197 0
172 194 18
170 194 25
172 195 18
167 190 47
168 191 47
168 191 40
166 189 54
166 189 60
157 181 84
157 180 84
148 172 97
151 175 97
141 166 111
142 166 107
135 160 118
135 160 123
135 161 120
138 162 114
140 165 115
135 161 117
140 165 113
140 165 114
137 162 117
139 164 110
142 167 107
139 164 115
136 161 118
145 170 105
153 177 85
155 180 80
163 186 67
161 184 70
160 183 70
167 190 47
164 187 57
167 191 40
174 197 18
171 194 18
172 195 0
172 196 0
175 198 0
174 197 0
173 195 0
173 195 0
172 195 0
171 195 0
172 195 0
175 198 0
172 196 0
171 193 0
173 196 0
171 194 0
173 196 0
170 193 0
172 196 0
170 194 0
173 196 0
173 195 0
171 195 0
175 198 0
173 197 0
172 197 0
172 195 0
173 196 0
174 197 0
168 192 0
172 195 0
173 196 0
171 195 0
172 196 0
171 194 0
172 195 0
171 194 0
174 197 0
171 195 0
174 197 0
172 195 0
173 196 0
173 196 0
172 195 11
169 191 16
175 196 19
171 191 28
165 184 30
159 179 22
163 181 36
165 178 44
161 175 45
165 178 52
156 164 62
145 154 55
154 158 68
154 158 70
150 152 67
141 142 65
146 147 72
147 144 80
146 144 76
141 136 83
143 137 81
136 132 81
144 139 83
156 151 94
139 134 84
150 145 92
141 137 84
144 140 85
151 147 91
145 141 88
163 158 101
145 141 93
158 153 98
159 153 99
151 147 98
158 155 101
161 157 101
165 161 105
153 150 97
152 148 98
155 153 100
153 150 101
164 160 106
152 149 97
159 156 104
164 160 106
160 157 102
163 159 106
160 158 106
165 161 106
164 161 107
166 162 108
160 157 104
165 161 106
165 162 108
160 158 106
172 168 111
164 161 107
158 155 104
163 160 108
162 159 106
165 163 109
170 167 111
168 164 109
162 159 105
170 166 110
163 161 108
164 161 108
167 164 110
163 161 108
165 162 108
169 167 111
164 162 108
169 167 111
170 167 111
166 163 109
166 164 110
165 162 108
168 166 111
172 168 112
167 165 111
170 168 112
167 164 109
168 165 110
166 164 110
162 160 107
168 164 109
169 165 110
166 164 110
169 167 112
172 168 112
171 168 112
168 165 110
163 161 108
169 167 111
165 162 108
163 160 107
167 164 110
168 164 108
171 167 110
169 166 110
171 167 110
172 168 111
161 158 104
165 162 108
165 162 107
165 162 106
166 163 108
161 158 104
165 163 109
162 158 103
168 164 108
167 164 109
172 168 110
167 162 106
159 155 101
161 157 104
150 146 96
161 157 101
163 158 102
170 165 108
166 161 106
161 157 101
159 155 102
164 159 104
166 161 103
152 149 96
157 152 97
160 155 97
162 158 103
153 149 90
164 158 97
158 152 96
161 154 99
157 152 96
152 148 92
162 156 97
148 143 87
148 143 87
147 141 84
141 135 85
150 144 87
142 137 80
145 141 77
145 144 68
147 147 72
148 149 69
147 151 61
149 156 58
158 169 59
156 168 48
159 173 45
161 177 36
158 175 36
170 190 19
169 191 11
170 192 0
175 197 11
175 198 0
175 197 0
174 197 0
174 197 0
173 196 0
173 196 0
175 198 0
175 197 0
174 197 0
174 198 0
173 197 0
174 197 0
174 197 0
175 198 0
173 196 0
172 196 0
173 196 0
174 197 0
173 197 0
173 196 0
175 198 0
173 197 0
174 197 0
174 197 0
175 198 0
175 198 0
173 196 0
174 197 0
172 196 0
171 194 0
174 197 0
173 197 0
174 197 0
173 197 0
176 199 0
172 196 0
172 195 0
172 197 0
175 198 0
172 196 0
175 198 0
174 197 0
175 198 0
173 196 0
175 198 0
173 196 0
173 197 0
174 198 0
173 196 0
173 196 0
175 198 0
173 197 0
174 197 0
174 197 0
174 197 0
173 197 0
174 197 0
172 195 0
174 197 0
175 198 0
174 197 0
171 195 0
173 197 0
172 195 0
173 197 0
174 197 0
174 196 0
171 194 0
174 197 0
170 194 0
175 198 0
172 196 0
174 197 0
173 196 0
174 197 0
174 198 0
174 197 0
173 197 0
173 196 0
174 198 0
176 199 0
173 197 0
173 196 0
174 196 0
173 196 0
172 196 0
173 197 0
173 196 0
174 196 0
173 197 0
171 194 0
174 198 0
175 198 0
174 197 0
173 195 0
173 196 0
174 198 0
172 195 0
171 194 0
172 196 0
173 196 0
173 197 0
170 194 0
174 198 0
174 198 0
171 194 0
172 195 0
172 196 0
173 196 0
174 196 0
171 195 0
174 197 0
174 197 0
173 196 0
175 197 0
173 196 0
175 197 0
173 196 0
172 196 0
173 196 0
172 195 0
175 198 0
172 196 0
173 196 0
172 196 0
174 197 0
175 198 0
173 196 0
172 195 0
175 197 0
171 195 0
173 196 0
171 195 0
173 197 0
175 198 0
174 196 0
173 197 0
174 197 0
172 195 0
175 198 0
172 196 0
173 197 0
174 197 0
172 195 0
172 196 0
171 195 0
173 197 0
175 198 0
172 196 0
173 197 0
171 194 0
172 195 0
172 196 0
171 195 0
171 195 0
172 195 0
172 196 0
171 195 0
172 195 0
171 195 18
172 195 0
171 194 18
164 187 62
161 185 62
155 179 80
152 176 92
151 176 90
138 164 117
150 173 100
136 161 117
119 146 141
128 153 130
122 147 139
103 131 154
109 137 151
106 134 151
87 118 165
96 126 157
95 125 161
83 115 168
84 115 168
80 112 170
78 111 172
84 115 167
99 128 158
88 119 165
88 119 165
92 122 163
98 127 160
104 132 155
119 146 140
115 142 143
121 147 137
127 153 130
124 150 133
127 152 130
147 171 102
147 171 97
152 176 95
151 175 94
167 191 48
163 186 67
169 192 44
170 193 25
173 195 0
173 196 0
175 197 0
168 192 0
172 196 0
172 196 0
170 193 0
175 198 0
172 195 0
175 198 0
170 193 0
172 195 0
173 195 0
174 197 0
173 195 0
174 198 0
173 196 0
171 195 0
171 194 0
173 197 0
172 195 0
174 196 0
173 195 0
174 197 0
170 193 0
172 195 0
174 197 0
175 197 0
173 197 0
174 197 0
173 197 0
173 195 0
173 196 0
171 195 0
172 194 0
173 196 0
174 198 0
173 196 11
169 193 11
171 193 19
168 188 19
170 190 29
165 185 22
159 175 37
160 177 37
161 178 34
157 168 56
160 171 53
150 158 57
156 162 65
154 159 63
139 144 62
144 147 71
147 146 75
148 144 76
138 136 72
153 146 84
144 140 83
146 141 89
153 148 89
146 141 86
150 145 88
150 146 93
150 145 93
150 145 90
152 147 96
157 152 96
147 143 92
156 151 98
151 147 93
151 147 95
149 146 97
152 149 97
159 154 100
154 150 98
162 158 102
159 156 103
152 148 97
161 157 103
155 153 101
155 152 101
157 154 102
159 156 104
156 153 102
156 152 102
154 152 102
159 156 103
161 158 103
158 155 104
158 155 104
167 163 108
165 162 108
160 158 105
161 158 104
166 163 109
162 159 106
166 163 109
163 159 106
169 166 110
169 166 110
168 165 110
164 162 109
170 166 111
168 165 110
164 161 108
164 162 108
167 164 109
170 167 111
168 165 110
168 166 110
170 167 111
166 163 109
165 162 108
169 167 112
171 167 111
164 161 107
164 162 109
167 164 110
170 167 112
167 164 110
170 167 111
164 161 108
171 168 112
165 163 109
167 165 110
166 163 108
169 166 111
166 164 109
169 166 111
165 163 109
169 166 110
165 163 108
168 165 110
165 162 108
165 162 108
167 164 109
167 164 109
163 160 107
171 167 110
166 163 107
162 160 108
165 163 108
173 169 112
166 164 109
168 165 109
162 160 106
167 163 107
160 157 104
171 167 110
168 163 107
168 164 109
168 162 106
171 167 109
165 161 106
167 162 104
167 162 106
163 158 102
169 164 107
165 160 104
162 158 103
165 160 104
166 162 106
164 158 101
155 151 98
163 158 101
164 159 101
162 158 99
157 152 97
157 152 98
161 155 98
157 153 96
162 156 98
155 150 93
158 153 93
158 151 97
150 144 87
152 146 90
155 149 89
157 152 95
152 147 89
138 133 80
149 145 80
155 150 82
160 157 83
160 159 80
147 150 67
154 161 57
161 169 62
155 165 48
158 170 45
161 178 34
166 182 41
167 185 32
173 194 30
174 193 28
172 193 16
175 198 0
174 198 0
173 196 0
173 197 0
173 197 0
176 198 0
174 197 0
174 197 0
175 198 0
175 198 0
174 197 0
174 197 0
173 197 0
174 197 0
175 198 0
173 197 0
173 196 0
175 198 0
174 197 0
175 198 0
173 197 0
173 197 0
173 197 0
173 197 0
174 197 0
173 196 0
174 198 0
173 197 0
175 198 0
173 196 0
171 194 0
175 198 0
173 197 0
176 199 0
175 197 0
174 198 0
174 197 0
174 198 0
173 196 0
173 196 0
172 196 0
175 198 0
174 197 0
176 199 0
173 197 0
174 197 0
174 198 0
172 196 0
173 196 0
171 195 0
173 197 0
175 198 0
173 196 0
173 197 0
175 198 0
173 196 0
174 198 0
173 196 0
173 197 0
176 198 0
174 198 0
172 196 0
173 197 0
171 195 0
174 197 0
175 198 0
174 197 0
174 197 0
172 196 0
174 198 0
175 198 0
172 196 0
174 197 0
175 198 0
176 198 0
174 197 0
175 198 0
174 197 0
175 198 0
175 198 0
173 197 0
175 198 0
171 195 0
172 196 0
173 196 0
173 197 0
174 197 0
175 198 0
172 196 0
173 196 0
174 197 0
172 196 0
173 197 0
171 194 0
173 196 0
171 195 0
173 196 0
172 196 0
172 196 0
172 196 0
173 197 0
173 195 0
173 196 0
172 195 0
174 197 0
174 197 0
173 196 0
173 197 0
174 197 0
174 198 0
173 196 0
174 196 0
174 197 0
173 196 0
171 195 0
172 195 0
174 197 0
174 197 0
172 195 0
171 194 0
174 197 0
173 196 0
175 198 0
174 198 0
172 196 0
173 196 0
172 195 0
171 195 0
175 198 0
175 197 0
172 195 0
170 193 0
172 196 0
173 196 0
174 197 0
175 198 0
173 195 0
174 197 0
172 195 0
170 194 0
172 195 0
172 194 0
175 198 0
174 197 0
172 195 0
172 196 0
173 197 0
173 197 0
173 197 0
172 195 0
173 196 0
176 199 0
173 195 0
172 196 0
172 196 0
173 197 0
172 195 18
169 192 36
166 189 51
156 178 84
151 175 92
151 176 92
141 166 113
128 153 131
127 153 131
122 148 139
103 131 155
96 126 159
87 118 165
84 116 169
75 109 174
70 105 176
61 99 181
62 99 180
64 100 180
61 99 180
61 99 180
61 98 181
61 99 181
61 99 181
62 99 181
62 99 180
62 99 181
62 99 181
61 99 181
62 99 180
62 99 181
61 99 181
63 100 179
61 98 180
64 100 178
67 103 177
74 107 174
71 106 175
83 114 168
90 120 165
91 121 164
104 132 148
107 135 149
125 151 130
128 153 130
140 165 114
149 174 95
154 178 90
156 180 82
165 189 54
167 190 54
173 196 25
174 196 25
174 196 0
173 196 0
172 195 0
172 195 0
173 196 0
173 196 0
173 194 0
173 197 0
172 195 0
174 197 0
173 195 0
173 197 0
173 196 0
173 197 0
169 193 0
172 196 0
173 195 0
172 195 0
174 197 0
169 193 0
173 196 0
171 195 0
173 196 0
173 196 0
172 194 0
173 196 0
173 196 0
173 197 0
173 196 0
173 195 0
172 196 0
172 195 0
171 193 0
172 194 19
172 194 16
168 190 19
164 183 30
164 182 39
163 178 34
159 172 48
166 182 37
150 162 47
160 170 54
153 162 56
158 164 62
147 151 65
152 156 65
151 151 78
149 147 74
148 147 76
146 142 81
149 143 87
144 140 84
139 134 78
162 156 95
155 149 88
147 143 84
151 147 94
155 151 96
152 148 91
155 151 99
153 147 95
151 147 95
156 151 96
155 151 97
154 149 98
146 144 95
148 144 94
158 154 99
156 152 99
158 153 98
155 152 99
155 152 100
148 145 95
157 153 102
157 154 103
163 161 106
162 158 103
158 155 102
162 159 106
160 157 104
168 165 108
157 155 103
164 160 107
159 156 105
163 161 108
161 158 106
164 161 108
160 157 106
164 161 107
164 162 109
168 164 109
163 161 107
166 163 110
166 163 109
166 163 109
164 162 108
166 164 110
168 165 110
162 159 106
165 163 110
166 165 111
167 165 110
168 166 110
169 167 111
166 163 108
169 167 111
166 164 110
167 165 110
166 163 109
168 166 111
168 166 110
171 168 113
171 167 110
166 163 109
170 167 112
166 163 109
170 167 110
166 163 109
170 166 110
166 163 108
167 165 110
166 164 109
168 166 110
169 166 110
165 162 108
170 166 110
173 170 113
166 163 109
170 167 112
162 159 106
168 164 109
167 165 109
169 165 109
171 167 110
168 165 109
166 163 109
165 162 108
165 161 107
166 162 108
167 163 107
171 166 110
164 159 104
159 155 101
164 160 104
170 165 107
167 163 108
167 161 106
169 164 109
159 156 102
163 159 103
166 162 106
160 156 101
160 155 101
160 155 102
166 162 105
162 157 102
158 154 101
162 158 101
162 158 101
157 152 95
161 156 97
159 154 99
161 156 99
158 152 94
155 150 94
157 151 94
155 150 93
158 152 94
153 147 93
157 152 93
151 145 87
155 149 88
162 155 97
166 158 97
138 134 76
143 139 80
147 144 77
145 142 77
151 152 74
145 147 64
150 154 70
156 167 54
154 164 54
162 172 52
160 174 45
158 173 48
165 184 25
170 189 30
169 189 25
173 194 16
172 194 11
175 197 0
170 195 0
175 198 0
174 197 0
174 198 0
174 197 0
175 197 0
172 196 0
172 197 0
174 198 0
174 197 0
174 197 0
175 197 0
174 198 0
175 198 0
174 197 0
174 197 0
173 197 0
174 198 0
174 198 0
173 197 0
174 196 0
173 196 0
172 195 0
175 198 0
171 196 0
174 198 0
173 197 0
173 197 0
174 197 0
172 196 0
173 196 0
175 198 0
176 198 0
173 197 0
174 198 0
172 196 0
174 197 0
173 197 0
173 196 0
172 196 0
173 197 0
173 197 0
175 197 0
174 197 0
173 197 0
172 197 0
173 197 0
174 198 0
175 198 0
174 197 0
174 197 0
172 196 0
172 196 0
174 197 0
173 197 0
174 197 0
174 198 0
170 195 0
173 196 0
173 197 0
174 197 0
173 196 0
172 196 0
174 197 0
174 198 0
172 195 0
173 196 0
171 194 0
173 197 0
174 197 0
175 197 0
171 196 0
172 196 0
172 196 0
173 197 0
174 197 0
169 193 0
173 196 0
173 197 0
173 197 0
172 196 0
172 195 0
173 197 0
173 196 0
173 197 0
172 195 0
171 194 0
171 195 0
174 197 0
172 195 0
173 196 0
172 196 0
175 198 0
174 197 0
172 195 0
173 197 0
173 197 0
173 196 0
172 195 0
175 197 0
173 197 0
174 198 0
172 196 0
171 196 0
173 196 0
175 197 0
173 197 0
172 196 0
172 196 0
171 194 0
173 196 0
173 196 0
172 195 0
173 197 0
173 197 0
170 194 0
170 194 0
174 197 0
172 196 0
172 196 0
174 197 0
174 197 0
173 196 0
173 196 0
172 196 0
173 196 0
173 196 0
174 197 0
173 197 0
174 197 0
172 195 0
172 195 0
173 196 0
173 195 0
172 195 0
173 197 0
173 196 0
172 196 0
174 197 0
173 196 0
174 197 0
172 195 0
173 196 0
174 198 0
173 196 0
174 197 0
173 195 0
173 196 0
172 194 0
173 195 0
172 196 0
175 198 18
168 191 36
160 184 74
163 186 65
149 174 90
148 171 102
134 160 118
122 148 135
112 140 147
98 128 159
93 123 163
76 109 173
64 100 180
66 102 179
61 99 181
61 98 181
62 99 181
61 98 181
62 99 181
62 99 181
62 99 181
62 99 181
61 98 181
61 99 181
62 99 181
61 98 180
62 99 181
62 99 181
61 99 181
62 99 181
62 99 180
61 99 181
62 99 181
62 99 181
61 99 181
62 99 181
62 99 181
62 99 181
61 99 181
62 99 181
62 99 180
61 99 180
62 99 180
61 98 179
64 100 179
68 103 176
71 106 176
85 116 168
91 121 163
111 138 147
109 136 147
125 151 130
135 161 119
145 170 103
152 175 97
164 188 60
158 182 70
167 190 44
174 197 18
172 194 0
173 196 0
173 197 0
172 195 0
176 198 0
173 196 0
174 197 0
173 196 0
174 197 0
174 197 0
172 196 0
173 197 0
171 194 0
173 196 0
171 193 0
174 197 0
173 196 0
173 196 0
172 195 0
172 195 0
170 193 0
173 196 0
172 196 0
172 195 0
172 196 0
172 195 0
175 197 0
169 192 0
173 195 0
172 194 11
169 190 11
167 187 28
160 179 25
158 176 30
167 185 32
162 176 41
153 169 36
153 165 48
154 164 51
150 157 57
155 161 70
145 150 61
154 159 66
143 146 61
144 145 71
144 142 76
139 135 75
143 139 80
148 142 87
140 136 84
142 138 79
147 142 86
144 140 90
150 147 93
155 149 95
154 150 93
151 147 93
148 143 91
150 147 92
151 146 94
151 146 94
149 145 90
160 155 99
155 150 98
156 152 101
151 148 98
157 153 100
157 153 99
151 147 96
157 153 100
152 150 100
161 158 104
156 153 103
156 152 100
160 156 103
161 158 104
157 154 103
161 157 103
157 155 105
162 158 105
161 158 106
162 158 104
162 159 107
159 156 104
163 161 107
159 156 104
165 162 108
158 155 104
162 159 106
164 161 108
162 159 107
163 161 109
167 164 109
165 163 109
166 163 109
165 162 109
167 164 110
165 163 109
164 161 108
159 157 105
164 163 109
166 163 109
166 163 109
169 166 111
168 165 110
170 167 111
166 164 110
168 166 110
168 166 110
165 163 110
168 167 112
165 163 109
167 165 110
168 165 110
172 168 112
168 165 110
166 163 109
170 166 110
172 168 111
168 166 111
170 167 111
171 168 112
170 167 112
165 162 108
165 163 109
171 168 112
170 167 111
166 163 109
167 163 108
170 167 111
164 161 107
169 166 110
167 164 109
166 164 109
166 162 106
165 162 108
167 164 108
169 165 109
167 164 106
166 161 105
168 164 109
171 167 110
166 162 108
167 164 108
163 160 104
161 158 103
164 160 105
163 159 104
169 164 106
167 161 104
165 161 105
161 157 101
160 156 101
158 154 99
157 153 99
155 151 97
160 156 102
165 159 100
149 144 90
156 150 93
161 154 97
157 151 97
162 156 97
160 154 98
161 155 94
154 148 94
165 159 99
158 153 95
147 141 84
150 146 87
154 149 90
154 149 91
154 149 90
148 142 87
141 136 84
146 140 83
145 145 69
146 148 67
145 147 62
148 151 71
157 163 62
159 174 42
163 177 47
168 181 53
161 175 42
162 180 30
171 193 22
172 192 25
171 194 0
173 196 0
173 196 0
173 197 0
173 197 0
172 195 0
174 198 0
173 197 0
172 195 0
173 197 0
175 198 0
175 198 0
173 197 0
174 197 0
175 198 0
175 198 0
174 197 0
174 197 0
174 197 0
173 197 0
174 198 0
173 197 0
174 198 0
174 197 0
173 197 0
174 197 0
174 197 0
174 198 0
173 197 0
175 198 0
173 196 0
175 198 0
173 197 0
175 198 0
173 197 0
173 196 0
173 197 0
174 197 0
173 197 0
171 196 0
173 196 0
174 197 0
172 195 0
174 197 0
174 197 0
173 196 0
173 196 0
172 195 0
175 198 0
173 197 0
174 197 0
174 197 0
174 197 0
172 196 0
173 197 0
171 196 0
175 198 0
175 198 0
175 198 0
174 198 0
175 197 0
172 196 0
172 196 0
173 197 0
171 196 0
174 197 0
172 196 0
175 198 0
173 196 0
172 196 0
172 196 0
174 197 0
172 196 0
174 197 0
173 197 0
173 197 0
173 197 0
170 193 0
174 197 0
171 195 0
169 193 0
174 197 0
174 197 0
172 196 0
174 198 0
173 196 0
173 197 0
172 196 0
176 199 0
172 196 0
174 197 0
172 196 0
173 196 0
173 197 0
173 195 0
170 194 0
172 196 0
173 196 0
172 195 0
175 197 0
173 197 0
174 197 0
172 196 0
174 197 0
173 196 0
174 197 0
173 196 0
173 197 0
173 195 0
173 196 0
171 195 0
174 197 0
173 196 0
172 195 0
173 196 0
172 195 0
174 197 0
172 196 0
172 196 0
172 195 0
172 195 0
172 196 0
173 196 0
170 195 0
173 196 0
174 197 0
174 197 0
174 196 0
173 196 0
173 196 0
172 195 0
173 196 0
173 197 0
174 197 0
174 198 0
172 196 0
173 196 0
173 197 0
171 195 0
176 198 0
173 196 0
174 198 0
170 193 0
171 194 0
174 197 0
171 194 0
172 195 0
172 194 0
174 197 0
174 197 0
174 198 0
168 192 44
163 187 60
163 186 67
145 169 103
141 166 114
125 150 137
110 138 148
91 122 158
79 112 170
64 100 179
64 101 179
62 99 181
61 98 180
62 99 180
61 99 181
62 99 181
62 99 181
61 99 181
61 99 181
61 99 181
61 98 181
62 99 181
62 99 181
61 99 181
61 99 181
62 99 181
61 99 181
61 99 181
61 99 181
62 99 181
62 99 181
61 99 181
61 99 181
62 99 181
62 99 181
61 99 181
62 99 181
62 99 181
62 99 181
61 99 181
62 99 180
61 99 181
62 99 180
62 99 179
61 98 181
61 99 180
62 99 181
61 98 181
62 99 181
61 98 179
61 98 177
61 98 178
70 104 176
79 112 170
95 125 161
114 141 140
123 149 132
124 150 133
146 171 99
154 179 84
159 183 60
163 187 51
172 195 32
171 194 31
171 194 0
173 197 0
173 196 0
170 193 0
172 194 0
174 197 0
174 197 0
172 195 0
172 195 0
172 194 0
173 197 0
170 193 0
172 195 0
172 194 0
173 195 0
172 196 0
172 195 0
173 197 0
176 197 0
172 195 0
173 196 0
170 193 0
174 197 0
173 197 0
173 196 0
171 195 0
172 193 16
169 191 0
167 186 16
165 184 25
167 185 32
157 172 39
158 173 39
160 173 47
160 172 51
155 165 57
148 155 56
147 153 61
150 156 58
144 146 68
140 139 71
144 142 76
140 136 80
148 143 80
137 132 79
153 148 92
135 132 81
155 150 95
151 146 89
137 134 80
142 138 85
145 142 86
150 146 90
151 146 91
154 149 91
158 151 97
154 150 97
149 144 94
156 152 97
154 150 99
155 151 97
154 150 97
152 149 98
153 151 102
149 146 96
153 150 101
158 155 103
145 142 96
160 157 104
153 150 100
159 156 103
161 157 104
162 158 104
155 152 100
159 156 104
165 162 108
161 157 105
167 164 108
155 152 101
160 157 106
157 154 104
165 162 108
160 159 107
162 158 106
163 160 107
169 165 109
167 164 110
163 160 107
169 166 110
165 162 109
161 158 106
169 166 111
169 166 111
168 165 110
168 165 110
165 163 109
168 165 110
162 159 107
171 167 111
168 166 111
159 157 105
165 163 109
170 167 111
168 165 110
169 166 111
168 166 111
165 163 109
166 163 109
168 165 110
171 168 111
166 164 109
165 163 108
168 165 110
166 163 109
172 169 112
167 163 108
170 166 109
169 166 110
166 163 109
168 165 110
165 163 109
167 164 109
168 165 109
171 168 112
163 160 106
163 160 106
170 167 110
171 167 110
169 166 109
166 163 109
167 163 108
162 160 106
166 163 107
165 162 108
162 159 104
169 165 109
165 162 107
172 169 111
168 163 106
168 163 106
164 160 104
162 158 103
164 160 101
161 157 99
167 164 107
168 164 107
163 159 103
169 165 108
163 160 104
164 159 101
164 159 102
160 156 100
169 163 106
165 160 101
157 153 98
159 154 99
162 157 99
161 156 97
154 149 94
152 148 93
157 152 92
159 153 95
160 155 94
165 159 95
157 153 92
159 153 94
155 149 91
151 145 90
146 141 84
145 140 83
152 147 88
150 144 85
146 142 80
155 151 85
143 139 74
154 156 74
156 160 68
150 154 62
151 159 48
159 173 44
157 171 39
156 172 28
167 187 22
168 187 19
170 192 16
174 196 25
173 196 0
173 195 0
173 197 0
173 197 0
174 198 0
172 195 0
173 196 0
175 198 0
177 199 0
174 197 0
174 198 0
174 197 0
174 198 0
174 198 0
172 195 0
173 196 0
174 197 0
175 198 0
173 197 0
172 196 0
173 197 0
173 197 0
175 197 0
174 197 0
172 196 0
174 197 0
173 197 0
173 196 0
174 197 0
173 197 0
173 196 0
173 197 0
172 196 0
173 197 0
174 197 0
175 198 0
173 196 0
173 197 0
173 197 0
171 195 0
175 198 0
174 197 0
173 197 0
173 196 0
174 198 0
172 196 0
172 196 0
172 195 0
174 197 0
172 196 0
174 198 0
174 197 0
172 196 0
172 197 0
175 198 0
172 196 0
174 198 0
173 196 0
174 196 0
174 197 0
174 196 0
174 197 0
175 198 0
171 196 0
171 195 0
174 197 0
174 198 0
173 197 0
175 198 0
173 196 0
174 198 0
175 198 0
175 198 0
172 196 0
172 196 0
171 194 0
175 196 0
173 195 0
171 194 0
173 197 0
173 196 0
173 197 0
171 195 0
172 196 0
173 196 0
173 196 0
172 196 0
175 198 0
172 196 0
173 196 0
173 196 0
173 197 0
174 197 0
175 198 0
172 196 0
174 197 0
173 197 0
171 195 0
173 197 0
172 195 0
173 196 0
173 197 0
173 196 0
173 196 0
172 196 0
172 195 0
172 196 0
172 195 0
174 197 0
173 196 0
172 196 0
173 196 0
173 196 0
174 198 0
174 197 0
174 197 0
175 198 0
171 195 0
172 196 0
171 195 0
175 197 0
172 195 0
172 195 0
172 196 0
174 197 0
173 196 0
171 195 0
171 195 0
173 197 0
174 197 0
173 196 0
172 196 0
172 195 0
173 196 0
173 196 0
172 195 0
172 196 0
174 197 0
172 195 0
173 196 0
173 196 0
173 195 0
173 196 0
175 198 0
173 197 0
172 196 0
171 194 18
169 193 36
166 189 57
163 187 67
146 170 102
148 172 99
118 145 136
110 138 148
87 118 167
75 108 172
67 103 178
61 99 179
61 99 181
61 98 179
62 99 181
61 99 181
62 99 180
61 99 181
61 99 180
61 99 181
60 98 181
62 99 181
62 99 181
61 98 181
61 99 181
62 99 181
61 98 180
62 99 181
62 99 181
61 98 181
62 99 181
61 99 181
62 99 181
61 99 181
61 99 181
61 99 181
62 99 181
61 99 181
61 98 181
61 98 180
61 99 181
62 99 181
61 99 181
62 99 181
61 99 181
62 99 181
61 99 181
61 98 179
61 98 180
62 99 181
61 99 181
61 99 181
61 98 181
61 98 179
62 99 180
61 99 181
61 98 180
61 98 178
63 100 179
63 100 176
74 108 171
92 122 161
95 124 157
115 141 143
127 153 130
143 167 105
156 180 81
161 185 67
161 186 67
173 196 25
172 196 18
174 197 0
172 195 0
172 195 0
171 194 0
172 196 0
175 197 0
173 195 0
171 195 0
170 193 0
171 195 0
173 196 0
174 197 0
172 196 0
171 194 0
171 194 0
173 197 0
175 197 0
172 195 0
173 195 0
172 196 0
173 196 0
173 197 0
169 191 0
171 192 16
169 189 19
164 184 19
166 186 25
162 182 28
152 167 37
163 179 41
160 175 51
150 162 48
150 157 53
153 162 57
147 151 63
155 157 70
141 143 68
156 156 77
141 137 79
144 141 78
143 138 78
144 139 82
147 142 86
143 138 85
140 136 84
143 139 83
148 142 88
147 143 85
151 146 94
150 146 94
150 146 93
159 154 99
139 135 87
157 153 95
149 145 95
157 153 101
150 147 96
157 153 101
150 147 97
153 151 99
159 154 99
160 157 104
156 153 100
150 147 97
157 154 101
149 147 96
149 146 98
162 159 106
162 159 106
163 159 105
152 149 101
159 157 104
157 155 104
162 159 105
162 159 106
165 162 109
161 159 106
157 155 104
165 162 109
161 159 106
162 159 107
166 163 109
163 160 108
166 163 109
165 163 109
163 161 108
164 162 109
162 159 105
166 162 108
168 165 110
166 163 109
170 168 112
162 160 107
169 166 111
165 163 109
170 167 111
170 167 111
169 166 110
165 163 109
166 164 109
166 163 108
166 163 109
167 164 109
169 167 111
169 165 109
172 169 113
165 163 109
169 167 111
166 163 109
171 168 112
173 169 112
168 165 110
170 167 110
167 165 110
169 166 110
170 166 110
169 166 110
168 165 110
170 166 110
169 166 110
172 168 111
165 162 108
166 163 107
172 168 112
169 166 110
166 163 107
170 166 110
167 164 109
168 164 109
162 159 104
169 166 109
171 167 110
164 161 107
158 155 101
168 164 107
165 161 107
169 166 110
165 161 106
167 164 106
156 153 97
159 155 101
169 164 106
161 156 99
163 159 102
164 160 101
165 161 104
160 156 101
162 157 101
167 162 102
157 153 99
171 166 106
155 151 99
148 144 93
159 155 97
162 157 97
162 156 99
163 157 100
157 151 95
161 155 94
159 154 97
156 151 93
157 151 90
151 145 85
151 144 88
151 146 90
150 146 87
151 145 87
156 150 90
153 147 87
143 138 81
153 147 88
140 140 64
150 152 68
150 154 67
155 162 61
161 167 72
155 168 45
154 167 41
166 180 44
163 182 36
164 180 37
173 192 28
174 195 19
176 198 11
171 195 0
172 196 0
176 199 0
174 197 0
174 197 0
174 197 0
173 197 0
173 197 0
173 197 0
172 196 0
174 198 0
173 197 0
173 196 0
174 197 0
172 196 0
173 196 0
173 197 0
173 197 0
174 198 0
174 197 0
176 198 0
173 197 0
174 197 0
173 197 0
173 197 0
173 196 0
172 196 0
173 197 0
173 196 0
175 198 0
173 196 0
174 198 0
173 196 0
175 198 0
174 198 0
173 196 0
173 197 0
173 197 0
172 195 0
172 196 0
172 195 0
170 194 0
173 196 0
175 197 0
174 197 0
173 197 0
174 198 0
174 198 0
174 197 0
173 197 0
173 196 0
173 196 0
172 195 0
172 196 0
173 197 0
173 197 0
175 198 0
174 198 0
173 196 0
173 197 0
174 197 0
172 195 0
173 197 0
173 196 0
175 198 0
175 197 0
171 195 0
174 197 0
171 195 0
173 196 0
174 196 0
173 196 0
173 196 0
172 196 0
172 195 0
173 196 0
174 197 0
174 198 0
170 194 0
173 196 0
174 197 0
173 197 0
172 196 0
172 196 0
174 197 0
174 197 0
174 197 0
172 196 0
174 197 0
172 196 0
174 197 0
175 198 0
172 194 0
172 195 0
172 195 0
172 195 0
173 196 0
171 195 0
173 197 0
174 198 0
173 196 0
174 197 0
173 197 0
174 197 0
175 198 0
173 196 0
175 198 0
172 196 0
174 197 0
174 198 0
171 195 0
174 198 0
174 197 0
172 196 0
173 197 0
174 197 0
173 196 0
174 197 0
174 197 0
173 196 0
172 195 0
173 196 0
171 195 0
171 195 0
172 196 0
174 197 0
170 195 0
173 196 0
171 193 0
173 196 0
174 196 0
173 197 0
174 197 0
171 194 0
172 195 0
174 197 0
173 196 0
173 196 0
172 196 0
172 196 0
172 196 0
174 197 0
175 198 0
171 195 18
168 190 54
161 185 70
153 177 88
137 161 118
132 157 125
116 143 139
94 124 160
79 112 170
64 100 180
62 99 181
62 99 180
61 99 181
62 99 181
61 98 181
62 99 181
62 99 181
61 99 180
61 98 181
61 99 181
61 99 181
61 99 181
62 99 181
62 99 181
61 99 181
62 99 181
61 99 181
61 98 181
62 99 181
61 98 181
62 99 181
62 99 181
61 98 181
61 98 180
61 99 181
62 99 181
61 98 181
62 99 181
62 99 181
61 98 181
62 99 181
61 99 181
62 99 181
62 99 181
62 99 181
61 98 181
62 99 180
61 99 181
61 99 181
62 99 181
61 99 181
62 99 181
61 99 180
61 98 181
62 99 181
60 98 181
62 98 178
62 99 181
61 99 181
62 99 180
62 99 181
61 98 179
62 98 178
62 99 181
64 101 180
72 107 176
82 113 165
110 137 145
114 141 139
137 161 113
148 172 96
150 174 88
164 186 63
166 189 45
174 197 18
172 196 0
171 194 0
170 193 0
172 195 0
172 194 0
173 196 0
173 196 0
172 194 0
172 195 0
173 195 0
173 196 0
171 195 0
172 196 0
172 195 0
172 195 0
172 196 0
173 196 0
174 197 0
174 197 0
174 196 16
171 194 0
170 192 0
164 185 19
169 189 25
163 181 34
164 177 45
157 170 45
159 173 47
154 167 44
153 164 44
156 162 60
159 164 62
150 152 66
152 155 65
154 154 73
138 135 78
135 134 65
142 139 79
144 139 83
144 138 79
140 134 83
140 134 79
149 144 89
138 134 83
141 137 86
156 151 96
152 147 91
145 141 89
148 144 91
153 149 96
149 146 93
154 150 96
154 149 97
153 149 96
150 147 98
157 152 99
147 146 96
148 145 96
160 155 103
147 144 97
155 153 101
152 149 100
151 148 98
159 155 101
158 155 103
148 146 97
155 153 102
163 159 105
160 158 105
162 158 104
164 161 108
158 155 104
155 152 102
164 161 107
158 155 103
157 154 103
161 158 105
162 160 107
159 158 107
163 160 108
166 163 109
161 158 106
162 159 106
162 160 108
168 164 109
166 164 110
164 161 108
166 163 108
165 163 109
171 168 111
164 161 107
166 164 110
170 167 110
167 164 110
166 163 109
171 168 112
170 167 112
169 166 111
166 164 110
169 166 111
169 166 110
171 167 111
169 166 110
166 163 109
172 169 112
169 166 110
168 166 111
170 167 110
171 168 111
168 166 111
170 166 110
172 168 112
168 166 110
170 167 111
171 168 112
171 167 110
167 165 109
169 165 108
171 168 110
171 168 112
169 166 110
166 161 106
168 163 108
165 162 108
171 167 109
169 165 110
165 161 106
168 165 109
173 169 111
169 164 109
166 163 108
166 161 104
168 164 109
165 162 106
169 165 109
164 160 104
161 157 101
162 157 103
162 159 104
162 158 101
163 159 102
161 157 102
168 163 104
163 160 104
166 162 103
168 163 104
157 153 96
162 157 101
160 155 99
161 157 101
166 160 101
165 159 101
165 161 100
161 155 97
159 153 96
154 151 95
157 152 93
156 151 93
155 151 93
154 149 93
152 146 90
153 147 90
156 150 90
150 145 85
152 146 89
149 143 87
146 141 86
163 156 90
143 137 81
145 141 75
142 141 66
154 156 72
152 159 61
152 159 62
155 165 57
150 161 51
158 172 41
163 179 36
169 188 32
169 189 28
168 187 25
172 195 11
174 196 0
172 196 0
173 197 0
173 196 0
173 197 0
173 196 0
174 198 0
173 197 0
174 197 0
173 196 0
174 197 0
174 198 0
172 196 0
173 196 0
175 198 0
174 198 0
173 197 0
174 197 0
173 197 0
175 198 0
173 197 0
172 195 0
175 198 0
173 196 0
173 197 0
174 197 0
172 196 0
173 197 0
175 198 0
174 198 0
172 196 0
174 198 0
176 198 0
172 195 0
176 199 0
174 197 0
172 196 0
174 197 0
174 198 0
173 197 0
175 198 0
174 197 0
174 197 0
175 198 0
176 199 0
175 198 0
172 196 0
173 197 0
173 197 0
172 196 0
174 197 0
174 197 0
173 196 0
174 197 0
173 197 0
174 198 0
173 196 0
172 196 0
173 197 0
174 198 0
174 198 0
174 197 0
174 196 0
174 197 0
172 196 0
174 198 0
174 197 0
172 195 0
172 196 0
171 195 0
173 197 0
175 198 0
173 197 0
172 196 0
171 195 0
173 197 0
175 198 0
173 197 0
172 195 0
172 196 0
172 196 0
172 196 0
171 194 0
171 195 0
174 198 0
171 195 0
173 197 0
174 198 0
173 196 0
173 197 0
172 195 0
172 196 0
172 195 0
169 193 0
173 196 0
172 195 0
172 196 0
176 198 0
172 196 0
171 194 0
170 194 0
175 198 0
174 198 0
174 197 0
172 196 0
171 195 0
174 197 0
174 198 0
174 198 0
173 196 0
169 193 0
173 197 0
172 195 0
172 195 0
174 197 0
171 195 0
174 197 0
174 197 0
173 196 0
170 194 0
174 197 0
174 198 0
172 194 0
171 195 0
173 196 0
174 197 0
173 197 0
173 195 0
171 194 0
173 196 0
174 197 0
173 197 0
172 196 0
173 196 0
174 197 0
172 196 0
174 197 0
173 197 0
173 196 0
173 197 0
174 197 0
170 193 36
163 187 54
161 183 65
152 177 88
144 168 108
116 143 142
92 123 161
75 108 174
61 99 179
62 99 180
61 98 180
62 99 178
61 98 180
62 99 181
61 98 179
61 99 180
62 99 180
61 99 180
61 98 180
62 99 181
61 99 180
61 99 181
61 99 181
61 99 181
61 99 181
61 99 181
62 99 181
62 99 181
62 99 181
61 99 181
61 98 181
61 98 181
61 99 181
61 99 181
61 98 181
62 99 181
62 99 181
61 99 181
61 98 181
61 98 181
62 99 181
61 99 181
61 98 181
62 99 181
61 99 181
62 99 181
61 99 181
61 98 181
62 99 181
61 99 181
62 99 181
61 98 180
61 98 180
62 99 180
62 99 180
62 99 181
61 98 180
61 98 180
62 99 181
61 99 180
62 99 181
61 98 179
62 99 181
61 98 178
62 99 180
62 99 180
62 99 180
61 98 179
65 100 176
61 98 180
68 103 175
97 126 159
117 143 138
124 149 132
144 169 104
153 176 90
163 186 65
171 194 31
169 193 18
174 197 0
169 192 0
173 196 0
175 197 0
171 194 0
174 197 0
174 197 0
173 196 0
172 195 0
173 195 0
172 195 0
171 194 0
173 196 0
171 194 0
172 196 0
171 194 0
171 195 0
170 193 0
171 194 11
166 187 22
168 187 25
166 185 34
162 182 21
162 177 36
161 172 52
155 167 49
158 169 53
155 168 39
145 150 58
141 148 54
148 152 59
149 148 71
138 136 71
135 132 71
136 133 75
138 133 79
146 142 86
134 130 78
149 145 87
148 144 87
140 135 86
143 139 86
143 138 86
137 134 88
154 149 94
145 140 88
150 146 92
147 143 91
142 140 90
139 136 89
152 148 97
148 144 96
155 151 100
151 147 97
154 151 100
149 147 96
152 150 100
149 145 95
145 143 95
149 146 97
154 151 100
150 147 98
157 155 104
160 156 104
150 148 98
160 157 105
156 153 103
162 159 106
151 149 101
159 157 106
163 160 107
163 160 107
164 160 106
159 157 106
162 158 106
164 161 106
163 160 107
166 163 109
161 159 107
162 160 107
163 161 108
160 157 104
162 159 107
168 165 110
165 162 110
166 163 109
167 164 110
169 166 110
166 164 109
167 164 109
170 166 110
167 164 108
167 165 110
169 166 110
172 167 111
168 166 110
168 165 110
169 166 110
167 165 110
168 165 109
169 166 111
169 166 111
166 163 108
169 166 110
167 164 110
168 165 110
167 164 109
170 165 109
171 167 111
171 168 112
171 168 112
168 165 110
172 169 112
170 167 110
170 167 110
168 165 110
166 164 109
164 161 106
169 166 110
169 166 109
170 166 110
168 165 107
172 168 111
167 164 108
169 165 109
165 162 107
165 161 106
168 164 109
164 161 106
167 164 109
167 164 108
166 162 107
172 169 110
167 163 107
161 158 104
164 161 105
172 167 108
168 163 106
164 160 104
164 160 104
168 164 104
166 160 104
166 162 104
161 157 98
172 167 106
165 159 101
160 155 100
164 159 100
164 159 101
161 156 99
167 162 103
162 157 99
151 147 92
154 148 93
148 144 84
156 151 95
153 147 89
157 151 93
157 151 95
159 153 95
147 143 84
152 148 90
152 146 85
151 146 88
151 145 86
144 139 79
148 142 83
153 148 85
144 142 71
131 133 61
149 152 65
153 160 59
154 163 56
156 166 53
160 173 44
164 179 36
166 184 32
169 187 37
170 192 19
171 192 19
172 195 0
173 197 0
174 197 0
175 198 0
176 198 0
174 197 0
175 198 0
174 198 0
173 197 0
174 197 0
173 197 0
174 198 0
175 198 0
175 198 0
173 197 0
173 196 0
175 198 0
172 195 0
173 197 0
174 196 0
173 195 0
173 197 0
175 198 0
172 195 0
175 198 0
173 196 0
173 197 0
173 197 0
175 197 0
174 197 0
174 198 0
173 196 0
176 198 0
172 196 0
172 195 0
172 196 0
172 197 0
174 198 0
171 195 0
171 194 0
173 197 0
174 197 0
172 196 0
173 197 0
174 197 0
173 196 0
172 196 0
174 197 0
172 196 0
174 197 0
174 197 0
174 197 0
174 197 0
175 198 0
173 196 0
172 196 0
173 197 0
172 196 0
174 197 0
173 197 0
173 196 0
172 195 0
171 194 0
173 197 0
173 197 0
173 196 0
172 196 0
173 196 0
173 196 0
172 197 0
171 195 0
174 198 0
171 195 0
170 193 0
173 197 0
173 197 0
172 195 0
174 197 0
172 196 0
173 196 0
175 198 0
173 196 0
172 195 0
174 197 0
174 197 0
174 196 0
174 198 0
169 193 0
174 197 0
172 196 0
170 193 0
171 195 0
173 196 0
174 197 0
173 196 0
174 197 0
175 198 0
173 197 0
175 197 0
172 196 0
170 194 0
170 194 0
172 196 0
170 194 0
172 196 0
173 197 0
173 196 0
172 195 0
171 194 0
172 194 0
173 196 0
171 195 0
173 196 0
174 197 0
173 197 0
172 195 0
173 196 0
174 197 0
172 195 0
173 195 0
173 195 0
172 196 0
174 197 0
174 196 0
174 197 0
173 197 0
174 197 0
172 196 0
174 197 0
173 197 0
173 196 0
174 197 0
173 197 0
173 195 0
173 197 0
174 197 0
173 196 0
173 196 0
171 195 0
170 194 18
164 188 60
159 182 82
143 167 110
131 156 126
116 143 136
94 124 162
69 104 178
62 99 179
62 99 181
63 100 181
61 99 181
62 99 181
62 99 180
62 99 180
61 99 181
62 99 181
61 99 181
62 99 181
62 99 181
62 99 181
61 98 181
62 99 181
62 99 181
62 99 181
62 99 181
62 99 181
62 99 181
62 99 181
61 98 181
61 98 181
61 99 181
61 98 181
61 98 181
62 99 181
61 98 181
62 99 181
61 98 181
61 98 181
61 99 181
62 99 181
61 99 181
61 99 181
61 99 181
61 99 181
61 98 181
61 99 181
61 98 180
61 99 181
61 99 181
61 99 181
61 99 181
61 99 181
61 99 181
61 98 180
61 99 181
61 98 180
61 98 181
61 98 181
61 99 181
62 98 178
62 99 180
62 99 181
62 99 181
61 99 181
62 99 181
62 99 179
62 99 180
62 98 178
61 99 180
61 98 178
61 98 177
62 98 177
61 98 179
68 103 174
80 113 166
106 133 149
124 149 128
141 165 107
148 172 99
152 176 92
168 191 45
171 195 18
173 196 18
171 194 0
172 195 0
173 196 0
171 194 0
171 193 0
173 196 0
173 196 0
172 196 0
174 196 0
173 196 0
171 194 0
172 195 0
171 195 0
171 193 11
172 195 0
168 189 19
169 190 19
165 186 25
161 179 31
166 183 36
160 176 32
156 167 45
157 169 48
155 167 49
148 156 53
149 156 53
143 148 60
135 136 62
146 147 70
142 141 75
142 140 79
138 134 77
144 139 82
149 144 88
145 140 84
141 136 83
142 138 86
144 140 86
144 142 89
149 146 93
149 144 93
158 154 98
139 135 84
143 140 91
150 146 92
153 149 97
153 149 96
155 151 99
151 148 95
150 147 97
152 150 100
144 142 94
152 149 99
155 152 100
150 146 98
150 148 97
143 142 95
160 157 105
164 160 106
153 150 100
156 153 102
157 153 100
154 152 103
156 153 102
162 158 105
163 160 107
160 158 105
154 152 102
157 155 105
160 158 106
162 159 105
161 159 107
157 155 105
165 162 109
158 156 105
161 157 104
167 165 110
161 159 106
159 156 104
167 164 110
166 163 109
165 163 109
168 166 111
162 159 107
172 170 113
165 163 109
167 165 111
165 162 108
167 165 110
171 168 111
167 164 110
166 163 109
171 167 112
170 167 111
170 167 111
162 159 106
171 169 113
167 164 109
166 164 109
176 172 113
171 167 111
167 164 109
167 165 110
166 164 109
170 167 112
171 169 112
170 167 111
169 166 109
169 166 110
169 167 112
172 168 112
172 167 110
169 165 109
170 166 109
171 168 111
172 168 111
173 169 111
171 167 111
172 169 112
172 168 111
170 166 109
169 166 110
170 167 109
170 166 109
168 164 108
170 165 108
169 165 109
169 165 109
170 166 108
167 162 106
161 159 104
169 164 105
167 163 108
162 158 103
166 162 103
167 163 106
165 160 103
164 159 101
163 159 104
168 163 105
163 158 101
161 157 101
159 155 99
153 149 95
158 154 99
163 158 97
156 151 95
168 162 100
160 155 97
164 158 101
162 156 99
158 153 95
165 159 100
156 150 91
155 150 92
154 149 90
165 158 99
153 147 88
155 150 90
155 149 91
159 153 93
148 142 84
151 146 84
149 143 82
142 138 75
136 134 67
151 150 73
148 152 62
154 158 69
145 150 54
149 159 48
156 169 47
155 169 41
165 182 30
165 183 32
168 189 19
171 193 11
174 195 16
173 196 0
174 197 0
174 198 0
175 197 0
172 195 0
174 197 0
173 197 0
175 198 0
174 197 0
174 198 0
173 196 0
172 197 0
174 197 0
172 196 0
174 197 0
172 196 0
175 198 0
174 197 0
174 198 0
174 197 0
175 198 0
173 197 0
174 198 0
173 196 0
172 196 0
172 195 0
173 197 0
173 197 0
174 197 0
173 197 0
174 198 0
174 197 0
175 198 0
173 196 0
174 197 0
172 195 0
171 195 0
175 198 0
175 198 0
171 195 0
172 195 0
171 195 0
172 196 0
174 197 0
172 196 0
173 196 0
171 194 0
174 197 0
171 195 0
174 197 0
173 196 0
174 197 0
174 198 0
175 198 0
174 197 0
173 197 0
172 195 0
173 197 0
174 197 0
172 194 0
173 196 0
172 194 0
174 197 0
172 196 0
175 198 0
174 197 0
174 197 0
174 197 0
172 195 0
172 196 0
173 196 0
172 195 0
172 195 0
173 196 0
172 195 0
172 196 0
172 196 0
173 196 0
173 197 0
173 197 0
173 197 0
175 198 0
173 196 0
175 198 0
172 195 0
171 194 0
173 196 0
172 195 0
172 195 0
173 196 0
170 194 0
173 197 0
172 196 0
174 197 0
174 197 0
174 197 0
173 197 0
176 199 0
172 195 0
169 192 0
171 194 0
172 195 0
172 195 0
170 194 0
175 198 0
173 196 0
172 195 0
173 196 0
173 196 0
171 194 0
174 197 0
175 198 0
174 197 0
173 195 0
174 197 0
173 196 0
172 195 0
171 195 0
174 197 0
173 196 0
174 197 0
174 198 0
172 195 0
173 197 0
173 196 0
173 197 0
172 196 0
172 195 0
174 197 0
172 195 0
173 196 0
175 198 0
171 195 0
173 195 0
173 196 0
174 197 0
170 193 25
168 191 51
151 176 88
142 167 103
138 163 115
106 134 151
78 111 171
65 101 178
61 99 179
62 100 181
62 99 181
62 99 181
62 99 181
62 99 181
62 99 181
61 99 181
61 98 180
61 99 181
62 99 181
62 99 181
62 99 181
62 99 181
61 99 181
62 99 181
62 99 181
62 99 181
61 99 181
62 99 181
61 99 181
62 99 181
61 98 181
61 98 181
62 99 181
62 99 181
61 99 181
61 99 181
61 98 181
61 99 181
62 99 181
61 99 181
62 99 181
61 99 181
61 99 181
61 99 181
61 99 181
61 99 181
61 99 181
61 98 181
61 99 181
61 99 181
60 98 180
61 98 181
61 98 181
61 99 181
62 99 181
61 99 181
61 99 181
61 99 181
61 99 181
61 98 181
62 99 181
62 99 181
61 99 181
62 99 181
61 99 181
61 98 179
61 98 179
62 99 181
62 99 179
61 98 179
61 98 179
62 99 180
62 99 180
62 99 180
61 98 179
62 99 178
61 98 175
62 99 180
63 99 175
77 109 167
101 130 148
119 144 134
138 162 110
143 166 108
158 182 73
168 191 37
167 190 25
173 197 0
170 193 0
170 193 0
172 194 0
171 193 0
174 196 0
173 196 0
172 195 0
173 196 0
174 197 0
174 196 0
170 192 0
172 193 0
168 191 0
169 191 19
167 188 22
164 181 34
164 181 25
164 179 39
161 175 47
158 171 45
152 163 50
151 159 54
150 157 61
146 150 63
155 160 68
147 145 70
140 139 72
152 147 83
140 135 74
138 133 80
139 134 77
136 132 80
140 136 85
148 142 83
137 134 84
145 141 85
144 140 90
146 142 86
150 146 93
141 138 88
142 138 86
146 142 89
147 143 91
145 142 93
153 150 99
154 150 97
150 146 96
150 148 96
144 141 92
152 149 97
157 152 101
158 154 102
150 148 100
145 143 94
157 154 102
160 157 103
156 153 102
147 146 99
155 152 101
143 141 95
150 147 99
154 152 103
163 159 107
164 161 107
156 153 102
163 160 107
161 158 106
159 156 105
164 160 106
163 160 108
167 163 108
156 154 104
169 166 110
164 162 108
164 161 107
163 160 107
161 159 108
168 165 110
166 163 110
169 166 110
164 161 108
169 166 110
166 163 109
169 166 111
172 169 112
172 169 112
166 163 108
171 167 111
167 164 108
171 167 111
167 164 109
166 163 109
169 166 110
167 164 109
166 163 108
172 169 113
170 166 111
171 167 111
174 170 113
170 167 111
172 169 112
169 166 110
171 167 111
173 169 112
169 166 110
168 164 109
172 168 110
170 167 110
166 163 107
173 170 113
172 168 110
173 169 112
169 166 110
171 166 109
167 163 107
169 164 108
168 164 108
169 164 108
168 164 108
169 166 110
171 167 108
165 161 105
171 167 110
169 165 108
171 167 110
165 161 105
170 166 105
170 167 109
169 165 109
162 159 104
172 167 109
172 167 107
172 167 106
163 159 101
162 158 103
163 159 100
166 161 103
168 163 104
170 165 105
160 155 97
160 155 100
164 160 102
151 147 93
159 153 97
159 155 97
160 155 98
150 146 87
156 152 94
166 160 99
154 150 92
161 156 99
155 149 96
159 154 95
155 150 88
159 154 91
155 150 90
158 152 87
150 145 85
152 145 87
146 141 83
149 143 83
127 123 66
140 136 73
144 141 75
138 136 66
148 147 69
155 158 68
155 162 58
155 165 53
155 165 51
156 170 37
163 179 34
167 186 28
167 187 28
171 190 34
173 195 19
173 195 11
174 197 0
174 197 0
174 197 0
174 197 0
173 197 0
172 197 0
175 198 0
175 198 0
172 196 0
174 197 0
171 195 0
175 198 0
173 197 0
174 198 0
174 198 0
174 197 0
173 197 0
173 197 0
173 196 0
175 198 0
176 199 0
173 197 0
173 196 0
172 195 0
173 196 0
173 197 0
174 197 0
175 197 0
173 197 0
173 197 0
175 197 0
174 198 0
175 198 0
173 197 0
173 197 0
173 197 0
174 197 0
172 195 0
175 198 0
173 197 0
175 198 0
175 198 0
173 196 0
173 197 0
175 198 0
172 196 0
175 198 0
173 197 0
173 197 0
171 194 0
171 195 0
174 197 0
175 198 0
173 197 0
174 197 0
173 196 0
172 195 0
173 197 0
172 196 0
172 196 0
173 197 0
175 197 0
174 197 0
171 193 0
172 196 0
172 195 0
173 196 0
174 197 0
171 194 0
174 197 0
173 197 0
173 196 0
174 197 0
171 194 0
171 194 0
174 197 0
173 196 0
172 196 0
172 196 0
175 198 0
174 197 0
175 197 0
173 197 0
172 195 0
173 196 0
174 197 0
175 198 0
173 197 0
172 196 0
173 197 0
174 197 0
172 195 0
173 197 0
172 196 0
174 197 0
173 196 0
173 196 0
172 196 0
172 195 0
171 195 0
172 196 0
174 196 0
173 197 0
173 195 0
170 194 0
172 195 0
175 198 0
173 197 0
172 196 0
172 195 0
173 196 0
173 197 0
172 194 0
172 195 0
173 196 0
175 198 0
172 196 0
174 197 0
173 196 0
174 197 0
174 197 0
174 197 0
170 194 0
171 194 0
174 198 0
174 198 0
171 195 0
172 196 0
172 196 0
172 196 0
173 197 0
174 197 0
171 194 0
173 196 18
168 192 44
161 185 70
152 176 94
119 146 137
108 135 148
80 113 170
63 100 177
62 99 179
61 99 180
62 99 180
61 98 176
61 99 181
62 99 180
61 99 181
62 99 181
62 99 181
62 99 181
61 99 181
62 99 181
61 99 181
61 99 181
62 99 181
62 99 181
61 99 181
61 99 181
62 99 181
61 99 181
61 98 181
61 99 181
62 99 181
61 98 181
61 99 181
61 99 181
61 99 181
61 99 181
61 99 181
61 99 181
62 99 181
61 98 181
61 99 181
61 99 181
61 98 181
61 99 181
61 99 181
62 99 181
61 98 181
62 99 181
62 99 181
62 99 181
61 98 181
61 99 181
62 99 181
62 99 181
61 99 181
61 99 181
61 99 181
62 99 181
61 99 181
62 99 181
61 99 181
62 99 181
62 99 181
61 99 181
61 99 181
61 98 180
62 99 180
61 98 180
61 98 180
62 99 181
61 98 180
62 99 179
61 99 180
62 99 181
61 99 180
61 98 178
62 99 179
62 99 180
62 98 178
61 98 178
62 99 178
61 98 177
61 98 178
76 109 172
93 123 160
122 148 129
135 159 116
145 169 100
159 182 72
170 193 44
170 193 0
171 194 18
170 192 0
173 196 0
172 195 0
173 196 0
172 195 0
172 195 0
173 196 0
172 195 0
170 194 0
169 191 11
171 192 16
171 191 28
160 180 19
169 188 32
169 186 32
160 175 41
158 172 40
162 176 42
147 155 51
150 158 56
149 155 55
147 152 61
148 152 64
136 137 69
135 135 70
149 145 83
136 133 74
128 124 73
148 144 84
146 141 86
146 142 85
146 142 89
139 135 84
145 140 86
144 140 84
143 140 89
135 133 83
146 141 92
151 147 96
152 148 94
145 140 91
147 145 94
149 145 91
155 150 97
149 147 94
147 144 96
145 142 96
142 141 95
147 144 94
155 152 100
150 147 96
156 153 102
155 152 102
153 151 102
154 151 100
161 157 104
163 160 106
151 149 100
159 156 104
158 156 105
160 157 105
154 152 101
157 155 104
165 162 108
161 158 106
162 160 107
157 155 105
160 157 105
159 157 105
163 160 107
163 161 109
157 155 104
166 163 109
165 163 109
168 166 111
161 159 108
167 164 109
165 162 108
165 162 109
167 164 109
160 159 107
169 165 109
165 162 108
164 161 107
168 165 110
168 165 111
173 169 112
168 165 109
172 168 111
171 168 112
167 164 110
170 167 111
170 167 110
172 169 112
169 165 110
169 166 109
169 166 109
171 168 111
170 167 111
167 163 108
168 166 110
168 164 109
173 170 112
170 167 111
169 166 110
170 167 111
172 168 111
175 170 111
169 166 108
168 165 108
174 170 113
169 166 109
165 162 107
168 165 109
166 162 107
168 164 108
173 170 113
174 169 112
168 164 108
169 166 108
166 162 107
173 169 110
169 165 109
170 166 107
170 165 108
173 168 109
165 162 106
168 165 109
163 160 105
166 162 106
169 164 107
171 166 109
164 161 104
166 162 105
163 159 103
168 164 106
163 158 101
167 163 104
167 162 104
164 159 100
165 160 101
162 158 99
155 150 95
162 157 97
160 155 100
166 159 100
155 152 95
158 152 95
157 152 90
161 154 94
156 151 95
153 148 93
152 146 90
157 151 89
154 150 93
158 152 92
155 149 87
155 148 87
159 153 91
146 140 84
145 139 81
147 143 76
145 143 72
145 142 71
155 159 62
148 153 61
151 157 57
158 169 52
158 173 45
161 178 34
166 184 32
168 187 28
171 190 25
175 197 19
171 193 11
173 197 0
174 197 0
173 195 0
174 197 0
175 198 0
174 198 0
175 198 0
172 195 0
173 196 0
172 196 0
174 197 0
173 197 0
173 197 0
174 197 0
175 198 0
174 197 0
172 196 0
174 198 0
174 197 0
173 197 0
172 196 0
174 197 0
174 197 0
170 194 0
176 199 0
171 195 0
173 197 0
174 198 0
173 197 0
176 198 0
175 198 0
173 196 0
172 196 0
173 196 0
172 196 0
175 198 0
176 198 0
172 196 0
174 197 0
175 198 0
176 198 0
173 196 0
173 197 0
174 198 0
173 196 0
174 197 0
170 194 0
173 196 0
174 197 0
174 197 0
173 196 0
172 196 0
172 196 0
172 195 0
174 197 0
173 197 0
174 198 0
173 195 0
173 197 0
172 196 0
172 195 0
172 195 0
173 197 0
173 195 0
173 196 0
173 196 0
174 197 0
174 197 0
174 197 0
172 196 0
171 195 0
172 196 0
172 196 0
173 196 0
173 197 0
171 195 0
172 195 0
172 195 0
174 197 0
173 196 0
175 198 0
171 195 0
174 197 0
173 196 0
175 198 0
174 198 0
172 196 0
174 197 0
175 198 0
172 196 0
171 195 0
173 197 0
175 198 0
171 195 0
173 196 0
172 195 0
173 196 0
173 197 0
174 197 0
175 198 0
172 195 0
172 196 0
174 197 0
172 196 0
172 195 0
172 196 0
173 196 0
173 196 0
174 198 0
171 195 0
172 196 0
172 196 0
173 196 0
173 196 0
171 195 0
173 196 0
173 196 0
176 198 0
172 197 0
174 197 0
172 196 0
173 196 0
173 196 0
173 196 0
173 196 0
169 192 0
173 196 0
171 195 0
172 196 0
173 197 0
171 195 0
173 196 0
170 194 36
157 180 74
146 171 102
121 147 136
100 129 156
80 113 171
61 99 179
62 99 181
62 99 179
62 99 181
61 99 180
62 99 179
62 99 181
62 99 179
62 99 180
62 99 181
62 99 180
62 99 180
62 99 181
62 99 181
61 98 181
62 99 181
62 99 181
61 99 181
61 99 181
62 99 181
62 99 181
62 99 181
61 99 181
61 99 181
61 98 181
61 99 181
61 99 181
62 99 181
61 99 181
61 99 181
61 99 181
62 99 181
61 99 181
62 99 181
61 99 181
61 98 181
61 98 181
61 98 181
61 99 181
61 98 181
61 99 181
61 98 181
61 99 181
62 99 181
62 99 181
62 99 181
61 98 181
61 99 181
62 99 181
61 99 181
62 99 181
62 99 181
61 99 181
62 99 181
62 99 181
61 98 181
62 99 181
61 99 181
62 99 181
62 99 180
61 98 181
62 99 179
61 99 180
62 99 181
62 99 181
61 99 180
62 99 181
61 99 181
62 99 180
61 99 180
62 99 181
61 99 180
61 98 178
61 97 177
61 98 178
62 99 181
61 98 177
62 99 179
61 97 175
62 98 176
76 108 170
103 132 154
127 151 123
140 165 107
157 180 79
162 185 65
167 190 40
172 195 18
173 196 0
171 194 0
173 196 0
173 197 0
176 198 0
171 194 0
174 196 0
171 195 0
170 193 11
168 189 16
172 191 32
164 183 22
159 175 28
164 180 34
158 176 30
158 172 35
151 160 48
155 166 50
146 154 56
149 155 62
143 145 65
131 132 68
158 158 76
144 143 68
140 138 72
136 133 78
141 137 80
143 138 81
138 133 78
139 135 80
147 142 88
147 144 91
144 139 86
146 143 88
147 143 91
143 139 87
142 138 90
140 137 90
150 148 95
144 141 93
145 141 92
145 142 91
143 140 94
140 138 92
148 145 97
153 150 98
144 143 94
147 144 95
155 151 101
151 150 101
152 150 102
147 146 98
152 149 101
155 152 101
157 154 101
155 153 103
150 148 100
158 155 104
162 159 106
155 153 104
161 158 105
162 159 106
157 154 103
157 154 104
157 154 103
158 155 104
164 161 107
162 159 107
164 161 107
163 160 106
169 165 108
164 160 107
161 159 107
166 163 108
169 166 110
165 162 108
163 160 108
167 163 108
168 165 109
167 165 111
166 164 110
168 165 110
172 168 112
169 166 111
168 166 111
170 168 112
170 167 110
171 167 111
167 163 108
169 166 111
167 164 110
170 167 111
171 168 112
172 168 111
167 164 109
171 168 111
173 169 111
169 166 110
172 169 113
173 169 112
172 169 112
172 169 111
170 167 110
168 165 108
173 169 112
170 166 110
170 167 109
174 170 113
168 165 109
170 167 109
162 158 104
170 166 109
174 170 110
169 166 108
169 165 106
171 167 110
166 164 108
169 166 108
171 167 108
168 164 107
168 164 108
173 169 109
172 168 110
165 161 104
173 168 108
170 165 108
166 162 105
168 163 106
166 162 106
165 160 103
168 164 106
164 159 101
173 169 110
166 160 102
173 167 104
162 157 97
165 159 99
160 157 101
161 156 101
164 159 101
157 153 96
162 157 97
167 161 101
165 159 99
157 153 97
163 157 97
154 149 88
158 152 93
155 149 94
158 152 95
154 149 92
154 149 93
158 154 93
158 153 93
159 152 93
151 145 87
157 151 91
152 147 85
152 145 87
149 143 82
148 143 74
146 143 76
147 148 66
155 156 70
156 159 67
152 160 54
155 162 56
155 167 42
160 176 34
164 182 32
167 184 32
168 189 19
170 190 22
173 196 0
172 195 0
173 197 0
173 197 0
172 196 0
174 198 0
172 196 0
174 197 0
173 197 0
172 196 0
176 198 0
175 198 0
175 198 0
173 197 0
173 196 0
175 198 0
173 196 0
174 197 0
175 198 0
174 198 0
171 195 0
173 197 0
174 197 0
174 197 0
171 195 0
174 198 0
172 196 0
173 197 0
173 197 0
170 193 0
174 197 0
174 197 0
173 196 0
175 198 0
175 198 0
172 195 0
172 196 0
173 196 0
173 196 0
174 198 0
175 197 0
174 197 0
173 197 0
173 197 0
174 198 0
173 197 0
174 197 0
173 197 0
174 196 0
172 196 0
175 198 0
174 197 0
173 197 0
173 197 0
173 196 0
174 197 0
171 196 0
173 196 0
172 196 0
172 196 0
173 197 0
173 196 0
173 197 0
174 197 0
172 195 0
174 197 0
172 195 0
176 199 0
172 196 0
172 195 0
172 195 0
173 196 0
174 197 0
172 196 0
174 197 0
172 196 0
171 196 0
173 197 0
173 197 0
173 196 0
173 197 0
174 197 0
174 197 0
173 196 0
174 197 0
170 194 0
171 195 0
174 198 0
173 197 0
173 196 0
170 194 0
174 197 0
173 196 0
174 198 0
171 194 0
174 197 0
170 194 0
173 197 0
173 196 0
171 195 0
171 194 0
173 196 0
169 194 0
171 194 0
174 196 0
172 195 0
174 197 0
174 198 0
172 195 0
170 194 0
172 195 0
170 194 0
171 195 0
172 195 0
173 197 0
171 194 0
172 195 0
173 196 0
171 194 0
170 193 0
173 197 0
173 197 0
175 198 0
174 197 0
173 197 0
172 195 0
173 196 0
172 195 0
173 196 0
172 195 0
172 196 0
171 195 25
163 187 57
157 180 82
135 160 118
105 134 150
75 109 170
61 99 179
62 99 180
62 99 179
62 99 180
62 99 178
62 99 177
62 99 180
62 99 181
61 98 181
62 99 180
61 99 181
61 99 181
62 99 181
61 99 179
62 99 181
62 99 181
62 99 180
61 99 180
61 99 181
62 99 181
61 99 181
62 99 181
61 98 181
61 99 181
62 99 181
61 98 181
61 99 181
61 99 181
61 99 181
62 99 181
62 99 181
62 99 181
61 99 181
61 99 181
61 99 181
61 99 181
61 98 181
61 99 181
61 98 181
62 99 181
62 99 181
62 99 181
61 99 181
62 99 181
62 99 181
61 98 181
61 99 181
61 99 181
61 99 181
61 98 181
62 99 181
62 99 181
61 99 181
61 98 180
61 99 181
61 99 181
61 98 181
62 99 181
61 99 181
62 99 181
62 99 181
62 99 181
61 98 181
61 99 181
62 99 181
62 99 181
61 99 180
62 99 180
62 99 180
62 99 179
61 98 180
62 98 177
61 98 179
62 99 180
62 99 179
62 99 181
61 99 180
61 97 176
61 98 178
61 98 176
62 99 180
62 98 176
62 98 175
62 99 178
73 106 171
98 126 158
126 151 126
132 156 115
155 178 81
162 185 58
169 192 31
171 194 0
173 196 0
172 194 0
173 196 0
172 195 0
173 195 11
171 193 0
171 192 28
163 185 11
163 182 25
165 184 25
160 179 28
162 178 34
162 177 34
154 166 43
155 166 49
152 162 50
143 150 54
145 150 57
137 140 56
145 147 65
148 147 71
137 134 70
134 131 71
138 133 74
138 134 79
159 152 92
135 130 75
142 138 83
150 144 89
149 144 88
141 138 87
142 137 87
143 140 91
159 153 98
146 143 91
148 146 94
143 140 91
154 150 96
143 141 93
150 146 96
147 144 93
144 142 94
146 143 94
158 154 101
148 145 98
162 158 104
152 150 100
144 142 95
156 153 102
153 149 99
138 137 94
156 153 102
152 150 101
161 157 105
153 150 100
158 155 104
152 150 102
161 158 106
156 154 104
158 155 103
166 163 110
166 162 109
160 157 106
160 157 105
158 156 105
161 158 107
159 157 106
160 158 104
165 162 108
166 163 109
167 164 110
166 163 109
164 162 109
165 163 109
168 164 110
165 162 108
171 168 112
168 165 111
168 164 110
171 168 112
166 162 108
167 164 110
166 164 110
170 167 110
166 164 107
173 169 112
168 166 111
168 166 110
170 167 110
168 164 108
171 167 110
175 171 113
175 170 112
170 167 111
169 167 110
174 170 113
172 168 112
174 169 111
172 168 111
177 171 113
169 164 106
171 168 110
173 168 110
174 169 111
170 166 109
170 167 110
169 166 109
171 168 110
170 166 109
172 169 110
174 170 110
172 169 111
172 168 109
169 165 107
165 161 104
170 167 108
169 165 108
165 162 106
167 163 106
168 164 105
172 168 109
168 163 106
169 164 106
165 161 105
169 165 106
167 163 106
166 161 104
171 166 107
168 163 107
165 161 103
169 164 104
163 159 101
157 153 97
161 155 99
163 158 99
163 158 101
164 160 101
167 161 101
155 151 93
159 154 95
157 152 97
155 150 95
163 158 98
164 158 97
159 155 93
163 157 95
153 147 90
156 150 87
156 149 93
154 148 89
154 149 88
161 155 92
147 143 85
157 150 89
148 143 79
151 145 86
156 149 93
142 136 80
149 143 81
142 137 70
159 156 76
154 155 76
151 154 67
150 156 61
155 164 52
158 167 56
165 180 42
153 168 36
163 180 41
167 186 25
167 188 16
174 195 19
174 196 11
174 197 0
175 197 0
173 196 0
174 198 0
174 197 0
173 197 0
173 197 0
172 196 0
172 196 0
173 197 0
174 198 0
174 198 0
173 197 0
173 196 0
171 194 0
171 195 0
172 197 0
173 196 0
173 197 0
175 198 0
174 198 0
173 197 0
174 197 0
174 197 0
174 197 0
175 198 0
173 195 0
174 197 0
173 197 0
174 197 0
172 196 0
173 197 0
174 197 0
175 198 0
174 197 0
174 198 0
172 196 0
172 196 0
175 197 0
172 196 0
174 197 0
172 196 0
173 196 0
174 197 0
173 197 0
170 195 0
175 198 0
174 197 0
172 196 0
171 194 0
173 197 0
174 197 0
174 197 0
175 198 0
173 197 0
172 196 0
173 196 0
172 196 0
173 197 0
174 198 0
174 197 0
174 197 0
175 197 0
173 197 0
174 197 0
172 196 0
173 196 0
172 195 0
174 198 0
173 197 0
175 198 0
173 196 0
172 196 0
173 196 0
172 195 0
172 195 0
175 198 0
175 197 0
173 196 0
174 198 0
170 193 0
173 196 0
173 196 0
172 196 0
172 196 0
174 197 0
174 196 0
173 196 0
175 198 0
172 196 0
174 196 0
169 193 0
171 195 0
175 198 0
174 197 0
175 197 0
171 194 0
173 196 0
173 197 0
173 196 0
173 196 0
173 196 0
172 195 0
174 198 0
172 195 0
171 195 0
172 195 0
173 196 0
173 197 0
171 195 0
172 196 0
172 195 0
170 193 0
174 196 0
174 197 0
172 195 0
175 198 0
174 198 0
172 196 0
172 196 0
174 197 0
172 195 0
172 194 0
172 195 0
173 197 0
174 197 0
173 196 0
170 193 25
167 190 40
148 172 97
134 159 117
105 133 151
88 119 162
68 104 177
61 99 181
62 99 180
62 99 178
62 99 181
62 99 177
62 99 181
62 99 180
62 99 180
62 99 181
61 99 181
62 99 180
61 99 181
62 99 180
61 99 181
62 99 181
62 99 181
61 99 181
62 99 181
61 99 181
61 99 181
62 99 181
62 99 181
62 99 181
62 99 181
62 99 181
62 99 181
61 99 181
62 99 181
62 99 181
62 99 181
61 99 181
61 99 181
61 98 181
61 99 181
62 99 181
61 99 181
62 99 181
61 99 181
62 99 181
61 99 181
61 98 181
62 99 181
61 99 181
61 99 181
61 98 181
61 99 181
62 99 181
61 99 181
61 99 181
61 99 181
61 98 181
62 99 181
62 99 181
61 99 181
61 99 181
61 99 181
61 98 180
61 99 181
61 99 181
61 99 181
61 99 181
61 98 181
61 99 181
61 99 181
62 99 181
61 99 181
62 99 181
61 98 179
62 99 181
62 99 178
61 98 180
61 98 180
61 99 181
61 98 179
61 98 179
62 99 181
62 99 179
61 99 180
61 98 178
62 98 177
62 99 179
62 99 181
61 98 176
62 98 176
61 98 177
61 98 177
64 99 175
84 115 163
103 130 151
122 148 134
148 173 93
155 178 75
167 190 40
171 194 18
173 195 0
172 195 0
173 195 0
171 194 0
170 192 11
169 190 0
169 189 22
162 181 16
159 177 25
161 178 34
161 174 48
162 174 52
152 160 48
153 160 60
144 150 61
147 152 53
143 149 60
143 145 65
142 142 77
135 132 69
126 125 68
142 138 82
146 142 86
132 129 70
146 141 83
133 130 79
141 137 84
140 137 85
134 131 79
138 135 84
150 146 92
134 132 84
148 144 93
146 143 97
144 141 91
143 140 92
149 146 95
154 151 100
143 141 95
145 142 95
149 146 96
145 142 97
143 142 95
145 142 96
150 147 97
148 146 98
154 151 101
150 146 98
147 145 98
153 149 99
145 143 97
150 148 100
156 153 101
151 148 100
159 156 106
158 156 104
151 149 99
163 161 107
157 155 104
155 153 104
159 157 106
159 157 105
157 155 105
163 161 107
156 154 104
157 155 105
156 154 104
164 161 108
159 157 106
162 160 108
167 164 110
170 167 111
165 162 108
165 162 109
163 160 106
161 158 106
165 162 108
170 167 111
171 168 111
172 169 112
166 162 107
168 166 110
171 167 110
170 166 110
167 164 109
169 166 110
170 167 112
172 168 110
173 168 110
171 168 110
170 166 110
174 170 112
172 168 110
172 168 110
169 165 109
174 170 112
172 168 110
174 170 112
174 170 110
170 166 108
172 169 112
170 167 111
174 170 111
171 167 111
169 166 110
173 168 110
171 167 110
170 166 109
168 164 108
172 168 110
170 166 108
164 161 107
172 168 110
169 165 107
171 167 109
169 164 107
168 164 105
167 163 106
166 161 104
172 168 108
167 163 107
167 162 105
171 165 105
168 163 106
170 164 102
168 165 107
164 160 103
168 162 104
166 161 103
167 162 102
166 162 101
161 156 99
161 156 98
165 161 104
169 163 102
161 157 97
170 164 103
158 153 94
168 161 100
170 163 104
168 163 99
161 155 95
158 153 95
152 149 95
157 152 93
149 143 86
164 158 99
157 152 90
159 152 92
151 146 91
150 145 91
146 141 84
157 151 89
150 144 85
143 139 81
144 138 80
151 145 84
146 140 79
139 135 71
137 134 71
142 141 72
150 152 64
157 159 68
153 162 48
161 171 57
155 168 45
158 173 39
162 179 36
167 185 37
165 185 22
169 191 11
172 195 0
172 196 0
174 196 0
174 197 0
173 197 0
173 197 0
174 198 0
173 196 0
174 198 0
175 198 0
173 197 0
170 194 0
172 196 0
175 198 0
174 197 0
173 197 0
174 197 0
174 197 0
171 195 0
174 197 0
174 198 0
173 196 0
174 197 0
173 196 0
174 196 0
173 197 0
173 197 0
173 197 0
173 196 0
173 197 0
172 195 0
173 196 0
170 194 0
174 197 0
173 196 0
173 197 0
175 197 0
175 198 0
175 198 0
172 195 0
172 195 0
171 195 0
174 198 0
173 196 0
173 196 0
173 197 0
174 198 0
173 197 0
174 197 0
173 197 0
175 198 0
173 197 0
174 197 0
171 195 0
174 197 0
172 196 0
175 198 0
174 197 0
172 196 0
172 196 0
174 198 0
173 197 0
174 197 0
173 197 0
174 198 0
173 197 0
174 197 0
173 197 0
173 196 0
173 197 0
174 197 0
172 196 0
173 197 0
174 198 0
172 195 0
173 196 0
173 196 0
172 195 0
172 195 0
173 196 0
171 194 0
171 195 0
175 198 0
173 196 0
174 198 0
173 196 0
171 195 0
172 196 0
174 197 0
171 195 0
175 198 0
172 196 0
171 195 0
170 193 0
174 197 0
175 197 0
174 197 0
171 194 0
170 193 0
172 196 0
172 195 0
174 198 0
172 195 0
174 197 0
174 197 0
172 197 0
172 196 0
171 195 0
171 195 0
172 195 0
173 197 0
175 197 0
172 195 0
174 197 0
174 198 0
172 196 0
173 196 0
172 195 0
173 195 0
173 196 0
173 197 0
175 198 0
173 196 0
169 193 0
170 193 0
172 196 0
171 194 0
171 194 36
162 185 70
147 172 99
123 150 133
99 128 157
67 103 175
64 100 179
62 99 180
62 99 178
62 99 180
62 99 178
61 99 180
63 100 181
62 99 181
62 99 181
62 99 180
62 99 180
62 99 180
61 98 179
61 99 180
62 99 181
61 98 181
61 99 181
62 99 180
61 99 180
62 99 181
62 99 181
61 99 181
61 99 181
61 99 181
61 99 181
61 99 181
61 98 181
61 98 181
62 99 181
61 99 181
61 99 181
62 99 181
62 99 181
61 99 181
61 99 181
61 98 181
61 99 181
62 99 181
61 99 181
62 99 181
62 99 181
62 99 181
61 99 181
62 99 181
61 99 181
61 98 181
62 99 181
62 99 181
62 99 181
62 99 181
61 98 181
61 98 181
61 99 181
61 99 181
61 99 181
62 99 181
62 99 181
62 99 181
61 99 181
61 99 181
61 98 181
61 99 181
62 99 181
61 99 181
62 99 181
62 99 181
61 99 181
62 99 181
62 99 181
62 98 179
62 99 179
61 98 181
62 99 180
61 99 181
61 99 180
62 99 180
61 98 179
61 98 178
62 99 180
62 99 179
62 99 180
61 98 178
61 97 176
62 99 179
62 99 177
62 99 178
61 98 176
61 97 176
60 95 172
61 97 174
65 100 171
95 123 153
109 135 145
140 165 108
143 167 98
160 182 54
170 193 25
171 195 0
171 194 0
170 192 0
166 187 16
169 191 11
166 185 32
168 186 28
159 177 30
162 177 36
163 175 50
155 167 46
155 164 58
156 163 55
157 166 51
142 147 55
154 159 57
140 142 69
144 144 73
137 135 69
151 147 84
135 131 74
135 130 76
135 131 76
141 136 81
138 135 80
139 135 84
132 129 79
136 133 84
153 148 93
143 139 90
144 142 89
129 127 83
132 130 87
142 139 90
139 137 86
139 137 93
154 151 101
152 147 94
135 134 89
141 140 94
152 149 98
148 145 97
138 137 92
149 146 98
150 146 97
158 153 101
153 150 101
149 147 99
153 150 99
148 146 98
149 147 100
151 149 100
157 155 105
160 155 102
160 157 105
154 153 103
153 151 101
166 163 108
160 157 105
163 159 107
158 156 104
163 160 107
161 159 106
169 165 109
161 158 106
159 157 105
157 156 106
163 160 106
169 165 110
161 158 106
164 161 107
163 161 108
166 164 109
169 165 109
165 161 106
163 161 106
171 166 110
165 162 108
167 164 109
170 167 111
168 165 110
170 167 111
171 167 109
170 166 108
170 167 111
164 161 106
173 168 111
172 168 111
171 168 110
169 166 109
172 169 112
175 171 112
171 168 111
171 167 110
172 169 112
171 167 109
174 169 111
173 169 111
173 168 110
172 168 110
174 170 113
173 169 110
175 170 112
176 171 112
169 166 109
173 170 110
173 168 110
170 167 110
172 168 109
172 167 109
168 164 106
171 166 106
169 165 108
168 164 108
171 166 108
170 166 104
174 170 110
167 164 106
170 166 110
166 162 104
162 157 103
167 163 103
167 163 103
170 165 108
169 164 105
165 160 103
170 166 104
164 160 101
169 164 105
166 161 105
163 158 101
168 163 103
171 166 104
167 162 101
159 154 97
166 159 99
164 158 101
159 153 96
162 157 98
161 156 93
165 159 98
160 155 96
164 157 99
155 150 93
158 152 95
161 155 94
152 147 90
161 155 93
154 149 88
157 151 91
151 145 87
158 152 93
155 149 88
154 148 89
154 147 84
148 143 84
149 143 85
150 144 85
158 154 80
149 147 72
149 151 63
145 146 64
154 160 63
154 165 49
155 165 52
157 172 44
165 178 47
169 186 36
170 192 19
166 187 11
171 195 11
173 196 0
174 196 0
173 196 0
174 197 0
175 198 0
173 197 0
174 198 0
176 198 0
174 197 0
174 198 0
174 197 0
175 198 0
174 198 0
173 197 0
173 197 0
175 198 0
174 197 0
173 197 0
175 197 0
174 197 0
174 197 0
175 198 0
173 197 0
173 196 0
172 195 0
171 196 0
174 197 0
173 197 0
175 198 0
172 196 0
174 198 0
174 198 0
172 195 0
172 196 0
173 196 0
175 198 0
174 198 0
172 195 0
174 197 0
173 196 0
172 195 0
174 198 0
172 196 0
174 197 0
175 197 0
171 195 0
175 198 0
174 197 0
174 197 0
173 196 0
173 196 0
171 196 0
171 195 0
172 195 0
171 195 0
173 195 0
173 197 0
175 198 0
173 196 0
172 195 0
172 196 0
174 197 0
174 197 0
171 195 0
172 196 0
172 196 0
174 197 0
171 195 0
173 195 0
171 194 0
173 196 0
174 197 0
174 197 0
174 197 0
174 197 0
172 195 0
171 194 0
174 197 0
173 197 0
173 197 0
173 196 0
173 197 0
171 195 0
173 197 0
172 195 0
173 197 0
172 195 0
172 196 0
173 196 0
174 197 0
174 197 0
172 195 0
171 196 0
174 197 0
172 195 0
172 195 0
173 196 0
172 196 0
173 196 0
174 198 0
172 195 0
173 196 0
173 197 0
172 196 0
173 197 0
174 197 0
170 193 0
172 195 0
172 196 0
173 197 0
174 197 0
174 197 0
172 196 0
171 194 0
171 194 0
173 197 0
173 197 0
172 195 0
173 195 0
171 194 0
172 195 0
172 196 0
172 195 0
173 196 0
173 197 25
167 190 40
153 177 94
141 166 111
106 133 152
80 112 165
62 99 175
62 99 177
62 99 178
62 99 178
62 99 180
62 99 178
62 99 180
62 99 181
62 99 179
62 99 181
62 99 180
62 99 180
63 100 181
62 99 181
62 99 181
62 99 181
62 99 180
62 99 181
62 99 181
61 99 181
62 99 181
61 98 181
61 99 181
62 99 180
61 98 181
61 99 181
62 99 181
62 99 181
62 99 181
61 99 181
62 99 181
61 98 181
62 99 181
61 99 181
61 99 181
62 99 181
62 99 181
61 99 181
61 99 181
61 98 181
61 99 181
61 98 181
62 99 181
62 99 181
61 98 181
62 99 181
62 99 181
61 99 181
61 99 181
61 98 181
62 99 181
61 99 181
61 99 181
61 98 181
61 99 181
61 99 181
61 98 181
61 98 181
61 99 181
62 99 181
61 99 181
61 99 181
62 99 181
62 99 181
62 99 181
61 98 181
62 99 180
62 99 181
61 98 181
61 99 181
61 98 178
62 99 181
61 98 178
61 99 180
62 99 180
61 99 180
62 99 181
62 99 181
62 99 181
61 98 180
61 98 178
61 98 178
61 98 180
62 99 179
62 99 179
61 98 178
62 99 180
62 99 179
61 98 179
61 98 178
62 98 176
62 98 176
61 98 176
61 97 175
75 107 167
102 130 151
117 143 135
139 164 105
156 180 78
160 183 60
171 194 18
172 194 0
170 190 19
168 190 0
164 183 22
166 184 25
167 183 42
163 178 44
159 175 34
158 172 36
155 165 52
151 159 60
151 159 57
135 138 58
140 145 62
145 145 66
143 143 73
143 139 78
147 143 83
139 134 77
140 136 80
142 138 84
136 131 79
131 128 79
138 135 78
133 130 76
133 130 82
141 138 88
148 143 92
142 139 90
133 131 86
144 141 90
145 142 92
148 144 91
141 139 94
139 137 90
141 139 91
140 139 92
138 136 90
145 142 94
140 139 91
152 149 97
147 145 96
138 136 93
153 150 101
149 147 99
146 145 97
146 142 95
149 147 99
150 149 101
156 152 101
157 154 104
147 145 98
160 157 105
158 156 105
153 151 102
157 154 105
155 153 103
166 163 109
158 157 104
163 160 107
163 161 108
156 154 103
163 160 107
160 158 106
161 158 106
162 160 106
169 166 110
164 161 105
167 164 110
174 169 112
166 163 108
161 160 108
169 166 110
165 162 109
166 163 108
166 164 110
168 166 112
172 168 112
170 166 110
169 166 111
168 164 108
169 166 111
170 166 110
168 165 110
171 168 111
174 170 111
172 168 111
174 171 113
169 165 109
172 168 111
171 168 111
172 168 109
174 169 111
174 169 109
173 169 112
172 168 110
173 169 110
174 169 111
173 170 111
174 170 110
172 167 109
169 164 107
175 171 111
173 169 112
173 169 109
175 170 110
172 169 110
173 168 109
174 169 110
172 168 109
168 164 109
172 168 109
165 161 104
171 167 109
168 164 105
170 167 109
171 166 107
169 164 107
171 166 106
174 170 110
169 165 106
163 159 100
167 162 104
171 167 108
172 167 104
165 161 103
162 157 101
165 161 102
164 159 102
164 159 101
167 162 104
171 167 108
166 160 101
161 156 101
161 156 95
165 159 101
168 162 102
162 156 97
166 161 101
160 155 91
161 155 97
166 161 98
157 152 95
158 153 90
154 148 91
155 150 90
149 144 87
158 153 95
150 143 86
153 147 83
148 143 80
141 136 75
140 136 74
155 148 87
141 136 75
153 146 84
139 136 67
155 151 79
154 154 69
150 153 64
143 146 61
152 163 47
158 170 51
162 176 42
162 178 39
165 182 36
166 183 36
175 196 22
168 191 11
173 195 0
174 196 0
174 196 0
173 197 0
174 197 0
173 196 0
174 197 0
171 195 0
174 198 0
174 197 0
174 197 0
175 198 0
174 197 0
173 196 0
173 197 0
173 197 0
174 197 0
174 197 0
173 197 0
172 196 0
173 196 0
174 197 0
172 196 0
173 196 0
172 195 0
172 196 0
173 196 0
174 198 0
172 196 0
174 197 0
173 197 0
172 195 0
173 197 0
173 197 0
172 196 0
173 196 0
173 196 0
174 196 0
174 197 0
173 196 0
174 197 0
174 197 0
176 198 0
171 195 0
175 198 0
174 197 0
174 198 0
173 195 0
173 197 0
173 197 0
174 197 0
174 197 0
172 196 0
173 196 0
174 197 0
174 197 0
172 196 0
173 196 0
175 198 0
175 197 0
174 197 0
172 195 0
172 194 0
171 194 0
173 196 0
174 197 0
172 195 0
175 197 0
173 197 0
172 196 0
174 196 0
172 195 0
173 196 0
172 195 0
172 195 0
173 197 0
172 195 0
172 195 0
172 196 0
173 195 0
174 197 0
173 196 0
170 192 0
173 197 0
173 197 0
173 196 0
171 195 0
172 196 0
173 196 0
175 198 0
171 195 0
172 196 0
174 196 0
174 197 0
175 198 0
174 198 0
173 196 0
175 197 0
171 194 0
172 195 0
172 196 0
172 196 0
172 195 0
172 196 0
171 194 0
169 192 0
173 196 0
170 194 0
174 196 0
172 196 0
173 197 0
171 195 0
173 196 0
169 193 0
174 196 0
173 196 0
173 196 0
173 196 0
173 195 0
173 197 0
172 195 0
173 195 0
170 194 0
173 196 25
157 181 80
140 164 110
116 143 140
97 126 154
66 102 177
62 99 175
61 99 179
61 98 177
62 99 180
62 99 181
62 99 181
62 99 177
62 99 178
62 99 180
62 99 181
62 99 177
62 99 180
62 99 181
62 99 181
61 99 181
62 99 180
61 99 181
62 99 181
62 99 181
62 99 180
62 99 181
62 99 181
61 99 180
61 99 181
61 99 181
62 99 181
61 99 181
61 99 181
61 99 181
61 98 181
61 99 181
62 99 181
61 99 181
61 99 181
62 99 181
62 99 181
61 99 181
62 99 181
61 98 181
61 99 181
62 99 181
61 99 181
61 98 181
61 98 181
61 99 181
62 99 181
61 99 181
61 98 181
62 99 181
62 99 181
62 99 181
61 99 181
61 99 181
61 99 181
62 99 181
61 99 181
61 98 181
61 99 181
62 99 181
62 99 181
62 99 181
61 99 181
62 99 180
62 99 181
62 99 181
61 99 181
62 99 181
61 98 181
62 99 181
62 99 181
61 98 180
62 99 180
62 99 181
62 99 179
61 99 180
62 99 180
62 99 180
62 99 178
62 99 181
61 99 180
62 99 179
61 98 179
61 99 180
63 100 181
61 98 177
63 99 177
62 99 179
62 98 177
61 97 177
61 98 177
61 98 177
61 97 175
61 98 177
62 98 176
62 99 177
62 99 178
64 100 174
95 123 149
106 133 148
131 155 122
150 174 90
162 186 65
170 192 36
170 191 19
170 190 19
165 184 32
162 180 23
168 186 34
160 176 22
158 174 40
153 163 47
140 150 45
152 162 54
145 152 54
150 153 65
142 144 65
137 139 60
144 145 68
123 121 65
134 129 77
143 137 80
146 141 81
135 131 79
147 143 85
139 136 84
141 138 80
145 140 87
143 140 88
140 137 87
141 139 89
139 137 87
141 138 86
128 126 83
143 140 89
141 138 90
138 137 93
138 136 91
140 138 91
149 145 96
139 137 93
151 149 99
141 138 92
140 138 92
148 146 98
146 145 96
147 145 98
146 145 99
146 145 99
149 147 98
144 142 96
150 149 101
147 146 100
160 157 105
156 153 102
155 152 103
164 161 108
164 161 108
158 156 105
157 155 104
163 161 108
165 162 107
156 153 102
163 160 107
159 156 104
164 160 106
165 161 108
164 161 107
162 159 106
166 162 107
166 163 109
164 162 109
166 163 108
166 163 109
171 168 113
172 168 112
163 160 107
170 167 110
167 165 109
170 167 110
172 169 113
169 166 109
170 166 111
171 167 110
171 168 112
171 167 111
175 171 112
171 168 110
171 167 109
169 165 109
170 167 110
172 168 112
171 167 110
171 167 110
172 168 110
172 169 111
169 165 107
173 168 109
176 172 114
172 168 109
174 170 111
168 164 107
170 167 110
175 170 110
175 170 110
174 170 111
169 165 109
169 165 108
170 165 108
175 171 112
168 165 107
170 166 109
173 168 109
172 167 108
173 167 109
169 165 106
175 169 110
173 167 108
169 165 106
167 163 106
169 165 105
176 170 110
167 162 103
170 165 106
167 162 106
169 164 103
173 168 108
165 161 104
169 164 107
161 156 99
167 163 105
168 164 105
166 162 103
165 160 104
165 160 101
167 161 101
167 161 100
164 159 100
156 151 92
165 160 99
159 153 92
164 159 101
167 160 99
164 160 99
159 153 93
161 156 97
160 155 96
159 153 94
150 144 85
157 151 90
159 153 90
148 144 80
159 153 93
158 151 88
148 142 83
152 146 84
156 149 88
142 137 76
151 145 83
142 136 74
135 134 65
151 150 69
150 152 68
159 164 63
156 161 59
152 161 47
160 174 47
165 181 36
166 183 37
168 187 25
169 190 16
172 194 22
172 195 0
174 197 0
174 197 0
173 196 0
174 197 0
174 198 0
172 196 0
175 198 0
174 198 0
174 196 0
174 197 0
175 198 0
172 196 0
174 197 0
173 197 0
172 196 0
173 197 0
172 195 0
174 198 0
175 197 0
173 197 0
172 196 0
173 197 0
172 196 0
174 198 0
175 198 0
175 198 0
175 198 0
172 195 0
173 197 0
172 195 0
171 195 0
175 198 0
173 197 0
172 195 0
174 197 0
172 196 0
173 196 0
172 195 0
174 198 0
172 195 0
173 196 0
169 192 0
173 197 0
173 196 0
172 195 0
175 198 0
173 196 0
170 194 0
171 194 0
175 198 0
172 195 0
174 197 0
174 197 0
172 196 0
171 195 0
172 195 0
170 194 0
174 197 0
175 198 0
172 195 0
176 198 0
173 196 0
173 196 0
172 195 0
173 196 0
175 198 0
175 198 0
172 195 0
173 197 0
173 197 0
173 196 0
174 197 0
172 196 0
171 194 0
175 198 0
170 194 0
170 194 0
172 195 0
175 198 0
175 197 0
174 197 0
173 196 0
171 195 0
173 196 0
174 198 0
174 198 0
172 196 0
177 199 0
172 194 0
172 196 0
173 196 0
172 196 0
170 193 0
173 196 0
171 194 0
172 195 0
175 197 0
173 196 0
173 196 0
172 196 0
175 198 0
170 194 0
174 198 0
169 193 0
171 195 0
170 194 0
172 196 0
170 194 0
172 196 0
172 196 0
173 197 0
171 194 0
172 196 0
173 197 0
173 196 0
171 196 0
171 194 0
173 197 0
171 195 0
174 197 0
171 194 0
165 189 51
152 177 82
134 160 122
99 129 155
75 108 167
62 99 176
62 99 175
62 99 178
61 99 179
62 99 179
63 100 180
62 99 177
62 99 180
62 99 179
62 99 179
61 99 179
62 99 179
62 99 181
62 100 181
62 99 180
61 98 179
61 99 180
63 100 181
62 99 181
61 99 181
62 99 181
62 99 180
62 99 180
62 99 179
62 99 181
61 99 181
61 99 181
61 99 179
61 98 181
62 99 181
61 98 181
61 98 181
61 99 181
62 99 181
62 99 181
62 99 181
62 99 181
62 99 181
61 99 181
61 99 181
61 99 181
61 99 181
61 98 181
61 98 181
61 98 181
62 99 181
62 99 181
61 99 181
61 98 181
62 99 181
62 99 181
61 99 181
62 99 181
61 99 181
62 99 181
61 99 181
62 99 181
61 99 180
61 99 181
62 99 181
61 99 181
61 99 181
61 99 181
61 99 181
61 98 180
61 99 181
61 98 181
62 99 181
62 99 181
62 99 181
62 99 181
62 99 180
62 99 180
62 99 180
61 98 180
62 99 180
62 99 181
62 99 180
62 99 180
62 99 181
61 98 180
62 99 181
62 99 179
62 99 179
61 98 180
62 99 181
61 98 175
61 98 177
61 98 176
61 98 178
62 99 179
62 99 178
62 99 178
61 98 177
61 98 176
62 97 174
61 98 177
61 98 175
61 97 172
61 97 169
72 105 168
99 127 145
119 144 134
143 165 102
155 177 74
162 183 54
170 191 16
164 184 22
167 185 37
156 171 32
164 181 36
162 176 42
152 163 49
153 163 51
145 153 48
148 154 58
139 141 64
150 150 75
145 142 75
146 144 75
144 141 74
126 123 71
136 131 78
138 134 81
146 141 84
139 135 79
125 121 76
139 136 84
138 135 82
141 138 88
135 133 83
141 138 86
141 138 87
140 137 91
140 138 92
134 132 86
141 139 92
142 140 91
139 137 90
144 142 92
143 140 90
148 145 94
140 137 92
137 137 93
145 143 97
140 139 93
149 147 100
150 149 101
147 145 98
148 146 99
152 150 100
142 140 93
154 152 103
147 145 96
154 151 101
155 153 104
147 147 101
158 155 104
148 147 100
158 156 105
156 154 105
149 147 100
157 154 102
162 160 108
164 161 107
162 159 106
161 159 106
159 157 105
164 161 107
162 159 106
165 162 107
165 162 108
168 165 109
164 161 107
164 162 108
162 160 108
162 160 108
163 161 106
169 165 108
170 166 110
170 167 111
165 163 109
168 165 109
170 165 109
168 165 108
168 165 111
171 167 109
171 167 110
170 166 110
173 169 110
171 168 111
172 168 111
173 169 110
173 170 112
172 168 109
175 170 112
174 169 111
169 166 110
174 170 112
174 169 111
175 170 110
174 169 110
171 167 110
173 168 109
171 167 109
174 169 111
171 167 109
175 171 110
170 166 108
170 166 108
174 170 110
172 168 109
170 166 104
171 166 106
172 167 109
174 170 111
167 162 104
167 162 105
168 165 108
171 167 107
170 167 109
169 165 103
168 163 104
165 160 100
169 164 106
164 160 101
169 164 105
172 167 108
170 165 106
164 160 101
169 164 105
172 167 101
167 162 102
162 157 99
155 150 95
162 158 97
165 161 100
165 159 99
162 156 99
161 156 99
162 157 99
166 159 99
159 154 94
167 161 100
168 163 102
163 156 98
163 157 94
164 157 95
157 152 91
163 156 95
162 156 92
159 154 93
151 146 86
140 135 76
159 153 90
157 151 93
148 142 80
154 147 84
150 143 85
145 140 80
145 139 75
141 139 67
136 136 65
148 151 59
148 154 57
157 164 59
155 165 48
155 168 44
163 177 44
164 180 36
166 185 22
168 189 19
170 191 25
172 194 0
174 197 11
173 197 0
172 195 0
173 196 0
173 197 0
173 197 0
174 197 0
174 197 0
171 194 0
175 198 0
172 196 0
173 197 0
174 198 0
174 197 0
172 195 0
174 198 0
173 197 0
173 196 0
174 197 0
175 198 0
174 197 0
174 198 0
172 195 0
173 197 0
173 197 0
172 196 0
173 197 0
173 197 0
172 195 0
172 196 0
174 197 0
172 195 0
173 197 0
174 196 0
171 194 0
173 197 0
170 193 0
174 197 0
174 197 0
173 197 0
173 197 0
174 198 0
168 192 0
175 197 0
174 198 0
174 197 0
174 198 0
172 196 0
175 198 0
171 195 0
172 195 0
174 197 0
173 196 0
175 197 0
172 195 0
175 198 0
173 197 0
172 195 0
174 197 0
173 197 0
171 194 0
172 195 0
172 196 0
172 196 0
174 197 0
173 197 0
171 194 0
175 197 0
174 198 0
174 197 0
173 196 0
173 196 0
170 194 0
174 197 0
172 195 0
175 197 0
173 197 0
172 196 0
174 198 0
172 195 0
174 197 0
174 197 0
173 197 0
173 196 0
173 196 0
172 195 0
171 195 0
173 196 0
173 197 0
174 196 0
173 196 0
173 195 0
172 195 0
172 194 0
172 196 0
173 197 0
172 195 0
173 196 0
171 195 0
172 195 0
175 197 0
174 197 0
171 195 0
172 196 0
172 195 0
174 196 0
172 195 0
173 196 0
172 196 0
174 196 0
170 194 0
173 196 0
170 193 0
174 197 0
172 196 0
169 193 0
170 194 0
173 196 0
170 193 0
169 193 25
167 190 51
150 174 88
122 149 130
95 124 156
66 102 172
63 99 177
62 99 178
62 98 173
62 99 179
61 98 176
62 99 180
62 99 179
62 99 181
62 99 178
62 99 180
62 99 180
62 99 180
61 99 180
62 99 181
61 98 180
62 99 181
62 99 181
62 99 181
61 99 181
62 99 181
62 99 181
62 99 180
62 99 181
62 99 179
62 99 180
62 99 181
61 99 180
62 99 181
62 99 181
62 99 180
61 99 181
62 99 181
61 98 181
61 99 181
61 98 181
61 99 181
61 99 181
61 99 181
61 99 181
62 99 181
62 99 181
62 99 181
61 98 181
61 99 181
62 99 181
62 99 181
62 99 181
61 99 181
62 99 181
62 99 181
61 99 181
62 99 181
61 99 181
61 99 181
62 99 181
62 99 181
61 99 181
61 99 181
62 99 181
62 99 181
61 99 181
61 99 181
61 99 181
62 99 181
62 99 181
61 98 181
62 99 180
61 99 181
62 99 181
62 99 181
61 99 181
61 98 179
61 99 180
62 99 181
61 99 181
62 99 181
61 99 180
61 99 180
62 99 181
62 99 180
62 99 180
62 99 181
62 99 181
62 99 180
61 98 178
61 98 178
61 98 177
61 98 180
61 98 176
62 99 180
62 99 179
62 98 178
62 99 180
61 98 175
61 98 178
61 98 177
61 98 175
62 98 176
61 97 174
61 98 177
61 98 174
61 97 173
68 102 173
96 123 154
114 137 130
127 150 118
144 166 96
161 182 42
159 177 42
164 180 39
164 182 32
150 162 43
155 168 44
149 161 44
150 157 56
149 156 57
150 154 65
149 150 70
147 147 66
132 133 65
150 144 82
129 125 75
145 139 81
127 124 72
137 134 81
140 136 82
144 139 83
131 127 80
132 128 79
135 132 82
137 135 86
136 134 87
136 133 85
120 119 77
143 140 93
133 131 89
136 134 88
143 140 92
131 131 89
129 127 84
140 137 91
138 137 92
145 142 94
137 136 92
142 140 95
147 145 97
150 148 98
148 145 97
147 144 97
144 143 97
146 144 98
153 150 98
146 144 99
146 145 99
141 139 93
154 152 102
152 150 102
144 144 99
150 148 101
163 160 108
158 155 104
160 158 107
157 155 104
157 155 104
167 163 107
163 160 107
155 153 102
157 155 105
162 160 108
167 164 109
162 159 106
158 155 104
160 157 104
163 160 107
167 163 108
161 158 105
163 161 108
163 160 108
171 168 111
169 165 110
168 165 109
166 163 108
170 167 111
167 164 108
170 166 110
167 165 110
172 169 111
171 168 111
173 169 112
171 167 109
170 166 109
172 168 110
170 167 110
170 166 110
174 169 111
173 169 112
174 169 110
174 169 110
169 165 108
173 169 112
177 172 113
167 164 106
176 171 113
175 170 109
174 169 109
174 169 109
171 168 110
173 169 110
174 170 112
174 170 111
174 168 109
171 167 108
174 169 110
175 169 109
168 164 107
170 165 105
173 169 109
173 169 109
162 158 102
170 165 108
171 165 107
173 168 108
172 168 108
166 162 104
172 168 110
172 168 106
171 166 106
165 161 104
167 163 102
165 161 101
171 167 106
169 164 104
167 162 98
170 165 104
170 165 104
169 163 104
165 160 101
165 158 98
163 158 99
171 164 99
160 155 95
164 158 95
158 153 93
162 156 97
161 156 97
164 159 97
157 152 93
156 152 90
159 153 95
155 149 89
158 152 94
155 149 90
159 153 90
157 151 89
155 149 87
150 145 86
155 149 87
145 139 80
151 145 81
146 140 80
150 144 80
151 145 81
147 143 78
143 141 72
140 139 65
151 155 63
150 155 61
153 161 58
161 172 52
161 172 47
161 177 37
168 186 30
165 186 19
170 193 11
170 193 16
171 195 0
172 195 0
174 198 0
174 198 0
171 196 0
173 197 0
173 196 0
174 198 0
171 194 0
174 197 0
172 196 0
171 195 0
176 198 0
171 194 0
173 197 0
175 198 0
172 196 0
174 197 0
175 198 0
172 196 0
175 198 0
173 196 0
173 196 0
173 195 0
173 196 0
172 196 0
174 197 0
174 198 0
172 195 0
175 198 0
174 198 0
175 198 0
172 195 0
172 196 0
172 196 0
172 195 0
174 197 0
174 197 0
174 198 0
170 194 0
174 197 0
174 197 0
172 196 0
172 195 0
172 195 0
172 196 0
175 198 0
172 196 0
173 196 0
172 196 0
171 195 0
173 196 0
171 194 0
173 197 0
174 198 0
174 197 0
173 197 0
174 197 0
172 195 0
174 197 0
171 195 0
172 196 0
174 197 0
173 196 0
171 195 0
174 197 0
175 198 0
172 195 0
173 196 0
173 196 0
172 195 0
173 196 0
173 196 0
172 195 0
175 197 0
172 196 0
173 197 0
174 198 0
173 196 0
174 197 0
174 197 0
171 194 0
172 196 0
173 196 0
172 196 0
172 196 0
172 195 0
172 195 0
172 195 0
172 195 0
173 197 0
172 195 0
173 196 0
171 193 0
171 194 0
176 199 0
173 195 0
172 196 0
173 196 0
174 196 0
173 197 0
174 197 0
174 197 0
170 194 0
169 193 0
173 196 0
174 197 0
173 197 0
173 197 0
170 193 0
172 196 0
173 196 0
170 193 0
173 196 0
170 194 0
172 195 0
174 197 0
170 193 0
170 194 31
158 182 74
141 165 102
125 151 133
84 115 164
62 99 178
62 99 175
62 99 174
62 99 178
62 99 178
62 99 178
62 99 178
62 99 180
62 99 178
61 99 179
62 99 177
61 98 178
62 99 181
62 99 180
62 99 179
62 99 181
62 99 180
62 99 180
62 99 180
62 99 181
61 99 179
62 99 180
62 99 181
62 99 181
62 99 181
62 99 181
62 99 181
62 99 181
62 99 181
62 99 180
61 99 181
62 99 181
62 99 181
62 99 181
61 99 180
62 99 181
61 98 181
62 99 181
61 98 181
61 98 181
61 99 181
62 99 181
62 99 181
61 99 181
62 99 181
62 99 181
62 99 181
61 99 181
61 99 181
62 99 181
61 98 180
62 99 181
62 99 181
61 99 181
61 98 181
61 99 181
61 99 181
62 99 181
62 99 181
62 99 181
61 98 181
62 99 181
62 99 181
61 99 181
62 99 181
62 99 181
61 99 181
61 99 181
61 99 180
62 99 181
62 99 180
61 99 181
61 99 181
61 98 180
62 99 181
62 99 181
62 99 180
61 99 180
62 99 181
62 99 181
62 99 181
62 99 180
61 99 181
61 98 178
61 98 179
62 99 180
62 99 181
61 99 180
61 98 176
62 98 178
62 99 180
62 99 180
62 99 178
62 99 176
61 99 179
62 99 180
62 99 179
62 99 176
62 99 179
61 98 177
62 98 174
61 98 177
62 98 176
61 98 175
60 96 173
60 96 170
75 107 161
106 132 139
129 152 115
142 159 93
153 170 58
153 169 44
166 179 45
156 170 41
157 168 53
149 160 53
147 152 53
148 154 53
146 153 55
144 145 65
128 130 56
137 136 72
137 132 73
129 125 71
143 138 82
134 130 79
134 129 77
123 122 67
138 134 81
130 127 80
138 135 81
128 125 83
142 139 88
132 129 81
130 129 88
140 137 86
135 133 87
136 134 87
134 132 89
148 144 96
141 140 92
133 133 90
132 130 88
137 134 90
144 141 95
144 143 95
143 140 95
145 142 95
142 139 93
137 136 93
146 145 99
157 154 103
155 152 102
143 142 97
148 146 99
144 143 97
157 153 103
151 149 101
145 143 97
156 153 104
148 147 100
154 151 102
153 151 101
154 152 101
155 152 102
156 153 104
150 147 99
159 156 106
156 153 103
160 159 108
163 160 107
157 155 105
158 155 105
164 161 108
162 159 104
168 165 109
161 159 106
164 161 107
159 157 105
173 169 110
166 163 109
163 160 107
171 167 111
168 165 110
168 165 109
170 166 111
173 169 112
170 166 110
170 167 110
168 165 110
174 169 111
172 168 110
171 167 110
171 167 111
171 168 110
177 172 112
175 170 111
167 163 107
174 169 110
169 165 108
174 170 112
176 170 111
173 168 108
172 168 109
171 168 111
176 171 113
175 170 108
174 169 109
174 169 110
171 168 110
168 164 107
169 166 107
174 169 109
170 167 107
173 168 109
168 164 106
169 164 106
176 171 110
176 170 110
170 165 106
169 165 104
170 166 109
172 167 107
169 163 103
173 168 108
170 165 106
170 166 105
169 163 103
168 163 104
168 163 102
165 161 103
171 166 104
167 162 103
167 163 101
169 164 104
167 161 99
172 167 104
167 161 103
164 160 98
161 156 99
167 162 101
170 164 102
164 159 97
164 159 98
159 154 93
167 161 99
170 164 101
163 158 93
156 150 93
166 159 99
156 150 88
163 157 93
154 148 88
161 154 90
155 150 87
159 152 91
160 153 86
146 140 83
153 147 88
150 145 80
143 138 80
154 148 86
144 137 75
142 136 77
142 137 74
134 132 63
157 154 76
150 153 64
152 156 58
159 168 56
159 171 56
156 167 48
156 173 25
162 179 34
169 187 32
171 194 11
173 194 16
172 195 11
175 197 0
174 197 0
175 198 0
172 196 0
174 197 0
172 196 0
174 198 0
172 195 0
173 197 0
173 196 0
172 196 0
172 195 0
173 197 0
173 196 0
173 197 0
173 196 0
174 198 0
172 196 0
174 198 0
174 198 0
173 197 0
173 196 0
172 196 0
173 196 0
173 196 0
171 196 0
174 197 0
175 198 0
171 194 0
173 196 0
173 195 0
174 197 0
173 196 0
172 196 0
175 198 0
174 198 0
173 197 0
174 197 0
172 196 0
174 197 0
173 197 0
174 197 0
172 196 0
173 197 0
172 194 0
175 197 0
174 197 0
174 198 0
171 195 0
173 197 0
173 196 0
173 197 0
172 195 0
174 197 0
173 196 0
173 196 0
174 197 0
173 196 0
173 196 0
172 195 0
171 195 0
173 197 0
171 195 0
174 198 0
173 196 0
171 195 0
173 196 0
173 196 0
174 197 0
171 194 0
172 196 0
172 195 0
169 193 0
172 196 0
170 194 0
173 195 0
173 197 0
172 195 0
173 197 0
174 197 0
172 196 0
172 195 0
172 195 0
173 196 0
173 197 0
172 195 0
174 197 0
174 196 0
173 197 0
171 195 0
171 195 0
174 197 0
174 198 0
170 194 0
172 197 0
173 196 0
172 196 0
172 195 0
173 197 0
172 196 0
171 194 0
173 196 0
171 195 0
174 197 0
173 197 0
171 195 0
170 193 0
171 193 0
171 194 0
173 197 0
169 193 0
174 197 0
170 193 0
174 196 0
171 193 0
171 195 0
170 193 31
156 180 82
140 164 108
112 140 143
68 103 170
62 99 173
63 100 179
62 99 177
62 99 177
62 99 179
62 99 175
61 99 177
61 99 180
62 99 180
62 99 181
62 99 178
62 99 178
62 99 181
62 99 177
62 99 180
62 99 181
62 99 181
62 99 179
61 99 179
61 99 180
61 99 181
61 98 181
62 99 181
62 99 181
61 99 180
62 99 181
61 99 181
62 99 181
62 99 181
62 99 181
62 99 181
62 99 181
61 99 180
62 99 181
62 99 181
61 99 181
62 99 181
62 99 181
61 98 181
61 99 181
62 99 181
62 99 181
62 99 181
61 98 181
62 99 181
61 98 181
61 99 181
61 99 181
61 99 181
62 99 181
62 99 181
61 99 181
62 99 181
61 98 181
61 99 181
61 98 181
61 98 181
61 99 181
61 99 181
61 98 181
61 99 181
61 99 181
61 98 181
62 99 181
61 99 181
62 99 180
61 99 181
62 99 181
61 99 181
61 99 180
61 98 181
62 99 181
61 99 179
61 98 181
61 99 180
61 99 180
61 98 179
62 99 181
62 99 181
62 99 181
61 98 181
61 98 179
61 99 180
62 99 181
62 98 178
62 99 178
61 99 181
62 98 176
62 99 181
61 98 177
62 98 179
62 99 180
62 99 180
61 97 177
62 99 179
61 98 177
61 98 178
62 99 178
61 98 176
63 99 179
61 97 176
61 97 178
62 99 178
61 97 173
61 98 176
62 98 174
61 97 172
61 96 171
69 101 163
94 122 150
117 138 131
130 150 109
143 158 80
160 171 53
153 168 37
159 169 54
148 156 48
147 151 57
146 151 56
136 140 51
137 136 63
138 138 62
140 136 70
139 135 73
140 136 82
139 136 78
137 133 81
122 120 74
140 136 83
147 143 92
133 130 78
134 131 82
137 134 86
136 133 83
135 132 84
131 129 82
134 132 87
135 133 85
144 141 91
153 148 97
147 144 92
144 141 93
149 145 97
149 146 97
140 137 92
143 141 94
138 136 93
134 133 91
145 143 97
135 135 94
149 147 98
136 135 92
142 140 95
144 143 96
144 142 97
152 149 98
146 144 98
150 147 100
147 146 99
151 149 101
144 143 98
152 149 101
158 155 104
153 151 103
154 152 102
158 156 105
162 159 106
159 156 104
161 159 105
160 157 105
157 155 104
165 162 107
161 159 106
166 163 109
161 158 103
159 157 106
166 163 109
158 157 107
162 159 106
163 160 106
166 163 108
166 163 106
167 163 107
171 167 110
168 165 109
163 161 107
168 164 109
168 164 108
172 168 110
166 163 108
169 166 110
170 165 108
171 167 110
174 170 111
172 167 109
172 168 111
173 168 108
174 169 111
169 165 107
172 168 109
171 167 109
172 168 108
172 168 110
170 167 108
175 170 111
175 171 112
178 172 110
174 170 109
174 170 111
172 167 108
173 169 110
176 170 109
174 169 109
176 171 108
172 168 107
174 170 110
171 167 105
174 170 108
173 168 107
174 170 109
168 165 106
170 165 106
169 166 108
170 166 105
167 162 103
165 161 99
167 163 104
168 163 105
170 165 105
168 163 106
172 166 104
171 166 104
172 166 103
167 162 103
169 164 104
170 165 101
168 164 104
169 164 103
171 166 106
163 157 99
163 159 102
159 154 95
166 160 101
164 158 98
168 162 101
161 154 95
159 153 94
157 152 94
162 156 93
161 155 95
158 152 91
160 154 95
166 159 96
160 153 92
149 143 87
160 154 94
154 149 84
157 151 89
145 140 81
152 146 83
149 144 85
153 146 81
154 148 85
151 145 84
139 133 74
148 143 79
148 143 73
154 152 77
147 147 68
152 155 64
155 163 58
159 169 48
160 173 44
161 176 39
166 184 30
164 183 32
167 187 28
170 190 25
174 197 0
172 195 0
173 197 0
174 197 0
174 197 0
174 197 0
174 197 0
174 197 0
172 196 0
175 198 0
172 196 0
176 198 0
172 196 0
173 197 0
174 198 0
173 196 0
172 196 0
173 197 0
171 195 0
174 197 0
171 193 0
174 197 0
175 198 0
174 198 0
173 196 0
170 194 0
172 196 0
173 197 0
173 196 0
173 196 0
173 197 0
174 197 0
171 195 0
174 197 0
171 194 0
174 197 0
175 198 0
174 197 0
174 198 0
172 196 0
173 197 0
172 195 0
175 198 0
175 198 0
174 197 0
173 197 0
173 197 0
172 196 0
175 198 0
172 196 0
171 196 0
173 197 0
174 197 0
174 197 0
171 195 0
172 195 0
173 197 0
173 196 0
172 197 0
172 195 0
173 196 0
174 198 0
171 195 0
173 197 0
174 197 0
173 196 0
174 198 0
173 196 0
172 196 0
170 194 0
173 197 0
173 196 0
172 196 0
171 196 0
174 198 0
171 194 0
172 195 0
175 198 0
171 195 0
173 196 0
174 197 0
174 197 0
173 196 0
173 197 0
173 196 0
173 196 0
174 197 0
172 195 0
172 195 0
173 196 0
173 197 0
174 197 0
172 195 0
174 197 0
172 196 0
171 195 0
172 195 0
170 194 0
174 197 0
172 195 0
173 196 0
172 195 0
174 198 0
172 196 0
173 196 0
172 196 0
171 195 0
169 192 0
170 194 0
172 195 0
172 196 0
174 198 0
170 194 0
172 195 0
173 196 0
169 192 0
169 193 36
153 177 84
143 168 102
95 124 153
73 106 169
62 99 175
62 99 177
63 99 177
62 99 177
62 99 175
62 99 178
61 98 177
63 100 179
62 99 177
62 99 181
62 99 181
61 98 176
62 99 180
62 99 179
62 99 179
62 99 179
62 99 180
61 98 179
62 99 181
62 99 180
62 99 179
62 99 181
62 99 180
62 99 179
61 98 181
61 98 180
61 99 179
62 99 181
62 99 181
61 98 181
62 99 181
61 99 181
62 99 181
61 98 181
62 99 181
62 99 181
61 99 181
61 99 181
62 99 181
61 99 181
61 99 181
61 99 181
62 99 181
61 99 181
62 99 181
63 100 181
61 99 181
62 99 181
61 99 181
61 99 181
62 99 181
62 99 181
61 99 181
61 98 181
62 99 181
62 99 181
62 99 181
62 99 180
61 99 181
61 99 181
62 99 181
61 98 181
61 99 181
61 99 181
62 99 181
62 99 181
62 99 181
62 99 181
61 99 181
61 99 180
61 99 181
62 99 181
61 99 180
62 99 180
62 99 181
61 99 181
61 98 179
61 98 180
62 99 180
62 99 180
62 99 181
62 99 180
61 99 180
61 99 181
62 99 181
62 99 179
61 99 181
61 98 180
62 99 180
61 99 181
61 98 178
62 99 181
62 99 180
61 98 178
62 99 176
62 98 179
62 99 176
61 98 176
62 99 181
62 98 177
61 98 175
62 98 176
62 99 176
62 99 176
62 98 173
61 98 176
62 98 175
61 97 176
62 98 174
62 98 179
67 100 168
87 112 154
124 142 123
130 146 110
142 157 83
142 156 64
154 164 53
153 164 53
142 146 62
147 152 60
146 148 63
134 137 57
142 142 71
133 130 71
128 126 71
133 128 70
137 133 81
136 132 74
129 126 76
135 131 79
133 130 78
132 129 80
138 134 81
140 137 87
140 136 87
138 135 88
137 134 87
136 134 81
129 128 83
139 137 87
148 145 90
133 130 85
145 143 95
139 137 93
138 136 91
142 139 93
142 140 93
148 146 96
138 138 94
147 145 99
144 141 94
148 146 98
142 141 97
136 135 92
137 136 91
142 141 97
143 142 98
157 155 104
146 145 99
156 153 102
154 152 103
156 153 103
153 151 102
154 151 102
157 155 102
148 147 99
155 154 104
150 149 100
155 153 103
159 156 104
161 158 106
166 162 109
158 157 106
161 158 106
164 161 108
161 159 106
167 163 109
157 155 104
168 165 111
168 165 109
160 158 106
166 161 107
164 161 106
170 167 108
171 166 109
167 164 107
171 167 110
176 171 112
172 168 110
170 165 108
168 165 109
169 165 109
171 167 109
170 166 109
171 167 106
177 172 113
174 170 110
171 168 110
173 169 111
171 167 107
174 169 109
172 168 109
173 168 108
172 168 110
174 170 112
176 171 109
172 169 110
170 167 108
176 171 111
171 167 108
172 167 110
170 167 105
174 169 111
174 169 111
173 168 107
174 169 110
172 168 108
172 167 108
174 169 110
170 166 106
174 169 109
173 169 109
175 170 109
173 168 106
170 166 105
172 168 108
172 167 109
172 167 109
170 165 105
171 166 104
168 163 104
167 162 103
173 168 109
167 162 102
166 161 104
165 160 102
167 161 99
169 163 102
170 164 104
165 161 100
167 161 99
157 152 94
162 156 95
167 161 100
164 159 96
163 159 96
159 154 93
160 154 93
166 159 101
160 155 94
153 148 88
164 158 95
158 152 93
165 159 95
153 148 88
160 155 91
159 154 85
154 147 86
154 147 82
155 148 85
162 156 95
147 142 80
152 145 86
155 149 87
152 146 80
151 145 80
148 142 78
147 143 75
154 152 73
151 155 61
148 153 59
155 161 56
150 159 54
158 170 48
162 179 30
155 172 25
167 187 22
169 188 30
169 188 19
175 197 11
173 196 0
173 196 0
173 196 0
172 196 0
174 197 0
173 196 0
174 197 0
173 196 0
174 197 0
172 196 0
173 196 0
174 197 0
173 197 0
171 195 0
175 198 0
173 197 0
172 196 0
171 194 0
172 196 0
175 198 0
174 198 0
173 196 0
174 197 0
173 196 0
174 197 0
172 196 0
174 197 0
176 198 0
173 196 0
174 197 0
171 195 0
174 197 0
172 196 0
174 197 0
173 197 0
173 196 0
174 197 0
171 195 0
174 198 0
174 198 0
172 196 0
173 195 0
173 197 0
172 196 0
171 195 0
174 197 0
173 197 0
175 198 0
172 196 0
173 196 0
172 196 0
173 196 0
173 196 0
175 198 0
173 196 0
172 196 0
174 196 0
172 196 0
172 196 0
174 197 0
174 197 0
174 198 0
172 196 0
172 196 0
175 198 0
171 194 0
175 198 0
173 196 0
172 196 0
173 196 0
172 194 0
173 196 0
172 195 0
173 196 0
173 197 0
173 196 0
172 196 0
173 197 0
171 195 0
172 196 0
172 196 0
171 194 0
171 194 0
170 194 0
173 196 0
173 196 0
173 196 0
175 198 0
171 195 0
171 194 0
174 197 0
172 195 0
174 196 0
172 197 0
172 196 0
168 193 0
169 193 0
172 196 0
169 192 0
173 197 0
172 195 0
173 196 0
170 193 0
171 195 0
168 191 0
171 195 0
171 193 0
173 196 0
176 198 0
172 196 0
173 196 0
173 197 0
173 195 0
175 196 0
170 193 31
152 176 92
127 153 127
104 132 145
64 101 174
62 99 174
62 99 175
62 99 180
62 99 178
62 99 180
62 99 178
62 99 180
63 100 180
61 99 178
62 99 180
62 99 179
62 99 179
61 98 176
62 99 179
61 99 180
62 99 177
61 98 178
62 99 180
62 99 178
62 99 180
62 99 181
62 99 179
62 99 181
61 98 180
61 99 180
61 99 181
62 99 181
61 99 180
62 99 180
62 99 180
62 99 178
61 99 181
62 99 181
62 99 181
61 99 180
61 99 181
61 99 181
61 98 181
61 99 181
62 99 181
62 99 181
61 99 181
62 99 180
62 99 181
61 99 181
62 99 181
63 100 181
61 98 180
62 99 181
62 99 181
61 98 181
61 98 181
62 99 181
61 99 181
62 99 181
61 98 181
61 98 181
62 99 180
62 99 181
61 99 181
61 99 181
62 99 180
61 98 181
62 99 181
62 99 180
61 99 181
61 99 181
62 99 181
61 98 181
62 99 181
62 99 181
62 99 181
62 99 181
62 99 181
61 99 180
61 99 181
61 99 181
61 98 180
62 99 181
62 99 180
62 99 180
62 99 180
61 99 181
61 99 180
62 99 179
61 99 180
61 98 178
61 98 178
61 98 180
62 99 179
62 99 179
62 99 181
62 99 179
61 98 179
61 98 179
62 98 177
62 99 180
61 98 178
62 98 176
61 97 172
62 99 175
61 98 176
62 99 177
61 98 176
62 99 177
62 99 178
62 98 176
61 97 172
62 98 176
61 98 175
62 98 174
61 97 173
63 98 170
86 113 162
107 128 132
127 143 104
134 148 101
138 147 67
152 157 62
148 152 64
145 150 60
142 145 60
143 146 62
138 136 67
122 119 65
126 123 72
138 133 74
122 120 70
135 132 83
125 122 73
132 129 81
142 139 86
129 126 81
126 125 79
125 123 79
136 134 88
139 136 90
135 132 85
129 128 85
142 139 89
127 125 84
130 128 83
140 138 92
136 134 89
137 135 90
144 142 94
135 133 90
124 124 86
135 134 91
142 140 94
123 123 85
138 137 94
136 136 95
143 142 96
141 139 94
142 141 96
144 143 97
152 149 101
142 142 98
147 144 97
148 146 97
146 146 100
147 146 100
146 144 99
152 150 101
157 155 105
162 158 106
154 151 101
156 153 104
151 150 100
157 155 104
159 156 103
161 159 107
164 161 107
161 159 104
163 159 106
159 158 107
166 164 110
166 163 108
168 164 108
163 161 107
161 158 104
167 164 109
167 164 109
166 162 108
165 161 106
167 164 108
167 164 106
171 167 107
168 164 108
172 168 111
169 166 110
173 170 111
173 169 113
168 166 111
171 167 108
170 166 109
170 166 107
175 170 110
172 168 108
173 168 109
174 170 111
172 168 110
175 170 111
171 167 108
178 172 111
175 169 108
176 171 109
174 170 111
172 168 109
168 165 108
174 169 108
174 169 110
175 170 108
172 168 110
175 170 109
170 165 105
171 167 108
175 169 108
172 167 106
172 167 108
174 168 108
171 166 108
173 168 108
172 167 108
174 170 109
173 168 108
171 166 108
173 168 108
167 163 104
165 161 103
170 165 105
172 167 107
165 161 103
174 168 106
169 164 99
167 162 101
171 164 104
165 160 101
170 165 103
161 157 97
174 168 103
158 153 94
165 159 99
160 155 93
158 152 92
167 161 101
161 156 97
161 156 90
157 152 93
164 158 97
157 151 89
160 154 91
162 156 93
163 156 95
163 156 97
159 153 87
161 154 89
159 153 90
160 154 91
153 148 88
146 139 81
156 149 86
144 139 80
149 144 85
145 139 75
138 132 76
145 139 77
146 141 73
147 143 75
149 149 68
141 146 58
153 160 57
155 163 54
158 170 41
158 170 49
163 179 34
167 186 28
165 184 25
172 193 19
171 195 0
174 197 0
172 196 0
174 197 0
174 196 0
174 197 0
173 197 0
173 197 0
174 198 0
171 194 0
175 198 0
175 198 0
172 195 0
174 198 0
172 195 0
173 197 0
174 197 0
175 198 0
172 196 0
172 196 0
173 196 0
172 196 0
174 197 0
175 198 0
172 195 0
174 198 0
174 197 0
172 196 0
173 195 0
172 195 0
172 195 0
173 196 0
172 196 0
171 195 0
173 197 0
175 198 0
171 195 0
169 193 0
175 198 0
170 194 0
175 198 0
173 196 0
172 195 0
172 196 0
174 197 0
174 197 0
174 197 0
173 196 0
170 194 0
173 197 0
170 194 0
171 195 0
172 197 0
174 197 0
174 197 0
172 196 0
174 197 0
172 195 0
172 196 0
174 197 0
169 193 0
171 195 0
172 196 0
171 195 0
173 196 0
171 194 0
169 192 0
171 195 0
170 194 0
173 197 0
172 196 0
173 196 0
176 199 0
171 194 0
175 197 0
171 195 0
171 195 0
172 196 0
174 196 0
171 195 0
170 194 0
174 196 0
171 195 0
173 197 0
173 197 0
172 196 0
172 196 0
172 195 0
173 197 0
172 196 0
175 198 0
172 195 0
170 193 0
175 197 0
171 195 0
173 196 0
171 195 0
171 194 0
171 194 0
172 195 0
172 195 0
170 194 0
169 193 0
173 196 0
172 196 0
171 195 0
172 196 0
170 194 0
175 197 0
169 192 0
170 193 0
174 197 0
174 197 0
173 196 18
165 188 44
156 180 76
122 148 131
79 111 162
62 99 172
62 99 174
61 99 179
62 99 175
63 99 176
62 99 181
62 99 177
62 99 178
62 99 179
62 99 180
62 99 181
62 99 179
62 99 179
62 99 181
62 99 181
62 99 179
61 98 180
62 99 178
62 99 181
62 99 180
62 99 181
62 99 181
62 99 179
62 99 181
62 99 181
61 99 181
62 99 181
61 99 181
62 99 181
61 99 181
62 99 180
62 99 181
62 99 180
63 100 181
61 98 181
62 99 180
61 99 181
62 99 180
62 99 180
62 99 181
61 99 181
62 99 181
63 100 181
62 99 181
61 99 181
62 99 181
61 98 180
62 99 181
62 99 181
61 98 180
61 99 181
61 99 180
62 99 180
61 98 180
61 99 181
61 99 180
62 99 181
61 98 181
61 98 181
62 99 181
61 99 181
61 99 181
62 99 181
61 99 181
61 98 181
62 99 181
62 99 181
62 99 181
62 99 181
61 99 181
62 99 179
61 99 180
62 99 179
61 99 181
62 99 180
62 99 180
62 99 181
61 99 181
62 99 181
62 99 181
62 99 181
62 99 181
61 99 181
62 99 181
61 99 181
62 99 180
62 99 181
62 99 181
61 98 178
62 99 181
62 99 180
62 99 179
62 99 179
62 99 180
62 99 181
62 99 181
61 98 176
61 99 178
62 99 180
62 99 180
62 99 178
62 99 178
61 98 175
62 99 178
63 99 178
62 98 176
61 97 173
61 98 177
61 97 174
62 98 175
61 97 173
62 98 172
62 98 173
61 96 172
61 97 171
60 96 169
78 107 162
103 123 132
121 132 116
140 152 93
143 152 60
145 149 56
136 140 57
146 150 63
132 133 59
135 134 68
134 131 74
141 138 79
136 131 71
141 135 77
136 132 80
138 135 81
136 132 83
128 126 77
127 126 79
129 126 83
132 130 84
141 138 87
117 116 74
132 129 84
144 141 94
123 122 82
131 130 87
134 133 90
136 135 91
133 132 91
128 128 84
131 130 89
138 137 93
142 139 92
140 139 95
142 139 93
144 142 96
144 142 96
139 139 96
140 139 95
143 143 97
149 148 101
148 146 98
154 151 101
145 144 98
148 147 101
143 141 96
146 145 99
145 143 97
156 153 102
150 149 100
156 154 103
161 158 106
153 150 100
158 154 103
153 152 102
155 153 104
154 152 102
162 159 105
160 158 106
161 157 102
159 156 104
160 157 104
163 160 104
164 161 108
165 163 109
159 157 105
164 161 108
168 164 109
167 165 110
165 161 107
174 168 110
166 162 108
173 168 110
167 164 105
173 169 111
169 165 108
166 163 108
174 169 109
175 171 111
173 169 110
173 168 110
170 167 109
173 168 110
173 169 110
168 164 108
176 170 111
173 168 108
174 170 109
172 168 105
173 169 109
174 169 107
176 171 110
171 167 108
173 169 108
174 170 109
175 170 108
175 169 107
173 168 108
173 169 108
177 171 108
177 171 110
174 169 109
173 167 106
173 168 107
176 171 110
173 169 108
172 167 107
171 166 108
176 171 111
172 168 106
172 166 104
170 165 106
173 168 110
174 169 104
174 169 108
165 160 100
172 166 103
171 166 105
166 162 103
171 165 104
170 165 103
167 162 101
176 170 104
165 159 98
169 163 102
166 161 100
165 160 102
166 160 95
164 158 96
170 164 103
161 156 96
160 155 91
171 165 100
167 161 97
162 156 97
159 153 91
159 154 94
161 155 94
161 155 90
157 152 92
152 148 87
170 163 99
149 143 86
161 155 93
157 149 89
157 152 84
163 155 91
160 153 89
154 147 81
153 147 82
145 139 77
147 142 77
137 132 74
147 142 74
146 144 63
140 141 66
142 145 58
154 158 61
155 164 57
153 164 45
153 165 41
160 176 36
162 180 22
165 183 19
170 191 11
172 195 11
172 193 11
172 195 0
171 195 0
175 198 0
176 198 0
172 196 0
174 197 0
174 197 0
175 198 0
173 197 0
174 197 0
174 198 0
173 197 0
173 196 0
174 197 0
173 197 0
174 197 0
174 197 0
172 196 0
172 196 0
173 196 0
174 197 0
174 198 0
173 197 0
171 194 0
172 196 0
173 197 0
173 197 0
175 198 0
172 195 0
172 196 0
174 197 0
172 196 0
173 197 0
170 194 0
170 194 0
175 198 0
174 197 0
174 198 0
172 196 0
173 196 0
173 197 0
173 196 0
172 195 0
174 196 0
171 195 0
174 197 0
174 197 0
173 197 0
172 196 0
174 197 0
173 197 0
172 195 0
175 198 0
170 193 0
174 197 0
172 196 0
172 196 0
175 198 0
170 193 0
170 194 0
175 197 0
175 198 0
174 198 0
174 197 0
175 198 0
175 197 0
176 199 0
171 194 0
173 196 0
169 192 0
176 198 0
175 198 0
173 197 0
174 198 0
172 195 0
172 195 0
171 194 0
171 195 0
171 194 0
171 195 0
173 196 0
169 193 0
170 194 0
174 197 0
171 194 0
171 195 0
171 195 0
175 198 0
171 194 0
171 194 0
173 197 0
173 196 0
172 195 0
170 194 0
171 194 0
172 195 0
171 195 0
173 196 0
171 195 0
176 198 0
169 194 0
173 196 0
171 194 0
173 196 0
170 193 0
174 197 0
172 195 0
171 194 0
173 196 0
172 195 0
171 194 18
167 191 40
145 169 99
127 152 122
85 116 164
63 100 177
63 99 180
62 99 179
61 98 176
62 99 177
62 99 179
62 99 179
62 99 178
62 99 177
62 99 179
61 99 180
62 99 180
62 99 179
62 99 177
61 98 179
62 99 179
62 99 180
62 99 179
61 98 179
63 100 181
61 99 179
62 99 179
61 98 177
61 99 179
61 99 180
62 99 180
62 99 181
62 99 179
61 99 181
62 99 180
62 99 181
62 99 180
62 99 181
62 99 181
61 98 181
62 99 181
62 99 181
62 99 181
61 99 180
62 99 181
62 99 181
61 99 181
62 99 181
62 99 181
62 99 181
62 99 181
62 99 180
62 99 181
62 99 180
61 99 181
62 99 181
62 99 181
62 99 181
61 99 181
62 99 181
61 98 181
61 99 180
61 98 180
61 99 181
61 98 181
62 99 181
62 99 180
61 99 181
62 99 181
61 99 181
61 99 181
62 99 180
61 99 181
61 98 179
62 99 181
61 98 180
62 99 181
61 99 180
62 99 180
61 99 181
62 99 180
62 99 181
61 99 180
62 99 181
61 98 180
62 99 181
62 99 180
62 99 180
62 99 181
62 99 178
61 99 181
61 99 181
61 99 180
62 99 180
62 99 180
62 99 180
62 99 181
61 98 178
61 98 180
61 98 178
61 99 180
62 99 179
62 99 180
62 99 176
62 99 181
62 99 180
62 99 178
62 99 179
62 99 177
62 98 177
62 99 176
61 98 175
62 99 177
61 97 173
62 98 176
62 98 177
62 99 178
61 97 175
61 97 172
61 98 173
61 97 170
61 97 171
60 95 170
67 100 167
95 115 148
113 129 122
131 141 103
138 142 68
137 144 59
143 145 65
144 145 67
146 144 76
137 134 71
137 133 76
134 130 76
131 128 74
134 131 77
130 127 76
128 125 78
135 133 82
132 129 82
128 126 79
129 127 82
126 126 81
129 128 82
125 122 79
124 123 82
131 131 88
120 120 83
138 136 93
137 136 92
147 144 96
131 130 89
129 130 90
128 128 87
135 135 94
144 143 95
130 129 89
136 135 95
138 137 95
138 137 94
139 137 94
134 134 94
152 150 102
136 137 97
138 138 96
147 145 97
147 146 100
152 149 99
144 142 96
146 146 100
147 145 98
151 150 103
152 150 101
145 144 97
157 154 104
154 152 103
146 145 99
157 154 104
149 148 100
161 159 107
165 162 107
164 160 105
160 157 106
166 162 106
167 162 106
166 163 108
169 166 110
164 161 105
165 162 107
163 159 103
168 165 109
169 165 109
163 160 104
167 164 108
166 162 107
169 166 109
165 162 107
169 165 106
168 165 109
173 168 110
166 163 106
174 170 109
171 167 108
171 167 110
170 166 107
176 171 111
172 168 111
172 168 109
171 167 107
174 170 108
170 166 108
175 170 110
174 169 110
172 168 109
175 170 112
176 171 108
175 171 110
173 168 110
173 169 108
174 169 107
177 172 109
173 168 105
176 171 112
172 168 108
174 169 107
175 169 105
177 171 110
174 170 109
173 168 106
173 168 106
169 165 106
171 166 101
172 167 108
173 168 106
169 164 106
168 163 101
174 168 106
171 166 104
169 164 103
171 167 107
166 162 102
169 164 103
171 166 104
168 164 102
172 166 104
161 156 95
170 165 104
166 161 103
164 159 96
163 158 97
164 159 95
162 156 95
165 160 97
167 161 93
165 160 101
157 152 91
164 159 93
160 155 90
160 153 95
159 153 91
162 157 93
162 156 91
152 146 88
162 156 94
165 159 96
156 150 84
162 155 93
153 147 80
139 133 75
153 147 84
156 150 87
150 146 81
153 147 80
144 139 79
146 139 75
146 140 75
144 139 75
154 154 70
151 151 66
158 164 57
159 166 57
160 171 45
164 173 58
160 176 34
156 172 28
169 187 36
166 185 32
171 194 0
173 195 0
172 196 0
172 196 0
173 196 0
170 193 0
171 195 0
174 197 0
173 196 0
172 196 0
173 196 0
173 197 0
173 196 0
174 197 0
171 194 0
173 196 0
175 198 0
173 196 0
172 196 0
174 197 0
173 197 0
174 197 0
173 196 0
173 197 0
169 193 0
173 196 0
173 196 0
173 196 0
173 196 0
172 195 0
172 196 0
173 196 0
176 198 0
172 196 0
173 196 0
172 195 0
172 195 0
174 197 0
170 194 0
174 198 0
174 197 0
173 197 0
173 195 0
172 196 0
171 195 0
172 196 0
173 197 0
173 196 0
175 198 0
172 196 0
172 196 0
173 196 0
173 196 0
174 198 0
174 197 0
175 198 0
173 196 0
172 195 0
172 195 0
171 194 0
172 195 0
174 197 0
171 195 0
172 196 0
174 197 0
172 195 0
174 197 0
175 198 0
172 195 0
173 196 0
170 194 0
172 195 0
174 197 0
172 196 0
170 194 0
170 194 0
172 195 0
171 193 0
172 195 0
173 196 0
173 196 0
172 195 0
174 197 0
171 196 0
174 197 0
171 194 0
174 197 0
171 194 0
175 198 0
172 196 0
174 197 0
175 197 0
168 192 0
171 194 0
173 196 0
173 197 0
173 195 0
171 195 0
171 195 0
170 194 0
170 193 0
172 195 0
172 195 0
171 194 0
174 197 0
172 196 0
172 194 0
173 196 0
174 197 0
172 196 0
172 195 0
172 195 0
162 186 57
146 170 102
120 146 133
73 107 169
62 99 175
62 99 173
62 99 176
63 99 179
62 99 177
62 99 176
62 99 178
62 99 177
62 99 178
62 99 178
62 99 175
63 100 181
63 100 181
62 99 179
62 99 177
62 99 180
62 99 179
63 100 181
62 99 179
62 99 181
61 99 178
62 99 181
62 99 180
62 99 179
62 99 181
61 98 180
62 99 181
62 99 181
62 99 179
61 99 180
62 99 181
61 99 181
62 99 181
61 99 180
62 99 180
61 99 181
61 98 181
62 99 181
61 99 181
62 99 181
62 99 180
61 99 179
62 99 181
62 99 181
62 99 181
62 99 181
63 100 181
62 99 180
62 100 181
62 99 181
61 98 181
62 99 181
61 99 181
62 99 180
62 99 181
62 99 181
62 99 181
62 99 181
61 99 181
62 99 181
61 99 181
61 99 181
61 98 181
61 99 181
62 99 181
62 99 181
62 99 181
61 99 181
62 99 181
62 99 181
62 99 181
61 99 180
62 99 180
62 99 181
62 99 180
61 98 181
62 99 181
61 99 181
61 99 180
62 99 180
62 99 181
62 99 181
62 99 180
62 99 180
62 99 180
61 98 179
62 99 181
62 99 181
62 99 178
62 99 181
62 99 180
62 99 181
61 98 180
62 99 177
62 99 180
61 99 179
62 99 180
61 98 176
62 99 177
62 99 177
62 99 180
62 98 178
62 99 178
62 99 180
62 99 177
62 99 177
61 98 176
62 99 176
61 98 172
61 98 177
61 97 174
62 99 178
62 98 174
62 99 178
61 98 178
62 98 176
61 97 174
61 97 169
61 98 174
63 97 172
68 99 166
87 107 141
106 120 119
125 132 105
137 139 78
142 143 65
145 144 73
136 134 71
127 123 67
123 120 67
132 129 77
131 128 73
132 127 76
131 129 77
119 117 73
134 131 81
134 131 85
120 118 70
134 132 85
124 121 77
131 130 84
122 121 82
123 123 83
126 125 83
126 125 83
125 123 82
135 133 90
136 134 90
127 127 87
128 129 87
130 130 91
131 130 85
139 138 94
136 134 91
141 139 92
132 132 89
138 138 94
132 132 92
131 131 92
147 146 101
144 142 98
145 143 98
144 143 97
149 147 100
139 138 95
152 151 102
143 142 97
141 142 98
146 145 99
143 143 97
149 147 100
157 154 103
156 154 103
163 159 104
152 150 103
156 154 102
159 156 104
164 161 108
156 154 103
153 151 100
162 160 106
163 160 107
160 157 104
160 157 103
166 162 107
165 162 105
167 163 107
166 164 108
164 162 108
168 165 107
163 160 108
173 168 109
168 164 106
161 159 106
169 165 108
169 166 106
171 167 109
168 165 108
170 167 109
174 170 111
174 169 110
174 169 110
172 168 109
172 168 108
174 169 107
168 164 106
172 168 108
177 172 111
173 169 109
169 164 104
170 166 106
169 167 109
176 172 113
165 162 101
170 166 107
173 168 107
176 170 108
173 168 106
175 170 108
174 169 107
174 169 109
175 170 109
174 168 104
172 168 110
172 167 104
173 168 108
174 168 108
172 167 103
173 168 106
172 167 107
171 166 105
172 168 105
166 162 102
168 163 103
168 163 102
170 164 104
168 163 103
165 161 101
169 163 101
169 165 100
168 163 102
166 161 97
162 157 98
170 165 102
169 163 101
168 163 102
163 158 95
171 164 101
164 159 97
172 165 100
164 158 97
164 158 97
165 160 98
158 153 93
155 149 87
157 152 87
158 152 90
164 158 94
163 157 94
161 155 93
161 156 90
155 150 89
155 149 83
164 157 89
156 150 84
154 148 85
155 150 84
154 148 83
152 146 80
144 139 77
133 128 68
144 138 72
142 136 75
147 143 66
150 149 71
136 138 53
147 152 58
152 157 56
149 159 41
162 174 48
164 179 37
161 178 30
166 184 32
165 186 19
170 191 11
167 189 11
175 198 0
174 197 0
175 198 0
173 196 0
174 197 0
173 196 0
171 195 0
175 197 0
176 198 0
171 195 0
171 195 0
173 197 0
173 196 0
170 194 0
174 197 0
173 197 0
175 198 0
172 196 0
172 196 0
170 193 0
174 197 0
173 196 0
173 197 0
170 194 0
171 194 0
171 196 0
172 196 0
174 197 0
172 196 0
176 198 0
173 197 0
170 194 0
173 197 0
170 194 0
172 195 0
172 196 0
173 197 0
172 196 0
172 195 0
172 196 0
170 194 0
174 197 0
172 196 0
172 195 0
173 197 0
174 196 0
173 197 0
174 197 0
171 195 0
171 194 0
173 196 0
174 197 0
174 197 0
174 197 0
173 196 0
174 197 0
173 196 0
174 197 0
173 197 0
173 197 0
172 196 0
173 196 0
173 196 0
172 196 0
171 195 0
170 193 0
171 194 0
171 195 0
172 195 0
174 197 0
171 195 0
172 195 0
171 195 0
171 195 0
172 196 0
172 196 0
172 196 0
172 195 0
172 195 0
172 196 0
176 199 0
172 195 0
172 196 0
175 198 0
174 197 0
173 197 0
173 196 0
170 193 0
171 194 0
175 198 0
171 194 0
172 195 0
170 194 0
172 195 0
173 195 0
170 193 0
174 197 0
173 196 0
171 195 0
172 195 0
173 196 0
171 195 0
170 194 0
171 194 0
172 195 0
171 195 0
171 195 0
171 194 0
170 194 0
166 190 47
148 172 92
112 140 140
77 110 164
62 99 174
62 99 174
62 99 173
62 99 176
62 99 175
62 99 175
61 98 173
62 99 177
63 100 181
62 99 175
63 99 178
62 99 175
62 99 181
62 99 177
63 99 180
62 99 179
62 99 179
62 99 180
62 99 179
62 99 180
61 98 180
62 99 180
61 98 181
61 98 178
62 99 179
62 99 179
62 99 181
62 99 178
62 99 180
62 99 179
62 99 180
62 99 181
61 99 181
61 99 181
62 99 181
61 99 181
62 99 180
62 99 180
61 99 181
62 99 181
62 99 180
62 99 181
62 99 180
62 99 180
61 99 180
62 99 180
62 99 181
61 99 181
61 99 181
61 99 181
61 99 180
62 99 181
61 99 181
61 99 180
62 99 180
62 99 181
61 99 181
62 99 181
61 99 181
62 99 181
62 99 181
62 99 181
62 99 180
63 100 181
62 99 181
62 99 181
62 99 181
62 99 181
62 99 181
62 99 181
62 99 181
62 99 181
61 98 180
62 99 178
61 99 180
62 99 181
62 99 181
62 99 181
62 99 181
62 99 180
62 99 181
62 99 181
62 99 181
62 99 180
62 99 180
61 98 177
62 99 180
62 99 179
62 99 180
62 99 180
61 98 178
62 99 179
62 99 180
61 98 178
62 99 180
62 99 180
61 98 178
62 99 180
61 99 178
62 99 179
61 99 179
62 99 179
62 99 178
62 99 176
62 99 178
62 99 176
63 100 179
62 99 176
62 99 176
61 98 173
61 97 172
61 98 175
62 98 175
61 98 177
61 97 173
61 97 169
61 98 172
61 97 171
61 98 175
62 98 176
61 97 171
61 97 173
72 101 166
84 105 146
110 122 116
127 133 92
137 142 80
138 136 71
131 130 61
130 128 70
117 115 69
128 125 71
124 121 65
132 128 80
127 126 78
120 118 70
137 134 84
118 116 71
117 115 72
125 124 80
131 129 84
121 119 77
125 124 84
117 117 79
130 129 86
125 124 83
126 125 86
129 129 87
135 134 93
131 131 89
133 131 89
130 129 88
132 130 89
135 134 93
135 134 92
133 132 91
146 144 96
140 139 95
138 137 93
138 136 90
143 142 97
136 136 94
141 140 95
132 132 92
146 145 99
141 140 96
140 140 95
148 146 98
143 143 100
150 148 99
140 140 98
150 150 102
156 153 102
153 150 101
163 161 106
152 151 102
161 158 104
151 149 100
156 154 102
160 158 104
156 154 103
159 158 106
160 157 104
166 162 108
162 160 106
157 155 105
162 159 104
161 159 106
162 159 105
169 165 109
168 165 106
165 162 106
165 162 106
163 160 103
167 164 105
168 165 108
167 164 107
173 169 109
171 168 109
171 167 108
174 169 109
177 172 112
173 168 108
171 167 108
173 168 108
172 167 108
173 169 108
175 170 111
172 169 107
174 170 111
172 167 107
172 167 108
175 170 109
175 170 110
173 169 108
176 170 108
174 169 108
171 166 106
171 167 107
173 168 108
175 171 109
176 171 108
174 169 106
168 164 102
174 168 108
167 162 102
175 169 107
171 166 105
176 170 109
173 168 107
176 170 107
173 167 105
174 168 106
171 166 102
174 169 106
170 165 99
173 167 104
172 165 104
171 166 104
169 162 99
169 164 101
169 163 101
170 164 101
167 161 99
168 162 101
169 163 99
166 160 99
169 164 101
171 165 102
171 165 101
171 166 101
168 162 97
160 154 93
166 159 95
164 159 100
160 155 91
158 152 93
162 156 90
154 148 89
158 152 89
159 153 89
168 162 95
158 153 91
152 145 81
161 154 93
159 153 92
147 141 84
156 150 84
151 146 81
151 145 78
142 137 75
146 141 77
148 141 80
146 139 74
148 145 74
143 145 59
153 155 63
153 152 71
148 155 47
155 165 48
154 167 41
157 170 44
164 181 36
167 184 36
168 186 32
167 189 11
172 194 16
174 197 0
172 195 0
174 197 0
173 197 0
174 197 0
176 198 0
174 197 0
175 198 0
173 197 0
172 196 0
175 198 0
172 196 0
174 197 0
173 197 0
172 196 0
174 198 0
173 197 0
171 195 0
173 196 0
173 196 0
172 195 0
172 195 0
175 197 0
172 196 0
176 199 0
170 193 0
174 197 0
175 197 0
173 196 0
172 195 0
173 196 0
172 195 0
174 197 0
173 196 0
172 195 0
173 197 0
172 195 0
175 197 0
171 194 0
173 196 0
173 196 0
173 197 0
172 196 0
172 196 0
174 197 0
174 198 0
172 196 0
173 197 0
174 197 0
174 198 0
175 198 0
173 196 0
173 197 0
173 196 0
172 195 0
172 196 0
171 195 0
171 196 0
171 195 0
174 196 0
173 196 0
171 195 0
174 197 0
173 196 0
172 196 0
174 198 0
172 196 0
172 196 0
172 196 0
169 194 0
173 195 0
171 195 0
174 197 0
171 194 0
173 197 0
174 197 0
173 197 0
173 196 0
171 195 0
173 196 0
172 195 0
173 195 0
171 194 0
173 195 0
171 195 0
171 195 0
173 196 0
173 196 0
173 196 0
173 196 0
172 195 0
173 196 0
173 195 0
173 196 0
174 197 0
171 195 0
173 196 0
172 195 0
169 193 0
174 197 0
176 198 0
171 194 0
170 193 0
174 197 0
172 195 0
173 195 0
175 198 0
171 195 18
162 185 54
144 168 95
114 141 137
69 103 167
62 99 173
62 99 174
62 98 173
62 99 177
62 99 174
62 98 174
62 99 177
62 99 177
62 99 178
62 99 177
62 99 178
62 99 179
62 99 180
61 99 177
61 98 178
62 99 180
62 99 176
62 99 180
62 99 180
62 99 180
62 99 181
61 99 180
62 99 181
61 98 179
62 99 180
62 99 180
62 99 181
62 99 179
62 99 181
62 99 181
62 99 181
62 99 180
61 98 178
61 99 180
61 98 180
61 99 181
62 99 181
62 99 180
62 99 181
62 99 181
62 99 180
62 99 181
62 99 181
62 99 181
62 99 180
61 98 181
62 99 180
61 98 181
62 99 181
62 99 181
62 99 181
62 99 180
62 99 181
61 98 181
62 99 181
62 99 181
62 99 181
61 99 181
62 99 181
61 99 181
62 99 181
62 99 181
62 99 180
62 99 181
61 99 181
62 99 181
61 99 181
62 99 181
62 99 181
62 99 181
62 99 181
63 100 181
62 99 181
61 99 181
62 99 181
61 99 179
62 99 179
62 99 181
62 99 181
61 99 181
61 98 179
62 99 180
62 99 181
62 99 180
62 99 179
62 99 181
61 98 177
62 99 180
62 99 180
62 99 181
62 99 180
62 99 177
61 99 180
62 99 181
62 99 181
62 99 179
62 99 180
61 99 178
63 100 180
63 99 180
62 99 179
62 99 179
62 99 178
62 99 176
61 98 178
62 99 177
62 99 179
61 98 175
61 98 175
62 99 178
62 98 176
61 98 173
61 98 174
62 99 177
62 99 177
61 98 175
60 96 172
62 98 173
62 98 176
62 98 170
62 98 174
62 98 173
61 96 169
61 97 173
70 98 159
84 106 156
117 128 130
123 126 103
133 132 87
130 128 72
120 118 70
131 127 74
129 126 68
122 119 70
125 123 80
132 129 82
120 118 77
125 124 78
129 127 82
121 119 77
124 122 79
131 129 85
128 126 85
132 130 88
126 125 84
127 126 84
118 118 79
123 125 86
128 126 86
123 122 81
125 125 83
121 121 83
134 133 91
117 119 84
122 121 83
135 135 95
133 133 93
140 138 94
132 131 90
133 132 90
145 144 99
138 137 93
141 140 96
140 140 96
143 142 97
140 139 95
142 141 97
143 142 96
146 144 98
144 143 98
145 144 99
147 146 98
150 148 99
142 141 95
145 144 98
155 153 103
153 151 100
147 146 99
160 157 105
149 147 95
155 153 103
158 155 101
157 155 104
157 155 104
161 158 105
161 159 105
163 161 107
163 160 105
171 167 107
169 165 108
168 164 108
160 158 105
169 165 108
168 164 107
170 166 109
172 167 108
167 163 103
168 165 109
169 165 108
167 163 105
173 168 107
172 167 109
172 167 106
171 166 106
171 167 107
171 166 106
177 172 111
176 170 108
175 170 110
171 166 108
175 170 110
174 169 107
175 169 106
176 171 111
176 171 109
175 170 108
170 167 106
177 171 109
175 170 106
174 169 104
174 170 109
173 168 106
174 168 108
173 168 104
173 167 104
170 165 103
172 167 103
171 166 101
174 168 107
174 169 108
174 169 107
177 171 108
172 167 104
167 162 99
169 164 104
169 165 102
174 169 104
174 168 107
171 166 104
170 164 103
170 165 99
170 164 101
166 161 96
170 164 99
167 162 100
165 159 95
166 161 99
173 166 102
165 159 97
171 164 103
163 156 95
159 154 92
170 163 101
165 159 96
159 155 90
159 153 94
159 153 93
168 162 100
162 156 95
158 153 90
162 156 87
157 151 87
145 139 81
163 156 92
159 153 92
159 152 90
160 154 84
144 140 79
154 148 81
156 149 87
148 142 78
154 147 80
143 139 75
150 143 77
153 147 78
140 137 68
148 146 68
146 151 59
140 143 53
147 152 60
151 159 44
158 169 45
154 169 30
170 188 34
172 190 32
171 191 25
170 192 11
169 191 0
173 197 0
172 195 0
174 197 0
174 197 0
172 196 0
173 196 0
172 196 0
173 196 0
173 196 0
173 196 0
174 197 0
173 197 0
172 196 0
173 197 0
171 195 0
173 196 0
172 196 0
172 196 0
174 197 0
174 197 0
175 198 0
172 195 0
173 196 0
175 198 0
173 196 0
174 197 0
172 196 0
171 194 0
175 198 0
171 194 0
171 195 0
174 197 0
173 197 0
173 197 0
172 195 0
173 195 0
175 197 0
174 197 0
172 196 0
173 197 0
172 196 0
174 197 0
171 194 0
173 196 0
174 197 0
171 194 0
174 197 0
173 197 0
173 196 0
171 194 0
173 196 0
172 195 0
172 196 0
173 196 0
174 197 0
173 196 0
173 196 0
172 195 0
174 197 0
171 194 0
173 196 0
169 194 0
173 196 0
172 195 0
173 197 0
171 195 0
170 194 0
173 197 0
174 198 0
169 193 0
172 195 0
173 196 0
171 195 0
172 195 0
170 195 0
171 195 0
173 196 0
172 196 0
172 195 0
169 193 0
170 193 0
173 196 0
172 195 0
172 195 0
174 196 0
172 196 0
170 194 0
172 196 0
172 195 0
173 195 0
173 195 0
172 195 0
170 194 0
175 198 0
169 193 0
171 195 0
170 195 0
172 195 0
172 195 0
170 193 0
175 198 0
175 198 0
169 192 0
171 195 0
169 192 0
172 195 0
171 195 0
162 186 54
143 168 102
127 152 126
74 108 171
62 99 177
63 100 178
62 99 178
62 99 180
62 99 176
63 100 181
63 100 179
63 100 177
62 99 177
62 99 179
62 99 178
62 99 177
62 99 178
62 99 179
62 99 176
61 98 175
62 99 179
61 98 176
62 99 181
63 100 181
61 99 180
62 99 179
62 99 181
62 99 180
61 99 181
62 99 181
62 99 180
62 99 179
62 99 179
62 99 180
61 98 178
62 99 180
62 99 180
62 99 181
62 99 180
62 99 181
62 99 181
61 99 179
62 99 181
62 99 181
61 99 180
62 99 181
62 99 178
62 99 180
62 99 181
62 99 181
62 99 179
62 99 181
62 99 181
62 99 181
62 99 181
62 99 181
61 98 181
62 99 181
61 98 180
61 98 179
61 98 181
62 99 180
62 99 181
62 99 181
62 99 180
61 99 181
61 99 181
61 99 181
62 99 181
62 99 181
62 99 179
61 99 180
62 99 180
62 99 181
62 99 181
61 99 181
61 99 181
62 99 181
62 99 180
61 99 180
62 99 180
61 99 180
62 99 181
61 98 179
62 99 181
62 99 181
61 99 180
62 99 181
61 99 179
62 99 180
61 98 179
61 99 181
62 99 180
62 99 178
61 99 178
62 99 181
62 99 181
62 99 181
62 99 178
61 99 180
62 99 178
62 99 180
62 99 179
61 99 178
62 99 178
62 99 180
62 99 178
62 99 178
61 98 176
62 98 177
62 98 176
62 99 175
62 99 178
63 99 176
62 99 175
62 98 175
61 98 174
62 98 176
62 98 175
62 99 177
61 98 172
62 98 172
61 97 172
61 98 173
61 97 173
61 97 173
61 97 171
61 98 173
61 97 175
61 96 170
72 100 163
81 102 147
111 120 124
115 118 94
120 119 70
139 134 80
120 117 70
134 129 76
124 122 75
124 122 72
129 126 78
122 121 74
112 110 67
119 118 73
111 110 72
130 128 84
127 126 80
118 118 78
124 123 78
120 119 77
120 120 82
132 129 86
121 120 79
121 121 84
127 126 85
124 125 88
122 123 87
137 136 92
121 121 84
138 136 92
124 123 85
132 131 89
139 138 93
139 138 93
127 126 87
135 135 95
127 127 88
135 135 94
139 138 95
137 137 91
135 135 93
145 143 97
141 141 97
158 155 105
140 139 95
151 149 100
141 140 97
157 155 103
154 152 101
145 144 98
155 153 103
151 149 98
157 155 103
157 155 104
157 155 103
155 153 98
166 162 106
158 156 103
161 158 104
161 159 107
162 159 105
155 152 101
170 166 107
163 160 104
166 161 105
167 162 106
170 165 105
171 167 108
168 165 107
168 164 108
167 163 105
168 164 105
166 163 105
172 167 106
168 165 108
168 164 103
172 168 107
171 168 108
174 170 110
174 170 110
169 165 104
173 168 107
174 169 110
173 169 108
172 168 108
174 168 106
176 170 107
171 167 109
174 169 109
172 168 108
175 169 105
175 170 109
173 168 106
174 168 104
173 169 106
172 168 104
176 171 109
174 170 108
176 170 108
172 166 103
168 164 104
173 168 108
171 166 102
172 166 106
175 170 107
172 167 103
171 165 105
170 165 101
174 168 102
171 166 105
176 170 107
170 164 102
168 163 99
173 168 106
169 163 103
174 167 103
170 164 101
170 164 102
167 161 95
167 161 96
167 161 95
165 160 99
164 159 99
172 166 104
169 164 100
169 163 96
165 160 97
170 164 97
162 157 93
164 158 97
164 158 95
168 161 95
163 156 93
166 159 96
166 160 95
152 146 84
162 156 90
158 152 90
144 139 80
154 148 87
157 151 89
152 146 84
142 137 74
151 146 80
154 147 84
157 150 86
145 140 78
146 141 72
140 135 64
144 140 74
145 141 72
135 133 62
141 143 56
146 149 61
140 148 44
150 161 48
156 168 45
159 174 37
162 178 39
165 183 22
166 184 36
171 193 22
169 191 0
173 197 0
173 197 0
174 197 0
175 198 0
173 197 0
173 196 0
174 197 0
172 195 0
174 197 0
174 197 0
173 197 0
175 198 0
175 198 0
173 196 0
172 196 0
172 196 0
174 197 0
172 196 0
171 194 0
172 195 0
173 197 0
171 195 0
175 197 0
173 197 0
172 196 0
174 197 0
173 197 0
173 196 0
172 195 0
174 197 0
173 197 0
172 196 0
172 195 0
174 197 0
173 196 0
175 198 0
172 196 0
172 196 0
173 197 0
173 196 0
173 196 0
174 197 0
171 195 0
172 195 0
170 194 0
173 197 0
173 196 0
173 196 0
173 197 0
173 197 0
174 197 0
172 195 0
171 194 0
173 197 0
173 197 0
173 196 0
172 196 0
174 197 0
174 197 0
174 198 0
171 195 0
172 196 0
171 195 0
172 196 0
174 198 0
171 194 0
172 196 0
173 196 0
170 193 0
176 199 0
174 197 0
171 195 0
171 194 0
172 196 0
174 197 0
172 196 0
168 191 0
172 195 0
173 196 0
169 194 0
169 192 0
170 194 0
176 198 0
173 197 0
172 196 0
175 198 0
171 196 0
174 197 0
169 193 0
173 195 0
170 193 0
171 195 0
172 196 0
170 194 0
174 197 0
174 198 0
170 193 0
173 197 0
172 196 0
174 197 0
173 196 0
172 196 0
171 194 0
171 195 0
172 195 0
171 194 0
160 185 51
152 176 86
112 139 139
78 111 166
62 99 170
62 98 174
62 99 173
62 99 180
62 99 176
62 99 179
62 99 177
61 98 177
62 99 177
62 99 180
62 99 173
62 99 178
62 99 176
62 99 178
62 99 179
62 99 180
62 99 179
62 99 181
62 99 178
62 99 180
62 99 180
62 99 179
62 99 180
62 99 179
62 99 178
62 99 181
62 99 178
62 99 180
62 99 181
62 99 181
63 100 181
62 99 180
62 99 181
62 99 181
61 99 179
61 99 181
62 99 179
61 99 181
62 99 181
62 99 181
62 99 180
62 99 180
62 99 181
61 99 180
62 99 181
63 100 181
61 99 181
62 99 180
61 99 181
62 99 181
62 99 181
61 99 181
62 99 179
62 99 181
61 99 180
62 99 180
62 99 181
62 99 180
62 99 181
62 99 181
62 99 181
62 99 181
62 99 181
62 99 180
61 99 180
62 99 181
62 99 179
62 99 181
62 99 179
62 99 180
62 99 181
61 99 181
61 98 181
62 99 181
62 99 180
62 99 181
62 99 180
61 98 179
61 99 180
62 99 181
62 99 181
62 99 181
62 99 181
62 99 180
62 99 179
61 99 179
62 99 180
62 99 181
61 98 180
63 100 179
63 100 180
62 99 179
62 99 177
61 98 179
62 99 179
62 99 179
62 99 179
62 99 181
62 99 178
62 99 181
62 99 179
62 99 180
62 99 177
62 99 179
61 98 176
62 99 178
61 98 176
62 99 178
62 99 180
61 98 175
61 97 176
62 99 178
62 99 175
62 99 179
61 98 174
62 99 177
61 98 175
62 99 177
63 99 174
62 98 176
62 98 176
62 99 177
61 98 175
62 98 175
61 97 172
62 98 175
62 98 173
62 98 171
64 97 163
91 108 145
108 115 120
117 119 99
117 115 75
129 124 76
120 117 67
114 112 71
127 124 75
122 119 72
108 107 70
120 120 78
127 125 82
109 109 68
124 123 76
123 122 79
121 120 79
116 115 76
127 126 81
115 115 76
132 130 87
120 119 79
131 129 87
124 125 87
132 132 90
115 116 82
136 137 93
124 124 85
118 120 86
120 120 82
130 131 92
137 136 93
137 136 92
131 131 90
124 124 85
132 133 93
145 143 97
137 134 91
141 141 98
138 137 92
148 146 99
147 146 97
140 139 94
139 138 95
147 146 97
142 141 96
152 150 101
150 148 99
151 149 101
147 146 100
157 153 102
154 152 103
144 144 96
163 159 103
156 154 103
159 157 105
165 162 108
158 155 104
158 156 102
164 160 104
168 164 108
165 161 103
166 162 105
162 159 103
159 157 100
168 164 104
167 164 108
164 160 104
173 168 109
170 166 108
170 166 108
173 169 109
166 164 106
171 166 106
172 167 106
171 167 107
170 165 106
173 168 105
171 167 109
169 165 108
172 167 105
170 166 106
176 170 107
169 166 105
169 166 108
173 168 107
176 171 110
173 168 107
172 167 106
175 170 108
171 166 105
177 171 109
177 171 109
172 167 104
175 170 110
175 169 108
176 171 107
173 168 106
170 166 106
176 171 108
167 163 104
175 170 107
170 166 104
169 164 99
177 170 106
173 168 104
175 169 104
175 169 105
168 163 96
174 169 104
174 168 102
165 161 102
171 166 102
167 161 102
172 165 101
161 156 98
170 165 99
174 168 101
162 157 97
168 162 98
160 154 91
165 160 94
163 158 91
164 158 97
162 157 94
164 159 92
162 156 95
162 157 90
163 157 95
162 157 91
161 155 94
160 155 91
162 156 88
157 150 87
158 152 90
163 157 90
160 154 87
164 157 94
163 156 88
150 145 80
156 150 87
159 153 87
157 150 82
148 143 76
150 145 83
140 135 73
146 141 73
152 145 79
141 135 67
153 148 80
150 148 72
146 146 65
156 158 67
158 160 68
151 160 48
154 168 32
158 173 36
156 173 30
164 181 32
164 182 30
171 190 30
170 192 16
174 197 0
173 196 0
175 198 0
169 193 0
171 194 0
174 198 0
174 197 0
172 196 0
173 197 0
173 196 0
174 197 0
174 197 0
171 195 0
174 197 0
172 196 0
174 197 0
173 197 0
174 198 0
173 196 0
172 196 0
174 197 0
173 196 0
173 197 0
173 197 0
171 195 0
174 197 0
174 197 0
175 198 0
175 198 0
175 198 0
171 194 0
172 196 0
174 198 0
172 194 0
173 196 0
174 197 0
173 197 0
174 197 0
174 196 0
171 195 0
173 197 0
173 197 0
171 195 0
172 196 0
171 195 0
174 197 0
173 195 0
174 197 0
173 197 0
173 195 0
171 194 0
174 197 0
175 198 0
171 194 0
174 197 0
171 194 0
175 198 0
174 197 0
171 195 0
171 194 0
173 196 0
171 194 0
174 198 0
173 196 0
171 194 0
171 195 0
172 195 0
173 196 0
171 194 0
173 196 0
173 197 0
172 195 0
172 194 0
173 195 0
171 194 0
172 195 0
171 194 0
172 196 0
173 197 0
174 197 0
173 196 0
171 195 0
173 196 0
173 196 0
170 193 0
172 195 0
171 195 0
174 197 0
172 195 0
173 196 0
172 195 0
170 193 0
173 196 0
170 194 0
174 197 0
171 195 0
171 194 0
169 191 0
173 197 0
171 194 0
172 195 0
172 195 0
172 196 0
171 194 0
172 195 0
170 193 25
146 171 94
118 145 129
85 116 162
62 99 171
63 99 176
62 99 174
62 99 176
62 98 174
62 99 175
62 99 174
62 98 171
63 99 177
62 99 177
62 99 176
62 99 179
62 99 176
62 99 176
61 98 178
62 99 178
61 99 178
62 99 180
62 99 180
62 99 177
61 98 176
62 99 180
61 98 178
62 99 177
62 99 178
62 99 181
62 99 181
62 99 181
62 99 178
62 99 181
62 99 181
62 99 180
61 99 181
62 99 180
62 99 180
62 99 181
62 99 180
62 99 181
62 99 181
62 99 181
62 99 180
61 99 181
62 99 180
61 99 181
62 99 181
61 98 181
62 99 181
63 100 181
62 99 181
61 98 180
62 99 181
61 99 181
62 99 181
61 98 179
62 99 181
62 99 180
62 99 180
62 99 181
61 99 181
62 99 181
62 99 181
62 99 181
61 98 179
61 99 181
62 99 180
62 99 180
61 99 181
62 99 181
62 99 181
62 99 181
62 99 181
62 99 180
61 99 181
62 99 181
61 99 181
61 99 180
61 99 180
62 99 180
62 99 181
62 99 181
62 99 178
62 99 181
62 99 180
62 99 179
62 99 181
62 99 180
61 99 179
62 99 181
61 98 180
61 99 180
62 100 181
62 99 180
62 99 181
62 99 179
62 99 180
61 99 180
62 99 179
61 99 179
62 99 179
61 99 179
62 99 178
63 100 180
62 99 179
62 99 177
61 98 179
62 99 180
62 99 178
61 98 179
63 100 179
61 98 175
62 99 175
61 98 174
62 99 177
62 99 176
62 99 178
60 96 171
62 99 178
61 97 173
61 98 174
63 99 176
62 99 179
62 98 172
62 98 174
61 97 172
61 97 172
61 97 171
62 98 171
61 97 175
61 96 169
60 96 170
63 96 163
85 104 146
97 107 120
118 119 93
122 119 81
126 123 79
120 118 69
123 121 71
110 109 69
128 125 75
123 121 76
121 119 76
117 115 74
109 108 64
117 116 76
110 110 73
99 101 71
120 120 79
125 124 85
125 124 83
120 118 80
131 130 90
124 123 82
134 133 90
128 127 87
130 130 88
131 130 89
130 130 90
129 129 89
124 124 87
121 122 87
122 123 87
135 134 93
134 135 94
140 139 94
124 125 87
138 138 94
143 142 98
132 132 92
148 146 100
141 140 96
140 140 95
150 147 98
146 144 95
150 149 99
141 140 95
152 151 100
149 148 97
151 149 101
149 147 98
156 154 101
159 156 104
153 150 99
154 152 101
163 159 102
156 153 100
165 161 105
168 164 108
163 159 104
160 158 103
163 159 102
162 159 106
166 163 105
161 158 101
167 163 107
169 165 104
160 158 103
166 163 105
169 165 105
167 164 107
169 164 107
171 166 108
166 162 101
172 168 108
173 169 108
172 168 109
173 168 104
169 165 107
174 169 107
174 170 108
171 167 102
172 168 106
175 170 109
172 168 108
176 172 112
172 168 106
171 168 108
176 170 107
176 171 108
175 169 105
177 171 107
174 169 104
174 169 105
176 171 106
172 167 104
174 169 104
170 166 106
176 170 106
173 168 104
175 170 107
173 168 105
174 169 107
172 167 104
169 164 100
176 171 108
172 168 106
170 165 104
172 167 108
173 168 102
170 165 97
171 166 104
170 165 100
162 158 96
165 161 99
164 159 99
172 167 103
170 165 95
161 156 93
169 163 101
167 162 95
162 157 94
170 164 99
172 166 103
166 160 97
165 159 90
171 164 98
165 160 97
160 154 93
163 157 90
169 163 95
170 162 96
164 158 93
158 153 89
161 155 87
159 153 90
164 157 91
155 149 85
153 148 80
156 149 87
161 156 90
153 147 81
157 151 84
154 147 84
155 148 85
152 146 75
140 135 73
149 143 80
139 134 69
140 136 68
143 140 66
141 144 58
158 162 63
149 154 53
148 157 54
155 164 47
161 179 16
162 177 37
161 179 30
170 189 22
170 191 19
166 189 11
172 195 0
174 198 0
174 198 0
171 195 0
173 196 0
174 197 0
172 195 0
173 195 0
172 196 0
170 194 0
173 196 0
174 197 0
172 195 0
173 196 0
171 195 0
174 197 0
171 195 0
170 193 0
174 198 0
171 195 0
175 198 0
171 195 0
173 196 0
175 197 0
174 196 0
173 196 0
172 195 0
174 198 0
172 196 0
173 196 0
173 196 0
173 196 0
174 197 0
170 194 0
174 197 0
169 193 0
172 195 0
171 194 0
171 194 0
174 197 0
172 196 0
174 198 0
172 195 0
170 194 0
171 195 0
173 196 0
174 196 0
174 198 0
173 197 0
172 196 0
172 196 0
171 194 0
170 193 0
173 196 0
173 196 0
173 197 0
174 197 0
175 198 0
173 197 0
172 196 0
174 197 0
173 197 0
171 195 0
170 193 0
174 197 0
172 194 0
173 196 0
173 196 0
171 194 0
172 195 0
171 194 0
173 197 0
171 194 0
172 195 0
170 194 0
171 194 0
170 194 0
172 195 0
174 197 0
173 195 0
173 197 0
175 198 0
171 195 0
170 193 0
173 196 0
169 194 0
174 198 0
172 194 0
171 194 0
173 196 0
176 198 0
171 195 0
174 198 0
174 197 0
170 194 0
172 195 0
172 195 0
171 194 0
171 194 0
171 194 0
172 195 0
172 196 0
172 195 0
169 193 0
168 191 25
155 179 78
123 148 126
81 113 162
64 100 171
63 99 174
62 99 177
62 99 178
62 99 176
62 99 175
61 98 175
62 99 176
62 99 169
62 99 174
62 99 177
62 99 179
62 99 177
62 99 176
62 99 179
62 99 179
62 99 176
62 99 180
62 99 181
62 99 179
61 99 179
62 99 178
62 99 176
62 99 178
62 99 180
62 99 180
62 99 181
62 99 180
62 99 180
62 99 181
62 99 180
62 99 180
63 100 181
62 99 181
62 99 179
61 98 177
62 99 181
62 99 180
62 99 181
62 99 181
62 99 180
61 99 181
62 99 181
62 99 181
62 99 181
62 99 180
62 99 181
62 99 181
62 99 181
61 99 181
62 99 181
62 99 180
62 99 181
61 98 181
62 99 181
62 99 181
62 99 181
62 99 181
62 99 181
63 100 181
62 99 181
62 99 181
62 99 179
62 99 180
61 99 181
62 99 181
62 99 181
62 99 180
62 99 181
62 99 180
62 99 180
61 98 178
62 99 179
63 100 181
62 99 181
61 99 180
62 99 181
61 98 180
61 99 179
62 99 178
62 99 181
61 99 181
62 99 180
61 99 176
62 99 178
61 99 181
61 98 177
61 99 181
62 99 180
61 99 179
62 99 179
61 99 181
62 99 179
62 99 180
62 99 178
62 99 177
62 99 179
61 98 176
62 99 177
62 99 178
62 99 179
62 99 175
61 98 177
62 99 179
61 98 178
61 99 179
61 98 175
61 98 178
63 100 177
62 99 177
62 99 176
62 99 178
62 98 174
62 99 177
62 98 176
61 98 174
62 99 178
61 98 174
62 99 177
62 98 176
62 98 172
62 98 173
62 98 175
62 98 175
62 98 169
62 98 177
62 98 175
63 99 177
61 96 167
62 98 174
61 97 171
61 96 164
72 100 163
96 110 142
90 103 123
119 120 96
121 120 75
117 114 69
112 111 64
114 112 63
122 121 73
112 111 71
118 117 75
117 115 75
115 115 74
107 107 69
120 119 81
110 110 75
118 118 81
126 124 82
113 113 76
111 113 81
118 120 85
115 116 80
114 114 80
123 123 85
127 127 86
129 128 87
115 117 83
128 129 90
130 130 91
123 124 88
133 132 91
120 122 87
138 137 94
139 138 96
138 138 95
132 133 92
131 131 87
144 143 98
147 145 99
143 143 98
141 141 97
139 138 92
153 151 101
142 141 96
145 144 96
144 144 98
149 147 99
148 147 100
151 149 100
153 151 99
157 154 101
149 147 99
152 150 98
158 156 102
156 154 100
157 155 101
161 158 103
162 160 103
162 158 106
161 158 103
166 162 105
167 163 103
161 158 101
164 160 104
165 161 103
167 164 106
164 161 102
167 164 108
165 162 105
171 167 108
173 168 107
174 168 109
173 168 108
173 168 105
174 168 107
173 168 109
172 167 106
169 166 107
172 168 108
173 168 107
174 168 106
172 168 104
172 168 104
173 169 106
173 168 106
174 169 103
171 166 104
173 169 107
175 169 106
177 171 106
174 169 105
174 169 104
174 169 107
177 171 107
172 166 102
176 170 106
175 169 104
177 171 108
174 169 106
174 169 107
173 168 106
176 170 104
174 168 104
173 167 100
173 167 103
175 169 103
168 164 99
176 169 103
170 165 105
169 164 100
170 166 101
171 165 99
168 163 99
167 161 98
172 165 100
169 164 101
172 166 103
168 162 101
166 161 94
171 164 101
161 155 93
164 159 97
169 163 97
168 163 95
162 156 89
167 161 97
163 158 96
166 160 95
160 155 91
168 162 91
170 163 97
168 161 93
165 158 90
156 150 82
155 150 86
157 150 92
152 146 80
158 152 88
160 153 86
152 146 82
152 145 81
154 148 82
149 142 74
146 140 80
149 143 75
147 140 77
150 144 73
142 136 64
146 145 68
145 143 64
142 146 57
150 153 57
153 160 54
157 164 48
157 171 41
154 169 34
165 181 34
167 187 22
170 191 22
172 194 16
173 196 0
174 197 0
175 198 0
172 196 0
175 198 0
171 194 0
173 197 0
173 196 0
174 197 0
173 196 0
173 197 0
172 196 0
173 197 0
171 194 0
174 197 0
172 195 0
173 196 0
173 197 0
170 194 0
171 195 0
173 197 0
176 199 0
171 195 0
174 197 0
172 196 0
172 195 0
174 198 0
169 193 0
172 196 0
174 197 0
173 196 0
174 198 0
172 195 0
173 197 0
172 195 0
173 196 0
172 196 0
172 195 0
171 195 0
173 197 0
172 196 0
173 196 0
173 196 0
174 197 0
171 195 0
174 197 0
172 195 0
174 197 0
174 197 0
172 196 0
174 198 0
170 193 0
173 196 0
173 196 0
171 194 0
173 196 0
173 196 0
173 196 0
175 198 0
170 194 0
173 197 0
173 197 0
172 196 0
174 197 0
172 196 0
170 194 0
173 196 0
171 195 0
173 196 0
169 194 0
171 195 0
174 197 0
174 197 0
170 194 0
171 194 0
173 196 0
173 196 0
170 193 0
172 196 0
172 196 0
174 197 0
173 196 0
169 193 0
172 195 0
172 195 0
172 196 0
174 197 0
175 197 0
171 195 0
169 193 0
168 191 0
172 195 0
172 195 0
172 196 0
171 195 0
175 197 0
170 194 0
173 196 0
171 195 0
171 194 0
170 194 0
170 193 0
174 196 0
169 193 25
160 183 67
123 149 126
84 115 157
62 99 176
63 99 173
61 98 174
63 100 178
62 99 176
62 99 173
62 99 179
62 99 173
62 99 172
62 99 179
63 99 178
62 99 178
62 99 178
62 99 177
62 99 178
62 99 179
62 99 175
62 99 179
61 98 177
61 99 178
62 99 179
62 99 181
62 99 180
62 99 177
63 100 178
63 100 181
62 99 179
63 100 178
62 99 178
62 99 180
62 99 179
62 99 180
62 99 178
62 99 180
62 99 180
63 100 181
62 99 181
61 98 179
61 99 180
62 99 181
62 99 179
62 99 180
62 99 180
61 99 180
61 98 178
63 100 181
62 99 181
62 99 181
62 99 180
62 99 180
62 99 181
61 99 181
62 99 181
61 99 181
61 99 180
62 99 181
62 99 181
62 99 181
61 99 181
62 99 180
62 99 181
62 99 181
62 99 178
62 99 181
62 99 181
62 99 180
62 99 180
62 99 180
62 99 179
62 99 180
62 99 181
62 99 180
62 99 179
62 99 180
62 99 181
62 99 181
61 98 178
61 99 180
61 98 179
62 99 180
62 99 179
61 99 178
61 99 181
62 99 179
62 99 178
62 99 179
62 99 181
62 99 178
62 99 180
62 99 180
62 99 176
61 98 181
62 99 178
62 99 178
61 98 180
62 99 179
62 99 180
62 99 176
62 99 180
63 100 179
62 99 179
62 99 178
61 99 178
62 99 179
61 98 175
61 99 179
62 99 179
62 99 180
62 99 178
62 99 179
61 98 177
62 99 178
63 100 181
61 98 177
61 98 177
61 98 173
61 97 170
61 98 175
61 98 172
62 99 174
62 98 171
61 98 176
61 98 171
62 98 175
61 97 170
61 97 173
62 98 175
62 98 173
62 99 174
61 97 170
61 97 171
62 98 170
61 96 166
61 96 169
65 95 158
101 113 137
109 113 109
113 114 87
124 122 76
124 123 74
104 103 58
114 113 68
112 110 65
114 113 74
122 120 77
108 108 69
112 111 73
119 118 79
126 123 82
117 117 75
115 116 79
120 121 83
127 126 86
116 116 78
121 121 83
126 126 85
123 122 84
126 125 86
113 113 79
122 123 87
129 130 91
124 125 85
118 119 83
133 133 92
127 127 88
140 139 97
131 131 91
131 132 93
138 137 93
135 135 92
132 131 89
144 141 93
149 147 100
145 144 97
138 138 92
142 141 94
145 144 96
144 143 97
154 151 102
146 145 93
146 145 96
146 145 96
143 143 97
146 145 96
153 150 99
163 158 102
162 158 102
160 156 101
155 152 98
157 153 101
163 159 103
162 158 101
163 159 101
161 159 104
164 161 104
167 162 105
164 160 102
169 165 106
166 162 106
167 162 102
170 165 106
164 161 103
169 165 104
166 163 101
175 169 109
169 165 107
171 167 104
174 168 107
176 171 109
172 166 103
174 169 109
173 168 104
170 165 104
174 169 109
174 169 106
174 169 108
176 171 107
175 169 102
172 168 104
174 169 107
175 170 108
175 170 108
175 170 107
175 169 104
175 170 106
171 167 105
175 169 104
172 167 103
174 169 103
174 168 106
172 167 105
171 167 102
172 166 101
177 171 106
171 165 101
171 166 104
173 167 104
171 166 101
167 161 99
170 164 99
170 165 103
173 167 103
172 166 103
169 164 100
171 165 101
168 162 98
173 168 100
170 164 99
169 162 99
172 166 99
167 161 99
167 162 97
167 161 98
167 161 96
165 158 93
166 161 95
164 158 91
169 164 101
167 161 95
164 158 95
169 162 95
166 160 96
162 156 91
171 165 101
166 159 93
161 156 92
169 162 99
166 160 90
153 148 83
158 152 87
157 151 88
153 147 84
150 144 73
152 146 84
144 138 75
149 144 73
143 137 72
148 143 79
147 142 77
142 137 75
154 149 79
141 140 64
145 143 67
153 152 65
152 157 58
154 162 51
150 155 59
151 163 36
168 183 42
164 181 34
164 183 19
163 183 16
171 192 0
172 196 0
174 196 0
170 194 0
173 196 0
172 196 0
173 196 0
173 197 0
173 197 0
174 197 0
173 196 0
173 196 0
173 196 0
172 195 0
172 196 0
173 196 0
172 196 0
173 195 0
172 196 0
172 197 0
172 195 0
171 195 0
174 197 0
174 197 0
171 193 0
174 198 0
171 195 0
172 195 0
172 196 0
172 196 0
172 195 0
174 197 0
172 195 0
173 196 0
175 198 0
172 196 0
174 198 0
172 195 0
173 197 0
174 197 0
173 197 0
173 196 0
173 197 0
175 198 0
174 197 0
172 195 0
172 195 0
172 197 0
173 196 0
171 195 0
176 198 0
174 197 0
171 195 0
173 196 0
174 196 0
172 195 0
170 193 0
171 195 0
173 196 0
175 198 0
172 196 0
170 193 0
172 195 0
172 195 0
175 198 0
173 196 0
172 196 0
172 195 0
169 192 0
172 194 0
171 195 0
169 193 0
170 193 0
173 196 0
173 197 0
172 196 0
171 195 0
168 192 0
172 195 0
173 196 0
175 198 0
170 194 0
174 197 0
173 196 0
172 196 0
171 195 0
173 197 0
174 197 0
170 193 0
171 195 0
173 196 0
170 194 0
172 196 0
172 195 0
171 194 0
171 194 0
170 194 0
173 196 0
171 194 0
175 198 0
172 195 0
170 193 0
170 194 0
172 195 25
158 182 62
141 166 103
83 114 160
66 102 170
62 98 172
62 99 174
63 99 172
62 99 177
62 98 172
62 99 176
62 99 176
62 99 175
63 100 178
62 99 174
63 99 178
62 99 177
62 99 176
63 99 177
61 98 177
62 99 176
62 99 179
62 99 178
63 100 181
62 99 179
63 100 180
62 99 180
62 99 178
62 99 179
62 99 178
62 99 176
62 99 180
62 99 180
62 99 176
62 99 179
62 99 180
62 99 180
61 99 180
61 98 180
62 99 181
62 99 180
62 99 180
63 100 180
62 99 181
62 99 180
62 99 181
62 99 181
61 99 181
62 99 178
62 99 180
62 99 181
62 99 181
62 99 181
62 99 180
62 99 181
62 99 181
63 100 179
62 99 180
62 99 181
61 99 180
62 99 181
61 99 181
62 99 180
62 99 181
61 99 180
62 99 180
62 99 181
61 99 180
62 99 179
62 100 181
62 99 180
62 99 181
61 99 180
62 99 181
63 100 181
62 99 179
61 99 180
62 99 180
62 99 181
61 99 180
62 99 180
62 99 180
62 99 181
61 99 179
62 99 181
62 99 180
62 99 180
62 99 180
62 99 180
61 98 175
61 99 180
61 99 181
62 99 179
62 99 181
61 99 179
62 99 176
62 99 181
62 99 180
62 99 179
62 99 177
61 99 177
62 99 178
62 99 178
61 98 179
61 99 179
61 99 179
63 100 178
62 99 178
61 99 178
62 99 176
62 99 177
62 99 178
62 99 177
62 99 179
61 98 175
62 99 178
61 99 178
62 98 173
62 99 176
62 99 177
62 99 177
62 98 171
62 99 176
61 98 175
62 99 177
62 99 176
62 99 177
62 99 176
62 99 175
61 97 171
61 98 172
61 97 173
62 98 173
62 98 172
61 97 172
62 98 172
61 97 170
62 98 168
60 94 160
63 96 165
80 103 155
93 105 124
102 108 115
102 105 81
108 107 67
114 112 71
113 112 68
117 116 73
122 120 77
116 115 74
117 116 77
97 97 68
108 109 74
111 111 75
117 117 78
115 115 80
105 107 73
116 116 78
113 114 78
115 115 80
106 107 76
122 120 82
121 122 81
115 116 80
113 115 82
127 127 87
126 125 86
127 128 88
126 126 88
126 126 85
135 133 91
129 129 89
135 135 93
127 128 90
131 132 92
144 142 97
135 135 93
141 140 95
148 146 100
140 139 95
139 139 92
149 146 99
141 140 94
152 150 102
150 149 102
156 153 102
142 141 95
151 149 101
160 156 103
150 148 97
155 151 97
157 154 102
161 157 102
156 153 101
155 153 100
162 160 105
160 157 101
162 159 103
166 163 105
163 159 102
164 161 104
162 158 102
167 163 102
169 164 107
174 169 107
170 165 105
171 167 109
170 165 104
171 166 108
172 167 107
173 167 106
170 165 102
170 165 103
173 168 107
172 167 105
170 166 104
172 167 109
175 170 105
174 169 104
172 168 105
173 168 105
175 169 105
174 168 105
173 168 106
175 170 106
174 168 103
173 169 104
172 167 101
175 170 108
174 170 103
175 169 106
173 168 104
173 168 105
173 168 101
174 169 104
175 170 107
176 171 108
168 163 94
172 167 99
173 167 104
172 167 103
172 166 103
172 166 103
170 165 103
174 169 106
170 165 103
173 167 104
168 162 98
169 162 100
172 166 103
171 165 101
169 164 98
173 167 102
163 158 95
174 167 102
168 163 94
168 163 97
168 163 97
166 160 93
169 163 97
159 153 90
172 165 101
164 158 93
161 156 87
162 156 95
167 161 93
163 158 89
158 152 85
163 155 90
161 155 89
168 161 90
161 154 89
159 153 86
150 144 81
154 148 87
156 149 84
146 141 75
158 151 86
158 152 84
159 152 84
147 142 77
154 148 72
150 144 77
142 136 74
145 138 70
147 141 74
148 143 71
158 156 75
150 153 60
147 151 54
147 152 53
157 168 45
156 170 39
160 175 37
163 179 25
165 183 25
168 187 28
167 190 0
172 195 0
175 198 0
172 196 0
173 197 0
171 194 0
175 198 0
172 196 0
173 197 0
172 196 0
174 197 0
172 196 0
173 197 0
174 197 0
173 197 0
174 197 0
173 196 0
173 196 0
173 196 0
171 194 0
174 197 0
173 196 0
173 197 0
173 196 0
173 197 0
170 195 0
171 194 0
173 196 0
174 197 0
173 196 0
173 197 0
172 196 0
174 198 0
174 198 0
174 197 0
173 197 0
171 195 0
174 196 0
174 198 0
173 196 0
173 195 0
171 195 0
173 197 0
173 197 0
174 197 0
173 197 0
171 194 0
171 194 0
172 195 0
171 195 0
172 196 0
172 195 0
172 195 0
173 196 0
171 194 0
173 196 0
173 196 0
171 194 0
173 196 0
171 193 0
172 195 0
172 195 0
173 196 0
172 195 0
173 196 0
172 196 0
172 195 0
175 197 0
172 195 0
172 195 0
171 194 0
170 194 0
171 194 0
172 195 0
173 197 0
174 197 0
172 196 0
172 196 0
173 197 0
172 195 0
171 194 0
173 196 0
173 196 0
172 194 0
173 196 0
171 195 0
171 194 0
169 193 0
173 196 0
172 195 0
173 196 0
169 193 0
172 196 0
174 197 0
174 198 0
173 196 0
172 196 0
171 194 0
174 197 0
173 196 0
172 195 0
170 193 0
172 195 0
165 189 44
153 176 82
105 133 133
64 100 172
61 98 170
62 99 175
62 99 176
63 99 177
63 99 177
61 98 173
62 99 172
61 98 175
63 99 177
61 98 170
62 99 177
62 99 180
62 99 176
62 98 173
62 99 179
62 99 178
62 99 177
62 99 177
62 99 179
62 99 177
62 99 178
62 99 180
61 98 177
61 99 177
62 99 179
63 100 180
62 99 178
62 99 180
61 98 178
62 99 181
62 99 180
62 99 180
62 99 179
62 99 179
61 99 179
62 99 180
62 99 180
62 99 180
62 99 179
62 99 181
61 99 178
61 98 176
62 99 181
62 99 181
62 99 180
62 99 178
62 99 181
62 99 177
61 99 177
62 99 180
62 99 181
61 99 180
61 98 179
62 99 181
61 99 180
63 100 180
61 98 180
61 99 179
61 99 180
62 99 180
62 99 180
62 99 181
62 99 179
62 99 180
62 99 180
61 99 180
62 99 179
62 99 180
61 99 179
62 99 179
62 99 181
62 99 181
62 99 180
62 99 180
62 99 180
62 99 180
62 99 181
62 99 179
62 99 179
62 99 179
62 99 180
62 99 181
61 99 180
62 99 180
63 100 180
62 99 178
61 99 176
62 99 181
62 99 178
62 99 181
61 99 180
62 99 179
62 99 178
62 99 180
62 99 179
61 99 177
62 99 179
62 99 176
62 99 178
62 99 180
61 98 178
61 99 179
62 99 178
62 99 178
62 99 180
62 99 179
62 99 177
62 99 179
62 99 179
62 99 179
62 99 176
62 99 177
61 99 180
62 99 180
62 99 178
62 99 177
62 99 175
61 98 173
61 98 174
61 98 177
61 98 179
62 98 176
62 99 175
62 99 175
62 98 174
62 98 173
61 98 174
62 98 174
61 97 170
62 98 170
62 98 172
61 98 174
62 98 170
61 97 168
60 96 169
61 97 166
62 95 161
73 99 152
96 109 132
93 101 101
116 116 81
110 109 67
124 122 78
111 110 72
114 112 75
119 118 79
116 115 75
110 110 71
106 107 70
94 97 69
120 119 75
108 109 74
111 112 77
104 106 72
109 111 77
126 126 84
121 122 86
100 102 76
125 125 84
109 111 77
120 121 87
117 117 83
117 118 82
126 126 87
118 119 83
125 126 89
130 130 90
130 130 90
130 130 90
138 138 94
135 135 91
138 138 93
141 140 95
142 140 97
140 139 94
144 142 98
141 140 94
146 144 95
144 143 96
141 140 96
142 142 96
148 147 100
149 148 98
152 150 99
149 147 98
152 150 98
152 150 97
157 154 102
156 153 98
161 157 103
153 151 94
153 151 94
154 152 98
157 154 100
159 156 100
159 157 102
165 161 105
166 161 98
166 161 104
169 165 104
165 162 104
165 161 103
173 168 106
167 164 102
171 167 105
168 165 103
170 165 104
172 168 106
173 168 106
174 169 107
172 167 104
172 168 102
174 168 102
173 169 107
173 168 106
171 167 102
171 166 107
171 167 102
176 170 104
176 171 110
174 169 106
174 169 108
169 165 106
174 168 106
175 169 105
172 166 102
173 168 105
173 169 105
172 167 104
175 169 104
173 167 101
175 170 108
176 170 106
172 167 101
169 164 99
171 166 102
174 169 103
174 168 104
173 168 104
171 166 100
168 163 99
175 168 102
168 162 96
164 159 96
174 168 101
168 163 95
171 164 95
169 163 99
169 164 97
167 161 97
172 165 101
169 163 99
171 164 99
165 159 95
168 162 98
164 158 90
169 162 96
164 159 95
164 158 93
162 156 93
162 157 90
159 153 87
165 158 95
155 149 85
164 157 90
165 158 87
157 151 84
157 151 86
157 151 85
156 150 87
155 149 82
156 150 85
163 156 82
148 143 76
157 150 86
149 143 78
135 130 67
154 147 81
150 144 77
149 143 75
147 140 77
143 138 74
154 149 75
141 141 61
149 153 58
149 154 57
159 168 51
154 165 48
152 162 45
160 173 47
165 183 34
164 182 28
168 191 11
172 194 0
173 197 0
175 198 0
173 196 0
174 197 0
172 196 0
174 198 0
172 196 0
171 195 0
173 197 0
174 197 0
172 196 0
171 195 0
172 195 0
175 198 0
173 196 0
174 197 0
173 196 0
173 197 0
170 194 0
173 196 0
171 195 0
172 195 0
171 194 0
171 195 0
173 197 0
172 195 0
174 198 0
168 193 0
171 194 0
170 193 0
172 195 0
171 195 0
173 196 0
173 196 0
173 196 0
175 197 0
169 193 0
174 197 0
172 196 0
172 196 0
174 197 0
173 196 0
171 195 0
170 194 0
172 195 0
173 197 0
174 196 0
174 197 0
172 196 0
171 194 0
172 196 0
173 196 0
171 195 0
171 194 0
173 197 0
174 197 0
171 194 0
169 191 0
174 197 0
174 197 0
172 195 0
172 195 0
172 195 0
170 193 0
173 196 0
169 193 0
174 197 0
172 195 0
171 195 0
174 197 0
172 196 0
173 195 0
172 195 0
171 194 0
170 194 0
172 196 0
172 195 0
170 194 0
171 195 0
174 197 0
171 195 0
173 196 0
172 194 0
173 196 0
169 193 0
172 196 0
172 194 0
170 193 0
173 197 0
171 195 0
170 193 0
170 194 0
169 191 0
174 196 0
171 196 0
173 197 0
171 195 0
172 196 0
173 196 0
173 196 0
170 194 0
166 189 36
155 179 78
111 139 144
69 104 171
63 100 176
62 99 173
61 98 171
62 99 174
62 99 171
62 99 173
62 99 176
62 99 179
62 99 178
62 99 174
62 99 178
62 99 177
62 99 174
62 99 176
62 99 178
62 99 178
62 99 179
63 100 181
62 99 178
62 99 181
63 100 180
62 99 178
62 99 176
62 99 181
62 99 181
62 99 179
62 99 180
62 99 180
62 99 179
62 99 178
62 99 177
63 99 178
61 98 178
61 99 178
61 98 181
62 99 180
62 99 179
62 99 179
62 99 181
62 99 179
61 98 180
62 99 181
62 99 180
61 98 180
62 99 180
62 99 181
62 99 181
61 98 180
62 99 181
62 99 181
62 99 180
62 99 181
62 99 180
61 98 180
61 99 179
61 99 179
62 99 180
62 99 178
62 99 179
61 99 179
62 99 180
62 99 181
62 99 181
62 99 180
62 99 181
61 99 180
62 99 180
62 99 181
62 99 180
62 99 179
61 98 178
62 99 180
62 99 179
62 99 180
62 99 179
62 99 181
62 99 181
62 99 181
62 99 178
62 99 180
62 99 181
62 99 180
62 99 178
62 99 178
62 99 179
62 99 180
62 99 180
62 99 181
62 99 180
62 99 180
62 99 179
62 99 180
61 99 179
62 99 180
61 98 178
62 99 177
61 98 178
62 99 178
62 99 179
62 99 179
62 99 179
62 99 178
63 99 177
62 98 175
62 99 181
62 99 177
61 98 177
62 99 177
62 98 177
62 99 174
62 99 180
62 99 178
61 98 175
62 99 177
62 99 178
62 99 180
61 98 175
61 98 174
62 99 173
62 99 177
61 98 173
62 99 179
61 98 172
62 99 177
61 98 177
62 98 173
61 98 174
60 96 174
62 98 175
62 99 175
62 98 174
61 96 168
62 98 176
60 96 171
60 96 169
60 96 167
60 95 164
60 95 164
63 94 158
85 104 146
103 112 124
95 102 107
103 105 87
115 114 72
115 114 75
109 109 70
113 112 72
95 97 62
109 109 74
119 117 75
104 105 72
102 104 74
111 112 77
108 109 75
107 108 75
112 112 76
121 121 80
97 100 74
109 110 78
116 118 82
109 110 78
116 118 83
111 114 82
113 113 78
126 127 90
117 117 81
117 119 83
133 133 93
134 135 95
133 133 91
126 126 86
132 132 91
127 127 87
128 128 87
129 129 88
137 137 92
139 138 95
135 136 93
141 140 92
141 141 95
141 140 94
149 148 99
139 138 91
157 154 100
159 156 103
151 149 96
155 153 103
156 154 101
158 156 101
159 157 102
159 156 100
165 161 102
161 158 99
159 155 98
156 154 102
160 156 101
164 161 102
163 160 103
158 156 101
163 160 103
169 165 105
162 158 98
165 161 100
170 165 106
168 164 103
168 164 103
168 163 104
171 167 107
169 165 104
171 166 103
168 164 104
170 165 102
174 168 106
170 166 106
170 165 103
172 167 103
173 169 109
173 168 105
172 168 101
172 167 106
171 167 102
175 169 106
172 167 103
173 168 99
175 169 107
177 171 104
173 168 107
176 170 103
177 171 106
174 168 103
175 169 104
175 169 104
171 166 101
175 170 105
171 166 101
170 165 99
175 169 103
171 166 101
177 171 106
172 167 104
175 169 102
172 166 98
173 167 99
169 163 99
164 159 97
169 163 99
173 167 97
172 166 99
171 165 99
164 159 95
168 162 96
173 166 99
163 157 95
170 165 96
164 158 95
164 159 93
174 166 94
168 162 95
166 160 95
167 161 98
171 164 97
166 160 93
166 158 92
163 156 89
166 160 95
160 154 89
158 152 90
158 152 90
161 155 87
163 157 94
161 155 89
153 147 83
159 153 84
155 150 84
154 149 80
156 149 81
138 133 67
150 144 76
142 136 71
148 143 76
142 136 70
148 142 73
135 131 62
142 139 64
141 137 67
142 144 51
156 162 56
158 163 61
153 163 41
161 173 45
160 174 42
161 178 32
164 183 25
167 187 22
168 190 0
171 196 0
171 195 0
172 195 0
172 195 0
175 198 0
174 197 0
172 196 0
172 195 0
172 196 0
174 197 0
173 196 0
174 197 0
171 195 0
173 197 0
173 196 0
176 198 0
169 192 0
174 197 0
172 196 0
170 194 0
172 196 0
174 197 0
172 196 0
169 193 0
174 197 0
173 197 0
171 195 0
171 196 0
173 197 0
171 194 0
172 196 0
173 196 0
173 196 0
173 196 0
173 196 0
170 193 0
171 195 0
175 198 0
170 194 0
170 194 0
173 195 0
173 197 0
171 195 0
174 197 0
174 197 0
173 196 0
172 196 0
174 197 0
173 196 0
172 197 0
173 196 0
171 195 0
174 197 0
170 193 0
173 195 0
171 194 0
171 196 0
174 197 0
174 197 0
172 195 0
173 197 0
171 195 0
173 196 0
173 196 0
175 198 0
172 196 0
171 195 0
171 195 0
172 196 0
170 194 0
170 193 0
173 196 0
171 195 0
174 197 0
172 196 0
173 197 0
170 193 0
175 198 0
174 197 0
171 194 0
174 196 0
170 194 0
171 195 0
174 197 0
173 196 0
173 195 0
171 195 0
173 196 0
168 191 0
172 195 0
170 193 0
172 196 0
171 194 0
171 194 0
168 192 0
170 193 0
169 192 0
173 195 0
171 194 0
171 193 0
166 189 40
153 177 82
131 157 124
78 110 162
62 98 166
62 99 174
62 99 172
63 99 173
62 99 175
62 99 175
63 99 174
63 99 176
62 99 178
62 99 172
62 99 177
62 99 174
62 99 176
63 100 177
62 99 180
62 99 175
62 99 178
62 99 180
63 100 180
62 99 180
62 99 178
61 98 176
62 99 181
61 99 179
61 98 175
62 99 180
61 98 177
62 99 179
62 99 181
62 99 179
62 99 178
62 99 179
62 99 177
62 99 180
62 99 180
61 99 179
63 100 178
62 99 180
62 99 181
61 98 180
63 100 180
62 99 180
61 99 179
62 99 180
62 99 180
62 99 179
62 99 180
62 99 179
62 99 180
62 99 181
62 99 180
63 100 179
62 99 181
61 99 179
61 99 179
62 99 179
63 100 180
62 99 178
62 99 180
62 99 181
62 99 179
62 99 179
62 99 180
62 99 181
62 99 179
62 99 180
62 99 181
62 99 181
62 99 181
62 99 178
61 99 180
62 99 178
62 99 180
62 99 180
62 99 180
62 99 181
62 99 179
62 99 180
61 98 178
61 99 180
62 99 180
62 99 181
61 98 177
62 99 180
62 99 179
62 99 181
62 99 180
62 99 180
62 99 178
62 99 179
62 99 180
63 100 181
62 99 180
63 100 178
61 98 179
62 98 175
62 99 178
62 99 177
62 99 179
61 99 179
62 99 180
62 99 180
62 99 180
62 99 181
62 99 181
61 98 178
62 99 179
62 99 177
62 99 178
62 99 180
61 98 173
62 99 179
62 99 179
61 98 174
62 99 178
62 99 178
61 98 176
62 98 175
61 98 176
61 98 177
61 98 173
61 98 176
62 99 178
62 98 169
62 99 174
62 99 177
62 98 177
62 98 174
63 99 177
62 98 174
62 98 170
61 96 165
62 98 172
62 98 170
62 97 166
60 96 166
60 95 167
61 96 164
61 96 170
60 95 163
65 96 160
82 102 144
93 102 111
117 117 94
114 114 74
108 108 68
118 117 75
116 115 76
105 105 70
110 110 73
119 118 79
101 102 71
101 102 73
103 105 72
107 108 73
111 112 79
103 104 73
107 108 73
105 107 75
108 109 79
106 108 77
109 110 78
124 125 87
117 118 82
115 116 81
113 114 80
112 113 82
122 123 87
125 126 89
127 127 89
120 121 85
128 128 88
135 135 92
135 135 93
135 134 91
129 129 89
140 138 92
143 142 96
141 141 95
146 144 95
141 140 95
139 138 92
151 150 101
139 139 94
151 150 100
145 143 93
144 143 98
155 152 101
153 151 99
158 155 100
156 153 99
160 156 101
154 152 100
162 159 102
155 152 95
164 160 103
158 154 102
165 162 105
170 166 109
156 154 100
169 165 102
160 156 99
164 160 101
161 158 102
170 166 106
170 165 105
168 164 105
168 164 99
170 164 102
176 170 108
168 164 101
167 163 104
170 166 104
170 165 105
169 165 99
173 167 104
170 164 104
176 169 106
175 169 104
173 168 101
175 169 104
175 169 108
171 166 104
176 170 104
173 167 98
177 172 108
174 169 103
174 169 108
176 170 107
173 167 100
173 168 105
172 167 102
173 167 103
175 168 104
175 169 103
172 167 104
174 168 102
173 167 102
168 163 100
173 168 101
169 164 97
172 167 104
171 165 100
166 161 95
170 165 99
172 167 99
170 164 97
173 168 104
172 166 103
171 164 99
166 161 96
164 159 94
169 162 97
165 160 94
166 160 96
166 159 95
168 161 99
162 157 90
166 160 94
160 154 92
166 160 96
166 160 95
161 156 95
158 153 86
160 154 87
165 159 91
160 154 87
158 152 85
164 158 87
160 154 89
158 152 88
157 151 90
149 144 80
155 149 80
156 149 84
159 153 81
154 149 77
149 144 77
157 150 79
149 143 80
149 143 78
147 141 74
149 142 78
143 137 73
141 136 66
150 148 71
155 156 67
151 153 65
147 155 49
150 158 45
154 167 25
160 174 41
162 180 28
169 188 19
165 185 22
170 191 19
171 194 0
175 198 0
170 194 0
172 196 0
170 194 0
172 196 0
174 197 0
173 197 0
170 194 0
173 197 0
173 197 0
173 196 0
173 196 0
173 197 0
174 197 0
172 195 0
175 198 0
175 198 0
175 198 0
172 195 0
173 195 0
173 196 0
172 196 0
174 197 0
171 195 0
173 196 0
172 195 0
170 195 0
173 197 0
170 194 0
173 196 0
172 196 0
174 197 0
173 196 0
173 196 0
174 197 0
173 196 0
174 197 0
173 196 0
175 198 0
172 196 0
172 196 0
173 197 0
171 194 0
172 195 0
173 196 0
169 193 0
172 196 0
172 196 0
174 197 0
169 192 0
171 195 0
169 193 0
173 196 0
171 195 0
172 194 0
173 196 0
173 197 0
172 196 0
171 194 0
172 195 0
171 194 0
171 196 0
171 194 0
173 196 0
172 195 0
172 196 0
173 197 0
173 197 0
172 196 0
172 196 0
169 192 0
172 195 0
172 195 0
170 193 0
173 197 0
171 194 0
171 194 0
170 193 0
173 197 0
173 196 0
167 191 0
174 197 0
168 192 0
172 196 0
169 192 0
173 196 0
171 194 0
171 195 0
171 194 0
173 196 0
172 194 0
174 197 0
173 197 0
174 196 0
171 194 0
173 196 0
173 196 0
167 191 0
170 193 18
155 179 70
130 157 118
83 115 160
63 99 174
62 98 170
63 99 171
62 99 175
62 99 172
62 98 174
62 99 176
62 99 171
62 99 177
62 99 172
62 99 174
62 99 175
62 99 176
62 99 173
62 99 176
62 99 176
63 99 176
62 99 179
61 98 174
62 99 177
62 99 180
62 99 176
62 99 178
62 99 177
63 99 177
62 99 181
63 100 179
61 99 179
62 99 180
62 99 178
62 99 180
62 99 177
61 99 179
62 99 180
62 99 181
62 99 178
63 100 180
62 99 177
61 98 178
62 99 180
61 99 181
62 99 179
61 98 176
63 100 180
62 99 178
62 99 181
62 99 180
62 99 179
63 100 180
62 99 180
62 99 180
62 99 178
62 99 181
61 98 180
61 98 180
61 99 181
61 98 180
62 99 181
62 99 181
62 99 179
62 99 181
62 99 178
62 99 181
61 99 180
62 99 179
62 99 180
63 100 181
62 99 180
62 99 180
62 99 181
62 99 181
62 99 177
62 99 180
62 99 179
62 99 178
62 99 179
62 99 180
62 99 181
62 99 178
62 99 180
62 99 180
62 99 180
61 99 180
61 99 179
62 99 179
62 99 176
62 99 181
62 99 181
62 99 180
61 99 178
61 98 179
62 99 178
62 99 181
62 99 179
62 99 178
62 99 176
62 99 180
62 99 179
62 99 179
62 99 178
62 99 181
62 99 180
62 99 177
62 99 180
62 99 179
62 99 179
61 98 178
62 99 177
62 99 177
62 99 175
62 99 176
62 99 176
63 99 179
62 99 178
62 99 179
62 99 177
63 100 180
61 98 176
62 99 176
61 98 174
62 99 175
63 99 176
61 98 172
61 98 175
62 98 172
62 99 173
61 98 174
61 97 170
62 99 176
62 99 175
61 98 173
62 98 174
61 97 173
61 97 169
62 97 170
60 95 165
61 97 172
61 97 170
61 97 167
61 96 166
61 95 164
64 97 168
71 97 151
95 110 142
106 111 100
104 106 84
109 110 74
103 104 66
104 104 69
112 111 72
105 105 72
97 99 70
106 107 72
108 108 73
95 97 66
107 107 75
111 111 76
96 99 71
110 111 77
105 107 75
103 105 75
102 106 76
102 105 74
120 120 82
124 124 85
124 124 87
119 120 83
123 124 87
121 121 83
126 126 88
113 115 81
130 129 88
130 130 89
118 119 83
129 129 87
137 137 93
133 133 91
142 140 94
131 131 88
137 137 93
147 145 95
150 148 99
137 136 92
140 140 96
145 144 94
150 148 98
138 138 93
139 139 93
147 145 94
147 146 94
164 160 104
152 149 94
159 156 101
159 156 103
160 156 98
161 157 99
155 152 99
161 158 102
162 159 100
160 157 101
166 161 103
161 158 101
164 161 101
162 159 103
161 158 98
169 165 107
169 164 104
168 164 104
169 165 103
169 165 105
170 165 100
173 167 102
164 160 99
174 168 104
170 165 101
173 168 105
174 168 104
172 167 104
174 169 102
171 166 98
173 167 101
176 170 108
170 166 100
174 169 108
175 169 102
173 168 104
177 171 106
173 168 103
172 167 104
173 168 105
173 167 102
176 171 104
171 165 100
176 169 105
177 170 103
173 168 101
169 165 99
176 170 106
170 165 99
173 167 99
172 166 98
170 164 99
172 165 99
169 163 96
172 166 97
173 167 100
175 168 103
168 162 95
172 165 98
169 163 98
169 164 97
169 164 97
176 169 106
164 158 93
168 162 97
165 159 98
165 160 96
169 162 96
166 161 93
167 160 93
163 158 88
169 163 94
164 158 90
155 149 85
166 159 91
165 158 87
153 148 83
168 161 94
165 158 93
157 152 84
155 149 83
160 153 84
163 156 87
154 148 82
150 144 80
152 146 84
152 146 79
153 147 77
150 143 75
144 138 74
147 141 72
154 148 75
150 144 77
139 134 67
150 144 75
135 131 62
144 143 64
143 142 59
150 155 58
149 154 58
158 168 48
158 167 42
159 176 34
162 181 30
161 179 19
165 184 19
171 192 22
174 197 0
171 195 0
175 198 0
173 197 0
173 196 0
174 197 0
172 195 0
172 196 0
173 197 0
174 197 0
173 197 0
175 197 0
172 196 0
175 198 0
174 197 0
173 196 0
172 196 0
171 195 0
175 198 0
173 196 0
173 196 0
173 196 0
173 196 0
172 195 0
173 196 0
173 196 0
172 196 0
174 196 0
173 197 0
172 196 0
171 194 0
173 197 0
172 195 0
174 198 0
173 197 0
172 195 0
171 195 0
174 198 0
173 197 0
173 196 0
173 195 0
172 195 0
172 196 0
170 194 0
174 197 0
173 196 0
170 194 0
173 196 0
174 197 0
172 196 0
171 195 0
174 197 0
172 196 0
175 197 0
171 194 0
174 198 0
174 197 0
172 196 0
172 195 0
175 198 0
172 195 0
176 198 0
171 196 0
172 195 0
173 197 0
171 195 0
171 195 0
173 196 0
171 194 0
169 192 0
171 195 0
171 194 0
171 194 0
172 195 0
170 193 0
171 194 0
172 195 0
172 195 0
167 190 0
168 192 0
170 194 0
171 194 0
169 193 0
170 193 0
169 192 0
169 192 0
170 193 0
173 196 0
168 191 0
170 194 0
173 196 0
170 195 0
170 193 0
170 193 0
171 194 0
171 194 0
172 195 0
170 194 0
172 194 0
165 188 44
135 160 102
102 130 148
64 100 172
62 99 170
62 99 174
62 99 173
61 98 175
62 99 175
62 99 176
62 99 175
62 99 176
62 99 171
62 99 178
62 98 172
62 99 177
62 99 173
62 99 175
62 99 176
62 99 175
62 99 178
61 99 179
62 99 179
62 99 177
62 99 174
62 99 174
62 99 179
62 99 175
62 99 178
63 99 179
62 99 176
62 99 176
62 99 180
62 99 179
62 99 177
62 99 178
62 99 181
62 99 179
62 99 178
62 99 177
63 99 179
62 99 179
62 99 179
62 99 179
62 99 180
61 99 180
62 99 181
62 99 180
62 99 179
62 99 179
61 98 178
62 99 180
62 99 180
62 99 181
62 99 180
63 100 181
62 99 177
63 99 179
62 99 181
62 99 180
61 98 179
61 98 181
62 99 181
62 99 180
61 99 180
62 99 179
61 98 177
62 99 181
63 100 181
62 99 178
61 99 179
62 99 179
62 99 180
62 99 181
62 99 180
61 98 177
62 99 179
62 99 180
62 99 178
62 99 179
62 99 181
63 100 180
62 99 178
62 99 179
62 99 178
61 98 179
62 99 180
63 100 181
62 99 181
62 99 178
62 99 176
61 98 176
63 99 179
62 99 179
62 99 179
61 98 177
62 99 179
62 99 179
62 99 178
62 99 181
61 98 178
62 99 177
62 99 176
62 99 179
63 100 179
62 99 178
62 99 181
62 99 179
62 99 174
62 99 177
62 99 179
62 99 176
62 99 178
62 99 179
63 100 181
62 99 177
61 98 176
61 99 177
61 98 173
62 99 176
62 99 177
62 99 179
61 98 173
61 98 172
62 99 174
62 98 175
62 99 176
62 99 174
63 99 174
62 99 174
62 98 173
62 98 176
62 99 171
61 97 169
62 98 170
62 98 170
61 97 167
62 99 173
61 97 173
61 97 170
61 97 172
61 97 170
61 97 172
61 96 167
60 96 165
60 94 162
61 98 172
71 98 154
79 96 125
98 104 103
101 102 75
106 106 71
100 100 67
84 87 58
89 91 63
107 108 72
96 96 64
103 104 66
103 105 76
106 107 73
97 101 74
97 100 72
112 114 81
111 113 81
100 104 75
101 106 79
105 107 76
115 116 81
112 114 81
112 113 82
121 122 85
122 122 83
122 123 86
125 126 87
132 132 90
123 124 86
122 124 86
128 129 86
134 134 92
124 125 86
134 133 90
132 131 86
138 138 92
141 140 93
143 143 96
140 139 95
142 141 94
143 143 93
135 135 90
140 139 92
150 148 98
148 146 96
155 152 98
155 151 98
145 145 96
154 152 96
152 149 96
152 149 98
157 153 93
159 155 101
161 158 100
162 158 99
165 160 101
158 155 99
166 162 100
164 159 101
167 163 103
170 164 103
162 159 99
165 161 98
167 163 102
170 165 103
174 168 106
168 164 102
170 166 107
170 166 107
177 171 109
172 167 105
170 165 103
171 167 104
175 170 105
170 166 100
173 168 102
171 166 102
169 164 97
172 167 104
175 170 105
174 168 103
173 168 101
174 168 101
173 167 103
174 169 104
171 165 95
171 166 98
172 166 102
172 166 102
169 164 96
170 164 97
173 168 102
172 166 98
172 166 101
172 167 99
172 167 104
175 168 103
174 167 99
166 160 95
173 167 102
170 163 94
175 169 101
170 164 97
172 165 103
164 159 97
174 168 101
168 162 98
169 163 93
167 162 95
169 164 95
166 161 93
173 167 101
165 160 93
170 164 97
166 160 94
164 159 92
156 151 84
171 164 96
159 154 87
166 159 96
166 160 97
152 148 85
166 159 90
169 161 94
162 155 86
162 155 88
164 158 85
162 155 90
164 158 87
161 154 86
155 148 80
156 150 80
156 149 84
161 155 84
154 148 76
155 149 80
150 144 76
146 140 74
146 139 75
150 144 75
140 135 70
148 142 73
146 143 65
144 143 67
145 148 59
147 154 49
147 153 49
157 164 54
163 173 49
159 173 37
159 176 30
160 179 22
164 184 19
167 189 0
174 197 0
173 196 0
170 194 0
174 197 0
173 197 0
174 197 0
173 195 0
172 195 0
172 196 0
172 195 0
174 198 0
174 197 0
173 195 0
172 195 0
172 195 0
173 196 0
170 193 0
168 192 0
173 197 0
172 196 0
173 197 0
172 196 0
174 197 0
173 196 0
171 195 0
171 193 0
173 197 0
171 195 0
171 194 0
170 193 0
173 195 0
170 194 0
175 198 0
172 196 0
172 195 0
172 194 0
175 198 0
174 197 0
174 197 0
173 197 0
173 197 0
172 195 0
170 194 0
174 198 0
173 196 0
171 195 0
171 195 0
171 194 0
170 194 0
174 197 0
171 194 0
172 196 0
174 197 0
171 194 0
170 192 0
170 194 0
172 196 0
172 195 0
171 195 0
172 195 0
171 194 0
170 194 0
174 197 0
174 197 0
172 195 0
172 196 0
172 195 0
172 195 0
172 196 0
174 197 0
170 194 0
172 195 0
173 196 0
173 196 0
171 194 0
174 197 0
172 196 0
172 195 0
173 196 0
170 194 0
167 191 0
174 196 0
170 193 0
170 194 0
172 195 0
170 193 0
173 196 0
170 193 0
173 197 0
169 192 0
170 192 0
172 196 0
171 194 0
170 193 0
170 194 0
169 192 0
172 195 0
172 195 0
164 187 51
157 181 74
114 141 139
65 101 170
62 98 164
63 99 173
61 98 168
62 98 169
63 99 178
62 99 174
62 99 174
62 99 174
61 98 169
62 99 175
61 98 172
62 99 175
63 100 178
62 99 175
62 99 179
62 99 176
61 98 173
62 99 179
62 99 177
61 98 176
63 100 180
62 98 174
62 99 180
61 98 177
62 99 176
62 99 177
62 99 178
62 99 179
62 99 178
62 99 181
61 99 177
62 99 179
61 98 177
62 99 179
62 99 179
62 99 176
63 100 180
62 99 179
62 99 178
62 99 178
61 99 178
62 99 179
62 99 180
62 99 181
62 99 179
62 99 180
63 100 180
62 99 181
61 98 177
62 99 177
62 99 180
62 99 176
62 99 180
62 99 178
62 99 179
62 99 179
62 99 179
62 99 181
62 99 179
61 99 180
62 99 181
62 99 180
62 99 181
61 99 179
61 99 181
62 99 181
62 99 178
62 99 181
62 99 179
62 99 180
62 99 180
61 99 180
61 98 175
63 100 180
61 99 180
62 99 179
62 99 181
62 99 180
61 99 177
62 99 180
61 99 180
62 99 181
62 99 180
62 99 181
61 98 179
62 99 180
62 99 181
62 99 180
63 100 180
62 99 178
62 99 179
62 99 179
62 99 179
62 99 179
62 99 178
62 99 178
61 98 178
62 99 179
62 99 179
62 99 173
61 98 175
62 99 177
63 100 180
61 98 176
61 99 180
61 98 180
62 99 181
62 99 174
61 98 176
62 99 177
62 99 175
61 98 177
62 99 179
62 99 176
62 99 176
62 99 176
61 98 174
62 99 174
61 98 173
62 99 175
61 98 177
62 99 176
62 99 176
62 98 174
62 99 178
62 99 176
63 99 178
61 98 171
62 99 173
62 98 170
62 99 176
62 99 175
61 98 173
61 97 171
62 98 172
62 98 173
61 97 166
61 97 171
62 98 167
62 98 172
61 97 170
59 94 161
62 98 168
60 95 163
60 95 163
83 102 140
97 106 108
81 88 87
96 97 68
88 90 59
109 109 72
88 90 61
82 84 56
90 93 65
98 100 71
103 103 69
98 100 69
109 109 78
116 115 79
86 91 68
99 100 69
110 111 80
110 112 81
106 109 77
111 112 78
112 113 79
117 118 84
116 117 83
117 118 81
120 121 83
117 118 82
126 126 85
120 121 87
123 123 85
126 127 89
131 131 86
134 133 89
136 136 90
127 127 86
127 129 89
128 127 87
134 134 90
136 136 93
139 138 92
141 141 93
137 137 92
150 148 94
151 149 97
153 150 97
153 151 96
158 155 99
153 150 98
146 145 97
157 155 102
149 147 92
157 153 98
159 156 96
161 157 101
162 158 99
158 155 101
158 156 100
162 159 98
159 156 97
164 160 98
161 158 97
165 161 96
168 163 100
174 168 107
164 161 103
171 166 105
165 162 100
171 165 104
171 165 101
166 162 100
170 165 101
168 164 101
168 164 101
172 167 101
174 168 104
173 168 103
172 167 104
174 168 104
173 167 106
174 169 103
174 169 107
174 167 104
173 167 104
172 167 103
172 167 100
172 167 100
175 169 104
176 170 103
173 167 103
175 169 103
175 169 100
176 170 104
180 172 106
172 166 101
175 168 102
170 164 99
171 165 97
170 165 99
173 166 98
173 167 103
170 163 93
166 161 93
171 166 95
172 165 96
168 164 93
172 166 97
170 165 101
168 162 97
169 164 93
175 168 101
169 163 97
164 159 95
169 163 96
166 160 95
162 157 93
169 163 95
169 163 95
169 162 95
172 165 88
162 156 86
162 156 90
158 152 84
157 151 85
166 160 96
162 156 89
160 153 90
156 150 86
156 151 78
156 150 85
160 154 88
156 150 80
155 150 82
152 146 79
152 146 76
153 147 79
156 149 82
156 150 80
139 134 69
147 141 75
147 142 77
142 137 66
137 131 67
138 135 62
142 142 60
151 151 66
148 153 54
152 159 52
150 158 47
159 170 47
159 176 32
167 184 30
166 184 34
166 185 19
171 191 0
173 197 0
173 197 0
173 196 0
174 197 0
174 197 0
173 196 0
172 195 0
173 197 0
175 198 0
172 195 0
172 196 0
172 196 0
174 197 0
173 196 0
172 195 0
169 192 0
172 196 0
171 195 0
174 198 0
174 197 0
173 196 0
174 197 0
174 197 0
170 194 0
173 196 0
173 197 0
174 196 0
174 198 0
173 196 0
171 194 0
174 197 0
173 196 0
171 194 0
173 196 0
173 196 0
172 195 0
171 194 0
172 195 0
173 197 0
171 196 0
171 195 0
172 196 0
174 197 0
169 194 0
173 196 0
171 195 0
170 193 0
172 195 0
172 195 0
172 196 0
172 195 0
171 195 0
174 197 0
172 195 0
174 197 0
172 197 0
174 196 0
172 195 0
173 196 0
171 194 0
171 193 0
172 194 0
169 192 0
171 194 0
174 197 0
173 196 0
172 196 0
173 196 0
169 193 0
168 192 0
170 193 0
171 195 0
168 191 0
172 195 0
172 196 0
172 195 0
171 195 0
171 194 0
171 195 0
170 192 0
172 195 0
172 196 0
169 193 0
170 194 0
172 195 0
172 196 0
172 195 0
173 195 0
169 192 0
172 196 0
172 195 0
174 196 0
170 194 0
171 194 0
171 194 0
172 196 0
172 194 0
168 192 18
154 178 74
131 156 114
83 114 160
63 99 171
64 100 174
62 98 168
63 99 169
63 99 172
63 99 174
63 99 176
62 99 176
63 99 170
62 98 168
62 98 171
62 99 172
61 98 177
62 99 174
63 99 174
62 99 178
62 99 176
62 99 177
63 100 178
62 99 178
61 98 174
62 99 180
62 99 176
62 99 178
62 99 177
63 100 180
62 99 181
62 99 179
62 99 174
62 99 177
62 99 178
62 99 176
62 99 175
62 99 175
63 100 179
63 99 177
62 99 176
62 99 180
62 99 180
62 99 180
63 100 180
62 99 180
62 99 180
62 99 179
62 99 178
62 99 180
62 99 181
61 98 180
62 99 180
62 99 180
62 99 179
62 99 180
62 99 180
62 99 179
62 99 181
62 99 180
62 99 179
62 99 181
62 99 179
62 99 180
62 99 180
62 99 179
62 99 179
62 99 180
62 99 178
61 98 179
62 99 181
62 99 180
62 99 180
63 100 181
62 99 180
62 99 180
63 100 181
62 99 179
62 99 181
62 99 180
62 99 176
62 99 180
62 99 179
62 99 179
62 99 179
62 99 179
62 99 180
62 99 180
62 99 175
62 99 177
62 99 181
62 99 179
61 98 176
63 100 179
62 99 179
62 99 178
62 99 177
62 99 178
61 99 179
61 99 178
62 99 179
62 99 179
62 99 179
62 99 178
62 99 178
62 99 178
62 99 177
62 99 180
62 99 179
61 99 178
62 99 179
61 98 174
61 98 178
62 99 179
62 99 179
61 99 178
62 99 179
62 99 176
62 99 175
62 99 177
63 99 177
62 98 172
61 98 174
61 98 174
62 99 177
62 98 174
62 99 179
62 99 179
61 98 172
62 98 172
62 98 171
61 98 174
61 97 166
62 98 174
62 98 172
61 97 169
61 98 175
62 99 177
62 98 169
62 98 170
61 97 168
62 98 173
62 98 168
62 98 173
61 96 168
60 96 166
61 97 167
59 95 165
61 96 165
61 96 167
65 95 155
70 92 134
78 89 106
88 93 83
91 93 67
91 92 62
100 101 68
91 93 64
91 92 63
91 93 63
108 108 73
96 98 69
98 99 70
102 104 74
107 109 77
94 97 72
94 96 69
109 109 76
108 109 78
110 112 80
113 115 82
121 121 82
107 112 82
117 118 83
118 119 83
114 116 81
126 126 87
115 116 79
120 122 85
132 131 88
131 130 87
140 138 91
139 138 89
122 123 77
133 133 88
141 140 93
150 148 97
130 131 91
145 144 95
141 141 90
143 142 93
150 148 96
150 147 93
151 149 95
146 145 95
155 152 97
155 153 98
156 153 99
151 149 98
157 153 99
162 159 103
160 156 98
156 153 98
159 156 98
155 151 97
162 158 100
164 160 100
163 159 100
164 160 101
169 165 104
165 161 103
169 165 97
172 166 102
169 165 103
171 166 105
169 164 102
173 167 104
171 165 101
167 162 97
170 166 104
167 162 99
172 167 101
176 169 108
174 168 105
170 165 99
169 165 98
170 165 100
178 171 105
177 171 105
171 167 103
173 168 104
176 169 101
176 170 103
175 169 105
173 167 99
174 169 105
175 169 101
174 169 102
174 168 101
173 167 101
177 170 106
171 166 97
173 167 99
170 164 100
175 168 102
171 165 100
173 167 99
173 167 102
172 166 99
172 166 99
169 163 95
171 165 94
163 158 93
169 163 98
174 167 101
173 168 98
171 165 100
172 166 98
167 161 91
170 163 100
168 162 90
165 159 89
168 161 95
163 156 90
165 159 89
166 160 90
168 162 95
167 160 93
165 159 90
160 154 88
159 153 88
168 161 94
160 155 90
166 159 88
158 152 84
160 153 87
164 157 91
160 154 86
152 146 78
160 153 87
152 147 77
158 152 80
157 150 80
156 149 75
151 146 76
154 147 77
147 141 75
151 145 74
154 147 75
153 147 76
138 133 63
139 136 63
142 142 61
153 153 63
147 151 58
148 151 58
150 158 45
160 174 36
159 172 45
162 179 30
163 182 16
164 186 16
169 190 0
173 197 0
172 196 0
174 196 0
174 197 0
173 196 0
173 197 0
174 197 0
174 197 0
172 195 0
173 197 0
174 197 0
175 198 0
173 196 0
174 197 0
173 196 0
174 198 0
172 195 0
171 195 0
173 197 0
174 198 0
174 197 0
171 194 0
173 197 0
173 197 0
171 195 0
172 196 0
173 197 0
173 196 0
173 196 0
173 196 0
172 196 0
173 196 0
173 196 0
171 196 0
173 196 0
171 195 0
173 196 0
174 196 0
170 194 0
173 197 0
171 195 0
172 194 0
171 194 0
172 196 0
170 193 0
171 195 0
171 195 0
170 194 0
173 197 0
172 196 0
172 195 0
171 194 0
173 196 0
173 196 0
171 194 0
173 196 0
173 197 0
171 193 0
173 196 0
172 195 0
171 194 0
170 194 0
172 196 0
170 193 0
172 195 0
172 195 0
167 191 0
172 195 0
172 195 0
171 195 0
168 191 0
171 195 0
171 195 0
172 196 0
170 194 0
173 197 0
173 196 0
172 195 0
172 194 0
171 194 0
171 194 0
173 195 0
171 194 0
171 194 0
172 196 0
168 192 0
171 195 0
170 193 0
172 195 0
168 192 0
172 196 0
169 193 0
173 196 0
169 193 0
166 187 0
171 194 0
174 197 0
166 190 47
141 165 99
102 130 142
62 98 170
62 98 170
62 98 170
62 99 173
62 99 172
62 99 170
62 98 166
63 99 177
62 99 175
61 98 168
61 98 174
62 99 175
62 99 173
61 98 175
62 99 174
63 99 175
62 99 174
62 99 179
62 99 176
62 99 176
62 99 178
62 99 176
62 99 179
62 99 177
63 99 178
62 99 174
62 99 178
61 99 178
62 99 179
62 99 179
62 99 177
61 99 179
62 99 178
62 99 181
62 99 181
62 99 180
62 99 179
62 99 177
62 99 178
62 99 177
62 99 178
62 99 179
62 99 178
62 99 181
62 99 181
62 99 179
62 99 180
63 99 178
62 99 181
62 99 179
63 100 181
61 99 180
62 99 180
62 99 180
62 99 179
63 99 178
62 99 180
62 99 175
62 99 178
62 99 181
61 99 180
62 99 179
62 99 181
63 100 181
62 99 181
62 99 180
62 99 175
62 99 179
62 99 178
61 99 180
62 99 180
62 99 178
62 99 179
62 99 179
62 99 180
61 98 176
62 99 181
62 99 178
62 99 178
62 99 178
62 99 180
62 99 180
62 99 181
62 99 180
61 99 179
62 99 177
62 99 181
62 99 178
62 99 179
62 99 179
62 99 180
61 99 180
61 98 178
63 99 177
62 99 178
62 99 180
62 99 180
62 99 180
62 99 175
62 99 178
63 99 179
62 99 176
63 100 180
62 99 177
62 99 175
62 98 174
62 98 172
62 99 180
62 99 179
62 99 178
62 99 178
62 99 176
62 99 177
62 99 178
62 99 174
62 99 176
62 99 177
62 99 177
62 99 177
62 99 178
62 99 177
62 99 175
62 99 175
62 99 176
61 98 175
62 99 177
62 99 179
62 99 179
63 100 177
61 98 174
63 99 175
62 99 176
61 97 169
62 97 173
62 99 175
61 97 168
62 98 174
62 98 172
62 98 172
62 98 168
61 97 173
61 96 167
61 97 167
61 97 168
61 97 168
59 93 153
61 96 166
60 94 160
71 95 142
74 92 122
88 98 108
91 93 74
107 107 70
96 97 62
84 87 57
84 88 62
101 102 72
100 102 72
100 101 71
107 108 76
114 115 82
107 108 74
102 103 72
92 95 68
103 105 75
108 110 78
99 102 73
103 106 74
112 114 80
114 114 80
105 108 76
111 113 79
113 114 79
118 119 85
136 135 88
122 124 86
122 123 83
128 128 86
132 131 86
120 122 84
133 133 90
128 128 88
140 139 95
146 144 96
129 130 88
144 142 94
144 141 91
141 139 90
149 146 95
149 146 92
154 151 98
148 146 94
149 147 94
157 153 98
145 143 93
160 156 101
153 150 96
157 153 97
154 151 98
149 147 94
160 156 99
166 162 102
163 159 99
162 157 96
159 156 97
162 158 98
164 159 99
172 166 100
169 164 100
164 159 98
160 157 98
170 165 103
163 159 98
167 163 97
173 168 101
174 169 107
168 164 98
171 166 102
174 168 101
175 169 105
171 166 100
171 166 97
172 166 99
177 171 107
173 167 102
171 166 100
175 170 107
177 170 106
169 164 97
174 168 98
172 167 104
172 167 105
177 170 103
173 168 97
174 168 99
174 167 101
171 166 100
175 168 99
172 166 100
171 165 95
170 164 92
174 167 100
170 164 95
168 162 98
171 165 93
172 166 101
169 162 97
172 165 95
170 164 98
171 164 96
171 165 98
170 164 99
170 163 94
172 165 98
168 161 93
160 155 84
175 168 99
172 166 100
164 158 90
168 163 95
167 161 95
170 164 94
165 159 92
167 161 95
171 164 93
170 163 91
159 152 84
162 157 87
162 156 84
158 152 87
157 152 87
155 149 84
163 157 87
159 153 84
161 154 89
155 149 84
156 151 84
148 142 75
143 138 70
150 144 72
146 140 74
158 152 78
148 142 73
152 147 75
140 135 72
148 143 68
154 148 74
140 135 66
141 137 61
147 145 63
148 148 62
151 156 54
155 163 51
155 165 49
158 172 42
159 173 39
157 174 25
167 184 30
165 184 30
170 191 11
173 196 0
173 196 0
173 196 0
172 196 0
173 196 0
173 196 0
174 197 0
173 197 0
173 196 0
173 196 0
173 196 0
172 196 0
170 194 0
174 197 0
173 196 0
172 195 0
172 196 0
172 196 0
173 196 0
172 196 0
174 197 0
174 197 0
173 196 0
172 194 0
173 196 0
175 198 0
173 197 0
173 197 0
171 194 0
174 196 0
174 196 0
174 197 0
169 193 0
173 196 0
172 196 0
173 197 0
172 196 0
171 195 0
173 197 0
175 198 0
172 196 0
172 195 0
171 194 0
173 197 0
171 195 0
170 194 0
173 196 0
170 193 0
171 195 0
169 193 0
173 196 0
171 195 0
173 196 0
172 195 0
170 193 0
170 194 0
172 196 0
170 195 0
171 195 0
173 197 0
172 195 0
171 194 0
173 196 0
173 197 0
173 197 0
172 195 0
172 195 0
173 197 0
171 194 0
172 196 0
174 197 0
173 196 0
172 195 0
172 195 0
168 192 0
170 193 0
167 191 0
172 195 0
172 195 0
171 195 0
170 192 0
172 195 0
173 197 0
174 197 0
168 191 0
172 195 0
171 195 0
170 193 0
173 195 0
173 196 0
172 194 0
174 197 0
170 194 0
171 193 0
171 194 0
170 193 0
167 191 36
152 176 88
119 145 127
64 100 165
62 98 169
62 98 167
62 99 172
62 99 170
62 99 172
61 98 171
62 98 171
62 99 174
63 99 173
62 98 168
62 99 174
62 99 178
62 99 175
62 98 170
62 99 179
62 98 172
62 99 175
62 99 175
62 99 179
62 99 173
62 99 179
61 98 176
62 99 179
63 99 178
62 98 173
61 99 177
62 99 178
62 99 180
62 99 178
61 98 176
62 99 178
62 99 178
62 99 178
63 100 181
62 99 178
62 99 178
62 99 180
62 99 179
62 99 180
62 99 180
62 99 180
62 99 179
62 99 176
62 99 180
62 99 177
62 99 179
61 99 180
62 99 178
62 99 179
62 99 177
62 99 180
62 99 177
61 98 179
62 99 179
62 99 177
62 99 177
62 99 180
62 99 181
62 99 181
62 99 179
63 100 181
62 99 178
62 99 181
62 99 178
62 99 178
62 99 181
62 99 179
62 99 179
62 99 177
62 99 180
62 99 178
61 98 179
62 99 181
62 99 179
63 100 178
62 99 178
62 99 181
62 99 179
62 99 180
62 99 178
62 99 178
62 99 177
62 99 178
62 99 178
61 99 179
61 98 176
62 99 177
62 99 179
62 99 176
61 99 178
62 99 179
62 99 179
62 99 180
62 99 177
62 99 180
62 99 179
62 99 178
61 99 179
62 99 178
63 100 180
62 99 179
62 99 179
62 99 177
62 99 175
62 99 177
62 99 179
62 99 179
62 99 175
61 98 177
62 99 179
62 99 179
62 99 176
62 99 176
62 99 177
62 99 175
62 99 177
62 99 177
61 98 174
62 99 174
62 99 176
61 98 174
62 99 177
62 99 175
62 99 176
61 98 172
62 99 173
63 100 175
62 99 175
62 99 173
62 99 177
63 99 176
61 98 173
62 98 174
62 99 173
62 98 175
62 99 176
62 98 170
62 98 173
62 99 175
62 98 172
61 97 170
61 96 168
62 98 172
61 95 164
61 97 168
62 98 169
60 95 159
59 93 154
61 94 156
76 97 137
77 92 118
81 88 93
97 99 76
83 86 58
93 96 67
96 97 68
90 93 65
82 86 66
90 94 68
82 86 63
108 110 77
90 94 68
91 95 69
104 106 74
100 104 76
99 101 73
104 105 74
103 105 77
105 107 74
111 113 81
116 117 79
105 108 78
118 120 84
122 123 86
119 119 82
123 123 85
115 116 80
127 128 88
127 126 82
121 122 86
121 123 83
133 133 91
131 131 86
129 130 90
139 138 89
128 129 85
145 143 94
140 138 90
138 138 91
142 142 92
143 142 95
146 144 93
150 147 93
151 149 96
153 151 96
151 148 92
152 149 93
153 150 97
158 154 98
152 150 94
159 155 96
161 157 98
167 163 104
163 159 98
157 154 99
164 159 100
167 163 101
158 155 93
170 165 99
168 164 102
164 161 98
164 160 97
164 161 101
163 160 101
168 163 99
170 165 101
169 164 95
175 170 104
169 164 97
169 164 102
174 168 102
174 167 101
170 165 101
171 166 98
172 166 102
173 167 102
173 167 98
174 168 104
173 168 103
171 167 103
176 170 103
171 165 97
173 167 103
176 170 103
172 165 95
172 166 99
172 166 99
174 168 100
175 168 99
172 166 100
177 170 106
171 165 95
166 161 95
174 168 100
173 167 99
175 169 100
174 167 102
169 163 95
175 168 98
167 162 94
173 167 97
169 163 94
165 160 88
171 166 99
170 163 95
167 161 93
169 164 98
169 163 94
170 164 93
164 158 87
164 157 90
168 161 93
165 159 94
168 161 92
165 159 93
162 156 90
166 159 88
161 155 90
164 157 88
156 150 81
153 146 81
155 149 83
159 152 82
158 151 84
155 148 81
160 153 82
161 154 84
152 145 76
153 146 78
152 146 79
151 145 79
154 147 75
148 142 75
146 140 73
152 145 78
146 139 71
149 144 73
140 135 65
138 134 63
141 140 53
152 153 63
144 151 49
150 158 52
153 162 39
157 169 36
159 173 42
162 181 25
158 178 16
166 185 16
168 189 19
173 197 0
172 196 0
170 193 0
173 197 0
175 198 0
173 196 0
172 196 0
170 194 0
173 196 0
173 197 0
173 196 0
174 197 0
174 197 0
173 196 0
175 198 0
173 196 0
168 192 0
174 197 0
172 195 0
171 195 0
173 197 0
174 197 0
169 192 0
171 195 0
174 197 0
171 195 0
173 196 0
171 195 0
167 189 0
172 195 0
172 196 0
172 196 0
172 196 0
171 195 0
171 194 0
171 194 0
171 194 0
172 196 0
173 197 0
170 193 0
171 195 0
171 194 0
172 196 0
172 195 0
172 196 0
171 195 0
171 195 0
174 197 0
174 198 0
169 192 0
172 196 0
174 197 0
173 195 0
175 198 0
173 197 0
174 197 0
172 196 0
174 197 0
173 196 0
171 194 0
171 195 0
172 196 0
170 194 0
170 193 0
170 193 0
173 196 0
171 194 0
168 191 0
168 192 0
174 197 0
172 196 0
169 193 0
171 194 0
170 193 0
172 195 0
168 191 0
174 197 0
171 194 0
170 193 0
170 193 0
172 195 0
171 193 0
171 195 0
171 194 0
171 194 0
174 197 0
170 194 0
170 193 0
173 195 0
171 195 0
171 195 0
169 192 0
169 192 0
171 194 0
170 193 0
170 193 31
161 183 67
128 154 110
78 110 159
62 99 167
62 98 168
63 99 170
62 98 170
62 99 169
62 99 172
63 99 172
61 98 171
62 99 172
62 99 173
62 99 175
63 99 177
62 98 169
62 99 173
63 99 174
62 98 174
62 99 178
62 99 174
62 99 176
62 99 177
63 100 179
62 99 177
62 99 177
63 99 176
62 99 178
62 99 179
62 99 179
62 99 180
62 99 177
62 99 179
62 99 179
62 99 179
62 99 179
62 99 180
62 99 178
63 100 181
62 99 180
62 99 180
62 99 176
62 99 179
62 99 178
62 99 180
62 99 180
61 99 179
62 99 179
62 99 180
62 99 179
62 99 181
62 99 176
62 99 178
62 99 180
62 99 181
62 99 177
62 99 179
62 99 180
62 99 180
62 99 176
62 99 179
62 99 179
62 99 178
62 99 177
62 99 179
62 99 179
62 99 180
62 99 180
62 99 180
62 99 176
61 98 176
61 98 180
62 99 179
61 98 176
62 99 178
62 99 179
62 99 177
62 99 179
62 99 178
62 99 180
62 99 179
62 99 181
62 99 180
62 99 178
62 99 179
62 99 179
62 99 179
62 99 179
62 99 178
61 98 179
62 99 176
63 100 179
62 99 177
61 99 178
62 99 180
61 98 177
62 99 179
62 99 178
61 99 180
61 98 175
62 99 180
62 99 175
62 99 177
62 99 177
62 98 175
62 99 179
61 98 177
62 99 174
62 99 177
62 99 176
62 99 177
62 99 174
62 99 176
63 99 177
62 99 178
62 99 177
62 99 178
62 99 176
62 98 172
62 99 173
63 100 179
62 98 174
62 99 176
62 99 175
63 99 176
62 99 180
63 100 178
62 99 175
62 99 175
62 99 174
62 99 172
62 98 171
62 98 173
62 99 174
62 98 170
62 99 171
63 99 175
62 98 168
62 99 174
63 99 176
62 97 169
62 98 173
62 98 170
62 98 172
62 98 173
61 96 166
61 96 163
61 97 168
61 97 168
61 97 168
61 96 164
59 93 164
60 94 158
62 94 158
76 94 126
80 92 105
75 81 65
82 85 61
90 90 60
91 92 64
81 86 64
79 82 58
83 87 65
87 90 63
92 94 65
98 101 73
89 93 70
88 93 66
107 109 76
107 108 77
104 106 74
106 108 77
108 109 76
110 111 79
119 119 81
115 116 78
116 118 82
117 117 82
121 122 84
107 110 77
128 127 86
123 123 83
125 126 83
126 126 84
133 133 85
128 128 88
131 131 86
133 132 92
138 136 91
138 137 92
136 136 89
135 135 90
151 148 94
146 144 92
142 141 92
144 142 92
150 147 92
143 142 88
155 151 99
145 142 86
157 154 95
153 149 90
161 157 97
157 154 97
166 161 98
161 157 99
158 154 98
161 157 99
163 158 97
167 161 102
160 158 101
172 166 101
166 162 101
171 165 99
163 159 95
170 165 98
170 164 100
173 167 105
168 164 105
167 163 95
168 163 101
164 160 97
173 167 101
174 168 101
169 164 96
172 166 101
169 165 103
171 166 103
175 168 101
172 166 97
172 166 100
175 169 104
174 167 102
173 167 100
175 168 101
174 168 100
173 167 100
175 168 98
173 167 102
175 169 104
167 162 97
174 168 100
172 166 97
175 168 100
172 167 96
177 171 104
173 166 97
169 163 93
174 168 99
172 166 97
171 165 96
166 160 95
166 161 92
172 167 97
172 166 98
166 160 90
167 161 97
173 166 95
172 165 97
167 161 91
168 162 93
172 165 97
166 160 93
167 160 96
167 161 90
166 159 93
164 157 91
157 153 89
161 156 84
161 154 81
156 151 82
166 160 92
159 152 84
163 158 87
166 159 84
162 156 87
158 153 89
161 155 84
155 149 80
157 152 79
155 148 81
148 142 77
153 147 81
151 145 81
145 139 70
152 145 76
151 145 75
153 147 79
151 146 69
143 136 68
147 141 74
144 139 67
140 136 61
147 147 61
149 149 61
148 153 54
142 149 39
150 159 48
153 162 42
157 172 37
151 166 30
164 181 32
167 187 11
168 191 0
173 196 0
176 199 0
174 197 0
172 196 0
173 197 0
174 197 0
169 193 0
174 197 0
169 193 0
172 196 0
172 196 0
173 196 0
173 196 0
173 196 0
171 194 0
172 196 0
170 194 0
172 195 0
174 198 0
173 196 0
172 196 0
171 194 0
174 197 0
173 196 0
166 189 0
169 193 0
171 194 0
170 193 0
173 197 0
172 195 0
174 196 0
170 194 0
172 196 0
173 196 0
171 194 0
173 196 0
173 196 0
172 195 0
173 197 0
170 194 0
173 197 0
173 195 0
171 195 0
171 195 0
174 197 0
171 194 0
173 196 0
173 196 0
172 196 0
172 195 0
170 195 0
173 197 0
170 193 0
173 196 0
173 196 0
170 195 0
173 196 0
170 193 0
174 197 0
170 194 0
174 196 0
174 197 0
171 194 0
169 192 0
170 193 0
172 195 0
171 193 0
171 194 0
171 195 0
170 193 0
173 196 0
173 196 0
170 193 0
171 194 0
169 191 0
173 197 0
172 195 0
174 197 0
173 196 0
175 198 0
173 196 0
171 194 0
172 196 0
172 195 0
170 194 0
173 197 0
172 197 0
170 194 0
172 194 0
172 195 0
171 195 0
173 196 0
171 194 0
169 192 0
171 194 0
165 188 51
142 166 99
106 134 142
61 98 172
62 99 169
62 99 167
61 98 170
63 99 173
61 98 167
62 99 176
62 99 173
62 98 173
63 99 173
62 98 167
62 99 173
62 99 177
63 99 174
61 98 172
62 99 180
62 99 177
62 99 177
63 99 176
63 100 178
62 99 173
62 99 178
62 99 177
63 99 176
61 98 177
62 99 178
62 99 176
62 99 174
62 99 177
62 99 178
62 99 177
62 99 178
61 99 178
63 99 177
61 98 178
62 99 179
62 99 179
62 99 174
62 99 180
61 99 178
62 99 180
62 99 181
61 98 176
62 99 178
62 99 177
62 99 181
62 99 180
62 99 181
63 100 179
62 99 179
62 99 180
61 98 173
62 98 177
62 99 178
62 99 180
62 99 177
62 99 179
61 99 179
62 99 177
62 99 178
62 99 180
62 99 180
62 99 179
62 99 179
62 99 180
62 99 181
62 99 179
62 99 180
63 100 179
62 99 181
62 99 180
61 98 178
62 99 178
62 99 175
62 99 179
62 99 179
62 99 180
62 99 178
62 99 179
62 99 177
62 99 180
61 99 177
62 99 178
62 99 180
62 99 178
61 99 178
62 99 180
63 99 176
62 99 177
62 99 177
62 99 178
62 99 180
61 99 178
61 98 178
62 99 177
62 99 179
63 99 177
63 100 181
62 99 176
62 99 176
62 99 177
62 99 180
62 99 181
62 99 181
62 99 177
63 100 177
62 99 174
62 99 177
62 99 180
62 99 181
62 99 176
62 99 176
63 100 181
62 99 177
62 99 179
62 99 174
63 99 174
62 99 177
63 99 177
62 99 178
61 98 176
62 99 177
61 98 171
62 99 177
62 99 174
63 99 175
62 99 177
62 99 175
62 98 172
62 98 175
62 98 171
62 98 172
61 98 170
62 99 172
61 98 170
61 98 170
61 98 173
62 99 172
62 98 173
62 98 171
62 99 177
63 99 172
61 96 162
62 98 172
62 98 172
61 97 168
60 95 163
61 97 168
62 97 166
61 97 170
61 95 167
61 94 161
74 96 140
75 92 120
68 80 89
82 86 68
90 92 66
80 83 57
88 91 66
74 78 53
97 99 72
84 87 64
81 86 66
88 92 66
83 86 63
92 94 67
99 102 74
89 93 67
101 104 72
98 101 73
102 104 73
115 117 83
113 115 80
103 106 75
114 116 80
124 125 87
120 120 79
122 122 80
125 125 85
117 118 80
128 128 83
131 130 87
130 131 86
122 123 85
138 136 87
130 129 86
140 139 94
136 135 89
144 142 91
130 131 88
146 144 93
145 144 93
146 144 93
140 139 89
138 138 86
150 148 96
147 145 90
152 150 96
152 149 94
154 151 95
160 157 100
158 155 97
155 151 96
158 154 94
162 158 95
164 159 100
161 157 99
158 154 96
165 161 97
165 160 99
161 158 97
166 162 98
162 158 94
171 166 100
162 158 96
162 158 95
164 160 94
171 166 101
167 162 97
166 162 103
170 165 99
173 167 102
172 166 97
170 165 97
172 167 105
174 168 101
175 168 102
172 166 97
174 168 97
170 165 98
173 167 99
175 169 98
173 167 98
175 169 101
174 168 102
174 169 101
178 171 102
171 165 97
171 165 98
174 168 101
173 168 99
174 167 98
173 168 99
177 169 99
170 165 96
174 168 97
169 164 97
170 164 93
171 164 97
168 162 93
170 164 95
174 166 97
169 163 92
171 165 100
171 165 98
170 163 94
165 158 91
167 162 89
169 162 88
165 159 92
162 157 90
160 155 88
166 159 89
160 155 88
159 154 87
162 156 87
164 157 91
172 165 95
157 152 84
159 153 83
156 151 80
160 153 87
159 153 82
155 149 80
165 159 90
158 152 83
158 151 80
159 153 81
162 155 84
155 148 80
137 132 72
147 141 75
149 143 75
144 138 75
153 146 76
146 139 70
144 138 74
136 131 67
149 142 75
144 139 67
149 146 64
141 142 58
141 142 54
150 155 44
154 163 48
160 166 57
159 172 41
158 172 32
159 175 19
164 183 25
169 189 22
166 187 11
171 194 0
172 196 0
171 195 0
171 195 0
170 194 0
174 197 0
173 196 0
173 197 0
171 195 0
171 195 0
173 196 0
172 196 0
174 197 0
174 197 0
174 197 0
173 197 0
174 196 0
170 193 0
171 195 0
172 195 0
172 195 0
173 197 0
172 195 0
171 194 0
172 195 0
171 194 0
173 196 0
172 195 0
173 197 0
172 195 0
174 197 0
173 196 0
171 193 0
170 194 0
174 197 0
170 194 0
172 196 0
170 194 0
172 196 0
172 195 0
174 197 0
174 198 0
172 196 0
173 197 0
171 195 0
175 197 0
173 196 0
172 196 0
170 194 0
173 196 0
173 196 0
171 195 0
172 196 0
171 194 0
171 195 0
172 195 0
174 197 0
173 196 0
170 193 0
172 195 0
170 194 0
172 195 0
173 196 0
171 194 0
170 194 0
173 196 0
173 196 0
172 196 0
172 196 0
172 196 0
171 195 0
170 194 0
173 196 0
174 197 0
174 197 0
171 195 0
170 193 0
172 195 0
174 198 0
173 197 0
171 193 0
170 194 0
171 195 0
173 196 0
173 196 0
174 197 0
171 194 0
171 194 0
169 192 0
174 196 0
170 193 0
170 194 0
174 196 0
170 193 0
171 194 18
158 182 70
130 155 115
78 110 161
62 99 171
62 99 172
62 99 170
62 98 168
61 97 164
62 98 167
62 99 173
63 99 173
62 98 169
63 99 175
63 100 172
62 99 173
62 99 175
62 99 177
62 99 173
62 99 174
62 99 178
63 100 177
62 98 170
62 99 174
62 99 174
62 99 179
63 99 176
62 99 178
63 99 179
62 99 175
62 99 174
62 99 178
62 99 179
62 99 176
63 100 177
62 99 174
62 99 178
62 99 178
62 99 178
62 99 179
62 99 180
62 99 179
62 99 180
62 99 177
62 99 179
61 98 177
62 99 179
62 99 181
63 100 180
62 99 178
62 99 178
62 99 180
62 99 179
62 99 179
61 98 179
62 99 179
62 99 179
62 99 179
63 100 180
62 99 180
61 99 180
62 99 178
62 99 177
62 99 178
62 99 176
62 99 178
61 98 177
62 99 179
62 99 177
62 99 181
62 99 180
62 99 178
62 99 179
62 99 179
62 99 178
62 99 178
63 100 178
62 99 180
62 99 179
62 99 177
62 99 178
62 99 178
63 100 179
61 98 179
62 99 178
62 99 177
62 99 178
61 98 176
62 99 180
62 99 176
63 100 180
61 98 179
62 99 181
62 99 180
62 99 179
62 99 177
62 99 178
62 99 179
62 98 173
62 99 178
62 99 176
62 99 177
62 99 176
62 99 179
62 99 177
61 98 174
62 99 180
62 99 174
62 99 176
61 98 178
62 99 176
62 99 177
62 99 176
62 99 177
62 99 175
62 99 173
62 99 177
62 99 175
63 100 179
62 99 178
62 99 178
62 99 175
61 98 173
61 98 175
62 99 176
62 99 180
62 98 176
61 98 175
63 99 176
62 99 175
62 99 173
62 98 176
62 98 172
61 98 172
63 99 172
63 99 170
61 97 164
62 99 175
62 98 172
62 99 173
62 99 174
62 99 170
62 98 172
62 98 170
61 97 165
61 97 169
62 97 171
62 98 172
61 96 159
61 98 167
61 96 166
61 97 167
61 97 169
61 96 164
60 94 163
60 95 165
60 95 161
67 90 130
77 91 114
78 84 79
81 84 61
72 76 54
98 99 64
88 91 66
81 85 62
82 85 61
90 93 67
84 88 64
93 96 66
89 92 66
92 96 71
97 100 69
88 93 71
103 105 76
95 97 66
102 105 75
97 101 70
118 118 79
109 111 75
115 116 79
113 115 82
107 109 74
111 113 76
124 124 83
129 129 87
116 116 78
126 126 83
135 134 89
129 129 85
137 136 88
123 124 86
137 136 89
141 139 91
142 139 84
132 133 86
142 141 90
142 141 91
146 143 94
143 142 90
151 148 95
153 150 93
152 149 90
151 148 93
149 146 90
159 155 97
153 150 93
165 161 101
160 156 94
152 149 89
163 158 96
162 158 101
165 160 99
164 160 98
163 158 96
161 158 98
165 161 99
170 165 102
164 160 97
166 162 95
165 160 98
169 164 100
168 163 98
167 162 97
176 169 104
173 166 98
168 163 97
175 169 99
171 166 103
170 165 96
176 169 102
174 168 98
176 170 102
173 167 98
175 169 99
177 170 102
172 166 98
174 168 99
171 165 98
178 171 104
173 167 99
170 164 95
169 163 95
171 166 98
171 165 97
176 168 101
171 165 93
173 166 96
170 163 93
171 164 95
173 166 97
170 165 93
174 168 99
175 169 99
169 163 95
169 163 99
164 158 93
173 165 95
164 158 88
171 163 97
171 165 96
158 153 88
170 163 94
171 163 95
163 157 84
170 163 95
167 161 90
166 160 89
167 161 90
168 162 92
164 158 90
165 158 87
155 149 82
159 153 85
163 157 87
159 152 85
161 155 84
153 148 75
157 150 84
158 151 83
161 154 84
157 151 81
157 151 80
160 155 86
157 150 80
152 146 80
160 153 84
144 139 72
150 144 78
157 150 78
153 147 75
144 139 70
148 142 75
143 139 63
141 137 67
127 124 52
141 140 54
150 152 53
147 152 51
148 155 49
155 167 36
160 171 41
156 169 41
162 178 32
166 183 22
172 191 22
170 191 19
171 194 0
173 197 0
171 196 0
172 195 0
168 192 0
168 192 0
174 198 0
174 198 0
174 196 0
172 196 0
175 198 0
175 198 0
172 195 0
172 195 0
172 196 0
171 194 0
175 198 0
174 197 0
171 194 0
173 197 0
170 193 0
175 198 0
173 196 0
173 196 0
173 197 0
171 194 0
170 193 0
172 195 0
172 196 0
173 197 0
172 196 0
170 194 0
175 197 0
168 192 0
172 195 0
172 195 0
173 197 0
175 198 0
172 195 0
170 193 0
174 196 0
172 196 0
172 196 0
169 192 0
170 194 0
173 196 0
173 196 0
173 196 0
174 197 0
173 196 0
172 196 0
173 196 0
169 193 0
172 195 0
172 196 0
170 194 0
174 197 0
174 197 0
171 195 0
171 195 0
169 193 0
170 194 0
170 193 0
172 196 0
171 195 0
169 192 0
170 194 0
170 193 0
171 194 0
174 197 0
169 192 0
174 197 0
173 196 0
173 196 0
171 194 0
171 195 0
168 192 0
171 194 0
172 195 0
173 196 0
172 194 0
170 194 0
172 195 0
172 195 0
171 194 0
170 193 0
171 194 0
172 195 0
171 194 0
171 194 0
171 194 0
174 196 0
173 197 0
168 191 18
160 184 51
142 167 99
100 128 134
62 99 172
62 98 165
63 99 170
62 99 168
62 98 163
62 98 165
62 98 166
62 98 169
62 98 171
63 99 174
62 99 175
63 100 178
63 99 176
62 98 173
63 100 176
62 99 171
62 99 175
62 99 176
63 100 178
62 99 175
62 99 176
62 99 178
62 99 176
62 99 180
62 99 175
62 99 175
62 99 178
62 99 177
62 99 175
62 99 174
62 99 181
62 99 178
62 99 178
62 99 179
62 99 179
63 99 178
62 99 176
62 99 180
62 99 180
62 99 179
62 99 177
62 99 179
62 99 180
62 99 174
62 99 175
62 99 180
62 99 179
62 99 180
61 99 179
61 98 177
61 98 179
62 99 180
62 99 181
62 99 176
62 99 180
62 99 179
61 98 177
62 99 181
62 99 177
62 99 180
62 99 179
62 99 178
62 99 178
62 99 178
62 99 178
62 99 175
62 99 179
62 99 180
62 99 178
63 100 181
63 100 181
63 100 181
62 99 179
62 99 180
61 99 180
62 99 179
62 99 180
62 99 178
62 99 178
62 99 180
63 99 179
62 99 178
62 99 181
61 98 174
62 99 177
62 99 177
61 98 176
63 100 178
62 99 179
62 99 179
62 99 179
62 99 180
62 99 179
62 99 178
63 100 179
61 99 180
62 99 176
62 99 179
62 99 180
62 99 180
62 99 177
62 99 176
63 100 178
62 99 179
62 99 174
61 98 175
62 99 175
61 98 173
63 100 179
62 99 176
62 99 179
62 99 174
63 100 180
62 99 176
63 99 174
62 98 173
62 99 176
62 98 171
62 99 175
62 99 177
62 99 175
62 99 176
62 99 178
62 99 172
62 99 178
63 99 177
61 98 172
62 98 174
63 99 176
63 99 175
63 99 177
61 97 172
61 98 171
62 98 171
62 99 175
62 98 171
61 98 174
62 99 176
62 99 175
62 99 174
61 97 172
62 99 173
61 96 161
62 98 170
61 96 164
61 97 168
61 96 164
61 97 168
61 96 162
61 97 166
60 95 158
62 97 170
60 94 158
60 94 159
67 94 143
71 88 117
83 90 91
65 71 63
89 91 64
72 77 57
77 80 57
79 82 56
71 74 53
81 85 63
80 83 61
90 93 68
89 93 68
101 102 73
92 94 67
87 92 68
99 101 70
100 104 76
101 103 74
104 106 74
102 105 71
106 109 77
106 108 73
114 115 77
122 122 82
122 123 82
117 119 81
116 117 78
120 121 83
122 123 77
131 130 88
129 129 80
134 134 88
133 132 87
136 135 89
136 136 87
137 136 87
149 147 96
139 137 85
148 145 93
149 147 92
138 137 89
146 144 88
148 145 90
149 146 92
147 145 91
143 142 87
147 144 89
154 151 96
153 150 93
164 160 99
156 153 99
160 156 98
159 155 91
157 154 92
162 157 93
163 159 99
161 157 96
167 163 99
167 162 98
161 157 94
162 158 99
167 162 101
165 160 93
174 168 99
164 160 94
170 164 99
168 163 97
171 166 99
170 164 97
171 165 100
174 168 100
175 168 97
167 162 94
168 163 90
174 167 96
167 163 95
174 168 99
172 166 99
173 167 97
173 167 99
169 164 95
172 166 96
174 167 101
177 171 104
173 167 99
170 163 91
175 168 100
171 166 97
172 165 95
176 170 101
176 169 99
172 166 98
175 168 103
172 166 95
169 163 93
171 164 95
172 166 97
174 167 100
173 166 93
164 158 90
168 163 94
172 166 97
169 162 87
168 161 87
170 163 93
161 155 85
167 161 95
167 160 93
173 167 98
166 161 90
164 158 84
164 159 86
157 151 82
160 153 83
161 154 85
163 157 87
158 153 83
158 153 80
160 155 90
161 154 84
155 149 77
163 157 86
156 150 84
153 147 78
158 152 85
154 147 83
162 155 84
156 149 78
154 147 83
146 141 77
153 147 66
150 143 72
136 132 62
150 144 75
145 139 69
143 138 65
148 146 62
140 139 60
144 146 60
147 153 47
149 159 44
151 162 39
162 179 39
159 175 36
162 178 30
163 181 25
166 185 22
171 192 16
172 194 0
172 195 0
173 196 0
173 195 0
172 195 0
172 196 0
171 195 0
173 196 0
174 197 0
175 198 0
174 197 0
172 195 0
172 196 0
171 194 0
171 195 0
172 196 0
174 197 0
171 195 0
174 197 0
173 196 0
172 195 0
172 196 0
173 196 0
170 194 0
174 197 0
174 197 0
173 197 0
172 195 0
172 196 0
173 196 0
171 194 0
171 193 0
174 197 0
173 196 0
173 196 0
172 195 0
171 195 0
172 196 0
173 196 0
172 195 0
172 195 0
171 195 0
173 196 0
171 194 0
173 197 0
172 196 0
170 193 0
168 192 0
173 196 0
173 196 0
173 196 0
171 195 0
174 197 0
172 195 0
172 195 0
171 195 0
172 195 0
172 196 0
170 195 0
171 194 0
171 194 0
173 195 0
169 192 0
167 191 0
171 194 0
172 195 0
170 194 0
173 195 0
172 195 0
171 194 0
173 197 0
172 196 0
172 195 0
173 197 0
174 197 0
172 195 0
172 196 0
170 194 0
171 195 0
173 196 0
171 195 0
170 193 0
170 194 0
170 193 0
171 193 0
172 195 0
172 195 0
171 194 0
171 195 0
169 192 0
170 194 0
172 195 0
171 194 0
165 188 31
151 174 88
118 145 131
66 101 163
62 98 167
62 98 170
62 99 171
61 98 167
63 99 175
62 98 167
62 99 170
61 98 173
62 99 174
62 99 171
62 99 175
61 98 171
62 99 174
62 99 171
62 99 174
62 99 174
62 99 173
62 99 175
62 99 177
62 98 172
62 99 177
63 100 177
62 99 176
62 99 177
62 99 177
62 99 177
62 99 175
62 99 177
62 99 178
61 98 173
61 99 176
62 98 172
62 99 179
62 99 177
62 99 179
61 99 177
63 100 181
62 99 179
62 99 179
62 99 178
63 99 178
62 99 179
62 99 178
62 99 176
62 99 178
62 99 176
62 99 179
63 100 180
62 99 178
62 99 179
62 99 180
62 99 179
62 99 179
62 99 178
62 99 178
62 99 179
62 99 180
62 99 178
62 99 179
62 99 179
62 99 181
62 99 177
62 99 179
61 98 179
62 99 179
62 99 181
62 99 180
62 99 179
62 99 176
62 99 177
62 99 179
63 100 179
62 99 179
62 99 181
61 99 180
62 99 179
61 99 180
61 98 176
62 99 180
62 99 181
62 99 179
61 98 175
61 99 177
62 99 177
62 99 177
62 99 179
61 98 175
62 99 180
62 99 176
62 99 177
62 99 177
62 99 176
62 99 178
63 99 176
62 98 172
62 99 178
62 99 177
62 99 180
61 98 175
62 99 173
62 99 175
61 98 176
62 99 179
62 99 178
62 99 180
62 99 178
63 100 178
61 99 176
63 99 178
62 99 178
63 99 175
62 99 173
62 99 180
63 100 178
62 99 178
62 99 178
62 99 177
62 99 176
62 99 174
62 99 178
62 99 176
62 98 176
62 99 174
62 98 172
62 99 173
62 99 175
62 99 174
62 99 175
62 99 173
61 98 166
62 99 176
62 99 173
62 99 175
61 97 168
61 98 169
61 98 171
62 98 172
62 99 176
62 98 165
62 98 169
62 99 172
61 98 174
61 97 165
62 97 166
62 98 172
62 98 170
62 98 170
61 98 173
61 97 168
62 98 171
60 96 164
61 96 164
62 98 170
60 95 164
60 93 156
60 88 139
66 81 105
81 88 78
84 88 68
85 87 60
78 81 57
61 67 52
85 88 62
77 82 59
79 83 60
84 87 62
85 89 65
89 93 70
94 96 67
101 103 72
93 96 67
93 96 64
98 101 71
107 110 76
96 101 71
100 103 71
109 112 82
107 109 76
116 117 77
103 105 70
122 122 80
113 116 77
123 124 81
118 119 81
116 117 79
126 125 80
134 133 83
136 136 94
132 132 86
137 135 90
141 139 89
147 144 89
144 141 85
144 141 89
133 134 86
146 143 86
149 147 92
145 143 89
149 146 89
145 143 91
153 149 93
153 151 93
156 152 94
162 156 93
159 156 97
159 156 98
154 152 96
153 150 90
158 154 91
159 154 94
164 160 98
165 161 97
159 155 96
166 161 97
161 157 94
169 164 96
159 155 88
169 164 99
168 163 100
168 163 99
171 165 97
172 165 99
171 164 100
173 167 99
174 168 99
171 166 94
173 168 101
172 166 100
172 166 97
175 168 104
170 166 96
173 166 96
171 166 98
172 166 95
173 168 99
168 163 90
175 168 96
171 165 93
174 167 97
174 167 101
174 168 98
176 170 106
174 167 97
175 168 99
170 165 96
172 165 97
173 167 98
168 162 92
173 166 95
171 165 94
172 166 95
167 162 90
171 164 93
171 164 97
169 162 93
169 163 92
166 159 87
170 163 95
173 165 97
170 163 90
166 160 89
168 162 90
169 163 95
162 157 87
169 163 94
168 162 93
160 155 87
167 161 93
162 155 90
161 155 84
164 157 92
164 158 87
160 154 81
157 151 73
160 154 84
160 154 84
157 151 79
163 158 85
151 145 80
151 145 82
157 150 76
153 147 77
148 142 72
139 133 60
141 136 64
143 138 62
151 144 70
147 141 74
135 130 61
141 135 64
146 141 68
145 141 64
143 142 60
150 152 56
143 149 41
151 159 42
155 168 36
155 170 25
158 174 34
159 177 22
165 183 19
167 188 0
171 192 11
173 197 0
174 197 0
174 197 0
171 195 0
170 194 0
172 196 0
172 196 0
175 198 0
173 196 0
172 195 0
173 196 0
175 198 0
173 196 0
173 197 0
174 197 0
174 197 0
172 196 0
171 194 0
172 195 0
171 194 0
171 195 0
172 196 0
173 196 0
172 196 0
173 197 0
170 193 0
173 196 0
173 197 0
172 196 0
171 194 0
173 197 0
173 196 0
171 194 0
169 194 0
171 195 0
171 193 0
169 193 0
172 195 0
173 196 0
169 193 0
172 195 0
172 196 0
172 195 0
172 195 0
174 197 0
173 197 0
174 196 0
175 198 0
172 195 0
172 196 0
170 193 0
171 195 0
172 196 0
170 194 0
174 198 0
175 198 0
173 196 0
173 196 0
171 195 0
172 195 0
172 194 0
173 196 0
169 193 0
175 198 0
171 194 0
171 195 0
170 193 0
171 194 0
170 193 0
170 193 0
172 195 0
172 195 0
169 192 0
168 192 0
170 193 0
169 192 0
169 192 0
170 192 0
170 192 0
173 196 0
172 194 0
172 195 0
173 196 0
171 194 0
168 191 0
171 195 0
172 196 0
172 195 0
172 195 0
166 189 0
172 196 0
171 195 0
172 195 0
157 181 65
136 161 105
88 118 148
62 99 166
61 98 167
63 99 176
63 99 177
62 99 174
62 99 173
62 99 170
63 100 174
63 99 174
62 98 162
63 99 175
62 99 174
62 99 177
62 98 173
63 99 176
63 99 177
62 99 169
61 98 171
61 97 170
62 99 173
62 99 175
63 99 179
61 98 174
63 100 180
63 100 178
62 99 175
61 98 175
63 99 174
62 99 177
62 99 178
62 99 176
62 99 175
61 98 177
62 99 176
62 99 177
61 98 176
62 99 179
63 99 177
62 99 178
62 99 176
63 100 178
62 99 179
62 99 181
62 99 180
62 99 179
62 99 177
63 100 181
62 99 179
61 98 175
62 99 178
63 100 181
62 99 175
62 99 178
62 98 174
62 99 179
62 99 176
62 99 181
62 99 179
62 99 177
62 99 179
62 99 179
62 99 179
62 99 176
62 99 175
62 99 177
62 99 177
62 99 178
62 99 178
62 99 176
62 99 175
61 98 177
62 99 177
61 99 178
62 99 178
62 99 180
62 99 178
62 99 181
62 99 177
62 99 178
63 100 178
63 99 179
62 99 179
62 99 180
62 99 179
62 99 177
62 99 177
62 99 179
62 99 178
62 99 177
62 99 178
62 99 178
62 99 177
62 99 178
62 99 175
62 99 178
62 99 175
63 99 177
62 99 173
62 99 177
62 99 179
62 99 178
61 98 170
62 99 176
62 99 178
63 100 177
62 99 177
62 99 177
61 98 171
62 99 171
62 99 174
63 99 178
62 99 178
62 99 179
62 98 176
62 98 172
62 99 171
62 99 177
62 99 173
62 99 177
61 98 172
62 98 171
62 99 173
62 99 175
61 98 166
62 99 176
62 99 175
62 99 178
62 99 175
61 98 176
62 98 172
62 99 174
62 99 180
61 98 174
62 98 168
62 99 173
62 99 169
62 98 173
63 99 177
62 99 173
62 98 169
62 99 173
62 98 171
62 98 171
62 98 169
61 97 167
61 97 168
62 98 167
61 98 172
62 98 174
60 97 168
60 96 164
60 95 164
61 96 162
62 97 170
62 97 167
60 94 160
68 97 152
67 88 127
85 91 86
80 84 73
81 85 60
65 70 52
90 92 63
64 70 51
77 82 61
81 84 63
75 79 59
84 88 64
110 110 77
88 91 66
89 91 64
86 89 61
90 93 65
96 100 71
104 106 72
103 104 74
104 107 73
99 103 72
112 113 74
115 117 79
105 108 74
123 123 80
119 119 78
125 125 82
125 124 81
113 114 71
136 135 89
122 123 85
137 136 86
131 131 88
144 142 89
144 142 91
135 134 87
140 138 87
141 139 91
144 143 92
142 141 87
147 144 92
150 148 94
149 146 92
144 143 90
150 147 89
153 151 96
152 149 93
149 146 89
157 153 88
158 154 95
161 157 99
165 160 94
156 153 90
166 161 94
155 152 90
166 161 99
164 159 97
163 159 97
164 160 100
165 160 96
169 164 96
167 162 96
168 163 100
167 163 97
170 164 97
171 165 96
172 166 97
168 162 94
173 167 98
172 166 98
166 161 94
167 163 97
170 164 94
168 163 94
174 168 97
173 167 95
176 168 99
174 168 101
169 163 95
170 165 98
171 165 91
172 166 93
172 165 93
170 164 95
172 166 96
172 167 96
172 167 92
168 162 90
173 167 97
173 166 96
171 165 90
172 166 95
171 163 94
168 162 93
173 166 96
173 166 93
165 159 87
172 165 94
172 165 92
167 161 90
167 160 91
165 158 90
171 164 92
169 162 93
172 165 90
162 157 88
161 156 87
164 158 90
160 154 88
166 159 90
163 157 90
167 161 92
164 157 88
165 157 87
162 156 87
160 154 80
160 154 84
160 153 81
164 159 84
159 153 79
151 146 75
153 147 78
162 154 87
159 152 80
156 149 82
147 141 70
152 145 78
140 135 67
154 146 75
153 147 74
145 139 73
136 131 61
140 135 64
144 140 69
142 135 63
137 135 56
140 141 49
149 155 56
154 158 59
150 157 47
153 165 30
160 177 28
155 172 28
167 186 25
164 182 16
168 189 19
172 194 0
172 195 0
173 196 0
170 193 0
171 195 0
174 196 0
174 198 0
172 196 0
173 197 0
171 195 0
171 194 0
173 195 0
174 197 0
168 192 0
173 197 0
175 197 0
172 195 0
171 195 0
173 196 0
170 193 0
173 196 0
174 197 0
173 196 0
170 194 0
171 194 0
174 196 0
172 196 0
169 193 0
172 195 0
174 198 0
170 194 0
174 197 0
173 196 0
171 194 0
170 194 0
169 192 0
174 197 0
171 194 0
172 195 0
173 197 0
176 198 0
173 197 0
172 195 0
172 195 0
169 192 0
169 193 0
170 194 0
171 196 0
171 194 0
172 195 0
172 195 0
172 196 0
172 196 0
171 194 0
171 195 0
172 195 0
172 195 0
170 194 0
173 196 0
170 193 0
173 197 0
171 195 0
174 196 0
169 192 0
168 192 0
169 193 0
170 194 0
169 192 0
174 197 0
172 195 0
170 194 0
171 194 0
171 195 0
168 192 0
169 192 0
170 193 0
172 195 0
170 193 0
171 195 0
170 194 0
168 192 0
171 195 0
170 194 0
169 192 0
171 195 0
168 192 0
171 194 0
171 195 0
173 196 0
169 192 0
173 196 0
171 194 0
171 194 0
164 188 31
148 173 86
113 141 131
66 101 156
62 98 167
62 99 167
62 98 168
62 99 169
62 99 168
62 99 171
62 99 174
62 98 172
63 99 174
63 100 176
61 98 175
61 98 164
62 99 177
62 99 178
62 99 174
62 98 173
62 99 173
62 99 178
62 99 178
62 99 177
62 99 174
63 100 177
63 99 177
62 99 178
62 99 176
62 99 179
62 99 173
62 99 176
62 99 177
62 99 177
63 100 178
62 99 175
61 98 174
62 99 177
62 99 177
62 99 177
62 99 178
62 99 176
62 99 178
62 99 179
63 100 181
62 99 175
62 99 175
62 99 180
62 99 178
62 99 174
62 99 179
62 99 177
62 99 179
62 99 178
62 99 177
62 99 174
62 99 179
62 99 181
61 98 177
62 99 180
62 99 177
61 99 178
62 99 178
62 99 180
62 99 177
62 99 177
62 99 179
62 99 180
62 99 177
62 99 179
62 99 177
62 99 177
62 99 180
62 99 180
62 99 177
61 98 174
62 99 180
62 99 175
62 99 177
61 98 178
62 99 176
62 99 177
62 99 178
62 99 177
62 99 179
63 99 178
62 99 179
62 99 180
62 99 173
62 99 176
62 99 177
61 98 176
62 99 178
61 98 175
62 99 180
61 98 170
62 99 177
62 99 179
62 99 177
61 98 175
62 99 176
62 99 176
63 99 176
62 99 179
62 99 177
62 99 176
62 99 178
63 99 178
63 100 178
62 99 177
62 99 176
63 99 177
62 99 174
62 99 179
62 99 176
62 99 172
63 99 176
62 99 174
62 99 176
63 99 176
63 99 177
62 99 176
61 98 171
62 99 176
63 100 179
62 99 173
62 98 172
62 98 169
61 98 167
62 99 176
63 99 174
62 99 176
62 99 173
62 98 170
62 98 172
63 99 177
62 99 175
62 99 171
63 99 173
61 98 173
63 99 171
63 99 175
61 98 172
62 99 175
62 99 174
62 98 171
61 97 169
62 98 167
62 98 171
61 97 164
61 97 167
61 97 167
62 98 170
61 97 163
61 97 165
61 97 164
60 95 164
59 93 150
60 94 162
60 93 161
59 93 155
63 87 130
69 86 109
74 87 97
62 67 54
82 85 60
61 66 48
82 85 62
77 80 55
88 89 61
94 95 66
71 77 54
74 80 59
77 81 58
87 89 63
85 90 66
95 98 69
83 88 63
98 101 71
94 98 68
100 104 73
116 116 74
120 121 80
103 105 74
114 115 74
129 129 85
121 122 82
121 121 75
124 125 81
125 126 84
114 115 73
135 134 86
135 134 83
129 129 82
143 142 92
138 137 83
145 143 91
141 138 87
133 132 85
133 132 84
153 149 94
139 139 89
141 139 84
149 146 84
156 153 94
153 150 92
153 149 93
159 155 97
157 153 88
154 150 94
153 151 92
156 153 89
158 154 95
157 153 94
164 160 93
164 159 96
160 157 91
161 156 91
163 158 94
167 161 98
168 163 102
163 159 92
169 163 99
170 164 97
170 165 97
168 162 96
174 167 97
167 163 99
167 162 93
174 168 99
175 168 97
173 167 99
171 166 100
173 167 96
170 164 96
168 162 92
175 168 99
170 165 93
172 166 97
168 163 93
173 167 94
168 163 91
172 166 99
171 166 99
175 167 95
172 165 98
174 167 95
167 162 90
170 164 94
170 164 95
172 166 94
171 166 97
168 162 90
163 158 88
168 162 88
167 161 90
169 163 97
169 163 88
169 163 93
166 159 90
167 161 88
168 162 93
168 161 93
165 159 83
166 160 87
166 160 87
162 157 86
163 157 93
162 155 85
167 160 85
165 158 87
165 159 84
165 158 87
157 151 80
153 147 80
161 155 84
162 156 86
154 149 81
168 161 93
157 151 76
161 155 80
160 154 84
150 144 71
161 154 81
154 148 79
145 140 71
152 146 73
159 153 78
146 139 75
147 141 70
140 134 64
139 134 64
148 143 75
139 133 62
147 142 61
141 138 61
148 145 67
136 134 57
150 152 52
145 150 41
150 159 42
158 170 42
152 166 37
163 180 28
161 179 19
170 189 25
169 190 11
173 194 11
170 193 0
173 197 0
175 198 0
172 195 0
173 196 0
173 197 0
174 197 0
171 194 0
173 197 0
172 196 0
172 195 0
172 195 0
172 196 0
172 195 0
170 193 0
171 194 0
171 194 0
172 196 0
173 197 0
172 194 0
173 196 0
172 196 0
172 195 0
171 195 0
170 194 0
173 196 0
171 195 0
173 196 0
173 196 0
171 195 0
173 196 0
171 195 0
171 194 0
171 194 0
174 197 0
172 195 0
173 196 0
172 196 0
174 198 0
170 193 0
172 195 0
174 197 0
172 195 0
173 196 0
174 197 0
172 196 0
173 196 0
173 196 0
173 197 0
172 195 0
172 196 0
173 196 0
174 197 0
171 194 0
175 197 0
171 194 0
170 193 0
169 193 0
173 196 0
171 195 0
170 194 0
172 195 0
171 194 0
172 195 0
171 194 0
172 194 0
171 194 0
170 194 0
172 195 0
172 195 0
171 195 0
173 196 0
171 194 0
169 194 0
172 196 0
168 191 0
169 192 0
167 190 0
173 196 0
171 193 0
171 194 0
173 195 0
170 193 0
169 193 0
173 196 0
169 192 0
167 190 0
171 194 0
170 194 0
168 191 0
171 194 0
167 191 0
164 188 31
131 156 117
85 116 152
62 98 166
62 98 164
62 99 170
62 99 168
62 98 169
63 99 173
62 99 171
62 99 174
63 100 173
62 99 172
62 99 170
62 98 168
62 99 174
62 99 175
62 99 174
62 99 175
62 99 172
62 99 175
62 99 176
62 99 174
62 99 177
62 99 176
62 99 177
62 98 169
61 98 175
62 99 173
62 99 175
62 99 176
62 99 176
62 99 177
61 98 175
62 99 178
63 99 178
63 99 176
63 100 178
62 99 175
62 99 176
62 99 178
62 99 179
62 99 176
62 99 175
63 100 181
62 99 175
62 99 179
62 99 177
62 99 179
62 99 176
62 99 179
62 99 179
62 99 178
61 99 178
62 99 178
61 98 177
62 99 181
62 99 178
62 99 179
62 99 180
62 99 178
62 99 180
62 99 180
61 98 174
61 98 178
62 99 176
62 99 178
62 99 178
62 99 179
62 99 179
62 99 178
62 99 179
62 99 179
62 99 178
62 99 178
62 99 181
62 99 175
62 99 179
62 99 179
62 99 179
62 99 177
62 99 178
62 99 177
63 100 179
63 100 179
62 99 178
61 98 173
62 99 180
61 98 174
63 99 177
62 99 178
62 99 181
62 99 178
62 99 179
62 99 178
62 99 177
63 100 178
62 99 177
62 99 180
63 99 178
62 99 178
61 98 174
63 100 178
62 99 174
62 99 176
62 99 173
62 99 176
62 99 177
61 98 175
62 99 179
61 98 174
62 99 174
62 99 179
63 100 180
62 98 172
62 99 175
62 99 173
62 99 173
63 99 179
62 99 176
62 98 170
63 100 174
62 98 174
62 99 177
62 99 176
62 99 173
62 98 175
62 99 173
62 99 177
62 99 174
62 99 173
62 99 175
62 99 171
61 98 175
62 98 173
62 99 173
62 99 176
63 100 175
61 97 164
63 99 174
62 99 175
62 99 169
62 98 170
63 99 172
62 99 173
62 98 171
61 97 169
62 98 167
61 97 166
62 99 170
62 98 170
62 98 169
61 96 167
60 96 164
62 96 158
62 98 168
61 96 163
61 96 162
60 94 157
61 95 155
61 96 162
62 91 145
79 96 127
76 88 93
59 67 64
66 71 52
73 77 56
79 82 57
87 89 60
83 86 60
68 73 55
83 86 59
62 70 52
85 89 63
88 92 66
88 92 67
88 91 64
96 99 66
98 102 72
88 93 64
99 101 65
109 111 74
110 112 75
108 110 73
98 104 75
126 126 84
118 117 76
126 125 82
122 124 81
129 129 85
133 131 83
129 129 84
120 121 79
131 131 81
123 124 79
120 121 77
140 137 84
132 131 84
136 134 84
139 138 89
143 141 88
148 146 93
149 147 91
148 145 92
143 142 85
148 146 91
155 151 93
154 151 90
153 149 89
150 147 89
154 151 90
159 155 96
156 152 93
158 154 94
160 156 92
164 159 96
168 162 92
168 162 100
164 159 96
162 157 93
167 162 96
169 163 98
168 163 93
162 158 93
169 163 92
167 161 94
172 166 98
170 166 96
168 163 93
168 163 94
168 163 96
174 167 100
173 167 98
172 167 96
170 165 90
169 163 91
172 166 96
168 162 90
172 166 94
172 166 96
169 163 90
170 164 89
174 168 98
172 165 92
170 164 93
173 166 95
168 162 88
171 165 94
172 164 93
167 162 91
178 171 103
166 160 89
169 163 94
172 165 90
173 166 90
170 163 93
171 165 95
171 165 92
166 160 90
162 157 86
170 163 90
168 162 92
167 160 88
168 161 89
162 157 83
162 155 86
174 166 93
169 162 95
166 159 89
152 147 73
163 156 84
165 158 85
170 163 92
161 154 87
159 153 84
160 154 83
168 160 86
162 156 79
156 150 81
159 152 78
162 156 84
154 148 81
155 148 80
158 152 81
160 154 80
151 146 76
150 145 75
154 147 80
152 145 79
152 145 76
149 143 76
140 134 66
144 138 64
133 129 59
139 135 60
140 137 56
149 151 59
146 143 62
142 145 48
158 163 54
150 159 42
157 170 39
159 171 44
160 174 41
160 180 19
160 179 22
169 190 16
171 192 0
173 195 0
174 197 0
173 197 0
169 193 0
173 196 0
170 193 0
174 196 0
173 195 0
174 196 0
172 196 0
171 195 0
173 197 0
171 195 0
173 197 0
171 194 0
173 196 0
169 193 0
174 197 0
172 196 0
173 197 0
175 197 0
172 196 0
175 198 0
172 194 0
172 196 0
174 196 0
173 196 0
171 194 0
172 196 0
173 197 0
174 197 0
173 197 0
172 195 0
174 197 0
170 194 0
170 194 0
172 196 0
169 193 0
172 195 0
173 196 0
170 193 0
173 196 0
169 192 0
170 194 0
174 197 0
173 196 0
174 197 0
173 196 0
173 197 0
172 195 0
174 197 0
173 196 0
171 194 0
171 194 0
170 193 0
172 195 0
172 196 0
170 194 0
171 194 0
171 195 0
174 197 0
172 195 0
171 195 0
172 196 0
171 194 0
171 194 0
169 192 0
172 195 0
171 195 0
171 194 0
172 194 0
171 193 0
168 192 0
174 198 0
173 196 0
170 194 0
175 198 0
169 193 0
172 196 0
165 189 0
172 195 0
172 195 0
169 193 0
168 192 0
170 192 0
169 191 0
171 194 0
171 194 0
172 195 0
173 196 0
170 193 0
166 190 36
146 170 82
115 142 124
66 101 164
62 99 167
62 98 166
62 99 170
62 98 168
63 99 172
62 99 174
62 98 169
62 98 164
63 99 178
62 99 173
63 100 176
62 99 171
62 98 165
62 98 168
62 98 168
62 99 172
62 99 179
62 99 176
61 98 172
63 99 176
61 98 172
63 99 177
62 99 170
62 99 173
62 99 176
63 99 176
62 99 177
63 99 173
63 99 179
62 99 177
62 98 171
62 99 174
62 99 177
62 99 179
62 99 180
62 99 178
62 98 177
62 99 178
62 99 178
62 99 179
62 99 179
63 100 181
62 99 175
62 99 177
62 99 178
62 99 179
62 99 178
61 98 175
62 99 179
62 99 177
62 99 177
62 99 174
62 99 177
62 99 177
62 99 181
61 98 175
62 99 174
62 99 178
61 98 175
62 99 177
62 99 177
62 99 180
62 99 177
62 99 179
62 99 179
62 99 180
61 99 178
62 99 179
62 99 178
61 98 170
62 99 180
62 99 176
62 99 178
61 98 174
62 99 178
62 99 178
62 99 176
62 99 174
62 99 179
62 99 175
62 99 176
62 99 171
63 100 181
61 98 172
62 99 177
62 99 177
62 99 174
61 98 175
62 99 176
61 98 177
62 99 175
62 99 179
62 99 176
62 99 176
62 99 171
62 99 178
62 99 177
62 99 177
63 99 176
62 99 175
62 99 177
63 100 177
62 99 177
62 99 171
62 99 174
62 99 174
62 99 176
63 99 175
61 98 172
62 99 174
63 99 176
62 99 175
62 99 173
62 99 177
62 99 179
62 99 176
62 99 177
62 99 177
62 99 178
62 99 175
62 99 175
62 98 171
63 99 174
62 99 174
62 99 175
62 98 171
62 99 177
63 99 175
62 99 173
62 98 174
62 98 171
62 99 175
62 99 172
62 98 172
61 98 163
62 99 173
62 99 174
61 98 170
62 98 167
62 98 173
62 98 171
61 97 168
63 100 176
62 98 170
61 98 169
62 98 166
62 98 172
62 98 162
63 99 171
62 98 167
60 95 165
61 97 164
61 97 165
61 95 161
62 97 164
61 95 163
60 95 160
59 93 156
58 92 155
65 91 137
79 92 104
58 70 82
69 73 57
59 65 48
70 75 57
76 81 58
86 89 60
78 82 62
87 90 61
73 78 55
89 92 64
82 87 61
88 91 65
82 86 62
91 95 68
92 95 69
99 102 69
105 107 70
102 106 72
113 115 79
111 113 76
120 120 79
124 125 85
113 114 76
123 124 83
122 122 72
125 124 79
130 129 78
123 123 78
126 125 81
125 126 79
126 125 81
130 130 82
133 132 82
136 135 81
138 137 85
138 136 85
141 138 88
145 142 87
151 148 87
146 143 87
151 147 89
149 146 88
151 148 88
158 153 97
152 149 90
160 156 96
151 148 88
156 152 87
155 152 93
159 156 88
160 155 96
158 155 93
166 161 97
161 157 95
164 159 95
162 159 92
166 161 95
169 163 95
169 164 97
167 162 96
162 158 91
166 161 93
166 161 95
171 165 97
169 163 94
171 165 95
166 161 90
170 164 98
170 164 98
170 164 97
170 164 94
173 167 97
171 166 93
169 164 92
169 164 91
171 164 97
169 162 95
170 164 90
173 166 95
172 166 95
168 163 92
168 162 91
173 166 97
170 164 91
169 162 93
168 162 92
170 163 93
173 166 95
168 162 87
166 160 90
172 166 91
168 163 88
167 161 95
165 160 90
170 163 93
170 164 93
173 166 95
165 159 90
170 163 91
162 158 83
166 160 87
162 155 82
169 163 89
162 156 83
163 157 86
168 161 86
160 154 84
158 152 81
161 155 81
166 159 82
155 149 79
156 150 80
154 148 78
166 158 85
160 154 87
158 152 82
157 150 77
153 147 80
162 155 74
144 138 66
157 151 82
152 146 75
154 147 73
148 142 68
150 143 73
154 148 77
149 143 74
145 140 63
135 130 61
135 131 59
144 139 67
148 144 66
135 135 56
152 153 62
146 149 51
147 153 42
149 159 39
158 168 39
156 171 25
161 178 32
168 186 28
166 184 22
166 188 0
166 187 0
171 194 0
172 195 0
174 198 0
172 196 0
172 195 0
173 196 0
173 196 0
174 197 0
173 196 0
172 195 0
170 194 0
171 195 0
173 195 0
171 196 0
173 196 0
173 196 0
171 195 0
173 196 0
172 195 0
174 197 0
170 194 0
173 196 0
173 195 0
171 194 0
173 196 0
170 193 0
171 194 0
172 196 0
174 197 0
169 192 0
172 196 0
174 197 0
173 196 0
169 193 0
171 195 0
172 196 0
172 195 0
171 194 0
172 196 0
171 195 0
171 195 0
169 192 0
173 197 0
169 192 0
173 196 0
170 194 0
171 194 0
172 196 0
174 196 0
170 193 0
168 191 0
171 194 0
170 194 0
171 195 0
171 194 0
173 196 0
169 192 0
170 194 0
171 194 0
172 194 0
172 196 0
171 195 0
171 195 0
171 195 0
170 193 0
173 196 0
173 196 0
171 195 0
170 192 0
170 193 0
174 197 0
170 193 0
169 192 0
170 193 0
170 194 0
174 197 0
173 195 0
170 194 0
172 195 0
166 190 0
169 193 0
173 196 0
170 193 0
170 193 0
170 193 0
170 194 0
173 195 0
171 194 0
166 189 0
171 195 0
167 190 0
165 188 51
135 161 94
88 118 152
62 98 162
63 99 168
61 97 165
61 98 165
62 99 169
61 98 167
62 98 165
63 99 174
62 99 176
62 99 174
63 99 173
61 98 170
62 99 166
62 99 169
62 99 176
62 99 174
62 98 170
62 99 173
63 99 176
61 98 169
62 99 179
62 99 175
63 99 177
62 99 177
62 99 174
62 99 174
63 99 178
62 99 178
62 99 173
62 99 176
62 98 172
62 98 171
62 99 178
61 98 175
62 99 174
61 98 175
62 99 175
62 99 178
62 98 174
63 100 179
62 99 178
62 99 176
61 98 173
62 99 179
62 99 176
62 99 175
62 99 179
61 99 180
62 99 179
62 99 179
62 99 178
62 99 177
62 99 177
62 99 178
62 99 178
62 99 178
62 99 175
62 99 177
62 99 179
62 99 177
61 98 175
62 99 177
63 100 177
62 99 171
62 99 178
62 99 177
62 99 179
62 99 179
62 99 180
62 99 177
62 99 178
61 98 174
62 99 177
62 99 179
63 100 179
62 99 176
63 100 177
62 99 178
62 99 180
62 99 180
62 99 177
63 99 174
62 99 180
62 99 179
62 99 178
62 99 175
62 99 175
61 98 172
62 99 176
62 99 174
62 99 177
61 98 177
63 99 177
61 98 174
62 99 178
62 98 173
62 99 177
61 98 172
62 99 178
61 98 171
61 98 177
62 99 178
62 99 177
61 98 177
62 99 175
62 99 177
62 99 177
62 99 178
62 99 174
62 99 178
62 99 175
62 99 177
63 99 179
62 99 173
62 99 174
63 99 176
62 99 177
62 99 173
62 99 176
63 99 175
63 99 178
62 99 173
62 99 177
62 99 175
62 98 170
62 99 176
62 99 175
62 98 171
62 99 177
62 98 172
61 98 169
61 98 173
62 99 178
62 99 178
62 98 173
61 98 170
62 98 170
63 100 177
61 98 170
62 99 170
62 98 170
61 97 169
62 98 168
62 98 166
62 98 172
62 98 168
62 98 172
62 98 169
62 97 165
62 97 165
61 97 164
61 97 170
62 98 170
61 97 164
61 97 169
60 94 160
61 97 164
61 95 162
59 93 151
60 94 156
62 92 146
60 80 109
64 78 97
70 78 71
74 76 49
61 65 48
68 72 51
74 77 55
68 73 55
74 78 54
78 82 59
87 91 64
72 79 59
86 90 62
101 102 68
84 89 62
76 82 62
91 96 67
107 107 75
95 99 71
103 106 73
100 103 70
114 115 76
113 114 75
103 106 72
115 116 76
125 125 78
123 122 78
123 124 81
124 124 81
137 135 87
116 117 72
139 138 83
141 138 91
134 133 83
130 128 76
144 141 86
145 142 87
139 136 86
131 131 85
147 144 86
145 142 83
154 150 92
150 148 86
152 149 89
156 152 90
150 147 90
154 151 91
149 147 88
163 158 92
150 147 88
155 151 93
161 156 85
165 160 97
157 153 89
165 159 93
158 155 88
162 158 93
166 161 98
161 157 92
166 160 95
168 162 95
166 160 90
171 164 95
165 160 95
169 163 95
168 163 98
167 162 94
168 162 92
166 161 92
168 162 94
170 164 99
171 165 96
175 168 97
169 163 90
171 165 96
172 166 96
173 167 95
174 167 98
176 169 97
166 160 90
171 165 94
169 164 89
173 166 95
169 163 90
170 164 90
172 165 93
169 162 89
168 162 87
173 166 97
175 167 95
166 161 89
172 166 94
165 160 89
169 163 89
166 161 87
167 160 88
169 163 90
169 162 90
168 161 88
167 161 93
166 159 89
165 159 88
162 157 81
162 157 86
167 160 88
153 148 71
157 151 77
161 155 87
158 152 77
157 151 73
162 155 83
165 158 84
152 145 77
168 160 90
163 156 84
155 149 76
151 146 69
156 150 76
162 156 87
155 149 79
155 148 73
151 145 74
154 147 79
155 148 78
151 147 70
149 144 71
152 146 67
147 140 70
141 134 68
140 135 61
143 138 71
149 144 65
148 145 61
146 146 58
156 157 57
152 157 51
147 156 39
146 154 47
157 171 19
160 171 41
161 177 28
163 182 19
168 188 11
168 189 16
174 195 11
173 197 0
172 196 0
172 196 0
172 196 0
172 196 0
174 197 0
171 195 0
174 198 0
173 197 0
173 196 0
172 196 0
171 194 0
171 195 0
174 197 0
173 196 0
174 197 0
173 197 0
169 193 0
172 196 0
170 193 0
171 194 0
174 198 0
172 195 0
174 197 0
172 195 0
173 197 0
169 193 0
172 196 0
173 197 0
175 198 0
174 197 0
170 193 0
172 196 0
174 197 0
176 198 0
169 193 0
171 195 0
175 198 0
170 193 0
170 193 0
173 196 0
174 198 0
171 194 0
173 196 0
170 193 0
173 196 0
171 195 0
172 196 0
172 195 0
170 193 0
172 196 0
171 195 0
171 195 0
165 189 0
172 196 0
173 196 0
168 192 0
174 197 0
172 196 0
173 197 0
173 195 0
171 194 0
173 196 0
170 194 0
168 191 0
172 195 0
171 195 0
171 195 0
169 192 0
170 193 0
171 195 0
172 195 0
171 193 0
172 196 0
172 195 0
168 192 0
172 195 0
171 194 0
169 192 0
172 195 0
170 194 0
174 196 0
168 192 0
174 197 0
173 194 0
170 194 0
172 196 0
173 197 0
170 193 0
167 190 0
171 195 31
158 180 67
121 146 124
68 102 159
62 99 169
61 98 162
62 98 170
61 98 165
62 99 170
63 99 166
62 98 165
62 99 172
61 98 164
63 99 171
62 99 175
63 99 174
63 99 172
61 98 167
62 99 173
62 99 175
62 99 175
62 98 171
62 99 177
61 98 170
62 99 176
61 98 170
62 99 174
62 99 175
62 99 175
62 98 173
62 98 172
62 98 172
62 99 178
62 99 174
62 98 175
62 98 172
63 99 176
62 99 178
62 99 178
62 98 174
62 99 178
62 99 176
62 99 178
62 99 178
62 99 176
62 99 176
62 98 174
62 99 176
62 99 175
61 98 176
62 99 178
62 99 173
63 100 178
63 100 179
62 99 180
62 99 176
63 99 178
62 99 176
62 99 177
62 99 176
62 99 176
62 99 176
62 99 178
62 99 179
61 98 172
62 98 175
62 99 177
61 98 176
63 99 179
62 99 178
63 100 179
63 99 177
62 99 177
62 99 180
61 98 177
62 99 179
62 99 177
62 99 176
62 99 179
62 99 174
62 99 179
61 98 178
63 100 179
62 99 180
63 100 179
62 99 175
62 99 177
62 99 175
62 99 176
63 99 175
61 98 178
62 99 177
63 100 178
62 99 176
62 99 177
62 99 174
62 99 174
62 99 176
63 100 179
61 98 176
62 99 178
62 99 176
62 98 173
62 99 175
62 99 178
61 98 176
62 99 175
62 99 175
62 99 176
62 99 178
61 98 172
62 99 179
62 99 177
62 99 174
63 99 175
63 99 177
62 99 175
62 99 175
61 98 171
62 99 178
62 99 173
62 98 166
63 100 176
62 99 176
62 99 175
62 99 177
61 98 172
62 99 175
61 98 169
62 99 169
61 98 173
62 99 172
62 99 177
62 99 174
62 99 173
63 99 174
63 99 178
62 99 174
61 98 170
62 99 171
62 99 173
63 99 175
62 99 175
63 99 172
62 98 171
62 98 170
62 99 171
62 98 169
61 97 160
61 98 172
62 98 173
61 97 165
61 98 170
62 99 173
61 98 166
60 96 161
61 97 166
62 98 171
60 96 156
61 96 164
61 96 163
60 96 164
60 95 164
59 93 151
59 91 152
62 89 134
67 84 111
61 71 82
69 73 55
68 72 53
72 76 54
66 70 49
69 75 57
74 80 57
76 81 59
76 81 58
92 94 65
83 87 63
102 104 73
80 84 58
90 93 68
85 88 62
103 105 70
112 113 76
87 91 66
111 113 70
108 109 72
112 113 75
110 112 68
115 115 75
125 124 76
124 124 81
122 123 79
122 122 73
118 117 71
120 121 79
131 130 80
132 129 79
136 136 87
130 130 79
126 127 80
139 137 87
142 140 89
138 137 83
142 140 80
149 146 82
155 152 90
145 143 88
149 147 85
155 151 88
158 154 91
153 150 85
157 154 89
154 151 90
153 150 91
153 150 84
164 159 96
157 154 90
161 157 90
161 156 91
166 161 95
163 158 93
167 162 95
158 154 88
167 161 92
166 161 92
165 160 90
170 163 97
173 166 96
163 159 90
172 166 95
171 165 95
172 165 91
170 164 96
173 167 97
170 164 90
169 163 91
170 165 90
166 160 93
167 161 84
172 166 97
171 164 90
169 163 93
168 163 87
172 166 95
167 160 91
172 165 93
172 166 94
170 164 91
168 162 89
170 165 95
165 160 85
171 164 95
169 162 92
172 165 93
169 163 93
169 162 93
170 163 93
170 163 93
170 162 89
169 162 87
168 162 89
165 160 84
164 158 90
166 160 87
168 161 89
163 157 87
166 160 88
163 156 80
164 158 87
168 161 87
159 153 80
160 154 83
166 159 79
162 157 85
165 160 80
161 154 81
162 155 82
152 147 79
168 161 84
160 154 86
161 154 78
161 154 76
164 157 84
156 149 75
140 136 66
151 146 67
152 146 73
155 149 79
140 135 64
143 138 73
150 143 67
138 133 65
139 134 62
151 145 69
137 131 54
141 136 64
143 143 59
147 150 51
147 149 51
147 154 44
156 163 52
144 153 36
157 169 42
161 175 32
160 175 30
164 182 25
170 190 19
169 190 11
172 194 0
172 195 0
170 194 0
171 194 0
171 195 0
173 195 0
175 198 0
174 198 0
172 196 0
171 194 0
172 196 0
170 192 0
171 194 0
171 195 0
175 197 0
172 195 0
170 193 0
171 195 0
170 194 0
172 195 0
172 195 0
170 194 0
174 197 0
171 194 0
171 194 0
171 195 0
173 197 0
170 194 0
173 196 0
173 197 0
173 196 0
173 196 0
172 195 0
174 197 0
171 195 0
174 197 0
175 197 0
172 195 0
174 196 0
174 197 0
169 193 0
172 196 0
171 195 0
171 193 0
172 194 0
173 197 0
171 195 0
172 195 0
170 195 0
171 194 0
174 197 0
169 193 0
172 195 0
173 196 0
170 194 0
172 195 0
172 195 0
171 194 0
172 195 0
169 192 0
173 197 0
171 193 0
169 192 0
174 197 0
168 192 0
173 196 0
170 195 0
171 194 0
172 195 0
173 196 0
171 193 0
173 197 0
174 197 0
168 191 0
169 191 0
173 196 0
168 191 0
171 193 0
167 190 0
170 193 0
169 191 0
171 194 0
167 191 0
167 191 0
171 194 0
171 194 0
172 195 0
172 195 0
168 191 0
172 196 0
168 190 0
159 182 51
148 172 86
95 125 143
64 100 168
62 98 166
63 99 170
63 99 167
62 99 167
62 98 166
62 99 172
63 99 171
62 99 172
62 98 166
63 99 170
62 99 173
62 98 170
62 98 172
61 98 170
62 98 168
62 99 174
62 99 175
62 99 172
62 98 172
62 99 174
62 99 175
62 99 176
62 98 171
62 99 178
63 99 177
62 99 175
62 99 174
62 99 178
62 99 175
62 99 177
62 99 176
62 99 178
62 99 176
62 99 176
62 99 170
61 98 172
62 99 179
62 99 174
63 99 178
61 98 175
62 99 175
63 99 175
62 99 174
62 99 177
62 99 177
63 100 180
62 99 178
62 99 179
62 99 176
62 98 172
63 100 178
61 99 180
62 99 177
62 99 176
62 99 179
62 99 177
63 100 179
62 99 179
61 98 175
63 100 179
62 99 176
62 99 174
62 99 179
62 99 178
62 99 176
62 99 178
62 99 179
62 99 179
62 99 175
62 99 178
62 99 176
62 99 179
62 99 177
62 99 177
62 99 174
62 99 179
62 99 178
62 99 178
62 99 175
61 98 175
62 99 176
62 99 174
62 99 178
62 99 176
61 98 174
63 100 176
62 99 174
62 99 174
62 99 174
62 99 175
61 99 177
62 99 179
62 99 175
62 99 175
62 99 175
62 99 179
61 99 180
62 99 178
62 99 176
62 99 177
62 99 178
61 98 176
63 99 177
62 99 178
62 99 177
62 99 173
61 98 172
62 99 177
61 98 173
62 99 177
62 99 172
62 99 177
62 99 170
61 98 168
61 98 176
63 99 175
62 99 175
63 99 175
62 98 171
63 100 178
62 98 168
62 99 173
62 99 173
63 99 172
62 99 174
63 99 174
62 99 176
61 97 168
61 98 171
62 98 172
62 99 170
62 99 173
62 98 168
63 99 174
62 99 175
62 99 175
62 99 170
62 99 171
62 98 174
62 98 166
63 99 172
62 98 170
63 99 173
61 98 170
62 99 172
61 98 171
61 97 168
62 98 173
62 99 170
62 98 170
63 99 171
62 99 171
62 98 167
61 97 168
61 96 164
61 96 161
62 97 166
60 94 155
61 96 160
61 97 169
58 93 155
59 89 143
66 83 112
71 82 88
58 65 57
54 62 46
72 76 53
61 68 50
69 73 53
67 73 52
73 78 60
81 85 61
74 79 54
82 87 61
74 79 59
95 98 68
92 94 66
85 90 64
91 93 64
96 98 64
107 110 73
102 104 68
92 96 67
105 106 65
115 116 76
108 109 68
128 128 82
126 126 78
130 128 78
123 123 76
127 128 79
133 132 79
131 130 81
132 131 83
130 129 82
128 127 80
133 132 83
144 142 84
128 128 80
147 144 86
142 139 81
142 140 84
149 146 86
150 146 87
150 147 88
148 145 88
152 148 90
156 152 84
153 149 89
156 152 89
161 156 88
153 150 89
166 160 96
159 155 91
154 152 89
161 156 93
166 160 93
164 158 93
158 155 88
164 158 94
167 162 91
166 160 89
162 156 88
167 162 91
169 163 91
169 164 95
168 161 90
173 166 94
167 162 89
172 166 94
170 165 91
172 166 95
172 165 93
162 158 86
170 164 89
172 166 97
167 162 89
166 161 91
169 163 95
175 168 95
168 163 87
169 163 87
167 162 91
167 161 89
170 163 91
172 165 90
167 161 89
171 165 92
170 164 94
170 163 90
174 167 96
166 160 86
172 165 94
164 158 80
165 159 90
168 162 84
166 160 83
168 162 87
163 157 87
170 163 82
164 158 80
172 165 93
160 155 80
164 157 86
167 160 82
158 153 79
165 158 87
158 153 82
161 154 87
155 149 80
169 162 90
162 155 81
152 146 72
159 152 83
161 155 79
153 146 75
155 150 75
155 150 75
158 152 78
152 146 68
151 145 73
156 149 80
150 143 75
155 149 75
144 138 63
147 142 71
154 147 73
150 144 64
145 140 65
150 144 66
142 137 61
145 139 64
138 136 53
134 133 51
150 152 52
141 144 48
148 154 41
149 158 37
159 168 45
156 166 39
160 175 25
154 170 25
165 184 16
167 187 11
171 192 16
172 193 0
173 197 0
173 197 0
172 196 0
174 197 0
171 194 0
172 195 0
174 197 0
167 191 0
175 198 0
174 197 0
173 196 0
174 196 0
173 197 0
172 195 0
172 196 0
171 195 0
172 195 0
173 196 0
174 197 0
173 196 0
173 197 0
172 195 0
173 196 0
173 197 0
170 193 0
174 197 0
171 195 0
171 194 0
174 197 0
173 196 0
170 193 0
172 196 0
171 194 0
169 193 0
170 194 0
173 196 0
174 197 0
172 196 0
174 197 0
172 194 0
171 195 0
173 197 0
171 193 0
173 197 0
173 196 0
172 196 0
170 193 0
171 194 0
169 193 0
169 192 0
172 195 0
171 194 0
172 195 0
172 196 0
170 193 0
170 194 0
170 195 0
171 195 0
171 194 0
172 196 0
173 196 0
169 193 0
172 195 0
170 194 0
170 193 0
171 194 0
170 194 0
168 191 0
172 195 0
169 192 0
169 192 0
171 194 0
169 193 0
169 193 0
170 193 0
169 192 0
171 195 0
167 191 0
171 194 0
171 194 0
169 193 0
170 193 0
170 193 0
172 194 0
171 194 0
170 193 0
168 191 0
170 194 0
167 191 0
166 190 0
159 183 72
129 154 108
77 109 154
62 98 163
63 99 167
62 99 169
61 97 161
62 99 172
63 99 174
62 99 174
62 98 167
62 99 172
62 98 172
62 98 165
62 98 170
62 98 171
61 97 165
63 99 172
62 99 168
62 99 172
63 100 177
62 99 174
63 99 175
62 99 172
62 98 170
61 98 170
62 99 173
62 99 168
61 98 169
62 99 174
62 98 168
62 99 176
62 99 178
62 99 174
62 99 175
63 99 178
62 99 177
62 99 176
62 99 175
62 99 177
62 99 177
62 99 177
63 100 177
63 100 176
62 99 176
62 99 176
62 99 174
62 98 174
62 99 173
62 99 177
62 99 176
62 99 177
62 99 179
61 99 178
62 99 176
62 99 178
62 99 178
62 99 174
62 99 178
62 99 178
62 99 179
62 99 178
62 99 178
63 99 179
63 99 179
62 99 178
62 99 174
62 99 179
62 99 177
62 99 174
62 99 180
62 99 176
62 99 180
62 99 177
63 99 178
62 99 177
61 98 171
62 99 175
62 99 175
62 99 178
62 99 176
62 99 175
62 99 177
63 99 178
63 99 177
62 99 177
62 99 179
63 99 177
63 100 175
63 99 177
62 99 177
62 99 176
62 99 175
63 99 176
63 100 180
62 99 175
62 99 175
62 99 176
62 99 175
62 99 179
62 99 175
62 99 176
62 99 181
63 99 177
62 99 176
61 98 173
61 98 172
62 99 175
62 99 176
62 99 171
62 99 174
62 99 173
62 99 175
61 98 174
62 99 173
62 99 176
62 99 174
62 99 173
62 99 178
62 99 171
62 99 171
62 99 177
62 99 177
62 98 171
62 98 173
63 99 173
62 99 175
62 98 171
62 98 171
62 99 172
62 99 170
63 99 173
63 99 176
62 98 170
62 98 170
62 99 172
63 99 175
62 99 172
62 99 173
62 99 172
63 99 176
62 99 174
62 98 168
62 98 169
61 98 170
61 98 164
63 99 173
61 98 170
62 98 171
63 98 169
62 99 173
62 98 171
62 98 167
61 97 169
62 98 167
61 97 162
62 97 166
61 96 163
62 98 168
62 98 165
60 95 161
60 95 164
59 93 155
60 95 161
59 92 153
60 93 155
52 80 124
62 77 95
52 65 75
67 71 50
69 73 53
59 65 46
72 75 52
68 74 54
68 73 49
75 81 55
74 79 56
84 89 62
74 81 61
90 94 63
106 108 71
96 98 62
85 89 61
104 105 71
99 101 68
100 102 63
102 104 68
113 115 72
112 113 68
110 111 71
112 114 73
137 136 88
120 120 74
129 128 78
125 124 76
127 126 78
128 128 82
131 130 82
139 137 86
128 128 81
136 134 83
140 138 83
131 130 78
141 138 83
144 141 82
146 143 88
147 145 90
150 147 86
156 151 90
157 153 93
155 151 90
150 146 85
156 152 90
156 152 89
154 150 90
157 153 89
156 152 90
161 156 92
165 160 90
159 154 87
158 154 85
157 152 85
167 162 90
163 158 90
160 156 92
155 151 85
164 159 90
163 158 85
162 158 89
164 159 88
166 161 83
167 161 91
171 165 94
169 163 89
171 164 97
167 161 92
171 164 91
170 164 93
168 162 86
167 161 89
167 161 88
169 163 91
170 163 88
171 164 91
171 164 91
172 166 91
169 162 90
170 164 92
169 164 87
168 162 89
170 164 94
175 167 94
168 161 87
166 161 88
172 165 88
174 167 95
173 165 95
170 164 88
166 160 87
165 159 89
164 159 87
166 160 84
171 164 90
165 159 84
167 160 84
169 162 87
164 157 84
163 156 76
165 159 81
169 162 87
164 157 82
161 154 82
160 154 84
160 154 81
160 153 79
160 155 77
161 154 80
159 153 80
165 157 82
153 147 73
163 157 84
155 149 75
151 144 70
152 146 72
151 145 76
155 149 78
154 148 76
153 147 70
147 141 67
152 146 80
144 137 70
148 141 66
141 135 63
139 134 64
146 138 66
143 137 58
148 144 64
146 143 61
151 154 60
137 141 49
150 154 49
151 162 39
146 155 37
155 168 30
164 179 37
162 177 28
163 181 16
169 188 16
171 190 0
172 193 0
171 195 0
171 195 0
174 198 0
171 195 0
173 196 0
173 196 0
174 197 0
174 197 0
171 194 0
171 195 0
173 197 0
171 195 0
171 195 0
174 197 0
172 194 0
170 194 0
171 194 0
169 193 0
171 194 0
171 194 0
173 196 0
170 194 0
171 194 0
174 197 0
171 194 0
172 196 0
174 197 0
169 192 0
169 193 0
171 194 0
173 196 0
170 194 0
173 197 0
168 191 0
169 193 0
170 193 0
173 196 0
171 195 0
168 192 0
171 194 0
173 197 0
173 196 0
171 195 0
173 196 0
172 196 0
169 193 0
167 191 0
170 193 0
172 194 0
171 194 0
173 196 0
172 195 0
171 194 0
171 195 0
174 197 0
173 196 0
173 195 0
171 194 0
170 193 0
171 195 0
171 195 0
169 193 0
171 195 0
173 197 0
170 193 0
169 192 0
172 196 0
170 193 0
171 194 0
174 197 0
168 192 0
170 193 0
171 195 0
171 194 0
172 196 0
169 192 0
173 195 0
170 193 0
169 191 0
169 191 0
171 194 0
170 194 0
169 192 0
170 194 0
172 196 0
171 195 0
171 194 0
171 194 0
167 190 0
169 192 31
146 170 82
101 129 131
62 98 161
63 99 171
62 98 163
61 97 161
62 99 166
61 97 156
63 99 167
62 99 168
62 98 166
62 98 169
62 98 169
62 98 167
62 99 175
63 99 171
62 98 168
63 99 172
61 98 175
62 98 171
63 99 174
62 98 166
62 98 172
62 99 174
62 99 174
63 100 177
62 99 171
62 99 174
62 99 173
62 98 172
61 98 172
62 99 174
62 99 177
62 99 175
62 99 176
62 99 177
61 99 178
62 99 176
62 99 176
62 99 169
62 98 173
61 98 173
62 99 176
62 99 178
62 99 177
62 99 177
62 99 175
61 98 176
62 99 176
63 100 180
63 99 177
62 99 177
62 99 175
62 99 179
62 99 177
63 99 176
62 99 175
62 99 178
62 99 178
62 99 178
63 99 179
62 99 178
63 99 178
62 99 175
62 99 177
63 100 180
62 99 176
62 99 178
61 98 176
62 99 176
62 99 178
62 99 175
62 99 175
62 99 178
62 99 176
61 98 176
63 99 178
62 99 172
62 99 177
63 100 179
62 99 178
62 99 180
62 99 174
62 99 178
62 99 173
62 99 175
62 99 178
63 100 180
61 99 178
62 99 178
62 99 177
62 99 175
62 99 174
62 99 177
62 99 173
63 99 176
62 99 174
62 99 177
61 99 178
62 99 175
62 99 173
62 99 178
62 99 172
62 99 173
62 99 174
62 99 177
62 99 175
62 99 176
62 98 173
62 99 178
62 99 176
62 99 173
62 99 174
63 100 176
63 100 179
62 99 175
63 99 176
61 98 173
62 99 176
62 99 172
62 99 176
62 99 178
62 99 174
62 99 169
62 99 170
62 98 170
61 98 170
62 99 170
63 99 176
62 99 172
62 99 174
62 99 171
63 99 172
62 99 171
62 99 176
62 99 173
62 99 169
62 98 173
62 99 173
63 99 173
63 99 169
62 98 170
62 99 174
62 98 168
62 99 178
61 98 171
61 97 167
62 99 171
62 98 168
62 99 171
62 98 169
62 98 170
62 98 169
62 97 163
61 96 160
62 98 162
62 97 166
61 97 163
61 96 159
62 98 168
61 96 161
62 98 170
60 95 159
59 94 157
60 93 155
59 93 153
59 89 142
56 75 107
62 73 82
54 62 54
59 64 46
61 66 46
55 63 48
69 73 50
69 74 53
73 77 52
65 73 53
80 86 61
78 83 58
70 75 47
93 95 63
91 94 65
88 92 62
82 88 61
100 103 69
100 102 65
104 107 72
102 104 70
110 111 72
111 112 69
107 110 74
125 125 83
109 112 70
115 116 74
128 128 76
123 122 78
127 127 78
126 126 81
115 117 73
136 134 82
142 139 84
138 137 85
135 133 81
133 132 77
135 134 74
142 139 85
136 134 79
148 145 84
150 147 87
145 142 88
153 149 85
150 147 84
148 146 85
158 154 89
159 154 87
155 152 87
162 157 89
159 155 91
163 158 93
156 152 85
159 154 89
159 154 81
165 160 94
159 154 83
164 159 91
158 154 81
162 158 89
160 156 89
164 159 89
171 164 101
165 159 86
164 158 89
170 164 94
171 164 98
163 157 88
170 164 91
173 166 96
168 162 88
172 165 91
167 162 91
167 161 86
167 160 88
170 163 90
171 164 90
168 162 88
170 163 88
167 161 90
169 163 86
174 167 93
172 165 93
170 164 90
165 159 83
168 162 90
171 164 88
166 159 87
169 163 84
169 163 86
158 153 74
160 154 75
168 161 87
165 159 81
160 155 78
164 157 80
162 156 79
169 162 84
163 156 80
160 154 80
162 156 85
164 158 87
165 158 82
161 155 80
159 153 80
155 149 75
164 157 84
155 149 75
158 151 77
159 152 85
163 156 84
162 155 82
149 144 67
145 139 68
149 144 66
160 153 75
154 148 71
153 148 73
151 146 67
147 141 69
156 149 74
149 143 65
150 145 69
155 149 74
150 144 72
143 136 66
137 131 63
142 137 59
139 134 58
142 140 57
138 138 53
149 153 51
145 148 47
148 157 41
149 158 42
155 164 45
162 175 37
158 174 22
168 185 28
167 186 16
168 188 11
173 194 0
173 196 0
173 196 0
172 196 0
175 198 0
172 195 0
171 195 0
171 194 0
172 195 0
170 193 0
174 196 0
173 197 0
172 195 0
174 197 0
173 197 0
171 195 0
172 196 0
173 197 0
172 195 0
171 194 0
173 197 0
172 195 0
170 194 0
172 195 0
173 196 0
170 194 0
168 192 0
173 196 0
171 195 0
172 195 0
171 194 0
173 196 0
172 195 0
172 194 0
171 195 0
173 196 0
172 196 0
171 195 0
171 194 0
171 194 0
171 195 0
170 194 0
175 198 0
173 196 0
170 192 0
170 195 0
171 193 0
170 193 0
167 191 0
172 195 0
169 194 0
171 195 0
169 192 0
174 196 0
170 193 0
172 195 0
168 192 0
168 191 0
171 195 0
171 195 0
171 194 0
173 195 0
168 190 0
172 195 0
169 192 0
168 191 0
170 193 0
171 194 0
173 196 0
168 191 0
171 195 0
171 195 0
170 194 0
169 193 0
172 195 0
172 195 0
172 194 0
169 192 0
170 192 0
170 193 0
170 193 0
170 193 0
172 194 0
172 195 0
168 191 0
169 192 0
168 192 0
171 194 0
168 190 0
169 191 0
169 193 0
164 187 54
131 156 114
76 109 159
62 98 161
61 98 163
62 98 166
62 99 171
62 99 171
62 98 163
61 98 167
61 98 164
61 98 167
63 99 165
62 98 171
62 98 174
63 100 176
62 99 169
62 99 174
63 99 173
62 98 169
62 99 174
62 99 173
62 99 171
62 99 170
62 99 175
62 98 173
62 99 175
62 99 174
62 99 177
62 98 172
62 98 173
62 99 175
62 99 173
62 99 175
62 99 174
62 99 175
62 99 174
63 100 180
62 99 179
62 99 178
62 99 176
63 99 173
62 99 176
62 99 177
62 99 169
62 99 177
62 99 176
62 99 177
62 99 173
63 99 174
62 99 175
61 98 175
62 99 173
62 99 177
63 100 179
62 99 175
63 100 177
62 99 176
62 99 175
63 99 177
62 99 178
62 99 176
61 99 178
62 99 178
62 99 176
62 99 176
62 99 180
62 99 179
62 99 172
62 99 179
62 99 176
62 99 176
62 99 174
62 99 178
62 99 175
62 99 177
61 98 177
62 99 179
61 98 172
62 99 178
62 99 178
62 99 179
62 99 175
62 99 180
62 99 174
62 99 176
61 98 173
62 99 174
62 99 179
63 100 179
62 99 178
62 98 174
61 98 174
63 100 177
62 99 173
62 99 181
62 99 174
62 98 169
63 100 179
62 99 176
61 98 172
62 99 177
62 99 175
62 99 175
63 100 180
62 99 174
62 99 178
62 98 172
62 99 177
63 100 179
62 99 175
62 99 175
62 99 176
62 99 177
62 99 173
62 99 173
62 99 175
62 99 176
61 98 167
62 99 176
62 99 174
62 99 173
62 99 175
62 98 169
61 98 171
63 99 175
62 99 175
62 99 175
62 98 172
62 99 175
62 98 172
62 99 175
62 99 173
63 99 173
63 100 177
63 99 179
62 98 169
62 98 169
62 98 170
63 99 176
62 98 169
62 98 171
62 98 170
62 98 170
62 99 175
62 98 168
62 98 170
61 98 173
62 98 168
62 98 166
61 97 164
61 97 164
62 98 169
63 99 174
62 97 168
62 97 167
62 99 170
62 98 169
62 98 169
61 96 162
61 97 163
62 98 163
60 95 159
60 95 164
59 92 154
59 93 156
59 92 153
58 89 145
59 83 127
61 77 97
58 65 59
63 68 46
59 63 44
67 72 51
66 71 48
66 71 48
71 77 51
81 85 59
73 78 53
78 82 55
72 77 53
77 82 56
92 96 63
84 90 58
94 97 66
95 98 66
104 106 65
106 108 74
94 95 60
108 110 69
117 117 72
119 120 74
110 110 69
124 123 70
114 114 75
124 123 77
116 117 74
117 116 74
133 132 76
131 129 74
134 133 79
141 139 81
128 127 74
146 143 80
141 139 83
141 138 81
144 141 82
141 139 81
132 131 75
150 147 82
148 145 83
155 151 85
154 150 84
150 146 82
154 150 84
157 151 84
155 150 85
159 154 83
156 151 86
155 150 84
157 153 87
171 164 96
163 158 93
157 152 91
158 155 91
163 157 89
166 161 92
160 156 82
164 158 89
169 163 94
169 163 89
168 162 90
163 158 86
172 165 92
171 164 95
162 157 87
167 161 88
164 158 86
170 164 95
169 162 91
168 163 88
172 166 96
168 163 85
166 160 86
171 164 93
170 163 88
167 161 91
172 165 94
167 161 87
171 164 93
167 162 86
169 163 89
168 162 84
168 161 92
165 160 81
168 162 90
167 160 86
166 161 89
165 159 87
169 162 86
165 158 83
166 158 87
168 161 85
166 158 88
172 165 93
170 161 87
164 159 84
164 157 79
163 156 84
162 156 83
166 159 81
160 153 75
159 154 79
160 153 78
160 154 80
161 153 84
164 157 87
160 154 78
159 152 77
157 151 67
157 151 82
156 151 69
161 155 78
146 140 58
155 149 74
145 140 72
147 141 73
156 150 75
149 143 68
149 143 69
146 140 71
141 136 62
142 136 63
141 135 61
141 135 60
139 134 59
136 131 56
140 140 57
141 144 52
146 148 56
155 161 56
149 153 51
160 172 39
152 165 32
160 176 22
156 172 16
163 180 22
168 186 16
171 192 11
170 192 0
171 192 0
174 197 0
175 198 0
172 195 0
172 195 0
171 194 0
172 196 0
174 197 0
172 196 0
174 198 0
173 197 0
173 196 0
174 197 0
171 195 0
173 196 0
173 196 0
171 194 0
169 193 0
173 197 0
171 195 0
174 197 0
173 196 0
172 195 0
173 197 0
170 193 0
171 194 0
172 196 0
171 195 0
169 192 0
170 194 0
171 195 0
172 195 0
172 196 0
171 195 0
170 194 0
170 194 0
172 196 0
170 193 0
174 197 0
172 195 0
168 191 0
173 196 0
171 195 0
174 196 0
170 193 0
170 192 0
172 196 0
172 196 0
172 195 0
174 197 0
172 195 0
170 193 0
168 191 0
171 195 0
168 191 0
170 194 0
171 194 0
170 193 0
173 196 0
169 193 0
170 194 0
172 195 0
168 192 0
172 196 0
173 197 0
171 194 0
173 196 0
166 188 0
171 195 0
172 195 0
169 192 0
168 191 0
170 193 0
170 193 0
172 195 0
170 194 0
170 193 0
170 194 0
168 192 0
171 195 0
168 191 0
171 195 0
168 191 0
165 189 0
172 195 0
170 194 0
169 192 0
172 195 0
169 192 0
168 191 25
148 173 86
116 142 125
68 102 162
62 98 163
62 98 166
62 98 162
62 99 169
63 99 169
62 99 169
62 99 171
62 98 169
62 98 168
62 98 166
62 99 176
62 98 167
62 99 171
61 98 162
62 98 168
62 99 169
62 99 170
62 99 175
62 98 167
63 99 173
62 98 169
62 99 170
62 99 174
62 98 170
63 99 174
62 99 174
62 99 178
62 99 174
62 99 176
62 99 176
62 98 175
62 99 177
62 99 176
62 99 177
62 99 176
63 99 175
62 99 173
62 99 176
62 99 175
63 99 176
62 99 177
62 99 174
62 99 175
62 99 180
62 99 177
62 98 174
62 99 173
62 99 174
63 100 179
62 99 177
62 99 173
62 99 173
62 99 175
62 99 175
62 99 179
62 99 176
62 99 175
62 99 175
61 98 174
61 98 173
62 99 179
62 98 175
62 99 179
62 99 177
62 99 178
62 99 175
62 99 178
62 99 177
62 99 177
62 99 175
62 99 177
61 99 178
63 100 180
62 99 175
62 99 177
62 99 178
62 99 179
63 100 178
62 99 177
63 99 178
63 100 178
62 99 176
63 99 177
62 99 176
62 99 176
62 99 174
62 99 176
63 99 177
62 99 175
62 99 175
63 100 177
61 98 170
62 99 175
62 98 174
62 99 175
62 99 178
62 99 176
62 99 177
62 99 177
61 98 175
62 98 173
62 98 168
62 99 176
63 99 178
62 99 176
62 99 174
62 98 173
62 99 173
62 99 176
62 99 177
62 99 172
63 99 173
62 99 175
61 98 173
63 99 178
61 98 169
62 99 173
62 99 174
62 99 174
62 99 176
62 99 175
62 98 173
62 99 175
61 98 167
61 98 171
62 99 173
62 99 175
61 98 169
62 99 174
62 99 178
63 99 172
63 100 175
61 98 166
63 99 173
62 99 172
61 98 168
62 98 168
63 99 176
62 98 167
62 99 172
62 98 166
62 98 167
62 99 171
63 99 172
62 98 168
63 99 175
62 98 164
62 98 169
60 96 164
62 98 166
61 97 166
61 98 169
61 96 160
62 97 163
61 97 167
62 97 163
61 96 164
61 96 158
60 96 163
61 96 163
61 97 164
60 95 158
59 93 153
61 96 158
60 93 150
56 82 121
61 76 93
53 66 77
54 61 55
66 70 50
59 65 48
65 70 50
66 71 46
67 72 50
78 81 55
66 71 46
72 77 56
72 78 51
77 82 59
71 78 55
78 83 57
106 108 69
92 95 60
111 112 69
100 103 66
99 102 67
106 107 65
115 116 67
115 116 74
116 115 73
114 115 73
122 121 69
125 124 71
113 114 67
117 117 74
126 125 71
131 129 75
126 125 74
133 131 73
143 141 82
137 135 80
142 140 83
142 140 87
144 142 84
143 140 82
145 142 83
145 142 82
151 147 81
148 144 81
149 146 84
154 151 86
148 145 87
150 146 85
152 149 85
155 152 82
159 155 90
158 153 89
162 156 88
155 151 79
157 152 80
163 158 86
166 162 92
165 159 89
165 159 90
162 157 86
164 159 88
162 157 87
165 159 84
165 159 90
162 157 87
169 162 88
167 161 88
161 156 85
167 161 87
165 159 89
168 162 91
170 163 92
168 162 84
168 161 88
163 156 82
171 164 91
173 166 92
168 162 90
173 166 94
166 160 86
173 166 92
170 163 90
168 162 86
166 160 85
163 158 83
171 164 93
169 162 87
169 162 85
166 159 86
168 162 87
172 164 90
168 161 88
165 159 83
166 159 81
161 155 74
164 158 80
162 156 84
162 156 78
164 158 83
163 156 84
163 157 77
164 158 80
167 160 82
162 156 82
158 151 80
159 153 77
165 159 87
162 156 78
160 153 81
161 154 82
165 158 80
155 148 75
150 144 74
149 143 70
157 152 72
148 143 66
145 140 67
156 149 78
154 147 74
149 144 69
143 137 64
146 141 67
149 144 72
147 142 61
140 134 59
145 138 65
145 138 71
141 136 65
128 126 45
148 147 59
149 148 49
146 147 54
157 163 47
149 158 36
156 170 36
160 174 37
163 178 30
156 173 22
166 186 25
168 188 11
170 190 11
175 196 0
172 195 0
171 194 0
170 194 0
173 197 0
170 193 0
172 196 0
173 196 0
169 193 0
168 192 0
173 196 0
171 194 0
173 196 0
171 195 0
171 194 0
173 196 0
173 196 0
171 194 0
174 197 0
173 196 0
169 193 0
172 196 0
170 194 0
173 197 0
171 194 0
171 194 0
170 194 0
170 193 0
172 196 0
171 195 0
170 193 0
172 195 0
169 193 0
173 196 0
170 193 0
174 197 0
169 194 0
171 194 0
169 192 0
168 192 0
170 193 0
172 195 0
174 196 0
174 198 0
172 195 0
173 196 0
171 195 0
172 195 0
173 196 0
167 191 0
170 194 0
172 196 0
172 195 0
168 192 0
172 196 0
173 196 0
170 194 0
171 194 0
171 195 0
171 194 0
175 198 0
173 196 0
172 195 0
172 195 0
172 195 0
173 196 0
173 196 0
170 193 0
171 194 0
173 196 0
171 194 0
169 192 0
168 191 0
168 191 0
168 192 0
168 192 0
170 193 0
171 195 0
166 189 0
171 194 0
171 195 0
168 191 0
171 195 0
172 195 0
172 195 0
168 192 0
170 194 0
174 197 0
168 191 0
170 193 0
166 188 31
137 162 97
98 127 147
62 98 166
62 98 163
63 99 171
62 98 165
63 99 169
62 98 164
62 99 171
62 98 163
61 97 161
62 99 172
62 99 168
61 98 167
62 98 168
61 98 165
62 99 172
62 98 169
62 98 165
62 99 173
62 99 170
62 99 174
63 99 172
61 98 170
62 99 172
62 99 176
63 100 178
62 99 176
62 99 174
62 99 175
62 99 169
62 98 172
62 99 177
62 99 174
63 99 174
62 99 178
63 99 175
63 100 177
62 99 173
61 98 173
62 99 174
62 99 177
62 99 173
63 99 175
61 98 173
61 98 170
62 99 177
62 98 173
63 99 178
62 99 177
62 99 176
62 99 176
62 99 174
63 99 175
61 98 173
62 99 180
63 99 175
62 99 175
61 98 176
62 99 177
62 99 176
63 99 179
62 99 177
62 99 179
62 99 176
61 99 178
62 99 176
62 99 179
62 99 174
62 99 176
62 99 176
62 99 174
62 99 174
63 99 174
62 99 179
63 99 178
62 99 178
62 99 174
62 99 177
63 100 175
62 99 174
62 99 176
61 98 172
62 99 175
62 98 175
62 99 173
62 99 176
62 99 173
62 99 173
62 99 175
61 98 173
62 99 178
62 99 176
61 98 174
62 99 177
61 98 174
62 99 172
62 98 172
63 99 174
62 99 178
61 98 169
62 99 174
62 99 174
62 99 176
61 98 175
62 99 173
62 99 181
62 98 174
62 99 174
62 99 174
62 99 174
62 99 176
63 99 177
62 99 173
62 99 178
62 98 172
62 99 171
61 98 175
62 99 175
63 99 176
61 98 174
62 99 174
63 99 171
62 98 171
62 98 168
62 99 174
62 99 171
63 99 173
62 99 176
62 99 172
62 98 169
62 99 177
63 99 173
63 99 173
62 99 174
62 99 173
62 98 168
62 98 168
62 98 166
62 98 168
62 98 171
62 99 171
63 99 171
61 98 170
61 98 164
62 98 171
61 98 161
62 98 166
62 98 170
62 98 168
62 99 168
63 99 172
62 98 168
62 98 166
62 98 168
63 99 170
61 97 165
62 97 161
61 97 165
61 96 160
61 97 161
62 97 158
61 96 160
62 97 163
60 93 149
61 96 161
59 94 159
60 94 152
57 89 143
59 82 112
53 67 80
56 63 46
64 67 44
68 71 43
56 61 45
71 75 49
64 69 44
71 75 45
87 90 59
59 66 48
78 82 54
93 95 59
78 83 53
88 92 56
89 93 61
97 100 60
91 94 61
102 104 63
102 105 65
104 106 67
111 112 69
109 110 68
118 118 72
116 117 74
108 110 68
122 122 74
126 125 74
124 123 71
123 122 65
130 129 76
131 129 73
140 138 80
145 141 83
131 130 76
139 135 78
147 144 87
141 140 81
143 140 80
144 141 84
141 138 74
150 146 83
145 143 81
146 143 77
148 145 82
157 153 86
156 152 81
151 147 86
162 157 92
158 154 86
160 155 87
156 152 89
158 154 82
162 157 88
158 153 84
162 157 90
162 157 90
164 158 89
169 162 87
160 155 91
164 159 89
164 159 88
162 156 89
169 162 89
164 159 82
166 160 86
164 159 85
164 158 83
168 162 89
169 163 91
171 164 94
171 164 91
166 160 84
170 164 90
167 160 86
167 161 84
167 161 85
170 163 91
172 166 93
170 163 91
166 160 89
169 161 89
176 168 93
169 163 91
169 162 88
171 165 90
165 158 85
170 162 91
171 164 90
173 165 95
166 160 82
164 157 85
165 159 85
167 160 80
167 160 87
174 166 87
161 154 75
165 158 81
167 160 79
162 155 80
159 153 78
154 147 77
162 156 79
162 155 82
160 153 80
154 149 73
162 154 82
161 154 79
162 155 78
151 145 74
161 154 81
156 149 76
156 149 77
153 146 70
160 153 72
146 141 60
152 146 69
151 144 72
150 143 73
155 147 70
148 142 67
151 143 71
142 136 64
143 138 62
139 134 59
139 133 62
136 132 56
146 141 63
144 141 61
142 140 56
153 156 53
148 154 51
144 154 36
159 170 42
160 174 32
157 172 32
161 179 30
158 176 11
167 185 19
168 189 16
168 189 0
171 194 0
170 195 0
170 195 0
171 195 0
172 196 0
171 195 0
173 195 0
171 194 0
175 197 0
170 193 0
172 195 0
169 193 0
171 195 0
174 197 0
173 197 0
171 194 0
171 194 0
171 194 0
172 196 0
171 194 0
172 196 0
172 196 0
175 196 0
173 196 0
171 194 0
171 195 0
167 191 0
173 197 0
173 197 0
172 195 0
171 195 0
168 192 0
172 195 0
172 195 0
171 193 0
170 193 0
172 195 0
170 194 0
169 193 0
172 195 0
171 195 0
171 194 0
173 197 0
172 196 0
170 193 0
174 198 0
174 197 0
171 194 0
170 193 0
169 193 0
171 194 0
169 193 0
169 193 0
171 195 0
173 196 0
172 195 0
170 193 0
170 192 0
170 193 0
175 198 0
171 195 0
173 196 0
171 196 0
169 192 0
173 196 0
174 197 0
169 193 0
172 195 0
172 196 0
167 191 0
170 194 0
165 188 0
173 196 0
171 194 0
170 192 0
172 194 0
170 193 0
167 190 0
172 195 0
171 195 0
170 194 0
168 192 0
170 194 0
169 192 0
167 191 0
172 195 0
169 192 0
166 189 0
169 193 18
162 186 60
124 150 118
84 115 144
62 98 159
62 98 161
62 99 168
61 97 164
62 98 163
61 98 165
62 98 167
62 98 164
61 98 168
61 98 167
62 99 171
62 98 167
63 99 174
62 99 170
63 99 171
62 99 172
62 98 170
62 99 172
62 99 173
62 99 172
63 99 176
62 99 173
62 99 176
62 99 175
62 99 176
62 99 171
61 98 171
61 98 169
62 98 171
62 99 177
62 99 173
62 99 175
62 99 175
62 99 174
62 98 167
62 98 174
62 99 173
62 99 173
62 99 176
62 99 173
62 98 172
62 99 176
61 98 172
62 99 177
62 99 176
63 99 178
62 99 176
62 98 172
63 99 174
62 99 173
62 99 177
62 99 173
62 99 175
62 99 176
62 99 177
62 99 178
62 99 177
62 98 173
62 99 177
62 99 176
62 99 175
62 99 179
62 99 177
62 99 177
62 98 175
62 99 173
63 99 175
62 99 174
62 99 171
62 99 176
61 98 176
62 99 177
62 99 174
62 99 178
62 99 176
61 98 174
62 99 177
63 100 178
61 98 172
62 99 176
62 98 171
63 100 178
62 98 172
62 99 175
63 100 178
63 99 177
62 99 175
63 100 176
63 99 177
62 99 177
62 99 174
62 99 174
63 99 177
61 98 173
62 99 177
62 99 176
62 98 170
63 99 172
62 99 171
62 99 175
63 99 175
62 99 175
62 99 178
62 99 172
63 100 179
62 99 177
62 99 175
63 99 172
63 99 171
62 99 176
62 99 174
63 100 175
63 100 177
62 99 177
62 99 170
62 99 174
62 98 168
62 99 178
62 98 171
61 98 169
62 99 173
61 98 169
62 99 170
61 98 168
62 99 168
62 99 173
62 99 174
61 98 167
62 99 175
62 99 169
62 98 175
63 99 174
62 99 174
63 99 171
62 98 164
62 98 171
63 100 172
61 98 171
61 98 170
62 98 167
62 98 171
62 98 168
61 97 170
62 98 170
63 99 175
62 99 173
63 99 174
63 99 169
62 98 170
62 98 168
61 97 161
61 97 161
63 99 174
62 98 170
61 97 164
62 97 166
62 97 168
61 97 167
61 97 164
61 96 164
62 98 170
61 96 156
60 94 155
60 94 155
61 96 160
61 95 159
57 89 140
55 81 121
65 79 94
64 72 69
52 58 46
60 66 51
50 57 41
55 62 45
67 72 49
65 70 47
71 76 53
75 79 48
79 82 53
84 88 58
85 90 63
94 97 63
103 105 64
81 84 53
99 102 67
84 88 57
102 105 68
103 104 57
106 107 67
108 109 67
110 111 67
124 123 81
120 120 70
132 129 79
114 114 72
122 122 74
132 130 78
131 130 82
121 121 78
136 134 77
134 132 81
136 134 75
131 131 76
146 142 85
139 136 77
140 137 79
144 141 84
144 141 81
146 143 83
153 149 80
160 155 93
148 145 82
157 152 89
147 144 77
156 152 90
155 151 82
157 152 87
159 153 81
160 154 85
153 149 80
162 157 87
160 155 84
158 154 84
159 154 84
157 153 85
163 158 86
162 156 86
165 160 89
168 161 89
164 158 83
165 159 83
167 162 91
165 158 89
170 163 91
157 153 81
167 162 88
169 163 90
173 166 92
168 162 86
167 161 86
170 163 84
169 163 91
170 162 94
172 165 90
166 159 84
169 162 87
172 164 90
169 162 83
170 164 87
169 162 87
169 162 87
168 161 80
167 161 86
171 164 84
167 160 80
168 162 87
166 159 86
162 157 81
164 158 83
164 157 80
168 161 89
166 159 79
164 158 81
166 160 87
164 158 80
167 160 84
165 158 80
163 157 77
157 151 73
160 153 76
165 157 76
157 150 72
159 152 83
161 155 72
156 150 75
153 147 73
158 151 77
160 154 72
156 150 72
157 150 82
153 147 66
152 145 74
153 147 75
147 139 69
146 140 65
145 139 63
152 146 71
148 141 69
153 147 67
150 144 68
146 140 69
135 131 53
138 132 58
149 145 62
138 136 53
131 133 45
142 143 52
146 152 45
140 145 37
156 167 44
154 165 41
154 166 32
159 171 34
168 182 34
167 186 16
168 188 11
171 192 0
168 189 0
167 188 0
173 196 0
172 196 0
171 195 0
170 194 0
173 196 0
171 194 0
173 196 0
174 198 0
171 194 0
173 197 0
171 195 0
173 197 0
174 197 0
172 196 0
171 195 0
174 197 0
173 197 0
169 194 0
169 192 0
171 194 0
171 194 0
173 196 0
173 197 0
173 196 0
172 196 0
173 196 0
172 195 0
173 196 0
172 196 0
171 195 0
170 194 0
171 195 0
172 194 0
170 193 0
171 195 0
172 195 0
171 195 0
170 193 0
171 195 0
173 196 0
171 194 0
171 195 0
171 193 0
171 195 0
173 196 0
172 195 0
172 194 0
173 196 0
171 194 0
164 189 0
172 195 0
173 196 0
170 193 0
173 195 0
172 195 0
170 192 0
171 193 0
170 193 0
168 191 0
169 193 0
171 195 0
174 197 0
168 191 0
170 194 0
168 191 0
173 196 0
173 196 0
171 194 0
171 195 0
171 194 0
168 191 0
170 193 0
171 193 0
173 196 0
165 189 0
170 193 0
171 196 0
169 193 0
169 193 0
167 191 0
169 192 0
170 194 0
170 192 0
171 194 0
172 195 0
170 193 0
167 190 0
165 190 40
147 171 86
107 134 140
65 100 162
63 99 171
62 98 167
63 99 167
62 98 163
61 98 162
63 100 173
61 98 166
61 96 156
62 99 169
63 99 170
62 99 171
61 98 162
62 98 168
62 99 170
62 98 170
62 98 167
62 98 164
62 98 170
62 98 168
63 99 177
62 99 176
62 98 168
62 99 172
62 99 173
61 98 171
62 99 176
62 99 172
63 99 176
62 99 174
62 98 169
62 98 169
61 98 173
62 99 175
63 100 179
63 100 175
63 100 175
62 99 175
62 99 170
62 99 172
62 98 170
62 99 175
62 98 173
63 100 181
62 99 174
62 99 175
62 99 173
62 99 175
62 98 172
63 99 173
63 99 177
63 100 179
62 98 175
62 99 175
63 99 178
62 99 179
62 99 174
62 99 174
62 99 175
62 99 177
62 99 176
61 98 173
62 98 170
62 99 174
61 98 168
61 98 171
62 99 177
62 99 174
62 99 175
62 99 176
62 99 176
62 99 174
62 99 177
62 98 174
62 99 178
62 99 174
62 99 175
62 99 176
62 99 173
62 99 177
62 99 178
62 99 176
62 99 176
62 98 173
62 98 170
62 99 177
62 99 174
63 99 174
62 98 170
62 98 168
62 99 174
62 99 177
62 99 179
62 99 177
61 98 173
62 99 170
62 98 173
63 100 180
62 99 172
63 99 174
63 99 178
63 99 173
62 99 177
62 99 175
62 99 172
62 99 173
63 100 178
62 98 170
62 99 174
63 100 177
62 99 172
62 99 172
62 98 174
61 98 172
62 98 167
62 99 167
62 98 172
62 99 173
62 99 172
63 99 175
61 98 170
62 98 168
61 98 175
63 99 175
62 99 175
62 99 173
63 99 172
62 99 173
61 98 172
62 99 170
62 98 172
62 98 171
62 99 171
63 99 169
62 99 173
62 98 168
62 99 173
62 98 168
63 99 169
62 98 170
62 99 170
62 98 167
62 98 169
62 98 167
62 98 170
61 96 162
62 98 170
61 98 168
62 98 169
62 99 173
61 98 166
62 98 166
61 97 161
62 98 172
61 98 168
62 99 170
61 97 165
62 98 168
61 96 159
61 97 160
60 96 160
61 97 161
61 96 162
60 95 154
61 95 156
60 93 157
60 93 150
59 92 148
55 85 134
60 79 105
53 65 74
47 56 50
61 67 45
45 51 35
66 70 47
74 77 50
72 77 50
78 83 49
65 71 52
72 75 43
75 79 54
75 79 50
85 89 56
69 76 51
89 92 52
85 89 54
99 101 62
115 117 72
104 105 66
97 101 58
113 112 62
114 115 62
113 113 67
121 119 67
123 122 68
117 118 66
126 124 75
129 128 77
132 132 75
132 130 75
139 136 80
135 134 72
130 128 69
136 135 82
145 142 83
143 140 79
143 140 79
148 144 86
138 137 81
145 142 76
153 149 87
148 145 77
148 144 82
144 142 75
154 150 80
156 151 86
143 140 75
155 151 86
161 156 86
164 158 89
158 153 84
161 156 87
162 156 89
154 149 75
163 158 84
158 154 86
162 157 85
162 157 84
164 158 83
162 157 85
167 161 86
167 161 91
168 162 87
162 157 79
166 160 86
170 163 91
164 159 83
164 159 81
162 157 79
166 160 87
172 164 90
168 162 88
170 164 86
166 161 87
171 164 87
162 155 80
166 160 87
166 160 81
168 161 90
168 161 86
171 164 87
170 164 86
166 160 81
169 162 86
164 158 80
163 157 80
161 155 78
168 161 84
166 159 83
168 161 84
163 156 82
164 158 84
161 155 76
165 159 81
163 157 80
163 157 81
163 157 81
163 156 83
156 150 74
164 158 82
164 158 80
156 151 67
152 146 70
158 152 75
160 153 79
163 156 75
159 153 76
147 142 64
152 148 73
151 145 69
152 146 69
149 142 66
155 148 76
151 146 67
153 147 75
157 151 66
149 143 69
151 145 62
151 145 68
140 135 60
145 139 62
141 137 56
136 130 53
137 132 59
141 137 56
145 141 58
137 136 54
139 143 45
146 154 37
146 154 37
158 169 42
154 164 37
159 172 28
166 181 36
161 179 19
169 188 28
167 188 11
170 191 11
171 192 0
169 190 0
172 195 0
172 196 0
172 196 0
175 198 0
174 197 0
172 194 0
171 195 0
173 196 0
172 196 0
171 195 0
172 195 0
173 197 0
172 196 0
173 197 0
169 193 0
170 193 0
173 197 0
171 195 0
174 197 0
173 197 0
170 194 0
172 195 0
174 197 0
172 196 0
171 195 0
173 196 0
169 193 0
172 196 0
172 195 0
173 196 0
169 194 0
173 196 0
170 194 0
173 197 0
171 195 0
170 194 0
173 196 0
172 195 0
168 191 0
171 195 0
174 197 0
171 194 0
170 193 0
172 196 0
170 193 0
170 194 0
171 193 0
168 191 0
173 196 0
171 194 0
172 194 0
171 195 0
169 192 0
170 194 0
169 193 0
172 195 0
172 195 0
169 192 0
168 192 0
171 195 0
170 193 0
167 190 0
170 193 0
169 192 0
168 192 0
171 194 0
171 194 0
170 193 0
169 192 0
167 191 0
170 193 0
170 193 0
172 195 0
172 196 0
171 195 0
169 192 0
170 192 0
169 192 0
169 192 0
170 193 0
168 191 0
169 193 0
167 191 0
172 194 0
169 192 0
169 192 0
169 192 0
165 189 18
138 162 97
84 115 155
62 98 163
62 98 158
62 98 161
62 98 164
62 98 165
63 99 168
62 98 165
62 98 166
61 98 165
62 99 172
62 99 173
63 99 177
62 98 169
62 98 167
62 98 167
62 98 168
62 99 165
62 98 169
62 99 173
61 98 172
63 99 176
63 99 174
62 99 171
62 99 173
62 99 168
62 98 169
63 99 175
63 99 177
62 99 172
62 99 172
62 99 176
62 99 173
62 99 173
62 99 176
63 100 180
62 99 178
62 99 177
63 99 177
63 99 174
63 100 178
62 98 174
63 100 178
63 99 178
62 99 175
62 99 172
62 98 173
62 99 175
61 98 172
62 99 178
62 99 175
61 98 175
62 99 175
62 99 174
62 99 176
62 99 176
62 98 171
62 99 176
61 98 178
62 99 175
62 98 171
62 99 175
62 99 178
61 98 175
62 99 173
62 99 179
62 99 175
62 99 175
62 99 177
62 99 175
62 99 173
62 99 176
63 100 177
62 98 174
62 99 175
62 99 179
62 99 178
62 99 174
62 99 175
62 99 178
62 99 175
61 98 176
63 99 171
62 99 172
61 98 173
62 99 175
62 99 177
62 99 178
62 98 173
62 99 179
62 99 174
62 99 175
62 98 173
62 99 173
62 99 174
62 99 175
62 99 177
62 98 171
62 99 176
62 99 173
62 98 174
62 99 174
62 99 176
61 98 172
63 100 176
63 99 174
61 98 167
62 98 171
62 99 174
63 99 176
62 98 168
62 99 173
63 99 172
62 98 174
62 99 174
63 99 175
62 98 174
62 99 173
61 97 168
62 98 173
61 98 169
62 99 173
62 99 172
62 98 168
62 99 173
62 99 172
61 98 170
62 99 176
62 98 166
62 99 172
62 99 170
61 98 169
62 99 172
62 99 173
62 99 169
62 99 170
63 99 172
62 99 169
61 98 169
62 98 172
63 99 171
62 98 172
61 97 169
63 99 168
62 98 166
61 98 165
62 98 170
62 99 171
61 98 165
62 99 171
62 98 162
61 97 163
61 97 161
61 98 165
62 99 170
62 98 170
61 97 161
63 98 165
62 98 167
61 98 170
61 96 159
61 97 169
61 96 159
62 98 166
60 95 156
60 95 159
61 96 159
60 94 155
59 93 151
57 89 138
54 75 103
56 70 83
51 60 57
67 71 46
56 60 34
64 67 40
75 79 54
56 63 42
75 77 49
71 75 48
89 91 53
70 74 48
83 87 53
78 84 58
98 99 62
86 90 55
93 96 56
100 102 58
106 107 61
96 98 62
116 116 69
95 97 60
117 117 68
114 115 69
120 120 69
122 122 62
124 123 75
129 126 70
130 128 82
115 116 68
120 119 71
132 130 72
125 125 70
133 132 76
136 134 77
138 134 75
142 139 79
155 149 83
143 141 81
147 144 79
154 150 90
152 147 84
144 141 75
148 144 75
158 152 82
154 150 81
155 150 88
159 154 89
161 155 88
158 153 85
152 149 84
154 149 82
158 153 83
158 153 91
158 153 87
166 160 86
163 157 83
164 158 82
159 153 78
163 158 81
164 159 89
165 159 88
161 155 81
173 166 94
163 157 83
163 157 85
160 154 78
170 162 92
169 162 86
165 159 87
170 163 87
167 161 82
166 160 90
166 160 84
171 163 86
163 158 81
167 162 82
161 155 77
169 162 82
170 163 85
164 157 84
165 159 80
168 161 80
163 157 77
168 161 85
168 161 85
165 159 75
171 163 90
169 162 81
167 161 86
160 154 75
171 164 90
164 157 82
165 158 80
162 156 80
165 159 80
159 153 78
160 153 76
162 156 82
162 156 80
156 150 75
154 148 74
163 155 78
157 151 74
156 149 73
162 155 78
159 153 80
159 153 77
160 153 79
153 148 71
152 146 62
151 145 67
161 153 77
157 151 78
152 146 71
146 141 67
143 138 65
149 142 63
152 147 66
140 134 61
145 139 62
142 136 64
145 138 62
144 138 66
138 134 62
151 147 59
151 149 57
146 148 47
140 143 42
146 154 47
152 159 41
158 167 39
149 159 34
161 176 32
157 172 30
159 177 25
170 189 16
171 191 0
172 194 0
171 192 0
169 191 0
173 196 0
174 197 0
171 195 0
173 196 0
170 192 0
171 195 0
171 195 0
174 197 0
172 196 0
173 196 0
172 195 0
173 195 0
171 195 0
171 195 0
172 195 0
174 197 0
171 194 0
170 192 0
170 194 0
174 197 0
171 193 0
170 194 0
173 197 0
172 195 0
172 195 0
170 194 0
172 195 0
172 195 0
173 197 0
169 192 0
170 193 0
172 196 0
171 194 0
167 191 0
171 194 0
172 194 0
172 195 0
169 193 0
172 195 0
172 196 0
170 194 0
172 195 0
170 194 0
171 194 0
169 192 0
169 192 0
171 195 0
174 197 0
168 192 0
172 196 0
171 195 0
172 196 0
169 192 0
172 196 0
172 195 0
171 195 0
171 194 0
171 195 0
168 192 0
173 197 0
169 192 0
171 195 0
172 196 0
170 193 0
172 196 0
170 193 0
172 195 0
168 192 0
170 194 0
170 193 0
167 191 0
164 188 0
171 194 0
171 194 0
172 195 0
166 189 0
169 192 0
170 192 0
169 191 0
173 196 0
170 193 0
172 195 0
166 190 0
167 190 0
168 191 0
170 193 0
169 193 18
155 178 72
126 151 114
68 102 158
61 97 158
61 97 165
62 98 163
62 98 164
62 98 164
62 98 166
62 98 165
62 99 169
62 99 170
62 98 165
62 99 171
62 98 170
62 99 170
62 98 169
61 98 171
63 99 170
62 99 170
62 99 169
63 99 172
62 99 172
62 98 169
63 99 172
62 99 171
61 98 168
62 99 169
63 99 174
62 99 175
62 98 170
62 98 166
62 99 172
62 99 172
62 99 174
62 98 172
62 99 173
62 98 173
62 99 177
62 98 171
62 98 174
62 99 177
63 99 177
62 99 175
62 98 172
62 99 176
62 98 175
62 99 176
62 99 174
62 98 173
62 99 175
62 99 173
62 99 173
62 99 178
62 99 176
62 99 175
61 98 177
63 100 179
62 99 175
62 99 174
62 99 177
62 99 178
62 99 179
62 99 176
62 99 175
62 99 177
62 99 175
63 99 177
62 99 176
62 99 173
62 98 172
62 99 176
62 99 171
62 99 176
62 99 175
63 99 178
61 98 172
62 99 180
62 99 176
62 99 173
62 99 178
62 99 176
62 99 176
63 99 177
62 99 171
63 99 172
62 99 174
62 98 170
62 99 173
62 99 171
62 99 176
62 99 172
62 99 175
62 98 168
62 99 176
62 99 176
61 98 173
62 99 174
62 99 169
61 98 167
62 99 175
62 99 174
62 99 176
61 98 172
62 99 176
63 99 173
61 98 168
62 99 174
62 99 174
62 99 173
63 100 175
62 99 173
62 98 172
62 99 173
62 99 171
62 99 174
62 99 174
61 98 171
62 99 173
62 98 168
63 99 176
62 99 176
62 98 165
62 99 176
62 99 174
62 99 178
62 99 171
62 98 170
62 99 171
62 99 176
63 99 170
62 99 171
63 99 174
62 98 171
62 99 170
62 99 175
62 99 168
62 99 169
62 98 168
61 98 165
63 99 171
61 98 164
62 98 170
61 98 165
62 98 171
62 99 168
61 98 169
61 98 167
62 98 168
62 98 170
61 96 157
62 98 171
62 99 168
62 98 164
62 97 167
63 99 170
62 97 163
61 97 164
62 98 164
62 97 164
62 97 165
62 98 169
61 97 158
62 97 164
61 96 155
61 96 164
61 95 160
61 97 163
60 95 162
60 94 158
61 97 161
59 92 150
55 78 109
58 75 86
57 66 64
50 56 36
69 71 41
54 61 36
57 63 40
63 67 36
70 74 43
68 72 34
67 73 47
87 89 57
86 89 56
95 97 58
85 88 58
97 100 59
96 97 56
99 100 52
90 95 59
95 98 60
108 109 64
106 107 59
103 104 61
116 117 69
124 123 71
130 128 73
117 117 67
120 120 63
113 113 65
133 131 75
131 130 72
131 128 77
132 130 71
138 137 76
131 129 74
131 130 74
150 146 78
132 130 73
142 140 76
153 149 83
138 136 73
147 143 83
138 136 66
152 147 85
153 147 88
157 153 88
150 146 76
154 150 81
147 144 81
161 156 84
152 147 76
155 151 76
159 154 82
165 159 89
161 157 80
153 149 78
152 148 82
159 154 82
162 156 88
165 159 92
167 161 85
164 159 85
165 159 89
165 159 82
167 160 87
166 160 87
167 160 86
162 157 90
166 160 87
162 157 80
165 159 78
160 155 78
167 161 84
171 163 89
173 165 90
167 160 82
172 165 90
172 165 92
167 160 87
163 156 80
169 163 86
165 159 82
168 160 89
168 161 84
171 164 87
163 157 80
167 162 88
171 163 88
161 155 77
167 160 84
166 158 85
166 159 81
159 154 72
156 150 72
160 153 77
162 157 80
160 154 74
165 158 82
160 154 79
163 156 83
157 151 71
155 150 70
163 155 79
163 156 76
156 150 67
152 146 70
153 147 70
153 147 71
154 148 68
160 152 78
151 144 71
155 148 67
151 146 65
150 145 67
151 146 64
148 142 66
139 134 62
150 143 70
142 137 53
151 145 67
139 135 53
147 142 66
138 133 56
131 128 51
137 132 59
134 130 49
141 141 49
147 147 53
138 143 36
143 151 44
141 151 34
155 164 42
159 172 28
160 175 30
159 175 28
167 187 16
162 182 19
169 189 16
171 192 0
173 194 0
169 191 0
170 193 0
170 194 0
174 198 0
170 194 0
173 196 0
172 194 0
174 197 0
170 194 0
173 196 0
174 198 0
173 197 0
171 195 0
173 196 0
169 192 0
174 197 0
173 196 0
173 196 0
169 192 0
172 195 0
174 197 0
167 191 0
171 194 0
174 197 0
172 195 0
171 194 0
172 195 0
172 195 0
172 196 0
170 194 0
169 193 0
171 195 0
169 193 0
172 196 0
171 194 0
170 193 0
173 197 0
170 193 0
172 195 0
172 194 0
169 191 0
170 194 0
169 193 0
171 194 0
172 195 0
174 197 0
173 196 0
170 192 0
171 194 0
173 197 0
168 192 0
170 193 0
173 196 0
169 193 0
170 194 0
170 193 0
171 195 0
172 195 0
170 193 0
169 192 0
169 192 0
168 192 0
173 196 0
166 191 0
171 194 0
170 194 0
170 193 0
168 191 0
168 192 0
169 192 0
169 193 0
172 195 0
172 195 0
170 193 0
166 190 0
171 195 0
171 195 0
173 196 0
173 196 0
170 193 0
170 193 0
171 194 0
169 192 0
167 190 0
166 190 0
166 189 0
172 195 0
166 189 25
144 168 84
112 138 122
62 98 163
61 97 158
62 99 168
62 99 170
62 98 164
62 98 162
62 98 162
62 98 164
62 98 163
63 99 170
62 98 166
60 96 156
62 98 164
62 98 169
62 99 169
62 98 169
61 98 166
61 98 174
61 98 168
63 100 175
63 99 172
61 98 172
62 99 170
61 98 169
61 98 172
62 99 175
62 98 170
62 99 176
62 99 170
62 99 174
62 99 178
63 99 173
63 99 176
62 98 168
62 99 175
62 99 172
61 98 175
62 98 172
62 98 168
62 98 171
62 98 173
62 99 171
62 99 177
62 99 171
62 99 174
62 99 174
61 98 168
62 99 179
62 99 175
63 99 176
63 99 177
62 99 174
62 99 178
62 99 172
63 100 179
62 99 169
62 99 179
62 99 172
63 99 175
63 99 175
62 99 176
62 99 176
62 99 175
61 98 169
63 99 174
62 99 175
62 99 178
62 99 177
62 99 179
62 99 176
62 99 173
62 99 174
62 99 178
63 99 176
61 98 170
63 99 175
62 99 177
62 99 174
62 98 170
61 98 172
61 98 176
62 99 172
62 98 169
62 99 168
63 99 177
63 99 176
62 99 174
62 99 175
62 98 168
61 98 168
62 98 166
63 100 177
62 99 176
63 99 177
62 99 170
62 99 169
62 99 173
62 99 174
62 98 171
62 99 175
62 99 173
62 99 175
62 99 173
62 99 173
62 99 174
62 99 175
62 99 171
62 98 171
62 99 176
62 99 174
62 99 174
62 99 171
62 99 175
62 99 174
61 98 171
63 100 175
62 99 179
63 99 174
63 99 173
62 98 168
62 99 173
62 99 174
62 98 168
63 100 177
62 98 166
61 98 167
62 98 170
62 99 173
63 99 176
62 99 174
63 99 173
63 100 174
62 99 174
62 98 170
62 99 175
62 98 170
63 99 175
63 99 173
62 99 171
62 98 165
63 100 176
61 98 169
62 98 168
62 99 169
62 98 170
62 98 168
61 98 166
62 98 170
63 99 170
63 99 171
62 98 158
61 97 168
62 98 164
60 97 160
62 98 166
63 98 164
61 97 165
61 97 168
61 97 165
62 97 159
61 97 162
61 97 162
62 98 166
62 97 166
60 95 157
61 97 161
61 95 155
60 94 152
59 93 147
59 94 159
57 85 132
60 78 95
61 71 71
46 56 48
54 60 38
56 63 45
59 64 45
72 76 44
69 73 45
63 69 38
80 84 52
87 89 47
75 80 53
86 89 55
99 100 59
90 92 46
100 102 60
100 101 58
95 98 57
100 101 55
102 105 59
112 112 70
101 103 57
115 115 70
108 109 65
120 120 72
111 112 68
115 115 62
125 124 70
119 120 68
134 133 74
131 129 73
125 124 72
131 130 71
136 134 69
130 129 76
136 134 75
139 137 77
138 136 78
140 138 77
146 142 82
140 137 74
141 137 74
150 147 79
153 148 80
152 149 84
154 149 80
150 146 76
159 154 87
147 144 78
160 154 86
157 152 79
154 150 78
167 161 87
154 149 79
154 150 78
158 153 79
162 157 86
155 151 78
163 157 89
161 155 85
161 156 83
165 159 82
164 158 83
161 155 84
165 159 82
165 158 84
163 157 80
171 164 86
170 163 83
167 161 85
165 160 86
168 162 83
168 162 92
171 164 85
167 161 86
167 161 78
166 159 83
167 160 80
169 162 84
167 161 82
163 156 81
162 156 76
161 155 78
160 154 77
162 156 78
164 159 82
165 158 80
163 157 78
161 155 81
159 152 76
165 159 78
162 156 78
158 153 72
158 151 78
162 156 74
159 153 78
153 148 73
165 158 80
154 148 66
166 159 84
154 149 68
159 153 75
157 151 65
155 149 75
162 156 76
156 150 76
153 147 65
155 150 68
155 148 72
158 152 68
147 142 70
147 140 69
154 148 68
150 144 67
145 140 63
140 134 62
148 141 62
143 136 61
133 128 58
144 139 56
149 144 59
140 134 54
142 138 54
142 139 57
136 134 61
137 138 41
146 146 52
144 147 47
157 164 49
156 162 39
152 164 28
160 171 37
160 175 30
166 184 25
162 180 16
166 185 0
169 191 11
168 190 0
170 193 0
171 194 0
171 194 0
171 195 0
173 196 0
172 195 0
173 197 0
172 196 0
172 196 0
172 196 0
168 191 0
173 197 0
170 194 0
173 196 0
175 198 0
172 194 0
172 195 0
172 195 0
172 195 0
171 195 0
172 195 0
171 195 0
172 195 0
173 196 0
172 195 0
172 195 0
171 194 0
168 192 0
172 196 0
172 194 0
171 194 0
170 193 0
174 197 0
173 196 0
170 194 0
169 192 0
170 193 0
173 197 0
171 195 0
172 195 0
172 195 0
171 194 0
172 195 0
170 194 0
171 194 0
172 196 0
172 195 0
169 192 0
171 195 0
171 194 0
172 195 0
173 195 0
170 194 0
173 195 0
167 190 0
169 193 0
169 192 0
169 192 0
169 192 0
169 192 0
167 190 0
167 189 0
169 191 0
168 191 0
170 193 0
170 193 0
171 194 0
172 195 0
168 191 0
168 191 0
172 195 0
168 191 0
170 192 0
172 195 0
171 195 0
167 190 0
168 191 0
168 192 0
170 192 0
170 192 0
167 190 0
168 192 0
170 194 0
170 193 0
172 196 0
171 195 0
173 196 0
172 196 0
161 184 60
138 162 92
90 120 145
62 98 155
61 98 160
62 98 163
62 98 161
61 97 163
62 98 165
62 98 166
61 98 166
62 98 167
62 98 165
62 98 165
62 98 169
62 98 169
62 99 168
62 98 169
62 99 176
63 100 174
62 99 171
62 99 172
61 98 167
63 99 173
62 99 169
62 99 175
63 99 170
62 98 165
61 98 171
61 98 167
62 98 170
62 99 172
63 99 176
61 98 169
63 99 171
62 99 168
62 99 169
61 98 172
62 99 170
62 99 173
62 99 176
61 98 171
63 99 177
62 98 172
62 99 171
63 99 168
62 99 173
62 98 174
62 99 173
62 99 177
62 99 177
62 99 178
61 98 173
62 99 174
62 99 171
62 99 173
62 98 172
62 98 175
62 99 176
62 99 175
62 99 176
62 99 175
62 99 173
62 99 176
62 98 173
63 100 177
62 99 172
63 99 175
62 99 174
63 99 176
62 99 176
62 99 172
62 99 176
63 99 169
62 99 171
62 99 174
62 99 176
62 98 172
62 99 177
62 99 175
62 98 172
62 99 178
62 99 174
62 99 176
62 99 176
62 98 172
62 99 178
62 99 172
62 99 171
61 98 174
61 98 168
62 99 176
62 99 174
63 99 177
63 99 175
63 99 177
62 98 169
62 99 174
62 99 177
62 99 174
62 99 174
62 98 169
62 98 173
62 98 171
62 99 172
62 99 172
62 99 175
62 99 172
62 99 174
63 100 175
62 99 177
62 99 172
62 99 176
62 99 171
62 99 173
62 99 176
62 99 173
62 99 168
62 99 171
63 99 173
62 99 174
62 99 173
62 98 168
63 99 171
61 98 173
62 99 171
63 99 176
62 99 172
62 98 170
62 99 172
61 97 164
62 99 173
62 99 169
62 99 172
62 99 170
62 98 171
61 97 164
63 99 171
62 98 166
62 98 166
62 98 167
62 98 169
63 99 174
62 98 168
63 100 174
62 98 164
62 99 173
62 99 172
62 99 172
62 98 169
61 98 165
61 97 167
62 98 168
61 98 164
62 98 162
62 98 164
62 98 166
64 100 169
62 97 161
62 98 163
62 98 169
63 99 166
61 97 164
62 98 167
61 97 162
62 98 163
62 97 163
60 96 156
58 91 146
60 94 156
61 96 159
60 94 148
60 94 152
56 87 132
69 87 119
53 64 79
52 59 39
50 56 35
44 51 33
50 57 39
64 70 42
66 70 42
66 70 42
69 73 44
79 84 51
80 82 49
80 85 52
93 96 57
91 93 56
95 97 58
88 92 51
100 102 63
107 108 64
110 111 64
103 104 62
93 97 56
112 112 61
109 109 62
103 104 56
109 110 63
119 119 70
115 115 62
123 123 69
128 126 75
131 129 77
123 122 67
135 132 71
137 135 72
133 132 72
144 140 76
133 130 69
151 147 82
141 138 74
139 138 68
147 144 75
138 136 64
149 144 79
149 145 77
154 150 83
149 145 72
143 139 69
157 151 80
151 147 78
156 152 82
160 154 88
156 151 79
153 149 80
157 153 83
154 150 78
159 154 81
164 158 84
162 157 88
164 158 78
167 160 83
166 159 85
164 158 81
164 158 87
162 157 82
164 157 80
164 159 80
168 162 87
164 158 83
164 159 84
168 162 87
168 161 88
164 159 83
161 155 80
167 160 85
170 162 88
170 162 85
166 160 84
166 160 78
167 160 83
168 161 87
162 156 80
165 159 84
158 153 80
165 159 78
165 158 84
166 160 80
163 157 75
161 155 75
167 159 84
166 159 85
161 155 80
161 154 77
163 156 77
157 152 78
159 153 72
151 145 68
158 152 67
156 150 75
162 156 79
149 144 69
158 152 73
160 153 75
149 144 70
155 148 73
157 150 74
159 152 74
155 149 75
153 146 73
159 152 76
159 152 77
154 148 70
154 148 65
152 145 74
150 144 69
146 141 61
152 145 70
146 141 60
151 145 64
141 135 56
146 141 59
146 140 60
135 129 60
134 131 51
131 128 56
147 147 58
137 138 48
141 146 42
158 165 47
153 159 51
154 164 39
159 171 37
158 173 19
163 177 19
165 181 22
169 189 16
169 188 11
169 190 0
169 189 0
171 192 0
169 191 0
171 195 0
174 197 0
173 196 0
171 195 0
173 196 0
173 196 0
173 196 0
172 195 0
171 194 0
173 197 0
171 195 0
173 196 0
169 193 0
172 196 0
169 193 0
173 196 0
171 195 0
170 194 0
172 195 0
172 195 0
170 194 0
174 198 0
173 197 0
166 191 0
172 195 0
172 195 0
167 191 0
172 196 0
173 196 0
170 193 0
176 198 0
168 192 0
173 196 0
169 192 0
169 193 0
169 192 0
170 194 0
172 195 0
166 190 0
170 194 0
169 192 0
170 193 0
167 191 0
168 192 0
170 193 0
172 196 0
172 194 0
172 195 0
171 194 0
168 191 0
171 194 0
172 196 0
171 195 0
171 194 0
171 195 0
167 190 0
171 194 0
172 194 0
169 192 0
171 194 0
170 194 0
171 195 0
172 195 0
171 195 0
171 194 0
165 188 0
171 194 0
171 194 0
169 193 0
170 193 0
171 195 0
170 193 0
170 194 0
167 191 0
173 197 0
167 190 0
166 190 0
168 191 0
171 195 0
167 190 0
170 193 0
168 191 0
170 193 0
169 192 0
170 193 0
170 193 0
158 182 60
130 155 117
80 111 150
62 98 159
61 97 155
62 98 165
62 98 160
63 99 165
62 98 163
63 99 166
62 98 167
62 99 168
61 97 159
61 97 164
61 98 164
62 98 169
63 99 170
62 98 167
62 98 170
62 99 171
62 99 171
62 98 173
62 99 170
62 98 172
62 98 168
62 99 169
63 99 172
61 98 164
62 99 171
62 98 168
62 99 171
62 98 167
62 99 173
62 98 170
62 99 175
62 99 171
62 99 175
62 99 176
62 99 173
62 99 175
62 99 177
63 99 177
62 99 173
62 99 174
62 99 175
61 98 170
62 98 170
63 99 176
62 99 173
63 99 175
62 98 173
62 99 178
63 99 174
62 99 177
63 99 176
62 99 173
62 99 173
62 99 178
62 99 172
62 99 173
62 99 174
62 99 175
62 99 173
63 99 176
63 100 176
61 98 171
63 99 174
62 99 176
63 100 178
62 99 173
62 99 176
63 99 175
63 100 176
63 99 176
62 99 178
63 99 172
61 98 171
63 99 176
62 99 176
63 99 175
62 99 174
62 98 173
62 98 173
62 99 178
62 98 174
61 98 171
62 98 171
62 99 176
62 99 171
62 99 174
62 99 175
62 98 171
62 99 177
62 99 175
61 98 175
62 99 174
61 98 172
62 99 174
61 98 166
63 100 180
62 99 177
62 99 171
62 99 170
62 99 175
62 99 173
63 100 176
62 99 169
63 100 179
62 99 174
62 99 170
62 98 170
61 98 172
62 99 173
62 99 173
62 98 171
63 99 173
62 99 174
62 99 175
62 98 169
62 99 173
62 99 172
61 98 173
61 98 173
61 98 171
62 99 169
62 99 175
62 99 168
62 99 169
62 98 168
62 99 173
63 99 170
62 99 169
62 99 171
62 99 174
62 99 170
62 98 170
62 98 168
62 98 170
63 99 174
63 99 172
61 98 168
63 99 172
61 98 162
61 98 170
63 99 174
63 99 168
63 99 172
62 98 169
62 99 170
61 98 170
62 98 168
62 98 169
62 99 173
62 98 169
61 97 163
62 98 168
61 97 162
62 97 163
62 98 162
61 97 165
62 98 166
62 98 166
61 97 158
61 97 163
61 96 161
60 96 158
60 96 152
62 98 165
61 96 157
61 96 157
61 96 158
60 94 147
58 92 146
57 89 145
56 78 109
62 78 95
55 64 70
52 58 37
61 66 42
76 77 43
70 74 45
72 75 39
69 73 41
63 68 45
79 83 49
73 77 48
82 83 43
79 84 51
99 102 60
92 94 55
91 93 46
92 95 57
93 96 62
106 106 54
109 110 60
105 106 63
115 115 62
112 113 65
101 102 62
110 111 58
114 115 63
126 126 75
112 112 61
124 123 65
130 128 71
130 128 70
126 123 66
137 135 76
131 130 69
138 136 74
141 138 81
132 131 71
138 137 77
141 138 71
139 136 71
150 147 74
147 143 79
150 146 75
152 149 81
150 146 80
147 143 75
153 149 77
150 146 74
157 152 82
159 153 85
155 150 75
157 152 83
153 148 76
159 154 83
159 155 80
159 154 81
162 156 84
163 157 85
161 157 84
161 155 84
165 159 86
166 160 84
165 158 80
163 157 85
164 157 80
162 156 75
163 156 80
168 161 83
166 160 84
158 152 73
169 161 86
167 161 82
162 156 73
166 158 84
170 164 87
161 155 80
164 158 80
166 160 83
162 155 76
165 158 83
168 161 84
169 162 86
160 154 71
163 156 75
163 157 81
164 157 79
167 159 81
167 160 81
166 159 76
157 151 73
158 151 70
161 154 74
161 154 76
164 157 74
166 160 80
162 155 76
161 154 75
161 155 77
161 154 79
151 145 70
157 150 74
155 149 63
157 150 74
158 152 70
158 151 73
149 143 66
155 149 72
152 144 68
147 142 59
153 147 68
152 145 66
157 151 75
150 144 69
156 150 70
148 141 67
145 139 59
140 134 59
146 140 62
140 135 58
131 127 53
144 138 63
140 136 54
135 132 54
129 127 39
136 139 42
149 153 45
149 153 49
149 157 41
157 166 45
156 172 28
161 178 22
159 177 19
163 180 19
166 185 11
170 189 11
164 185 0
166 187 0
170 192 0
169 190 0
171 195 0
173 196 0
171 196 0
173 196 0
172 196 0
171 195 0
172 196 0
173 197 0
172 195 0
169 192 0
171 195 0
171 194 0
173 196 0
175 198 0
169 192 0
171 194 0
173 197 0
171 195 0
171 195 0
172 195 0
174 197 0
173 196 0
171 195 0
172 195 0
171 195 0
174 197 0
172 196 0
175 197 0
173 197 0
169 192 0
175 198 0
171 194 0
169 193 0
170 194 0
169 192 0
172 195 0
173 196 0
169 192 0
169 193 0
172 195 0
168 192 0
169 192 0
172 195 0
171 194 0
172 196 0
172 194 0
168 192 0
168 192 0
172 195 0
172 195 0
170 194 0
173 197 0
173 196 0
169 192 0
170 193 0
175 197 0
173 197 0
173 196 0
169 193 0
169 193 0
169 194 0
167 190 0
171 195 0
169 192 0
173 195 0
167 190 0
168 190 0
169 192 0
173 196 0
170 193 0
173 196 0
170 193 0
171 194 0
168 192 0
167 190 0
167 190 0
171 193 0
171 194 0
166 189 0
168 191 0
164 187 0
167 191 0
169 192 0
169 192 0
171 194 0
169 192 0
149 172 74
117 144 129
71 104 144
62 98 159
62 99 168
62 98 160
62 98 164
61 97 161
62 98 164
62 98 165
62 99 167
62 98 169
62 98 164
62 98 165
62 99 174
61 98 173
61 97 162
62 99 176
62 99 172
62 99 171
62 99 170
62 99 169
63 99 175
62 98 169
62 99 169
62 99 167
61 97 164
62 99 172
62 98 168
62 98 175
62 99 175
62 98 172
62 99 172
62 98 170
62 99 172
62 99 176
62 99 174
63 99 176
62 98 174
62 98 167
62 98 170
62 98 169
62 99 175
63 99 175
63 99 176
62 99 173
62 98 171
62 98 172
62 99 174
63 100 176
63 99 172
62 99 177
63 99 176
61 98 173
62 99 175
62 99 174
62 99 173
62 99 174
63 100 179
62 99 173
62 99 174
62 99 174
62 99 175
63 100 181
62 99 169
62 98 173
62 99 177
62 99 175
62 99 172
62 99 167
62 99 174
62 99 174
62 99 176
62 99 178
62 99 176
62 98 172
62 99 173
63 99 175
62 98 172
62 99 173
62 99 178
63 99 177
62 99 173
61 98 175
63 99 171
62 99 175
63 99 173
62 99 169
62 99 175
62 99 176
62 98 170
62 99 175
62 98 170
63 99 175
62 98 173
62 98 169
62 99 175
62 99 173
62 99 174
62 99 173
62 99 176
62 98 169
63 100 176
62 99 173
62 99 174
62 99 174
62 99 173
62 98 172
62 98 169
62 99 172
62 99 177
61 97 170
61 98 170
62 99 172
62 98 170
62 99 172
62 98 170
63 99 169
62 99 167
62 99 168
62 99 171
62 99 174
62 99 174
62 99 172
61 98 173
61 98 168
62 99 166
62 99 176
61 98 171
62 98 168
62 98 166
62 98 164
61 98 168
62 99 174
62 98 167
62 99 171
62 98 168
63 99 170
62 98 168
63 99 169
61 98 164
61 98 166
62 98 166
62 99 169
61 98 164
62 98 169
62 99 171
62 99 170
63 99 171
63 99 169
62 99 174
63 99 173
62 98 167
61 97 164
61 97 157
61 97 166
62 98 167
62 98 165
62 98 164
61 96 154
62 99 165
61 97 160
62 98 164
62 97 161
61 96 157
59 93 149
60 95 154
62 98 165
60 95 154
60 95 152
60 95 153
60 95 157
61 95 151
59 93 145
58 85 123
51 68 88
58 68 62
55 61 37
48 52 30
70 71 36
63 67 36
73 77 49
71 76 45
79 82 41
63 68 42
71 76 47
92 93 52
93 94 52
94 95 43
87 91 54
91 93 52
97 99 58
88 92 50
104 105 63
115 113 64
107 108 57
117 116 61
121 120 73
114 115 65
120 119 63
119 118 67
121 120 70
131 128 71
120 119 64
127 125 65
128 126 69
134 131 73
134 131 77
138 134 71
139 136 72
134 132 65
146 142 78
135 133 72
142 139 71
151 146 79
141 137 75
149 145 75
147 144 76
153 148 85
161 156 81
149 144 73
157 152 82
158 153 80
152 146 73
152 147 77
162 156 86
157 151 80
156 150 81
153 149 76
159 153 80
161 155 75
158 154 77
158 152 75
160 154 82
159 153 77
164 159 79
165 158 87
165 160 79
159 153 78
162 156 75
164 158 79
167 160 85
163 157 79
166 160 79
168 161 85
167 160 80
160 155 76
170 163 84
166 160 80
167 162 82
161 156 75
163 157 76
162 156 78
167 160 84
171 164 81
165 160 78
164 158 77
161 156 77
163 157 77
161 155 74
157 151 74
163 156 78
159 154 74
162 155 79
160 154 77
163 156 76
163 157 74
156 150 71
162 155 78
163 156 77
156 150 69
156 151 67
152 146 70
161 154 74
165 158 81
149 144 58
156 151 72
163 155 79
156 150 72
157 150 71
154 147 65
144 139 66
145 139 63
158 151 75
148 142 61
152 146 67
146 140 60
150 144 66
148 143 59
144 139 62
138 132 62
148 142 59
148 142 60
148 141 63
135 129 56
137 132 60
134 131 45
143 143 53
147 149 51
149 152 49
139 143 45
151 157 42
149 158 34
143 154 30
159 172 28
160 176 30
163 181 19
168 188 11
168 188 0
167 187 11
172 194 0
170 192 0
171 193 0
168 188 0
174 197 0
173 196 0
174 197 0
173 197 0
172 195 0
171 194 0
170 194 0
173 197 0
172 195 0
172 194 0
169 193 0
170 194 0
172 196 0
171 195 0
171 195 0
169 193 0
171 195 0
170 193 0
172 196 0
172 196 0
171 195 0
171 194 0
171 195 0
172 195 0
171 195 0
172 196 0
169 192 0
171 194 0
172 196 0
168 192 0
172 195 0
171 193 0
171 194 0
169 192 0
168 192 0
169 193 0
173 195 0
172 196 0
172 196 0
172 195 0
169 192 0
171 194 0
171 194 0
169 193 0
172 195 0
173 196 0
174 197 0
171 195 0
169 193 0
170 193 0
170 194 0
169 192 0
170 194 0
169 194 0
172 194 0
172 194 0
171 194 0
170 194 0
170 193 0
170 193 0
172 195 0
170 193 0
167 190 0
171 194 0
169 192 0
170 194 0
169 192 0
170 193 0
165 189 0
171 195 0
165 188 0
170 193 0
169 191 0
170 194 0
169 192 0
167 190 0
164 188 0
168 191 0
170 193 0
169 192 0
168 192 0
168 191 0
167 191 0
170 193 0
165 188 0
166 190 25
144 168 82
103 130 134
61 97 153
62 98 164
62 98 163
62 98 163
61 98 164
62 98 162
62 98 164
62 99 170
62 98 163
61 97 162
62 98 163
62 98 163
62 98 167
62 99 171
62 98 169
63 99 171
62 99 171
61 97 165
62 98 166
62 98 170
62 99 169
63 100 177
61 98 166
62 98 167
62 98 171
62 98 165
62 99 168
62 99 171
62 98 169
62 99 171
62 98 170
61 98 169
61 98 166
62 99 172
63 99 171
62 99 170
61 98 169
62 98 172
62 99 171
62 99 171
62 99 173
63 99 172
62 99 175
62 99 176
62 99 176
63 99 175
62 98 170
61 98 172
62 99 174
63 99 177
61 98 168
62 99 176
62 99 175
62 99 175
62 99 175
61 98 172
62 99 174
62 98 172
62 99 170
62 99 175
63 100 179
62 99 172
62 99 174
62 99 175
62 99 170
62 99 173
62 99 174
62 99 177
62 99 172
62 99 173
62 99 175
62 98 172
62 99 177
61 97 166
62 99 172
62 99 171
62 99 172
62 99 171
61 98 174
62 99 173
62 99 176
63 99 175
62 99 174
62 99 174
62 98 173
62 99 177
62 99 175
63 100 178
62 99 175
63 99 176
62 99 174
62 99 173
62 98 169
62 99 173
63 99 173
63 99 174
62 99 177
63 99 170
62 98 170
61 98 172
62 99 175
62 99 170
63 100 172
62 99 174
62 99 174
62 99 176
63 100 177
62 99 174
62 99 171
62 99 173
62 98 166
63 99 173
62 99 176
62 99 175
62 99 167
62 98 170
63 100 177
62 98 170
63 99 176
62 98 168
61 98 171
61 98 171
63 99 174
62 98 170
63 99 175
62 98 171
62 99 172
63 100 175
63 99 169
62 99 171
63 99 171
62 98 169
62 98 168
62 99 174
62 98 167
62 98 161
63 99 170
62 99 165
63 99 170
63 99 173
62 98 164
63 99 165
62 99 171
63 99 168
63 99 167
62 98 167
62 98 166
62 98 163
60 96 159
62 99 170
62 98 172
61 97 161
62 98 168
62 98 166
62 97 163
62 99 174
61 96 161
61 97 161
63 99 170
61 97 161
60 95 159
62 97 158
61 96 162
60 95 155
62 97 164
61 96 166
61 96 160
61 96 159
60 95 152
61 95 155
60 94 148
60 94 155
55 85 131
48 71 107
46 61 67
62 67 44
47 54 32
53 58 36
76 78 40
57 62 39
64 70 41
75 80 45
74 77 46
77 80 39
80 83 43
79 82 46
87 89 51
88 90 50
90 94 48
86 89 47
100 101 55
96 99 57
115 114 64
106 106 64
110 110 56
110 111 67
117 117 54
119 118 60
118 117 62
123 122 68
126 124 67
124 123 67
130 129 72
132 129 68
130 128 66
130 128 70
133 130 71
141 138 75
133 130 66
131 129 71
145 141 75
138 135 71
144 141 73
153 147 78
151 147 83
140 137 77
141 138 74
152 147 79
152 147 74
147 143 74
157 152 83
152 148 83
149 144 73
151 147 75
157 152 78
157 152 76
155 149 76
156 151 76
157 152 76
158 154 78
161 155 72
158 152 74
159 153 78
158 153 78
164 158 80
172 164 89
168 161 87
161 155 80
159 154 76
166 159 78
158 152 76
162 157 82
163 157 79
163 157 78
164 158 75
163 158 77
159 153 71
164 157 80
165 159 84
166 159 81
165 159 79
168 160 87
164 157 80
175 167 87
164 157 76
166 160 79
163 157 81
166 159 79
165 159 77
160 153 77
163 157 78
161 154 78
150 144 66
161 155 75
154 149 67
158 152 74
162 156 80
161 155 76
162 155 71
159 155 71
157 150 70
152 147 67
155 150 68
157 150 75
153 146 67
155 149 68
158 151 70
157 150 71
148 142 61
154 148 65
156 151 62
149 143 62
154 148 67
147 140 65
147 141 66
150 144 70
151 144 63
150 143 67
149 143 64
148 141 66
140 134 59
149 142 61
142 135 63
138 135 47
138 136 54
136 134 56
146 150 51
144 148 47
147 154 41
152 160 41
152 162 34
153 166 28
154 165 34
160 177 16
160 178 16
169 189 11
168 189 0
170 191 0
169 188 0
171 192 0
171 193 0
171 192 0
173 197 0
171 194 0
172 196 0
173 196 0
172 196 0
172 196 0
174 197 0
174 197 0
171 195 0
173 196 0
171 194 0
172 195 0
170 193 0
172 195 0
175 198 0
170 193 0
169 192 0
170 194 0
172 196 0
170 194 0
169 192 0
172 195 0
171 193 0
169 191 0
172 196 0
171 195 0
172 196 0
173 197 0
169 193 0
167 191 0
170 193 0
172 195 0
171 194 0
169 193 0
172 194 0
171 195 0
173 195 0
170 192 0
170 194 0
170 193 0
171 194 0
171 195 0
169 192 0
170 194 0
171 194 0
171 195 0
172 195 0
172 195 0
169 194 0
172 195 0
170 194 0
169 193 0
172 195 0
169 192 0
172 196 0
170 193 0
172 195 0
168 192 0
172 195 0
168 192 0
170 193 0
172 195 0
167 190 0
172 194 0
170 194 0
169 193 0
171 194 0
169 194 0
171 195 0
169 192 0
168 192 0
173 195 0
167 190 0
170 193 0
170 193 0
166 189 0
169 192 0
170 193 0
167 190 0
169 192 0
169 192 0
167 191 0
171 194 0
172 194 0
163 187 0
164 188 36
135 159 90
93 122 140
62 98 164
61 98 161
62 98 164
62 98 159
62 98 166
62 98 163
62 98 165
62 98 161
62 98 162
62 98 163
63 99 170
61 97 160
62 98 164
61 97 158
61 97 159
62 98 164
62 98 168
61 98 168
61 98 169
63 99 174
62 98 171
62 98 170
61 97 164
61 98 168
62 99 169
62 99 174
63 99 172
62 99 173
62 99 175
63 99 175
62 99 175
62 99 175
63 99 174
63 100 177
63 100 178
61 98 170
62 98 167
62 99 177
62 99 175
63 99 174
62 98 171
61 98 168
62 98 170
62 99 173
62 99 174
62 99 178
63 99 174
62 98 172
62 98 172
62 99 173
62 99 174
62 99 170
62 98 174
62 98 172
62 99 170
62 99 177
62 99 173
62 98 169
62 99 175
62 98 171
62 99 174
62 99 177
62 99 174
62 99 171
61 98 173
63 99 174
62 99 173
63 100 177
62 99 178
62 98 174
62 99 177
62 99 177
62 99 174
62 99 175
62 99 175
62 99 174
62 99 174
61 98 171
62 99 175
63 99 172
62 99 175
62 99 172
63 100 175
62 98 173
62 99 170
63 99 173
62 99 174
62 99 173
62 99 173
63 99 174
61 98 171
62 98 169
62 99 176
63 100 177
62 99 174
62 98 171
62 99 173
62 99 172
63 100 175
62 99 169
62 98 172
62 99 173
62 98 167
62 98 164
62 99 170
63 99 171
62 99 175
63 99 173
62 99 171
62 99 169
62 98 169
62 98 169
62 98 166
63 99 172
63 100 177
62 98 172
63 99 173
62 99 173
61 98 172
62 99 171
62 99 172
62 99 172
62 99 171
62 98 171
62 99 171
62 98 170
62 99 172
61 98 167
63 99 175
63 99 172
62 99 169
62 98 167
62 98 163
62 99 171
62 99 173
61 97 166
62 99 176
62 99 171
62 98 167
62 98 170
63 99 168
62 98 162
62 99 171
62 98 163
62 98 163
61 97 159
63 99 170
62 98 167
62 98 165
62 98 164
62 98 169
61 98 168
61 97 161
61 97 160
62 98 164
64 100 173
63 99 166
62 98 165
61 97 161
60 96 162
61 97 163
62 98 162
61 97 157
62 98 164
61 96 152
61 96 158
62 97 161
60 95 153
60 94 145
61 96 157
61 95 155
59 92 149
59 92 147
58 81 111
60 71 68
58 64 46
53 59 34
60 65 36
64 67 34
71 75 38
68 72 29
74 78 39
67 73 41
83 85 43
84 86 46
93 94 51
73 76 38
91 93 55
92 94 50
95 98 54
93 96 55
103 104 52
105 106 60
102 103 53
115 114 56
116 115 65
118 117 65
115 115 62
120 119 64
130 127 67
124 122 64
131 128 68
131 129 71
120 120 58
131 129 69
131 128 67
127 125 60
141 138 72
143 140 73
136 133 71
145 140 74
137 135 70
139 136 63
142 139 72
149 145 74
142 139 73
150 145 78
142 139 73
146 142 76
157 152 77
155 150 77
154 149 73
152 148 80
147 143 71
155 150 75
160 155 76
160 154 76
156 151 78
157 152 77
159 153 80
154 149 80
157 153 79
164 156 79
159 153 80
164 158 83
159 153 76
161 156 76
160 156 73
156 149 66
164 157 79
161 155 77
169 162 78
166 159 81
169 162 85
159 153 70
160 154 74
160 153 75
162 156 75
158 152 70
161 155 75
160 155 72
168 161 79
168 161 84
163 156 75
163 156 73
157 152 76
152 147 64
158 153 67
165 158 77
164 157 82
165 159 76
161 154 75
161 155 75
157 151 74
165 158 77
163 156 72
159 154 72
165 160 82
159 153 71
158 152 68
155 150 66
162 156 75
160 154 75
150 144 69
153 147 69
154 147 69
155 148 70
152 146 65
147 141 61
152 145 69
144 139 63
146 141 63
149 144 70
146 141 57
146 140 68
147 142 62
140 134 56
144 137 64
146 141 59
141 136 61
135 129 53
144 138 65
138 133 53
143 139 57
142 139 47
143 145 47
144 147 52
146 150 41
148 154 41
145 155 28
153 161 37
154 168 25
157 172 11
162 179 11
163 181 19
166 184 19
164 182 11
169 191 0
169 190 0
171 191 0
174 195 0
170 192 0
171 195 0
172 194 0
172 195 0
172 195 0
172 195 0
168 192 0
171 194 0
173 196 0
171 195 0
173 196 0
168 192 0
172 196 0
173 197 0
172 196 0
172 196 0
170 192 0
172 195 0
173 196 0
169 193 0
172 194 0
172 195 0
174 197 0
170 194 0
172 194 0
171 195 0
171 195 0
172 196 0
171 195 0
169 193 0
171 194 0
171 195 0
170 194 0
171 195 0
170 193 0
171 193 0
168 190 0
172 195 0
171 194 0
172 194 0
172 196 0
168 191 0
169 192 0
171 194 0
170 193 0
169 191 0
169 193 0
169 192 0
169 192 0
171 193 0
168 192 0
171 195 0
172 195 0
171 195 0
171 194 0
171 194 0
171 194 0
170 194 0
169 193 0
170 194 0
169 193 0
171 194 0
172 196 0
166 190 0
171 194 0
166 190 0
170 192 0
168 190 0
169 191 0
172 195 0
172 196 0
171 194 0
166 190 0
166 189 0
165 188 0
170 193 0
170 193 0
168 191 0
171 194 0
169 192 0
167 190 0
172 195 0
172 194 0
170 194 0
168 191 0
167 190 0
161 183 54
126 151 105
84 114 142
61 97 156
62 97 151
63 99 168
62 98 163
61 97 159
61 97 157
62 98 166
63 99 166
62 98 162
62 99 165
62 98 167
62 98 168
61 98 171
63 99 171
62 98 165
62 98 166
62 99 169
61 97 160
62 99 166
61 98 167
62 98 164
62 98 169
62 99 166
62 98 172
62 98 168
62 99 172
62 99 171
62 99 173
62 99 174
62 98 169
62 99 175
62 98 169
62 99 172
62 99 173
62 99 175
62 99 175
62 99 168
62 99 169
62 98 169
62 99 171
62 99 169
62 99 177
62 99 174
61 98 168
62 99 174
62 99 172
62 99 170
62 99 171
62 99 175
62 98 170
62 99 175
62 99 175
62 99 171
62 99 173
62 99 172
63 100 176
62 99 171
62 99 176
62 99 176
62 99 172
61 98 171
62 99 176
62 99 173
62 99 175
62 99 174
62 99 171
62 99 174
62 99 171
61 98 170
63 99 175
62 99 171
62 99 174
62 98 169
62 98 171
62 99 173
62 99 174
62 99 170
61 98 170
62 98 168
62 98 168
62 99 177
62 99 173
63 99 172
62 99 171
61 98 172
62 99 171
62 99 173
62 99 171
62 99 170
61 98 170
62 99 177
62 99 172
62 99 175
62 98 174
62 98 170
62 99 172
62 98 170
61 98 169
62 99 174
62 98 167
62 99 173
61 98 171
62 98 169
62 99 171
62 98 173
62 99 171
63 99 175
63 99 177
61 98 169
63 99 176
62 99 173
61 98 167
62 99 172
62 99 171
62 98 164
62 98 167
60 97 167
62 99 176
63 99 170
62 99 171
62 98 166
62 98 166
62 99 176
61 98 171
62 99 172
62 98 171
63 100 174
61 98 167
62 99 173
63 99 173
62 99 172
62 98 172
63 99 171
62 98 167
63 99 174
63 99 167
63 99 170
62 98 170
62 98 168
63 99 166
62 99 173
62 99 168
62 98 167
63 100 176
62 98 166
62 99 167
61 98 165
62 98 163
62 98 168
63 99 171
62 98 163
62 99 164
62 98 166
61 97 161
61 98 162
62 98 166
62 97 164
63 98 165
62 98 165
62 98 164
62 98 161
61 96 161
62 98 163
61 96 162
61 96 158
61 97 160
61 96 156
61 96 160
59 94 154
59 93 155
59 93 147
60 94 145
63 93 143
59 84 121
57 74 91
61 69 56
55 61 37
58 62 30
55 62 36
57 62 28
77 77 35
61 66 34
67 71 30
74 78 44
86 86 43
73 78 47
81 84 45
97 98 55
97 98 57
96 98 53
109 110 53
92 95 48
101 102 53
110 110 62
111 112 55
120 119 63
120 119 68
122 120 64
111 111 54
122 121 67
122 121 66
122 120 61
126 124 66
124 122 67
126 125 64
133 131 72
128 125 63
148 144 71
129 128 67
140 137 74
134 131 70
134 131 69
135 133 68
138 135 71
139 135 73
146 142 71
145 141 69
148 144 70
156 151 79
144 140 69
144 139 74
155 150 77
151 146 67
154 149 81
162 155 80
160 155 76
155 150 73
159 154 78
161 155 72
158 153 80
161 155 77
157 151 75
156 150 75
159 154 73
160 155 76
158 152 71
156 151 74
162 156 80
164 158 78
164 158 72
159 153 77
160 154 72
160 155 71
166 159 78
165 159 82
168 160 79
168 161 80
164 157 74
159 153 71
169 163 80
165 160 76
164 158 74
163 157 80
162 155 76
155 149 70
162 155 75
159 153 70
164 157 75
162 155 78
163 156 84
163 157 69
164 158 76
160 155 70
157 151 69
151 145 66
154 148 70
159 152 67
156 151 68
153 148 65
158 152 72
155 149 63
150 145 67
154 148 69
151 145 65
162 156 75
154 148 62
156 150 67
139 135 52
157 150 69
148 142 61
151 144 65
149 142 63
157 151 68
146 140 66
142 136 62
151 145 64
145 139 59
155 148 70
139 135 52
135 130 49
136 131 52
132 127 48
137 134 42
140 136 52
142 141 58
139 141 42
145 147 49
142 147 39
157 165 47
152 163 37
155 167 30
161 175 28
157 170 28
167 186 16
166 183 22
167 188 11
166 186 0
167 189 0
170 192 0
172 193 0
172 192 0
169 191 0
173 196 0
172 196 0
171 194 0
171 194 0
169 193 0
170 194 0
168 191 0
171 194 0
172 195 0
169 193 0
172 195 0
170 194 0
172 196 0
171 194 0
171 195 0
172 195 0
173 196 0
172 195 0
170 194 0
173 196 0
170 193 0
170 193 0
170 193 0
171 194 0
167 192 0
172 196 0
174 197 0
171 195 0
174 197 0
170 193 0
169 192 0
171 195 0
168 192 0
170 194 0
173 196 0
168 192 0
169 193 0
174 197 0
173 196 0
172 195 0
171 194 0
171 194 0
171 194 0
171 195 0
170 195 0
169 192 0
174 196 0
171 195 0
173 195 0
171 195 0
167 190 0
171 194 0
168 191 0
169 192 0
169 193 0
169 193 0
170 194 0
170 194 0
167 191 0
170 193 0
170 193 0
171 195 0
169 193 0
170 193 0
170 193 0
167 189 0
168 191 0
169 192 0
172 195 0
170 194 0
165 189 0
169 192 0
171 194 0
172 195 0
170 193 0
172 196 0
171 194 0
168 191 0
165 188 0
172 195 0
169 193 0
168 192 0
167 190 0
168 191 0
166 189 18
150 174 70
109 136 129
71 104 148
62 98 160
63 99 168
62 98 161
62 97 159
62 98 161
62 98 161
62 98 167
62 99 171
62 98 169
62 98 169
62 99 170
61 97 163
62 98 161
62 98 166
63 99 169
62 99 170
62 98 168
62 98 169
62 98 165
61 98 168
61 97 161
62 99 171
62 98 173
62 99 172
62 98 172
62 99 173
63 99 169
63 99 171
61 97 168
62 99 171
61 98 166
63 99 173
63 99 174
62 99 171
61 98 169
62 98 167
63 100 179
63 99 174
61 98 168
62 99 172
62 99 173
63 99 176
62 99 175
62 99 173
62 98 167
63 99 174
62 99 173
62 99 172
62 99 173
62 98 172
62 98 171
61 98 169
62 99 173
63 99 169
62 99 177
62 99 172
62 98 169
62 98 167
62 99 176
62 99 173
62 99 175
61 98 170
63 100 180
62 99 171
61 98 170
62 99 172
62 98 170
62 99 173
62 98 171
62 99 178
61 98 173
62 99 174
62 98 170
61 98 169
61 98 173
62 99 175
62 98 167
63 99 172
62 99 176
62 99 174
62 99 175
62 99 172
61 98 169
63 100 173
62 99 174
62 99 173
62 98 171
61 97 165
62 99 175
61 98 172
63 99 170
62 99 170
62 98 170
62 99 174
62 99 172
62 99 173
62 99 174
62 99 175
62 98 165
62 99 177
62 99 176
62 98 171
62 98 169
62 99 169
63 99 174
63 99 176
62 98 166
61 98 169
62 99 171
63 99 174
61 97 166
62 99 172
63 100 180
62 99 177
62 98 173
62 98 167
62 98 167
61 98 164
62 98 170
62 98 169
62 99 173
62 99 169
63 99 174
63 99 173
62 99 172
63 100 175
62 98 164
62 98 169
62 98 169
62 99 167
62 99 168
62 98 168
61 98 162
61 98 165
62 98 166
62 99 175
62 98 165
63 99 173
62 98 167
61 98 168
62 98 169
62 98 168
62 98 167
61 97 163
61 98 167
61 97 162
62 98 170
62 99 165
62 98 169
62 98 164
62 98 167
62 98 165
62 98 164
62 98 164
61 98 164
61 97 165
61 96 160
62 98 166
62 98 169
61 97 161
61 96 156
61 96 160
62 97 163
61 96 155
61 96 159
62 98 166
62 97 162
61 97 162
60 94 150
60 95 157
58 92 149
61 96 162
59 93 150
54 84 128
57 72 84
58 69 65
55 59 29
55 60 26
52 56 27
70 73 38
62 66 27
56 59 26
68 73 40
82 85 52
81 83 42
88 89 50
73 78 44
79 82 40
88 90 42
82 85 45
91 92 52
100 100 54
97 98 47
113 112 60
107 108 57
102 102 54
112 112 58
97 100 49
113 113 65
124 121 65
113 113 57
117 118 59
123 122 64
126 124 59
132 129 71
141 137 74
134 130 71
134 132 64
133 130 65
133 130 74
139 136 70
142 139 67
133 130 70
140 136 72
143 140 75
144 140 71
143 140 68
142 137 71
150 144 76
143 139 73
149 144 75
149 145 72
150 147 70
155 149 76
160 153 78
158 152 74
148 143 71
160 154 79
155 150 78
161 155 81
153 148 72
160 154 78
158 152 71
159 154 79
160 154 73
159 154 74
164 157 83
161 155 80
164 157 78
162 157 75
157 152 75
158 152 70
166 159 83
166 159 80
164 158 76
165 159 78
159 154 72
159 152 72
163 158 75
158 153 73
165 157 83
164 158 73
163 157 80
165 159 78
162 156 75
164 157 80
160 155 72
162 155 72
165 158 75
159 152 72
155 149 69
159 154 74
162 156 76
159 152 73
161 154 73
163 157 75
158 152 67
156 150 65
161 154 72
157 151 70
154 148 63
157 151 73
150 144 65
153 147 65
160 152 74
153 146 67
153 146 67
154 148 71
153 147 66
149 143 62
151 145 65
151 144 62
138 133 52
146 141 64
145 139 64
147 142 61
154 148 71
138 133 56
145 139 66
144 137 59
141 135 53
142 136 63
131 128 47
139 138 48
140 140 45
144 145 49
148 151 47
141 148 42
152 162 41
153 163 34
155 169 22
162 180 25
163 180 16
163 180 28
163 181 0
166 186 11
167 188 0
173 195 0
169 190 0
171 192 0
169 190 0
169 190 0
173 196 0
173 196 0
173 196 0
172 195 0
169 193 0
171 194 0
175 197 0
173 196 0
173 197 0
171 195 0
169 193 0
171 194 0
172 194 0
170 194 0
171 195 0
169 193 0
171 194 0
173 195 0
171 194 0
172 195 0
170 193 0
171 195 0
172 195 0
166 189 0
171 194 0
171 195 0
172 195 0
170 192 0
170 195 0
173 197 0
173 196 0
171 195 0
172 196 0
172 196 0
170 194 0
170 194 0
171 195 0
170 193 0
170 193 0
170 193 0
170 193 0
171 194 0
170 194 0
169 192 0
170 193 0
171 194 0
172 195 0
168 191 0
171 193 0
171 194 0
170 194 0
168 192 0
171 194 0
173 196 0
171 194 0
166 189 0
168 192 0
171 194 0
173 196 0
171 194 0
170 194 0
169 192 0
173 196 0
168 191 0
169 193 0
167 190 0
168 192 0
171 195 0
167 190 0
166 189 0
172 195 0
170 193 0
170 194 0
170 193 0
170 193 0
168 192 0
168 192 0
168 192 0
169 192 0
169 193 0
171 193 0
168 191 0
167 190 0
167 190 0
168 191 31
139 164 88
110 136 122
61 97 157
62 98 159
61 97 157
61 97 154
62 98 159
62 98 166
62 98 163
61 97 163
62 99 169
61 98 161
62 98 169
62 98 168
62 98 167
63 99 162
62 98 167
61 97 161
62 98 165
62 99 170
62 98 166
62 98 171
61 98 170
63 99 163
63 99 171
63 99 175
62 99 172
62 98 164
63 99 171
62 98 167
63 99 171
61 98 167
61 98 167
62 98 168
62 99 172
62 99 174
63 99 172
62 98 174
61 98 168
62 98 172
62 99 175
62 98 164
62 99 171
62 98 170
62 99 175
63 99 173
62 99 176
62 99 172
62 98 173
62 98 172
62 98 171
62 99 171
62 98 172
61 98 168
61 98 173
62 98 171
62 99 174
62 99 177
62 99 176
62 99 178
62 98 170
62 99 174
62 98 168
63 99 176
62 98 169
63 99 171
62 99 172
63 99 173
62 98 173
62 99 175
62 99 172
62 99 175
62 99 175
62 99 172
62 99 175
62 98 167
62 98 170
60 97 162
61 98 172
62 98 169
62 99 173
63 99 172
63 99 175
63 99 171
62 98 171
62 99 172
61 98 168
61 98 167
61 98 176
62 99 172
62 99 174
62 98 170
62 99 175
62 98 169
61 98 173
62 98 171
62 99 169
62 99 172
62 99 176
62 98 173
62 99 173
62 99 174
62 99 170
62 99 170
62 98 169
62 98 164
62 99 176
62 99 170
62 99 173
62 98 168
62 99 172
62 99 171
62 98 167
63 100 174
62 99 171
62 98 171
63 99 171
61 98 168
62 99 170
62 99 169
62 99 170
62 99 170
63 100 175
62 99 169
63 99 168
61 98 165
61 98 160
62 98 162
63 99 169
62 99 170
62 98 169
62 98 170
62 99 170
62 99 172
62 99 168
62 99 169
63 100 178
62 98 166
61 98 164
62 98 171
62 98 165
63 99 170
62 98 164
62 98 167
62 97 160
63 99 167
63 100 172
62 98 165
62 98 166
61 98 169
62 99 168
62 99 168
62 98 167
62 99 168
62 99 168
62 98 168
62 98 164
62 98 165
62 98 162
63 99 164
61 97 160
62 98 167
61 97 165
61 97 164
62 97 167
63 98 164
61 96 161
62 98 166
62 98 160
60 95 154
62 98 160
60 94 146
61 96 154
61 95 152
59 93 148
59 92 149
59 85 127
52 72 91
54 66 75
62 65 29
63 68 34
68 72 42
60 66 33
72 73 35
60 66 34
72 76 31
73 77 43
81 83 46
90 89 44
86 86 44
78 80 47
84 87 41
83 85 46
100 101 48
97 99 53
97 98 48
110 111 56
99 101 57
105 105 57
121 120 62
117 117 58
103 104 55
122 121 62
116 116 65
114 114 57
124 122 65
124 123 63
124 123 62
135 132 68
137 133 66
127 126 61
138 133 72
138 135 66
138 135 62
142 138 64
145 140 76
139 135 68
144 139 71
145 140 67
146 142 66
148 143 71
155 150 78
145 141 69
146 143 66
152 146 77
142 139 60
151 146 73
160 154 73
155 150 69
161 155 78
156 151 75
155 150 76
148 144 68
152 147 68
160 155 76
157 151 75
163 157 80
160 154 75
161 155 75
160 154 70
159 153 76
161 154 80
159 153 75
160 154 79
165 158 77
162 157 78
161 155 77
165 158 80
161 156 75
163 156 82
161 155 65
166 160 79
162 156 73
158 152 68
159 152 70
163 157 78
158 152 74
159 153 68
162 155 77
160 154 67
159 153 70
165 158 77
156 150 67
159 152 67
161 154 74
162 156 77
160 153 75
153 146 67
155 149 70
158 151 67
156 150 67
155 148 67
159 153 75
159 153 71
151 145 67
157 150 73
161 154 74
155 150 62
151 145 65
153 146 70
150 143 71
143 137 59
148 142 62
146 141 58
140 136 58
146 141 58
140 134 58
150 144 68
144 137 62
149 144 64
142 136 56
140 135 59
140 134 53
141 135 53
139 133 54
137 136 49
136 135 41
149 151 48
143 148 42
144 150 36
152 160 41
152 165 34
152 165 32
158 172 37
155 170 16
163 179 28
168 188 19
165 185 11
167 187 0
169 190 0
170 191 0
171 191 0
166 184 0
165 185 0
168 189 0
173 197 0
170 193 0
171 195 0
170 194 0
171 194 0
172 196 0
173 196 0
172 196 0
173 196 0
170 193 0
170 195 0
172 195 0
171 195 0
171 195 0
171 195 0
171 195 0
171 195 0
172 195 0
171 194 0
170 194 0
168 192 0
171 194 0
173 197 0
171 194 0
172 195 0
167 191 0
171 195 0
167 191 0
171 194 0
171 194 0
169 193 0
173 196 0
169 193 0
167 191 0
173 196 0
172 196 0
171 194 0
170 194 0
171 195 0
171 194 0
172 195 0
170 195 0
169 192 0
167 191 0
167 189 0
166 189 0
170 194 0
168 192 0
170 193 0
173 196 0
171 195 0
170 194 0
172 195 0
172 196 0
170 193 0
168 193 0
170 193 0
167 191 0
170 193 0
170 194 0
167 191 0
168 191 0
168 192 0
168 191 0
170 193 0
170 193 0
170 192 0
169 193 0
172 195 0
170 194 0
170 194 0
171 194 0
167 190 0
167 191 0
168 192 0
168 191 0
167 189 0
168 191 0
172 195 0
169 191 0
169 192 0
168 192 0
167 190 0
170 194 0
163 187 40
145 168 94
93 122 139
61 97 158
61 97 160
62 98 160
62 98 162
62 98 159
62 98 158
62 99 167
62 98 161
62 98 169
61 98 168
63 99 169
62 98 166
62 98 167
62 98 164
62 98 161
61 97 158
61 98 163
63 99 168
62 98 166
61 98 168
62 98 166
62 99 166
62 99 169
62 99 173
63 99 173
62 99 169
62 99 175
61 98 171
62 98 171
62 99 170
61 98 167
62 99 171
61 98 167
61 98 167
61 98 167
61 98 174
62 98 172
61 98 173
62 99 174
60 97 166
62 99 172
62 98 170
62 99 170
62 98 170
63 99 173
62 99 173
62 98 172
62 98 169
62 99 173
62 99 175
62 99 173
62 99 175
62 98 172
62 98 168
62 98 170
63 99 176
62 99 169
62 99 174
62 99 174
62 99 172
62 98 172
62 98 170
62 99 172
62 99 172
63 99 175
63 100 176
62 99 175
62 98 167
61 98 172
63 99 174
62 99 171
62 99 173
62 98 170
62 99 172
63 99 174
61 98 173
62 99 168
61 98 161
62 98 174
62 99 174
63 99 177
62 99 173
62 98 168
61 97 163
61 98 168
62 98 168
62 99 172
62 99 172
62 98 167
62 98 173
62 99 172
61 98 169
62 98 166
62 98 169
63 99 171
62 99 174
62 99 173
62 98 168
62 99 174
62 99 171
62 99 175
62 99 174
62 99 176
62 99 176
63 100 174
62 98 167
62 99 174
62 99 171
62 98 164
62 99 172
62 99 172
62 99 170
62 98 172
62 99 172
63 99 174
62 98 170
62 99 173
61 98 166
62 99 169
62 98 169
62 98 164
61 97 164
62 98 168
62 98 163
62 99 166
62 99 168
62 99 172
62 99 172
62 98 169
61 98 165
62 99 170
62 98 166
62 99 171
62 99 166
62 98 165
61 98 167
62 99 170
62 98 166
62 98 170
61 97 160
62 99 171
62 98 168
61 98 166
62 98 168
62 97 162
62 99 166
62 98 163
62 98 169
62 98 162
62 98 167
61 97 158
62 98 160
61 97 155
61 97 161
62 98 168
61 96 159
62 97 156
61 97 163
62 98 163
61 97 162
60 95 158
61 96 156
61 97 160
61 98 164
61 96 158
63 99 168
59 93 147
61 95 154
62 96 154
60 94 147
59 93 148
59 93 147
61 96 157
60 94 148
58 91 143
57 80 111
67 78 65
56 62 35
61 64 23
69 73 30
56 61 26
69 73 34
71 76 36
62 67 35
67 72 42
83 85 35
78 82 41
74 77 35
79 82 44
93 93 44
92 92 46
102 102 49
101 103 52
100 100 48
106 107 57
109 110 53
115 114 51
117 114 54
112 112 49
115 114 57
119 117 54
122 121 56
115 116 51
124 122 64
124 123 62
132 130 66
123 123 63
128 127 62
133 130 65
123 122 55
135 132 64
137 135 65
142 138 71
145 139 67
142 139 75
140 136 71
141 138 68
140 136 68
149 145 71
153 149 77
145 142 76
138 134 60
145 141 70
150 146 70
148 143 71
156 151 76
146 143 71
159 153 76
157 152 75
151 147 68
158 152 78
153 147 69
163 155 78
161 155 76
155 149 70
163 157 74
161 155 80
161 155 76
160 153 75
151 145 67
160 155 75
161 155 71
161 155 78
154 149 75
159 153 71
160 153 76
158 152 66
155 149 67
164 157 78
157 152 73
166 160 78
160 154 69
166 160 79
161 155 78
151 146 63
158 152 64
157 151 68
164 157 76
155 149 69
154 148 63
155 149 62
162 156 69
153 147 65
158 151 75
155 149 69
163 156 78
155 148 74
155 149 65
157 151 66
160 154 70
155 149 66
154 147 71
160 153 75
159 153 75
141 137 58
147 142 65
148 143 60
159 152 72
150 143 65
153 147 66
144 138 59
146 141 64
146 141 62
145 139 61
144 137 60
136 131 49
141 135 54
139 133 51
143 137 57
141 136 44
143 136 59
131 125 52
137 133 51
138 137 51
147 148 45
141 143 41
145 150 45
146 153 32
150 158 37
149 160 32
159 171 25
157 171 28
157 174 11
164 182 11
166 185 11
169 187 11
174 194 0
170 190 0
173 194 0
166 186 0
170 192 0
169 190 0
170 190 0
170 193 0
171 195 0
171 195 0
173 196 0
173 196 0
173 196 0
170 193 0
173 197 0
170 194 0
173 196 0
171 194 0
171 195 0
171 195 0
170 193 0
172 195 0
171 194 0
171 195 0
173 196 0
168 192 0
172 195 0
174 197 0
173 196 0
172 196 0
171 194 0
171 195 0
168 192 0
168 192 0
170 193 0
166 190 0
171 194 0
170 193 0
170 193 0
174 197 0
171 195 0
174 196 0
168 191 0
169 193 0
170 192 0
170 193 0
169 193 0
171 194 0
168 191 0
166 190 0
170 193 0
167 191 0
171 194 0
168 192 0
169 192 0
172 195 0
167 191 0
171 193 0
172 195 0
169 193 0
170 194 0
170 194 0
173 196 0
173 196 0
169 192 0
172 195 0
169 192 0
170 194 0
170 194 0
170 193 0
171 193 0
167 191 0
171 194 0
169 191 0
164 188 0
170 194 0
169 192 0
171 194 0
169 192 0
168 191 0
168 191 0
166 190 0
168 191 0
163 187 0
172 196 0
167 190 0
170 193 0
169 192 0
170 194 0
169 192 0
170 193 0
159 182 36
128 153 105
79 111 149
62 97 153
63 98 161
61 97 152
61 97 158
61 98 168
62 98 155
61 97 160
61 97 164
61 97 158
62 98 162
62 98 163
61 98 164
62 98 160
62 98 167
61 97 161
62 98 161
63 99 169
61 97 161
62 98 171
62 99 169
61 98 165
61 98 168
63 99 170
62 98 168
62 98 170
62 99 171
63 99 175
61 98 171
62 99 172
63 100 173
62 99 171
62 99 171
62 98 169
62 98 175
62 99 173
62 99 173
62 98 170
61 98 167
61 98 168
62 98 174
61 98 166
62 98 168
62 99 175
62 99 172
62 98 170
62 98 171
62 98 166
63 99 175
62 99 175
62 99 172
62 98 171
62 99 175
62 99 174
62 99 173
62 99 175
63 99 175
62 98 170
62 98 164
63 99 173
63 100 176
62 99 173
62 99 172
63 99 173
62 99 175
61 98 176
62 99 174
62 99 172
62 99 172
62 99 172
62 98 168
62 99 174
62 99 175
62 99 173
62 99 172
61 97 163
63 100 175
62 99 173
61 98 171
63 99 177
63 99 172
62 99 173
63 99 175
62 99 170
62 99 173
62 99 175
62 99 173
62 99 173
62 98 167
63 100 177
61 98 168
62 99 177
62 99 176
62 99 170
62 98 168
62 98 175
62 99 177
62 98 171
62 99 174
63 99 170
62 99 175
61 97 163
62 99 171
62 98 169
62 99 172
62 98 167
62 99 170
62 99 173
62 98 169
61 98 167
62 99 173
63 99 173
62 98 166
62 98 171
63 100 176
62 99 173
62 99 169
62 99 170
62 99 168
62 99 174
62 99 170
63 99 169
62 98 165
63 99 170
62 98 163
63 99 170
61 98 167
62 98 163
62 98 169
63 99 173
63 99 166
62 98 165
62 98 167
62 99 166
63 99 170
61 97 160
62 99 174
63 100 176
61 97 159
61 98 169
62 98 161
62 99 170
62 98 170
63 100 171
62 98 167
63 99 166
62 98 165
61 98 160
63 99 166
62 99 171
61 97 159
62 98 165
62 98 164
62 98 165
61 97 160
62 98 163
62 98 163
61 97 160
62 99 167
62 97 153
61 97 165
62 97 163
62 98 161
61 96 153
62 98 164
62 97 162
61 96 153
61 96 159
62 98 165
61 96 155
62 98 165
60 95 156
61 95 153
60 95 150
60 94 151
57 90 140
56 78 103
61 74 86
58 66 66
50 55 26
66 68 25
73 76 26
66 70 36
70 74 34
77 79 39
64 70 42
88 91 37
81 84 37
95 95 41
96 95 41
82 85 40
81 84 42
98 98 49
106 103 51
117 117 50
101 103 54
111 111 50
103 104 54
103 104 47
103 104 49
115 115 56
113 113 54
123 122 53
118 117 54
121 120 60
122 121 54
134 131 61
127 124 61
130 128 59
129 127 64
133 131 71
128 127 61
130 127 57
150 146 74
137 135 64
140 137 63
134 131 67
147 142 73
146 141 71
149 143 71
152 146 71
147 143 70
151 146 71
147 143 74
155 150 78
152 148 74
160 154 77
147 142 72
154 149 65
159 153 75
156 151 78
151 147 74
157 151 75
152 147 71
153 149 71
153 147 73
159 153 71
158 151 71
157 151 70
155 150 66
159 153 70
156 150 66
150 144 67
157 152 70
160 154 68
154 149 67
162 155 75
156 151 70
163 156 73
156 150 73
159 153 69
158 152 64
156 150 74
162 155 75
161 155 72
162 155 71
163 156 73
159 154 74
160 154 71
156 150 68
162 156 73
159 153 72
162 155 75
154 148 64
155 149 68
155 150 68
156 150 71
163 156 79
163 155 78
159 153 68
158 152 72
149 144 58
155 149 66
151 145 57
154 148 66
150 145 64
149 143 64
147 141 65
144 140 59
157 150 68
148 142 54
152 145 63
152 145 61
148 143 59
143 138 52
143 136 65
148 142 61
145 139 58
142 135 59
147 140 64
138 134 51
142 137 57
133 128 49
143 140 56
127 128 34
135 137 42
136 139 37
141 146 34
147 154 30
156 167 36
152 164 34
154 167 22
161 178 16
165 181 11
163 180 19
165 183 16
167 187 0
169 190 0
172 193 0
169 190 0
168 189 0
171 192 0
167 188 0
171 191 0
172 195 0
171 196 0
172 195 0
169 193 0
173 196 0
170 194 0
172 195 0
172 196 0
172 195 0
173 197 0
173 195 0
172 195 0
170 193 0
172 195 0
172 194 0
166 189 0
172 196 0
172 195 0
171 194 0
172 196 0
170 194 0
172 195 0
172 196 0
172 195 0
171 194 0
172 196 0
172 195 0
174 197 0
171 195 0
172 195 0
169 193 0
167 191 0
170 193 0
170 193 0
171 194 0
172 194 0
172 196 0
170 192 0
175 198 0
166 190 0
174 197 0
170 193 0
172 195 0
174 197 0
169 192 0
168 191 0
170 194 0
168 191 0
170 194 0
169 191 0
169 193 0
173 196 0
170 192 0
168 192 0
172 194 0
170 194 0
171 194 0
166 190 0
166 190 0
168 191 0
170 194 0
169 192 0
172 196 0
169 193 0
169 193 0
170 193 0
170 193 0
166 190 0
171 195 0
170 192 0
169 193 0
169 193 0
171 195 0
169 193 0
171 194 0
166 190 0
170 193 0
167 190 0
165 188 0
169 192 0
168 190 0
167 190 0
167 191 0
166 189 18
158 182 47
125 150 113
69 102 147
61 97 152
61 97 153
61 96 145
63 99 167
62 99 167
62 97 159
62 98 160
62 98 162
63 99 165
61 98 162
61 98 167
61 97 163
62 98 160
62 98 163
62 99 169
62 98 163
62 98 165
62 98 166
62 99 171
62 98 164
62 99 169
62 98 169
61 98 170
62 99 169
62 99 168
62 98 169
62 99 174
62 99 169
62 98 167
62 98 172
63 99 172
62 99 172
63 99 171
62 99 171
62 98 174
61 98 167
63 99 171
62 98 170
62 98 170
61 98 168
62 98 172
62 98 167
62 99 171
62 99 173
62 99 171
62 98 171
63 99 172
62 99 173
62 99 172
62 99 173
62 98 171
63 99 174
62 98 172
62 99 173
63 99 172
62 99 172
62 99 174
61 98 167
62 98 172
62 99 176
62 98 169
61 98 171
62 99 174
62 98 168
63 99 173
63 99 175
62 99 172
62 99 174
63 99 175
63 99 170
61 98 171
62 99 174
62 98 169
62 99 173
62 98 170
62 99 169
62 98 169
63 99 176
62 99 175
62 99 173
62 98 169
62 98 170
62 98 169
62 98 170
62 99 172
62 99 171
61 97 163
62 98 168
62 99 171
62 99 171
62 98 167
62 98 171
63 99 170
62 99 173
61 98 166
62 99 175
62 98 167
62 99 173
62 99 174
62 99 169
61 98 171
62 99 170
62 99 171
62 99 169
62 99 170
62 99 169
62 99 170
62 99 171
62 99 172
62 99 170
62 98 167
63 99 172
63 100 178
63 99 171
62 98 170
62 98 168
62 98 170
63 99 173
62 99 171
62 99 171
62 99 170
62 98 172
62 98 166
63 99 173
61 98 164
62 98 164
62 98 169
62 98 167
63 99 177
62 98 166
62 98 164
62 99 167
62 98 166
63 100 172
62 98 171
62 98 163
61 97 158
62 99 171
63 99 171
61 98 170
61 98 166
62 98 164
62 98 163
61 97 164
63 99 171
62 98 161
62 99 169
61 97 162
62 98 167
62 98 169
61 98 161
61 97 166
62 98 161
62 98 161
63 98 167
62 98 162
61 97 158
63 99 170
62 98 166
61 98 164
62 98 170
62 97 159
61 96 155
61 96 154
61 97 163
61 96 155
61 96 154
60 94 143
61 96 155
61 96 158
60 94 153
60 94 148
59 92 147
61 95 147
58 90 144
66 86 108
59 75 92
59 67 64
72 76 34
70 74 37
65 69 30
65 69 31
64 67 26
81 83 42
78 82 36
92 94 41
87 89 42
84 84 46
79 81 38
93 95 46
98 100 47
96 96 42
94 96 49
100 100 41
105 106 59
103 103 48
113 112 44
107 108 53
115 114 57
117 116 56
124 123 61
122 121 60
123 121 56
120 119 57
130 127 58
123 121 61
123 122 58
127 124 61
130 129 61
124 122 64
128 127 67
136 132 66
137 133 68
146 141 65
147 143 69
139 135 63
148 143 65
149 144 65
147 143 59
145 142 69
149 145 70
139 135 62
149 144 66
151 146 72
149 144 64
149 145 74
151 146 68
146 142 67
145 141 69
151 146 69
157 151 71
153 148 71
152 147 65
158 152 75
159 153 76
154 148 67
153 148 72
162 156 73
159 152 71
159 152 68
162 156 73
158 152 71
160 155 67
162 156 77
157 152 68
156 151 66
158 152 75
157 152 69
160 154 72
162 156 76
166 158 76
158 151 70
161 154 70
158 152 70
161 153 72
159 153 65
158 151 69
155 149 71
159 152 73
154 148 70
164 157 75
157 151 70
159 151 70
151 144 69
156 150 65
161 155 72
156 150 67
157 151 63
156 150 63
158 151 75
151 146 65
154 148 70
155 149 65
154 148 63
141 137 51
152 147 64
143 138 57
147 142 54
152 147 60
153 147 63
151 144 62
149 143 63
138 132 60
133 127 52
149 143 64
137 132 53
149 142 61
135 129 53
140 135 58
129 125 47
146 139 61
142 137 48
147 144 54
141 141 52
136 137 37
140 146 36
149 160 41
147 154 41
147 157 34
150 162 32
162 177 22
160 173 16
163 178 28
165 182 19
168 188 0
170 190 0
165 186 0
171 191 0
172 191 0
168 187 0
169 190 0
169 188 0
171 191 0
170 194 0
171 194 0
173 196 0
169 192 0
172 195 0
173 197 0
169 193 0
169 193 0
169 193 0
170 194 0
169 192 0
169 193 0
175 197 0
173 196 0
173 196 0
171 194 0
172 196 0
169 192 0
171 194 0
172 195 0
171 194 0
171 194 0
171 194 0
172 195 0
172 195 0
171 195 0
167 189 0
171 195 0
173 196 0
173 196 0
170 193 25
170 194 0
167 191 0
169 193 0
170 194 25
170 193 0
171 194 0
170 193 0
167 190 0
173 197 0
168 192 0
170 194 0
170 193 0
169 193 25
171 193 25
171 194 0
171 194 0
171 195 0
169 193 0
172 196 0
169 192 0
171 195 0
171 194 0
169 192 0
167 190 0
169 193 0
169 193 0
166 190 0
170 193 0
167 190 0
171 193 0
167 189 0
170 193 0
167 190 0
169 192 0
173 197 0
171 194 0
169 192 0
168 190 0
170 193 0
168 191 0
166 190 0
170 194 0
167 190 0
170 193 0
171 193 0
167 191 0
165 187 0
169 193 0
167 190 0
167 190 0
170 194 0
165 188 0
169 192 0
154 177 57
115 141 118
67 101 150
61 97 156
62 98 163
62 98 165
62 99 165
61 97 153
62 98 162
62 98 167
61 97 155
62 98 165
63 99 167
62 99 167
61 98 164
62 99 171
61 97 162
63 99 171
61 97 164
62 99 169
62 98 162
62 98 162
62 99 173
62 98 167
62 98 166
62 98 166
62 99 170
61 97 160
62 98 172
61 98 169
61 98 168
62 98 166
62 98 169
62 98 169
62 98 167
62 98 172
62 99 167
62 99 173
62 98 164
61 98 168
62 98 171
61 98 171
62 99 172
62 99 173
61 98 170
62 99 171
62 98 166
61 98 167
62 99 171
62 99 175
62 99 172
62 99 172
62 99 174
63 99 174
62 98 167
62 99 177
62 99 173
62 98 170
62 99 174
62 99 174
62 99 174
61 98 170
62 99 174
62 99 173
61 98 171
62 99 174
63 99 176
62 98 169
63 99 172
62 98 168
62 99 171
61 98 168
63 99 172
63 99 175
62 98 169
62 98 172
62 99 173
61 98 164
63 99 172
62 98 172
63 99 175
63 99 175
62 98 168
62 99 170
63 99 170
62 99 176
62 99 169
62 99 173
62 98 163
61 98 167
62 98 171
62 99 169
62 99 173
62 99 169
62 99 172
62 98 166
63 99 169
61 98 171
62 99 171
61 98 171
62 99 173
62 99 172
62 98 171
62 98 169
62 99 174
62 99 173
62 99 172
62 98 170
61 97 160
62 99 170
62 98 169
63 99 175
63 99 172
63 99 175
62 99 170
62 98 163
62 98 167
62 99 170
62 98 168
61 97 162
61 98 164
62 99 167
63 99 170
62 99 166
62 98 168
63 99 169
63 99 168
62 99 171
63 99 171
63 99 172
62 99 166
62 98 166
62 98 164
63 99 170
62 98 168
62 98 167
62 99 171
62 99 171
61 98 167
62 98 162
62 98 167
62 98 159
62 98 167
62 98 166
62 98 160
62 98 167
62 98 164
62 98 165
62 98 162
62 99 170
63 99 165
62 99 167
62 98 162
61 97 162
62 97 154
62 99 170
61 98 166
62 98 160
61 97 163
62 98 160
63 99 169
61 97 159
62 97 163
61 96 161
62 97 157
62 97 163
63 98 166
63 99 169
61 96 155
60 95 150
61 97 157
60 94 153
61 96 157
61 96 155
60 94 149
60 95 155
60 95 155
63 93 144
69 90 118
63 78 86
66 74 60
55 61 35
59 62 28
71 74 33
63 67 27
72 74 34
69 74 40
84 86 32
63 67 30
88 89 36
81 82 35
81 84 40
87 87 40
97 98 52
98 98 46
84 85 48
100 100 50
109 109 52
96 96 42
123 121 64
106 107 55
116 116 57
111 112 57
123 120 50
106 106 46
120 118 61
121 120 56
117 115 51
131 128 59
122 120 64
128 125 63
136 134 63
140 136 61
137 133 67
144 139 69
133 131 61
134 132 62
127 125 61
137 135 71
138 135 68
133 130 63
149 144 67
143 139 63
150 145 73
138 135 58
150 145 69
142 139 59
149 144 63
152 147 68
146 141 69
155 149 75
151 147 68
153 148 68
151 145 68
158 153 69
154 149 71
157 152 69
158 153 68
148 142 69
157 152 72
154 148 71
147 143 66
156 150 70
155 150 61
162 156 74
163 157 72
163 157 75
154 149 64
158 152 71
159 154 65
157 152 70
158 151 69
155 149 69
162 156 73
158 151 71
161 156 71
159 153 68
152 147 63
165 158 74
160 153 75
153 148 59
155 150 63
151 145 66
156 150 73
156 151 72
162 155 73
157 152 66
149 143 53
159 153 69
160 154 66
155 149 65
156 150 68
158 151 67
152 146 70
151 144 70
154 149 65
149 144 58
154 147 70
149 141 61
148 141 59
146 140 57
145 139 57
145 140 57
141 135 57
137 132 57
149 142 67
146 140 63
145 139 61
137 132 48
138 134 57
136 130 49
124 118 44
133 128 47
133 129 44
134 132 41
140 138 47
147 149 48
146 148 45
148 151 37
147 156 30
152 163 34
151 164 34
154 169 28
157 170 16
160 178 11
166 183 22
170 190 16
165 185 11
170 192 0
166 187 0
167 187 0
167 188 0
173 195 0
168 186 0
166 187 0
168 189 0
170 194 0
169 193 0
170 194 0
171 195 0
173 197 0
174 196 0
173 196 0
174 197 0
171 195 0
171 195 0
172 195 0
170 194 0
168 192 0
170 193 0
169 193 0
173 196 0
173 196 0
173 196 0
169 193 0
171 195 0
169 191 0
172 196 0
172 195 0
170 193 25
172 196 0
169 192 25
172 196 25
170 193 0
171 195 0
174 197 25
168 191 0
174 197 57
173 196 0
169 192 25
169 192 25
172 195 0
170 193 0
171 195 36
171 194 25
170 193 44
170 193 25
172 196 0
169 193 0
167 191 0
168 192 25
167 191 0
169 192 0
168 191 25
172 195 0
173 196 25
174 198 36
167 191 0
170 193 0
169 193 0
169 191 25
168 192 0
171 194 25
171 194 0
167 192 0
169 192 0
170 194 0
169 192 0
167 190 0
172 195 0
166 190 0
169 192 0
167 190 0
169 192 0
167 191 0
169 193 0
170 192 0
170 194 0
168 191 0
166 189 0
170 193 0
167 190 0
166 189 0
170 193 0
170 193 0
170 193 0
170 191 0
168 191 0
166 189 0
165 188 18
146 170 76
117 144 111
67 101 142
62 98 163
61 97 154
62 97 156
62 98 161
61 97 157
62 98 165
61 97 153
62 98 159
61 97 159
62 98 167
62 98 163
61 98 165
62 98 164
61 98 161
62 99 168
61 97 167
62 99 167
62 98 170
62 99 170
62 98 162
62 98 169
62 98 166
61 97 164
61 98 170
62 99 166
63 99 168
62 98 167
61 97 165
62 98 167
62 98 166
61 98 169
62 99 170
62 99 174
62 99 174
62 99 170
62 99 168
62 99 173
62 98 172
63 100 175
62 99 170
61 98 167
62 99 177
62 98 171
62 99 170
62 99 169
62 98 170
62 99 173
62 98 170
62 98 174
62 99 170
62 98 169
63 99 171
61 98 169
61 98 169
62 99 170
63 99 173
62 99 177
62 98 171
61 98 170
62 98 170
62 99 172
62 98 173
62 99 175
62 99 174
62 99 174
62 98 170
62 98 173
62 99 173
62 99 171
63 99 178
63 99 174
62 99 174
63 99 171
62 98 165
63 99 175
62 99 173
62 99 173
62 98 169
61 98 169
62 99 175
62 98 168
63 99 174
62 98 169
62 98 170
62 99 176
62 99 169
62 98 173
62 99 170
62 99 168
63 99 171
62 99 168
62 99 169
62 99 170
61 98 165
62 98 166
62 98 166
61 98 169
62 98 169
61 97 169
62 98 167
63 99 171
62 98 170
62 98 164
62 99 174
63 99 170
62 99 170
62 98 168
63 99 173
62 98 161
62 98 168
62 98 174
62 98 163
61 97 164
62 99 167
62 99 170
61 97 163
62 99 168
62 98 165
62 99 171
63 100 175
62 98 166
63 99 168
62 99 170
62 99 169
61 98 166
61 97 154
63 99 175
62 98 165
62 99 169
63 100 173
62 98 166
63 99 170
61 98 165
61 98 165
62 99 167
62 99 169
63 99 169
62 98 163
62 99 167
62 98 163
62 99 169
62 98 166
62 99 166
62 98 165
62 98 164
62 98 166
62 99 166
62 98 160
62 98 168
62 98 163
60 96 159
61 96 161
62 98 165
62 99 166
62 98 161
61 97 160
62 98 160
63 99 165
62 98 164
60 95 148
62 98 162
61 97 161
62 98 167
62 98 163
60 96 157
61 96 157
62 97 161
61 96 159
61 95 156
62 98 161
61 96 156
60 94 154
59 93 146
59 92 143
60 93 146
54 83 117
60 78 99
58 71 64
68 73 33
61 63 26
61 64 27
76 79 37
62 67 30
79 80 34
81 83 37
74 78 34
76 78 32
92 93 44
89 91 43
91 93 41
94 96 42
90 91 47
98 99 47
98 98 39
95 94 38
110 108 55
113 113 50
102 104 47
104 105 48
113 112 56
125 124 63
122 120 62
121 120 57
112 111 58
118 116 55
132 128 57
131 128 65
134 131 62
125 122 59
133 130 59
132 130 63
142 138 63
131 128 63
131 128 61
136 131 55
134 131 54
144 139 66
139 136 69
146 142 64
136 133 57
144 140 64
148 143 68
149 145 54
145 141 64
157 151 70
147 142 64
154 148 74
155 149 68
150 145 67
157 152 74
151 146 67
156 151 69
161 155 75
156 150 73
156 150 73
157 152 67
152 147 65
156 150 71
153 148 70
161 155 73
159 153 72
161 155 71
159 152 70
158 151 69
158 152 71
158 151 68
158 153 73
155 149 66
157 151 67
156 150 70
155 149 70
153 147 64
150 145 60
157 152 70
153 148 65
157 151 72
158 151 75
157 151 71
161 155 69
152 146 63
156 150 64
160 153 75
157 149 63
153 146 69
157 150 68
156 150 57
159 153 70
143 138 53
156 150 64
153 147 60
154 149 56
154 148 62
147 142 59
152 146 62
151 145 67
149 143 61
142 137 54
154 148 64
145 139 56
145 139 62
146 140 60
142 137 53
147 142 53
135 129 56
141 135 56
150 144 62
144 138 57
138 132 48
143 138 52
127 123 42
139 136 47
139 137 49
137 140 32
144 147 32
142 146 32
145 155 30
152 161 36
140 150 25
159 170 34
152 166 28
163 178 25
158 174 28
166 185 19
171 191 0
168 188 0
170 190 0
169 189 0
172 194 0
173 195 0
168 190 0
168 188 0
168 188 0
174 194 0
169 193 0
170 194 0
170 195 0
173 196 0
171 195 0
169 191 0
172 195 0
173 196 0
170 194 0
172 195 0
170 194 0
172 195 0
172 195 0
173 196 25
169 193 0
169 193 0
170 194 25
174 197 36
173 197 0
169 192 0
173 196 25
172 196 0
172 195 25
174 197 36
169 192 36
168 192 25
169 192 25
172 195 25
172 196 25
172 196 0
172 195 36
172 194 25
174 197 25
172 196 25
171 194 25
174 197 51
169 191 25
170 191 44
173 197 25
169 192 0
173 195 36
173 196 25
171 194 25
171 194 51
172 195 44
171 195 25
173 196 25
170 193 36
169 191 36
172 195 36
169 193 25
170 193 44
170 193 44
170 193 0
168 192 0
167 190 36
172 194 25
166 189 36
171 194 25
170 192 36
167 191 0
167 189 0
171 195 0
171 194 0
164 188 0
164 186 0
168 191 0
170 192 0
168 191 0
166 188 0
167 190 0
168 191 0
165 189 0
172 195 0
165 189 0
169 191 0
168 192 0
167 190 0
167 190 0
166 188 0
168 190 0
169 192 0
169 192 0
163 187 36
147 170 78
97 125 129
63 99 157
62 98 159
61 96 149
62 98 159
61 97 153
62 98 163
61 97 157
62 99 163
62 98 164
61 97 161
62 98 164
62 98 164
61 97 154
62 98 162
62 98 164
62 98 161
63 99 170
62 98 169
61 97 164
62 98 169
62 98 170
61 97 159
62 99 171
61 98 164
62 98 167
62 99 171
62 98 161
62 99 172
62 98 168
61 98 168
62 99 170
61 98 167
61 98 172
61 98 165
61 98 172
62 99 173
63 99 169
62 98 169
62 98 172
62 98 170
62 99 168
62 98 170
62 99 172
62 99 170
62 98 168
61 98 170
61 98 170
63 99 173
61 97 166
62 99 170
62 98 168
62 99 175
62 99 175
62 99 170
62 99 174
62 98 171
62 98 170
62 99 174
62 99 172
61 98 165
62 98 170
62 98 168
62 99 174
62 98 167
61 97 165
62 99 172
63 99 173
62 99 175
61 97 164
62 99 170
62 98 169
62 98 173
62 99 173
61 98 167
62 98 170
63 99 175
62 99 177
62 99 174
62 99 170
61 98 172
63 99 173
61 97 170
62 99 174
62 99 174
61 98 168
62 99 175
62 99 167
62 99 171
62 99 173
61 98 169
61 98 170
63 99 173
62 99 171
62 98 170
62 99 169
62 99 170
61 98 165
62 99 174
62 99 171
62 99 172
62 98 167
62 99 168
62 99 170
61 98 167
62 99 166
62 99 172
62 99 171
62 99 170
62 99 169
62 99 170
62 98 168
62 99 171
63 99 174
62 99 172
62 99 173
63 99 173
62 98 164
61 98 167
61 98 167
61 98 166
62 98 169
61 98 161
62 98 169
62 99 165
62 98 168
62 99 175
63 99 169
62 98 164
62 98 165
63 99 172
62 98 168
61 98 166
61 98 163
62 99 170
62 98 164
63 99 163
61 97 164
62 98 166
62 99 172
62 98 156
61 98 161
62 99 168
61 98 165
63 99 167
61 97 157
62 98 162
62 98 168
61 97 163
62 98 163
62 98 164
62 98 165
61 97 158
62 98 160
62 98 162
62 98 159
60 96 157
62 98 157
62 98 163
62 98 164
62 98 164
62 98 161
62 97 159
61 97 157
62 98 164
61 97 158
62 98 165
62 97 160
61 97 156
61 96 154
61 97 158
59 93 145
60 95 156
60 93 146
61 96 154
59 92 140
60 93 144
58 85 118
61 78 94
59 70 74
67 70 45
66 68 27
68 71 27
77 79 31
72 75 26
80 82 32
80 83 39
91 89 33
80 82 32
92 93 38
98 97 40
94 94 36
93 94 46
93 94 43
91 93 39
103 104 41
106 106 48
100 100 49
105 104 39
98 100 51
116 115 52
121 120 54
114 112 54
119 118 52
122 120 59
125 122 57
114 114 51
125 123 61
134 130 62
132 129 60
129 126 52
128 125 62
139 135 58
136 132 54
139 136 67
134 132 59
134 132 61
135 130 56
142 138 60
143 139 59
141 137 63
138 135 58
154 149 68
142 138 61
152 147 67
149 145 65
145 141 66
152 147 76
153 147 69
143 139 59
149 144 67
145 141 67
152 147 58
153 148 69
157 152 70
156 150 65
157 151 70
155 150 70
152 148 65
162 155 76
155 149 64
153 148 58
162 155 76
158 152 69
163 157 70
156 149 69
155 149 61
153 148 64
150 145 58
157 151 68
161 154 73
156 149 62
159 152 65
156 150 64
160 154 75
156 149 68
153 146 64
158 151 67
157 152 68
158 151 69
160 153 68
156 150 65
155 149 67
152 145 69
159 153 62
154 149 66
153 148 63
158 152 70
159 152 65
149 144 62
142 137 53
158 150 64
151 145 63
151 145 64
147 141 54
155 149 56
152 146 62
147 140 65
142 137 53
152 145 59
136 130 52
153 147 60
145 141 60
146 141 59
136 132 47
136 131 53
150 144 63
137 133 49
141 136 53
143 138 56
141 137 49
135 131 42
141 140 45
148 148 42
130 131 32
139 143 34
147 152 41
139 144 36
143 151 25
150 161 28
158 172 28
159 174 22
163 181 11
165 181 19
164 181 0
163 181 0
170 189 0
167 188 0
170 192 0
171 191 0
170 193 0
168 190 0
170 191 0
174 195 0
170 190 0
174 197 0
170 194 0
170 193 0
171 195 0
173 197 0
172 196 0
172 196 0
170 194 0
171 195 0
172 195 0
170 193 25
169 193 25
172 195 0
171 195 0
170 193 0
172 196 25
173 195 0
173 196 36
172 195 0
175 198 25
175 198 51
175 198 36
171 195 25
173 197 44
170 194 36
172 196 25
175 198 51
172 195 36
172 194 36
174 197 25
172 195 25
174 196 36
171 194 0
174 197 36
171 195 36
172 195 44
171 195 51
172 196 36
169 192 36
173 196 57
169 192 44
167 190 44
172 195 51
171 194 25
172 195 51
172 194 44
172 194 36
176 199 62
173 195 36
171 195 25
175 198 44
172 195 36
173 196 25
173 196 44
166 189 36
175 197 44
169 193 0
169 192 0
168 192 0
170 194 25
167 190 25
172 194 25
169 194 0
167 190 25
170 193 0
170 193 25
167 190 0
169 192 0
167 191 0
168 191 0
174 197 0
163 188 0
165 188 0
169 192 0
169 192 0
165 187 0
164 187 0
168 192 0
168 191 0
169 192 0
163 185 0
165 189 0
166 189 0
156 180 31
145 169 76
88 117 134
61 97 156
62 98 163
61 97 154
62 98 163
62 98 159
62 98 158
62 98 162
61 97 155
61 96 153
62 99 166
62 98 160
62 98 168
62 99 170
62 98 163
63 99 169
61 97 160
61 97 163
60 96 161
61 98 165
62 99 169
62 98 164
61 97 162
62 98 170
62 99 174
62 98 168
61 98 168
61 97 163
60 97 165
61 98 168
62 98 165
61 97 167
62 99 170
62 98 168
62 98 164
62 98 165
62 99 172
61 98 165
62 98 170
62 98 165
62 98 169
62 98 170
61 98 172
62 98 172
62 98 172
63 99 175
62 99 174
62 98 167
62 99 173
62 98 172
63 100 176
63 99 173
62 98 167
62 98 166
62 99 173
62 99 172
62 99 171
62 99 173
62 99 175
61 98 168
63 99 171
62 99 169
63 99 173
61 98 170
62 98 171
62 98 170
62 99 171
62 99 175
62 99 171
62 98 169
62 99 170
61 98 169
62 99 171
62 99 173
62 99 173
61 98 171
62 99 168
62 99 171
62 98 168
63 100 175
62 99 172
63 99 172
62 99 173
62 98 166
62 98 171
62 99 173
63 99 173
63 99 173
62 98 169
62 99 173
61 98 171
62 99 169
62 99 173
62 99 172
61 98 172
62 99 173
62 99 174
63 99 167
62 99 172
62 99 171
61 98 165
62 99 171
62 99 168
63 99 172
62 99 169
61 98 164
61 98 168
62 98 161
63 99 175
63 99 171
63 99 165
62 99 169
62 98 163
61 97 163
62 98 167
63 100 174
62 99 171
62 98 166
62 99 171
62 98 169
62 99 171
62 98 165
62 98 169
62 98 164
62 98 164
62 98 164
63 99 166
62 99 172
63 99 164
62 98 167
62 99 167
62 99 171
62 98 168
63 99 174
62 98 166
62 98 164
62 99 168
62 99 167
62 99 171
62 98 165
62 98 163
62 99 170
62 98 165
61 98 160
61 97 164
62 98 166
62 98 162
63 99 166
62 98 162
62 98 162
62 98 160
61 97 154
63 99 167
62 98 166
62 98 165
62 98 162
62 97 160
63 99 165
61 97 158
61 97 155
62 97 163
62 98 162
63 98 165
61 97 151
61 98 162
61 97 159
61 97 153
62 97 160
61 96 154
60 95 146
60 94 150
60 95 152
60 94 148
62 97 156
60 94 152
60 94 148
60 94 145
62 89 130
64 83 110
68 77 61
79 82 43
71 73 21
59 62 19
71 74 28
76 78 28
79 82 33
79 81 31
86 87 37
86 88 37
96 96 33
91 92 41
95 95 41
91 93 39
91 92 41
81 84 37
103 102 42
100 100 40
105 104 33
109 108 54
112 111 47
118 117 56
108 107 54
114 113 58
104 105 52
117 115 56
113 113 43
126 124 59
124 122 53
127 123 49
137 134 60
125 123 53
115 115 51
124 122 60
131 129 57
134 131 62
141 137 64
139 134 61
138 133 65
147 142 63
153 147 70
144 141 66
135 131 58
136 133 63
141 137 64
151 145 72
153 148 73
150 145 69
153 148 71
147 144 65
145 142 60
159 152 73
146 141 69
151 145 65
145 140 62
151 145 68
153 147 68
160 155 67
157 151 73
153 147 63
152 147 56
155 150 68
154 148 62
164 157 74
157 151 67
156 151 57
150 144 58
157 151 67
160 154 63
160 153 72
156 149 68
155 149 65
166 159 77
160 154 73
157 149 75
156 149 64
156 150 59
156 150 66
151 145 60
162 154 74
158 151 65
152 146 62
157 151 66
157 151 65
150 144 59
149 143 59
152 145 62
155 148 66
158 152 59
147 142 49
156 150 62
154 148 58
152 145 62
148 143 56
145 141 51
147 141 56
150 144 65
151 146 61
145 139 58
141 135 58
145 139 52
144 138 54
148 142 66
152 146 62
144 139 48
138 133 53
145 139 57
139 134 42
138 133 49
139 134 57
134 130 42
135 130 48
133 131 49
139 139 47
133 133 41
139 143 41
139 141 44
153 162 34
151 159 32
149 161 25
157 166 34
161 178 19
154 170 22
158 173 19
163 180 11
165 182 0
171 189 0
167 187 0
168 188 0
169 189 0
168 187 0
169 191 0
169 189 0
170 190 0
170 191 0
170 189 0
175 198 0
171 194 0
169 192 0
173 196 0
170 194 0
172 196 0
168 192 0
172 194 36
171 195 0
172 195 0
170 195 0
172 196 25
172 196 0
172 196 36
172 195 36
172 196 44
172 195 51
172 196 25
169 192 36
176 199 67
169 192 25
173 196 44
170 193 36
171 195 25
172 194 51
175 197 67
173 196 44
175 198 51
169 192 44
171 194 36
173 196 44
172 195 44
166 189 36
170 193 51
173 196 36
172 195 51
171 194 44
171 194 36
175 198 51
175 198 44
173 196 51
171 193 25
174 197 57
173 196 36
171 194 25
169 192 44
171 194 51
172 195 57
169 193 51
171 195 25
172 194 57
174 197 36
171 194 36
172 196 36
171 195 36
172 195 36
170 193 44
168 191 0
172 195 25
172 194 51
169 192 25
167 190 36
170 194 36
167 190 25
171 193 36
168 191 25
166 189 0
169 192 0
163 186 0
168 192 0
169 192 0
169 192 0
169 193 25
169 193 0
169 192 0
168 192 0
169 192 0
165 188 0
172 195 0
166 189 0
166 189 0
167 190 0
168 192 0
160 182 40
137 162 74
93 122 133
60 96 150
62 98 157
62 98 161
62 98 160
61 97 158
61 97 161
61 97 159
63 99 165
62 97 159
60 96 156
62 99 166
61 97 160
61 97 161
61 97 157
61 97 159
61 98 169
62 98 163
61 98 166
62 98 160
61 97 162
61 98 167
62 99 168
62 98 167
62 98 167
62 99 169
61 97 162
62 99 172
63 99 175
62 99 169
61 98 167
61 98 169
62 99 172
62 99 171
61 98 169
62 98 169
62 98 171
62 98 171
62 98 169
61 98 162
62 98 170
61 98 168
62 99 171
62 99 172
61 98 167
63 100 171
62 99 169
62 99 172
62 99 172
62 98 164
62 99 169
63 100 178
62 99 173
63 99 173
62 99 173
63 99 172
62 98 166
62 98 168
62 98 171
61 98 169
61 98 171
61 98 174
62 99 172
62 98 166
62 99 176
62 98 170
62 98 170
62 98 170
62 98 167
62 98 169
62 99 170
62 98 170
62 98 165
62 99 168
62 98 162
62 99 175
63 99 170
62 99 168
62 98 167
61 97 163
63 100 172
62 99 171
62 98 168
63 99 173
62 99 175
62 99 174
62 99 169
62 98 168
62 99 173
62 98 167
62 99 167
62 98 168
62 99 174
62 99 171
63 99 172
63 99 171
62 99 171
62 99 169
62 99 173
61 97 166
63 99 172
62 98 164
62 98 162
62 98 166
62 99 171
62 99 171
61 98 167
63 99 172
62 98 167
62 98 170
62 98 161
62 99 167
62 98 166
63 99 173
62 99 166
62 98 165
62 98 167
63 100 173
62 99 168
63 99 174
63 99 168
62 98 167
62 98 166
61 97 163
62 99 170
62 98 162
62 99 169
62 99 169
62 99 166
61 97 164
63 99 170
62 98 169
62 98 163
62 98 163
62 99 164
62 98 164
62 99 168
63 99 170
61 98 165
62 99 169
63 99 167
63 99 169
61 97 159
63 100 173
62 98 167
61 97 163
63 99 167
62 98 161
62 98 164
62 98 166
61 97 157
62 98 166
62 98 163
63 99 167
62 98 166
62 97 155
62 98 163
61 97 160
61 97 153
61 97 160
60 96 151
62 98 160
62 97 163
63 99 166
61 97 154
61 96 152
61 96 156
60 95 147
60 95 154
61 95 152
61 97 161
60 95 146
60 94 152
60 94 149
60 94 149
60 94 145
61 96 149
60 89 138
62 80 93
61 72 72
72 77 53
68 72 30
57 61 29
79 80 24
63 66 22
75 76 22
80 83 30
81 83 39
73 76 26
77 79 31
96 96 36
93 92 29
89 90 32
98 99 41
94 95 45
101 101 46
93 94 38
91 93 38
107 106 48
94 95 39
111 109 45
111 110 46
110 109 42
119 118 55
116 113 56
125 123 55
119 118 50
120 117 53
125 123 52
126 124 48
123 121 54
123 122 55
129 127 51
128 126 55
125 123 62
134 131 57
149 144 66
131 128 55
134 131 58
143 138 65
146 141 67
139 136 61
138 133 62
141 138 59
156 150 70
142 137 61
149 145 66
141 137 63
147 142 63
149 144 63
150 144 63
150 145 68
149 144 64
160 154 66
144 140 52
152 146 64
160 153 73
154 148 67
149 144 63
154 148 64
154 149 61
160 154 67
154 149 59
149 143 65
152 147 60
155 150 60
156 149 67
154 148 69
154 148 65
156 150 63
161 154 67
163 156 72
156 150 63
148 143 56
157 151 64
155 150 59
156 150 62
153 148 66
156 151 64
145 140 60
154 148 63
150 145 60
153 147 64
155 148 69
158 152 66
152 146 62
147 141 56
153 147 65
152 147 57
142 138 52
156 150 65
150 144 61
147 142 52
148 142 57
142 138 51
145 139 60
138 133 54
152 145 68
145 140 56
148 142 56
136 130 52
144 139 54
144 138 52
146 140 58
132 127 51
143 137 58
143 137 56
145 138 51
139 135 51
142 138 44
135 132 36
136 135 39
134 134 36
141 141 45
147 151 47
132 137 25
147 153 42
152 162 25
156 168 30
151 164 25
153 167 11
160 176 22
165 181 16
169 188 0
167 185 11
164 183 0
169 189 0
169 189 0
167 184 0
171 192 0
167 186 0
169 189 0
168 187 0
173 193 0
170 191 0
170 193 0
172 196 0
171 195 0
171 195 0
169 192 0
173 197 0
173 197 0
170 193 25
173 196 36
172 195 25
172 195 36
172 196 25
171 194 51
174 196 44
172 196 0
172 196 44
173 195 36
172 196 25
169 192 36
174 196 44
166 190 36
170 194 51
172 196 25
171 195 25
175 197 44
172 194 67
173 196 57
175 198 62
170 193 44
171 195 44
169 192 36
171 194 36
176 199 76
171 194 51
169 192 0
172 195 57
173 195 72
171 194 57
170 193 44
173 196 51
171 195 36
173 196 76
174 197 51
174 197 72
174 196 62
171 194 44
172 195 36
167 191 36
173 195 57
167 189 36
171 195 25
171 194 51
170 193 44
173 194 57
171 193 44
173 196 57
170 193 36
170 192 36
172 195 44
168 191 44
171 195 51
175 197 84
172 195 36
175 198 44
169 192 36
166 189 36
171 194 0
170 193 36
170 193 36
173 196 51
170 193 25
164 186 25
168 192 25
168 192 0
170 193 0
167 191 0
170 193 0
165 187 0
167 191 0
169 192 0
166 190 0
167 190 0
171 194 0
159 183 36
131 155 102
84 114 141
61 96 154
61 97 152
61 96 156
61 97 155
61 97 155
62 98 159
62 98 162
62 98 166
61 98 162
61 98 158
62 98 167
61 97 155
60 97 156
60 96 162
60 96 155
61 97 161
62 98 163
62 98 162
61 97 161
61 98 166
63 99 169
62 98 166
62 98 171
61 97 162
61 98 164
61 97 162
62 98 169
62 98 167
62 98 169
61 98 164
62 99 171
62 98 169
61 97 165
61 98 168
61 98 170
62 98 170
62 98 166
61 98 166
63 99 171
62 98 162
62 99 174
62 99 174
62 98 169
61 98 166
61 98 171
62 98 170
63 99 172
62 99 177
62 98 167
61 98 165
61 97 167
61 97 169
63 99 177
63 99 173
62 99 174
62 99 170
62 99 172
62 99 174
62 98 170
63 99 174
62 99 175
62 99 175
61 98 166
61 98 170
63 99 175
62 99 170
63 100 176
62 98 166
61 98 167
62 99 168
62 98 167
62 99 170
62 99 170
63 99 173
63 100 179
63 99 176
62 99 168
62 99 173
63 99 172
62 99 173
61 98 168
63 99 170
62 98 166
62 98 170
62 99 172
62 98 169
62 99 166
62 98 169
62 98 171
62 99 167
62 99 172
62 99 170
62 99 171
61 97 159
62 98 167
63 99 171
63 99 176
62 98 165
63 99 171
62 99 171
62 98 166
62 99 169
61 98 166
63 99 171
62 99 175
62 99 168
61 98 166
62 99 168
63 99 169
62 98 169
62 98 161
62 99 164
62 98 164
62 98 168
62 98 164
62 98 162
61 98 164
62 98 164
62 99 170
63 99 168
62 98 157
63 99 174
62 99 170
62 98 162
62 99 166
62 98 165
61 98 171
62 98 164
62 99 168
62 99 171
62 99 169
63 99 168
62 99 171
62 98 163
62 99 169
62 98 163
62 98 161
63 99 163
62 98 165
62 98 163
62 98 163
62 98 163
62 99 165
62 98 165
62 98 165
62 98 164
61 98 163
63 99 163
62 99 163
61 97 163
62 98 162
62 98 162
62 98 164
62 98 167
61 97 155
63 99 167
62 98 160
62 99 167
62 97 160
62 98 161
61 96 154
62 98 165
61 96 156
62 97 156
61 97 160
62 98 161
62 97 159
60 96 149
61 96 152
60 94 147
60 94 149
59 93 141
60 93 145
61 97 154
60 93 147
60 93 142
59 91 138
62 83 112
64 75 77
75 79 42
59 64 25
79 79 23
87 87 21
68 69 26
81 82 27
77 79 22
81 83 25
76 79 32
84 85 33
93 94 39
84 85 29
92 93 38
99 99 45
92 91 37
103 103 35
103 103 44
101 101 42
103 102 44
109 109 46
115 114 44
111 111 45
109 108 44
105 105 51
117 116 47
117 117 48
120 119 46
118 117 47
125 123 49
120 118 48
129 126 55
132 129 49
133 130 50
131 128 58
133 129 63
135 131 61
134 131 53
134 130 56
145 141 64
140 136 58
142 138 63
141 137 69
141 137 67
144 139 63
145 140 66
148 144 62
142 138 61
149 144 66
155 150 71
143 139 52
152 147 69
142 138 59
143 138 59
150 145 59
145 141 61
155 150 63
146 141 56
153 148 63
157 150 67
155 151 60
151 147 53
151 146 64
159 153 68
162 155 74
153 147 64
156 150 68
156 150 60
157 150 65
153 147 62
161 154 66
153 148 62
148 141 64
152 147 63
159 153 64
151 145 54
154 148 63
154 149 56
148 141 62
157 151 62
159 153 62
154 149 63
157 152 58
148 142 59
155 149 64
151 145 61
156 150 54
148 143 57
151 145 60
148 142 61
151 145 56
148 142 60
146 141 51
158 151 61
153 147 62
147 142 52
150 145 56
152 145 64
142 136 56
144 139 54
137 132 44
138 132 52
142 136 56
145 140 51
142 138 57
135 130 53
143 136 53
132 127 47
131 125 51
144 138 48
139 134 56
138 137 45
137 137 45
135 137 25
140 142 44
141 148 30
148 157 32
152 159 36
149 157 30
156 167 34
153 167 0
157 172 0
161 176 32
157 173 11
169 189 11
168 188 11
164 183 0
171 191 0
168 189 0
170 191 0
170 188 0
170 190 0
171 191 0
165 184 0
169 189 0
166 186 0
169 192 0
174 196 25
169 193 0
170 194 0
171 196 0
171 195 25
172 195 25
170 194 25
173 196 0
174 198 44
171 194 51
170 193 25
172 195 44
173 196 44
173 195 25
173 197 57
175 197 62
172 195 25
173 196 25
169 191 36
174 196 57
172 195 44
172 196 36
173 196 51
173 196 51
172 195 44
168 190 44
174 197 36
172 195 62
169 193 36
174 196 57
171 195 62
172 194 51
176 199 57
168 192 44
173 195 67
172 194 44
171 193 44
174 197 67
172 195 57
172 195 57
175 198 57
176 198 67
175 198 76
173 197 57
171 193 44
171 193 57
174 196 51
171 194 67
171 194 72
170 192 51
173 195 72
177 200 67
175 197 67
172 194 25
169 192 36
168 189 57
173 196 44
169 192 25
170 192 62
174 197 51
168 191 44
169 192 51
170 194 36
173 196 25
171 194 67
168 192 25
166 189 44
170 192 36
174 196 36
171 193 57
169 192 25
171 194 36
166 189 25
170 192 25
170 192 0
172 195 0
162 185 0
163 187 0
167 191 0
169 191 0
166 190 0
165 188 18
161 185 54
121 147 107
94 122 135
61 96 149
62 98 159
61 97 155
61 97 158
62 98 159
61 96 153
61 97 161
62 98 164
61 97 157
61 97 161
62 98 163
62 98 161
62 98 160
61 98 160
62 98 164
62 98 164
62 98 169
62 98 169
60 96 151
61 97 167
62 98 167
62 98 162
63 99 173
61 97 160
62 99 173
61 97 161
61 98 164
62 98 167
61 98 171
62 98 169
61 98 169
61 97 158
62 98 165
62 98 166
62 99 170
62 99 171
62 98 167
61 98 165
62 98 167
61 98 169
62 98 171
63 99 173
61 98 165
61 97 163
62 98 165
62 98 170
62 98 168
61 98 161
62 99 173
62 99 170
63 99 167
62 99 173
62 99 173
63 100 177
62 99 167
61 97 164
61 98 165
62 99 172
62 98 169
62 98 169
62 98 167
62 98 168
62 98 167
62 99 173
62 99 170
61 98 170
63 99 173
62 98 168
63 99 173
63 99 172
62 98 165
63 99 174
61 98 163
63 100 174
62 98 169
63 99 170
62 99 173
62 99 171
62 98 171
62 98 161
62 98 171
62 99 172
62 98 166
62 98 169
62 99 171
61 98 169
62 99 170
62 98 168
61 98 167
60 97 163
61 97 160
63 99 170
61 98 163
63 99 173
62 98 169
61 98 167
62 99 172
63 99 174
62 99 168
61 97 169
62 99 168
62 99 169
62 98 166
62 99 170
61 98 164
62 99 171
63 100 171
63 99 171
62 99 170
62 98 168
61 97 163
62 98 163
61 97 157
63 99 166
62 98 164
62 99 168
62 99 170
62 98 162
61 97 161
63 99 168
63 99 168
63 99 169
62 99 170
62 98 166
62 99 171
63 99 167
61 97 157
62 98 165
63 99 169
62 99 167
62 98 164
62 99 165
62 98 163
62 99 165
62 98 164
61 97 156
62 99 165
62 98 165
62 98 155
62 98 164
61 97 162
62 98 161
63 99 162
62 99 169
62 98 163
61 97 162
61 98 164
62 98 162
61 97 159
62 98 162
61 97 160
63 99 163
63 99 167
62 98 161
62 98 161
61 97 155
63 99 164
62 98 161
61 97 155
61 97 158
62 98 154
61 97 160
62 98 161
62 97 158
61 96 155
62 97 164
62 97 157
61 97 155
61 96 154
61 96 155
61 96 154
61 96 151
60 94 148
61 95 152
59 93 138
60 93 144
57 87 132
66 85 107
63 76 78
82 89 56
72 74 23
75 76 19
82 83 28
82 82 17
79 79 25
72 73 18
88 88 24
82 83 32
91 92 26
99 97 38
101 100 34
92 92 36
85 85 30
100 100 37
96 96 38
99 99 37
99 100 39
108 108 45
111 109 35
103 103 44
111 110 43
111 110 52
115 114 42
117 116 57
124 123 49
128 125 52
130 127 59
134 130 54
124 120 57
120 119 45
128 125 48
135 132 61
138 133 55
132 129 57
133 130 57
126 124 52
142 138 63
140 136 55
135 131 50
144 139 57
151 145 64
145 140 60
141 138 58
143 139 60
143 139 61
156 150 75
146 141 72
142 138 54
148 142 64
143 138 63
154 148 66
145 140 61
145 140 56
154 149 67
150 144 68
148 143 56
152 147 64
151 146 65
156 150 61
147 143 60
151 146 58
153 147 69
151 145 60
160 153 72
153 148 62
154 148 66
159 153 71
156 149 62
153 147 69
146 141 57
152 147 57
156 150 62
163 156 74
154 148 60
149 142 64
158 152 64
156 150 59
154 147 56
153 146 60
153 147 58
153 147 60
154 148 69
147 143 52
153 147 59
156 149 67
150 144 52
149 143 53
142 136 59
149 142 69
145 140 58
140 136 54
152 146 61
152 146 61
140 134 54
149 145 56
149 143 61
144 138 56
143 138 52
137 133 58
138 133 51
132 127 49
131 126 51
137 132 48
140 135 42
133 128 52
139 133 42
127 122 47
130 125 42
143 138 52
129 128 36
142 146 32
148 149 41
144 148 39
153 159 36
142 150 30
148 159 22
157 171 22
159 171 25
152 167 11
159 174 25
161 178 19
165 183 11
165 183 0
167 187 0
171 189 0
168 188 0
169 189 0
168 187 0
167 187 0
171 192 0
170 192 0
171 190 0
166 186 0
164 184 0
174 197 0
173 197 25
174 197 25
172 195 36
172 195 25
172 195 0
173 196 36
171 194 51
174 196 57
171 195 25
174 197 44
175 198 36
171 194 44
175 198 51
174 197 44
171 194 51
170 193 51
175 198 51
172 195 44
176 198 67
171 194 57
173 195 25
173 196 51
174 197 57
173 196 57
171 195 36
175 198 62
177 198 67
170 194 44
173 196 57
175 198 62
172 195 72
175 197 67
178 200 80
172 195 57
172 194 67
172 195 57
176 198 80
171 194 57
170 193 57
171 194 67
174 196 57
169 192 36
172 196 62
174 197 62
172 194 84
175 197 67
173 196 57
174 197 72
172 194 67
171 194 57
170 193 62
171 194 36
174 196 36
167 191 36
176 198 72
171 194 44
172 194 44
169 191 57
175 197 51
173 196 51
173 196 57
171 193 62
166 189 36
169 191 44
169 192 36
171 194 36
169 192 62
172 194 51
169 192 25
167 191 25
170 193 36
167 190 36
170 194 0
171 192 36
164 187 0
169 192 25
162 185 0
167 191 25
169 192 0
168 191 0
165 188 0
166 190 25
157 181 54
119 144 117
76 107 143
62 98 154
62 97 149
61 97 152
62 97 156
61 97 155
61 97 158
61 97 155
62 98 162
61 97 156
63 99 166
61 97 156
63 99 166
61 97 154
61 97 159
62 98 156
62 98 163
62 98 167
62 98 168
61 97 163
61 97 165
61 98 161
62 98 163
62 99 172
62 98 165
61 97 168
61 98 165
62 99 170
62 98 169
61 97 158
62 99 171
62 98 162
61 97 165
61 98 167
62 98 164
62 98 168
62 98 166
61 98 166
61 98 170
61 98 171
61 98 169
62 99 173
62 99 172
63 99 173
62 98 163
62 99 164
62 99 173
62 98 168
60 97 164
62 98 167
60 96 163
62 99 173
61 97 170
62 98 165
61 98 166
62 98 172
62 98 168
62 98 168
62 98 166
61 98 166
63 99 174
61 98 161
62 98 168
63 99 167
62 98 169
62 98 168
62 99 170
63 99 175
61 97 162
61 97 162
63 99 172
62 99 170
62 99 170
61 97 161
62 99 169
62 98 173
62 98 170
62 99 171
62 98 171
63 99 168
63 99 171
62 99 169
62 98 170
62 99 168
62 99 169
62 99 167
62 98 170
62 99 173
61 98 162
61 98 165
62 99 172
62 99 173
62 99 170
62 99 168
62 99 167
62 98 166
62 99 168
62 98 167
61 97 161
61 98 168
62 98 164
61 98 166
62 98 169
62 99 169
61 98 165
62 99 170
61 98 164
62 99 170
62 99 169
62 98 165
62 98 166
62 98 163
62 99 166
62 98 173
62 98 163
62 99 168
62 98 168
62 99 168
62 98 165
63 99 169
61 97 157
62 98 162
61 97 159
62 99 167
62 99 170
63 99 172
62 98 168
62 98 165
62 98 165
62 98 163
62 98 166
62 98 163
61 97 162
62 99 168
62 99 167
61 98 159
63 99 166
63 99 167
61 98 164
62 98 164
62 99 167
62 99 168
62 98 168
61 97 158
62 98 160
62 98 163
63 99 168
61 98 161
62 98 160
62 99 170
61 97 155
61 97 154
61 97 158
63 99 169
62 98 161
62 98 159
62 98 162
61 97 159
62 98 166
62 98 159
61 97 154
61 97 153
62 98 164
62 98 160
62 97 161
61 97 154
62 97 154
60 95 151
61 96 152
60 95 144
61 96 153
61 97 153
61 96 153
60 95 153
61 96 149
61 95 145
61 95 147
60 91 137
63 85 111
66 82 81
72 76 43
70 72 22
73 75 25
70 72 22
72 74 18
78 78 31
76 79 31
86 87 20
84 85 32
94 94 38
83 85 30
86 88 32
86 88 32
99 99 33
105 104 45
106 105 38
92 93 30
114 112 39
113 112 47
102 103 42
113 113 48
108 107 46
103 102 40
115 114 46
119 118 50
113 111 49
123 121 51
119 117 47
120 117 44
118 116 50
121 119 49
122 121 52
126 124 51
121 119 46
135 131 58
129 126 52
124 122 57
142 137 64
136 132 52
141 137 56
141 137 55
146 140 60
145 139 65
138 134 61
147 143 52
143 138 57
150 144 61
157 151 68
149 144 58
147 142 64
142 137 53
147 142 59
141 137 54
136 131 46
146 142 56
153 147 65
153 148 62
146 141 62
151 145 61
151 146 59
156 151 60
155 148 66
150 144 57
147 142 49
153 148 60
154 149 61
150 146 60
153 147 58
157 151 59
155 148 61
152 146 62
150 144 58
155 148 68
148 143 63
161 154 66
146 142 56
159 153 66
155 149 61
149 143 61
146 141 59
148 142 60
153 147 64
153 147 56
144 139 53
149 143 64
154 147 59
152 146 58
150 144 67
150 146 56
150 144 57
152 144 63
144 138 54
149 144 64
145 140 51
151 143 67
141 137 51
137 132 48
143 137 57
138 133 48
139 133 53
143 136 61
136 131 37
128 123 49
141 135 52
138 133 52
137 131 51
140 135 49
134 131 45
129 128 42
128 126 36
130 130 37
135 138 36
134 139 36
140 148 30
148 156 30
146 155 25
150 162 22
159 171 28
156 168 28
161 177 19
157 174 16
162 179 16
168 186 16
168 186 0
169 187 0
168 188 0
170 191 0
173 194 0
169 188 0
169 187 0
170 191 0
170 190 0
170 191 0
172 191 0
172 192 0
172 195 36
174 197 36
175 197 36
171 195 36
170 195 36
173 196 36
168 191 25
173 196 51
172 195 36
173 196 44
171 194 51
173 196 44
176 199 67
174 197 36
175 198 67
172 196 44
175 198 51
172 194 44
174 197 51
174 197 44
169 192 36
175 197 57
178 200 92
175 198 51
176 198 67
174 196 62
176 199 84
172 195 51
175 197 67
172 195 57
176 199 67
174 197 62
171 193 67
175 197 76
174 196 57
176 199 76
175 197 72
171 193 62
177 199 84
173 195 80
172 195 76
177 199 76
175 197 62
175 198 80
173 196 51
174 197 72
179 201 88
174 197 72
178 200 95
176 199 62
174 197 67
171 193 62
175 196 92
171 193 51
173 196 51
174 197 67
172 194 44
171 194 57
173 196 57
170 194 51
172 194 67
173 195 76
169 192 36
171 194 57
170 194 44
172 195 51
167 188 51
170 193 51
168 191 57
170 193 57
170 193 36
172 196 36
168 191 36
171 193 44
171 193 44
168 191 36
170 192 36
164 187 25
168 190 25
166 190 0
167 190 0
165 189 40
166 189 0
148 171 65
124 149 108
70 102 143
61 96 152
60 96 151
63 98 151
62 98 161
61 97 160
61 97 156
62 98 159
62 97 159
62 98 160
62 98 160
62 98 163
62 98 160
61 97 160
61 98 160
61 97 157
61 97 162
62 98 165
62 98 166
62 99 165
61 98 166
60 96 161
61 97 158
62 98 170
61 98 167
62 99 171
62 98 165
61 97 162
62 99 171
62 98 170
62 98 166
62 99 172
62 98 170
61 98 167
63 99 168
62 98 167
62 98 168
63 99 168
62 99 168
62 99 174
61 97 163
62 98 169
62 99 170
62 99 167
62 98 167
62 99 173
61 98 164
62 98 170
62 98 167
62 99 172
62 98 171
62 98 170
62 99 175
62 99 172
61 98 167
62 98 166
62 98 168
62 98 166
62 99 167
62 98 166
62 99 170
62 98 164
62 98 173
62 99 170
62 98 168
62 98 167
62 98 171
62 99 173
61 98 165
62 98 166
62 98 169
62 98 167
61 98 170
62 98 169
62 99 174
62 99 175
62 98 166
62 98 165
62 98 167
63 99 173
62 98 167
63 100 178
62 99 169
62 99 170
62 99 169
61 97 162
62 99 172
62 99 170
62 98 168
62 98 164
62 99 170
61 98 169
62 98 167
62 98 166
62 98 168
62 98 165
61 97 160
63 99 171
61 98 165
61 98 167
61 98 167
63 100 172
62 98 168
62 99 172
62 98 170
61 97 162
62 98 167
62 98 167
62 99 168
62 99 165
62 99 170
62 98 169
63 99 166
62 97 158
62 98 168
62 98 167
62 98 170
62 99 168
62 98 166
62 99 170
62 99 164
62 98 159
63 99 166
63 99 173
61 98 163
62 98 166
62 99 168
61 97 159
63 99 168
62 98 164
61 98 161
61 97 163
62 98 159
62 98 165
62 98 159
62 99 168
62 98 164
62 99 164
62 98 163
62 98 168
62 99 167
62 99 169
62 98 164
62 98 165
62 98 160
61 97 161
62 98 167
62 99 167
61 97 156
61 98 162
62 98 164
61 97 161
62 98 165
62 98 159
61 96 148
62 98 167
62 98 161
62 98 161
62 98 164
62 98 160
60 96 156
60 96 156
62 97 165
61 96 160
62 98 159
61 97 155
60 95 142
63 98 164
62 98 160
61 96 155
61 96 152
61 96 146
61 96 154
61 95 153
61 95 149
60 94 139
60 94 146
58 91 133
66 86 107
70 79 66
60 67 55
61 64 26
78 78 21
71 74 16
66 70 21
66 69 23
86 85 26
89 89 25
81 84 28
103 101 36
92 92 37
88 89 29
93 94 35
82 85 35
103 104 34
94 96 38
102 102 39
102 102 44
114 110 33
99 101 40
102 102 34
103 103 38
107 106 44
97 98 41
117 114 44
116 115 47
109 106 44
127 123 51
118 117 45
114 112 49
126 123 50
126 124 51
127 124 54
128 125 51
135 131 55
136 132 61
134 130 57
129 127 50
133 128 57
133 129 60
137 134 53
145 140 59
136 131 54
139 136 57
141 137 60
142 137 55
140 136 56
144 139 65
149 143 61
148 142 61
144 139 64
146 141 57
148 143 58
151 145 61
149 143 56
159 153 67
153 147 62
150 144 61
140 136 56
151 146 60
145 139 58
143 140 51
147 141 60
151 145 65
154 149 58
150 144 65
144 139 53
151 145 63
147 142 52
153 147 58
154 149 62
155 149 57
147 142 54
151 146 58
153 147 52
164 157 74
151 145 59
157 150 64
149 144 58
154 148 62
153 147 64
153 147 51
153 146 62
155 149 65
149 142 62
150 144 63
155 147 65
148 142 58
150 144 61
143 137 51
139 134 52
145 139 57
150 144 51
140 134 56
141 136 51
142 136 53
141 136 51
144 138 48
135 131 52
138 132 56
145 138 47
141 134 59
137 131 57
141 135 56
128 123 34
126 121 36
142 137 44
131 129 37
130 128 32
139 139 36
144 145 36
140 141 42
137 143 36
149 157 25
142 150 25
151 160 30
149 160 22
155 168 19
153 165 16
163 179 22
160 179 16
158 174 0
165 183 11
166 184 0
170 191 0
163 181 0
171 190 0
169 188 0
167 188 0
170 191 0
167 186 0
173 194 0
169 189 0
170 189 0
169 188 0
174 197 36
174 197 51
173 196 36
175 198 44
172 195 36
171 195 0
173 197 36
171 195 44
174 197 51
173 196 67
175 197 51
170 194 25
174 197 51
176 199 76
174 197 44
172 195 44
170 194 57
170 193 44
174 197 51
175 198 80
175 198 72
174 197 72
173 196 44
174 198 76
176 198 84
177 200 80
178 200 92
175 197 80
177 200 72
171 194 72
177 199 108
175 197 84
173 196 76
174 196 57
176 199 84
174 196 72
177 199 80
178 200 88
180 201 108
177 199 80
173 194 62
174 196 80
171 194 76
178 200 95
174 196 80
179 200 99
172 195 67
177 199 92
174 195 72
175 197 76
178 201 84
176 199 72
172 194 62
172 195 62
173 196 76
179 201 80
178 199 92
173 195 67
176 199 84
172 195 57
173 196 62
175 197 62
171 194 62
179 200 76
174 196 67
171 193 62
178 200 67
173 195 62
174 197 51
170 193 44
166 189 51
169 192 44
171 194 57
171 194 51
165 188 25
169 192 44
170 192 51
172 194 57
167 190 57
171 194 25
166 190 47
161 185 40
167 189 57
150 173 72
120 145 111
81 111 140
62 97 147
63 98 149
65 100 155
66 100 150
61 97 156
62 97 154
61 97 160
61 97 158
61 97 154
62 98 166
62 98 162
61 97 157
61 97 155
62 98 161
61 97 159
62 98 162
61 96 160
61 97 164
61 98 162
62 98 167
62 98 165
61 97 163
61 97 164
62 99 172
62 98 169
62 99 168
62 98 168
61 97 162
62 98 164
61 98 168
62 99 174
62 98 163
61 98 167
62 98 168
62 98 169
62 98 170
61 97 166
62 99 169
61 98 169
62 98 167
62 99 169
62 99 169
62 98 162
62 99 171
62 98 171
61 98 163
61 98 164
62 99 168
62 98 166
62 99 169
61 98 170
62 99 171
61 98 162
62 99 171
62 99 172
62 98 164
62 98 171
63 99 172
61 98 171
62 99 173
62 99 171
62 99 169
62 98 170
62 99 171
62 99 172
62 99 167
62 98 163
62 99 171
61 98 169
62 98 167
62 98 166
62 99 172
62 99 176
61 97 167
62 98 169
62 98 167
63 99 171
62 99 173
62 98 167
62 98 166
63 99 172
63 99 174
62 98 166
62 99 171
61 98 169
63 99 174
61 97 165
62 99 170
63 99 176
62 98 163
63 99 171
62 99 172
62 99 169
63 99 166
61 98 168
63 100 173
63 99 172
62 98 165
62 99 171
62 98 166
62 98 170
63 99 166
61 98 164
62 98 170
62 99 170
62 98 160
61 97 159
62 98 163
62 99 168
62 98 165
63 99 166
62 98 163
62 98 166
62 98 170
62 98 166
63 99 168
61 98 166
62 99 168
63 99 167
62 98 166
62 98 164
62 98 165
61 97 155
62 98 165
62 98 164
62 99 173
62 98 164
62 98 165
63 99 168
62 98 162
62 98 164
61 97 163
63 99 162
62 98 169
61 98 163
62 98 160
62 98 165
62 98 166
61 98 165
62 98 160
62 98 160
62 98 163
62 99 170
62 99 166
62 98 161
62 98 162
61 97 159
61 97 163
62 99 166
62 98 161
62 98 162
61 98 165
62 98 165
61 97 164
62 97 160
62 97 159
62 98 164
61 96 159
62 98 161
61 97 154
61 97 156
62 97 153
61 97 153
61 96 150
61 96 154
61 96 149
62 97 154
61 97 158
61 96 151
59 93 141
61 96 154
59 93 142
61 95 149
61 95 142
62 97 154
60 94 141
59 90 137
61 86 122
72 85 95
60 67 50
76 77 30
69 70 20
67 68 19
77 76 24
72 73 17
81 82 23
96 95 26
84 84 28
85 86 34
85 86 32
89 90 25
105 103 36
93 94 30
86 88 31
97 96 40
100 97 30
105 104 34
111 110 46
102 101 37
101 102 46
105 104 38
96 95 36
116 114 49
115 114 38
118 116 46
122 119 48
110 111 34
117 115 51
122 119 58
122 119 46
120 117 40
130 127 55
127 125 42
129 126 42
141 136 55
139 134 55
131 126 54
133 130 61
133 130 56
133 130 51
132 129 50
136 131 55
134 131 56
147 141 55
141 135 58
140 136 57
145 140 63
150 144 63
142 138 57
137 133 51
134 130 46
153 145 68
142 138 53
146 141 64
145 141 52
145 141 60
146 141 51
144 139 55
152 146 60
149 143 55
151 144 64
148 142 57
152 146 54
146 141 50
154 149 58
156 150 64
151 145 60
156 150 58
155 148 59
159 152 64
149 143 58
149 143 58
139 135 48
148 142 62
148 142 56
152 146 57
155 148 59
150 144 56
154 147 66
150 144 62
149 145 54
146 140 58
145 140 52
144 138 54
146 141 54
142 136 54
136 132 48
153 147 62
138 131 60
138 132 49
142 138 49
142 137 45
142 136 42
135 130 39
148 143 48
142 136 49
140 133 54
135 131 45
134 129 49
136 131 47
142 136 37
140 134 49
132 128 45
146 141 54
134 129 39
140 138 44
125 124 39
139 138 42
138 137 49
138 139 37
139 141 39
149 153 28
149 158 37
148 157 25
142 152 19
148 158 11
157 169 25
155 170 11
159 175 11
161 177 16
162 180 0
168 186 0
169 189 0
169 189 0
167 187 0
168 186 0
165 183 0
169 189 0
168 187 0
168 186 0
168 187 0
166 186 0
163 182 0
166 185 0
170 194 25
173 195 57
174 197 57
174 197 62
174 196 62
173 196 51
173 197 51
175 198 51
174 197 62
174 197 44
170 194 36
174 196 57
172 195 57
178 200 76
175 196 67
175 198 57
173 196 62
177 199 72
177 199 67
175 197 80
175 198 80
178 199 84
176 198 80
175 198 88
172 196 62
180 201 105
175 197 80
178 201 80
181 202 105
178 199 99
170 192 76
176 197 80
184 205 117
178 200 84
181 202 105
174 196 88
180 202 108
178 200 84
176 198 99
182 203 108
178 200 76
178 199 92
182 203 111
180 201 88
175 197 92
175 196 92
177 199 99
173 194 72
178 200 76
176 198 99
175 197 92
177 198 99
177 199 88
175 197 80
177 199 84
176 199 92
174 195 72
176 198 80
176 197 99
170 193 62
176 199 72
172 194 72
173 195 80
174 195 84
170 193 72
171 193 72
171 195 51
170 193 36
168 192 51
169 191 62
170 192 51
173 197 44
171 193 51
171 194 51
169 192 36
172 196 51
166 189 36
169 190 36
172 195 36
162 185 0
169 191 40
162 185 47
163 185 47
148 172 84
115 141 113
80 112 148
67 100 146
61 96 148
61 96 155
63 98 155
69 103 155
69 103 161
61 97 157
61 97 158
61 98 163
63 98 151
61 97 155
61 98 164
62 98 164
61 97 159
61 96 158
62 98 160
61 97 159
61 97 163
61 97 159
61 98 163
62 98 165
61 98 165
61 98 166
62 98 164
62 98 164
61 97 167
61 98 163
60 96 158
61 97 160
61 97 164
62 98 166
60 96 160
62 99 169
62 98 166
61 97 161
63 99 172
61 97 162
61 98 166
62 98 167
61 98 170
62 98 163
63 99 170
61 97 164
61 97 163
61 97 167
61 97 165
61 98 166
62 99 169
61 98 172
61 98 170
61 98 169
62 98 166
62 98 172
62 98 168
60 96 157
62 99 169
62 98 167
62 99 170
62 98 170
62 98 166
62 98 165
62 99 171
62 98 166
62 99 171
62 98 168
62 99 173
62 98 169
63 100 175
62 98 164
62 98 168
62 98 167
62 98 166
62 99 173
62 98 166
63 99 168
62 99 167
62 98 168
63 99 173
62 98 162
62 98 171
63 99 171
63 99 170
61 98 166
62 98 166
62 98 169
62 99 170
62 98 168
62 98 164
62 99 174
62 98 168
61 97 158
62 98 163
62 98 163
62 99 172
62 99 170
62 99 169
62 99 169
62 98 168
61 98 168
62 98 166
63 99 170
63 99 171
62 99 169
62 99 172
63 99 168
62 98 163
62 98 165
62 98 162
62 98 161
62 98 170
63 99 171
62 99 168
62 98 163
62 98 165
63 99 166
61 98 170
62 99 167
61 98 161
62 99 166
62 98 162
62 98 163
62 99 168
62 98 167
62 98 161
61 98 161
63 99 167
62 98 164
62 98 165
62 98 167
62 98 164
61 98 161
62 98 163
62 98 158
61 97 161
62 98 162
62 98 160
62 98 159
62 98 164
62 98 163
62 98 164
62 98 163
62 98 166
62 98 163
62 98 163
62 98 164
61 97 154
62 98 160
61 97 159
62 97 157
62 99 166
61 97 160
62 98 157
63 98 161
62 98 157
62 98 156
62 98 167
61 97 156
62 98 156
62 98 159
62 98 159
61 97 154
61 96 153
61 97 159
62 98 162
62 97 156
60 94 149
61 96 154
61 96 156
61 96 155
62 97 159
61 96 155
62 96 152
60 94 142
60 93 140
61 96 154
59 93 141
60 92 141
61 86 114
70 82 87
72 76 52
78 78 14
77 76 15
71 71 16
84 83 27
81 82 25
80 81 28
84 87 17
90 90 20
88 87 21
81 80 28
94 95 29
87 89 26
98 97 37
90 91 26
92 93 32
106 106 30
96 95 39
98 99 38
109 107 35
110 106 42
116 114 48
115 112 39
112 110 38
112 111 45
115 113 46
112 110 42
118 115 50
111 109 29
127 123 44
117 115 45
125 123 43
125 122 46
127 123 48
126 122 55
130 127 56
118 116 45
135 131 50
133 129 46
134 131 55
138 134 51
139 135 58
140 136 61
138 134 57
137 134 56
133 130 52
137 134 52
141 138 60
142 137 54
141 136 57
147 143 63
147 141 56
150 144 56
147 142 54
148 142 56
146 142 60
142 137 57
143 138 50
153 147 60
151 146 61
152 146 61
156 149 68
155 149 63
150 145 62
153 146 61
145 138 62
151 146 61
143 138 60
154 148 58
151 145 54
149 145 54
145 140 54
151 145 59
150 144 62
151 146 60
146 142 54
155 148 62
141 136 52
146 140 53
147 141 51
152 146 54
143 139 51
145 138 52
141 136 57
150 145 59
144 139 54
151 145 54
144 139 42
135 130 47
151 146 53
141 135 47
148 142 54
139 132 47
141 136 51
146 140 53
138 132 44
134 130 39
136 131 42
137 131 44
138 132 49
147 141 52
137 132 52
140 132 54
122 118 34
133 128 45
134 130 41
137 135 36
136 135 47
130 133 32
141 142 44
149 152 44
140 144 32
146 151 32
144 156 19
149 161 19
150 161 30
160 176 16
160 174 22
163 179 0
164 180 19
163 181 16
170 189 0
171 191 0
168 187 0
166 183 0
167 185 0
169 186 0
167 188 0
165 185 0
169 189 0
168 185 0
165 183 0
165 184 0
168 188 0
170 188 0
177 199 44
173 196 36
171 194 36
170 193 36
172 195 51
174 197 44
174 198 62
177 199 80
171 194 36
173 196 62
173 196 76
172 195 44
178 200 76
176 198 62
174 197 62
181 202 102
178 199 92
175 198 72
175 198 72
175 197 84
179 201 95
179 202 99
181 202 99
179 200 102
181 203 108
178 200 88
181 203 117
180 202 84
176 198 111
175 198 92
180 201 99
180 201 108
179 200 99
181 202 105
176 198 99
182 203 120
178 200 102
184 205 125
181 202 108
180 202 108
180 200 108
181 202 114
177 199 95
179 201 99
179 200 108
181 203 105
177 198 108
180 201 108
181 203 108
181 202 108
183 204 125
182 203 108
177 198 102
176 198 108
174 197 95
178 199 92
180 202 108
170 193 72
169 193 76
173 194 80
172 193 88
173 196 67
177 199 92
178 200 92
174 196 67
173 196 62
173 196 67
173 196 67
172 194 67
170 193 72
168 192 36
172 195 62
171 194 57
168 190 57
174 196 84
168 192 51
166 189 36
170 193 44
169 190 51
171 194 62
164 186 57
163 187 40
163 186 51
157 182 62
121 147 110
81 112 144
73 105 143
69 102 156
68 102 150
65 100 155
65 99 153
63 99 161
64 99 157
61 97 152
61 97 155
62 97 158
64 99 164
61 97 156
62 98 161
61 97 165
62 98 164
61 97 155
62 98 164
62 98 161
63 99 169
62 98 160
62 98 160
61 97 160
62 98 163
62 98 168
61 97 162
61 97 161
63 100 173
60 96 157
62 99 171
60 96 165
62 98 166
62 98 165
61 98 169
61 97 166
61 98 168
62 99 172
62 98 167
62 98 165
61 98 169
61 97 164
62 99 170
62 98 167
62 98 167
62 98 168
61 98 165
62 98 168
62 99 175
61 98 168
63 99 172
62 98 167
62 98 170
62 99 168
62 98 164
62 99 170
63 100 176
62 99 169
62 99 173
62 99 169
61 98 163
62 99 166
62 99 173
62 99 170
63 99 172
62 98 171
63 99 168
62 98 168
62 99 168
62 98 170
63 99 170
63 99 172
62 99 166
62 98 166
62 99 172
62 98 168
62 99 172
62 99 170
62 99 170
61 98 163
63 99 173
61 97 157
62 98 169
62 99 170
62 99 169
62 98 166
62 98 165
62 98 166
62 99 167
63 99 169
63 99 170
63 99 171
62 98 171
62 99 169
63 99 172
62 99 170
62 98 165
62 99 170
62 98 167
62 98 166
62 98 165
62 99 165
62 98 170
63 99 169
62 99 173
62 98 163
62 98 167
62 98 167
62 98 167
62 98 167
61 98 161
61 98 164
62 98 163
62 98 163
63 99 166
62 98 163
62 98 159
62 98 159
62 98 163
62 99 169
62 98 163
62 99 169
61 98 159
62 98 164
61 98 163
63 99 171
62 98 165
61 97 162
62 98 163
62 98 163
62 98 160
62 98 160
62 98 162
63 99 168
63 99 166
61 97 160
63 99 171
61 98 163
61 97 158
61 97 155
62 98 164
62 99 165
63 99 169
61 97 161
62 98 157
62 98 166
62 98 157
62 98 162
63 99 169
62 98 159
61 97 162
62 98 159
62 98 162
62 98 159
62 98 160
62 98 161
61 97 159
62 99 164
62 98 159
61 97 152
62 98 163
62 97 156
62 97 154
62 97 160
61 97 155
62 98 161
61 96 155
62 97 154
61 97 151
60 95 149
61 96 154
62 96 151
61 96 151
60 94 148
59 94 148
60 93 145
59 93 140
60 94 146
62 93 144
63 85 116
64 81 92
76 81 54
82 81 18
89 88 21
82 83 22
89 90 25
80 80 24
67 68 13
76 77 26
81 81 16
84 83 25
99 100 23
94 95 29
88 90 31
91 89 23
97 96 30
102 102 33
106 106 32
92 93 22
96 96 38
101 101 39
111 110 40
112 109 48
109 106 38
108 108 40
117 114 42
120 118 36
115 113 43
116 114 42
128 124 51
119 117 47
123 121 43
125 122 46
136 132 58
136 132 42
123 122 42
128 126 47
139 135 53
126 123 43
136 133 48
133 129 54
131 128 51
137 133 57
136 132 50
141 137 59
140 136 44
134 130 50
137 134 49
147 141 60
142 136 50
141 137 49
141 136 51
143 140 54
145 141 53
145 140 49
139 132 60
144 138 56
149 142 65
153 147 66
145 139 60
143 140 46
151 146 56
142 137 52
143 138 54
149 143 57
147 143 51
147 143 46
144 139 57
144 138 54
135 130 51
150 145 57
155 149 61
148 141 56
147 141 61
149 143 58
145 141 47
144 139 51
149 143 59
146 140 56
145 140 49
147 141 59
144 138 58
152 145 54
146 140 47
145 139 49
141 136 52
152 146 57
141 136 48
147 141 57
144 139 45
142 137 48
144 139 51
140 135 45
141 136 45
139 132 52
138 132 45
135 131 44
125 121 39
141 136 49
136 131 48
138 132 51
138 133 48
133 128 37
129 124 39
136 129 49
124 121 25
126 125 30
132 130 30
136 136 37
140 143 36
141 146 34
149 156 39
150 155 30
148 157 22
154 165 34
144 150 25
158 171 25
158 173 22
152 167 19
164 181 16
162 178 11
164 181 0
166 185 0
167 185 0
170 190 0
168 188 0
167 187 0
170 189 0
170 189 0
168 187 0
165 184 0
167 185 0
170 192 0
166 186 0
169 189 0
171 190 0
171 195 44
173 196 57
174 197 44
175 197 72
169 192 44
171 194 67
173 195 57
175 198 57
174 196 67
173 196 57
175 197 72
176 198 72
174 197 57
179 201 84
181 203 99
179 201 92
178 200 92
178 200 88
181 203 92
178 200 114
178 199 99
182 203 99
179 201 114
181 202 117
176 199 92
181 202 105
173 195 80
179 201 84
182 204 114
180 202 95
183 203 122
179 201 108
188 208 142
176 198 105
183 204 114
182 202 114
185 206 120
182 203 111
183 205 114
184 204 125
180 202 114
179 200 122
183 204 111
183 204 127
183 204 117
180 201 105
184 205 122
181 203 102
180 202 114
183 204 125
179 201 111
178 200 92
181 204 111
178 201 102
181 202 120
176 198 99
173 196 92
176 199 84
180 201 108
177 199 105
177 200 99
179 201 102
173 194 84
178 200 108
174 197 76
171 193 76
175 198 76
178 199 88
175 198 76
170 192 67
175 196 76
165 187 51
169 192 44
173 196 67
172 195 57
172 195 57
171 194 72
168 191 57
169 192 62
171 194 51
165 188 54
154 177 76
163 184 60
142 166 94
127 152 120
85 114 145
75 107 152
80 111 144
73 106 148
65 100 155
63 98 157
66 100 150
62 98 151
68 102 154
68 103 161
61 97 154
64 100 163
61 97 148
62 98 162
62 98 164
61 98 162
62 98 165
61 97 161
61 96 155
62 98 163
60 96 161
62 98 160
61 97 164
62 99 168
61 97 159
62 98 168
62 98 162
61 98 163
62 98 167
62 98 159
61 98 161
62 98 169
61 97 157
62 98 165
61 98 165
61 97 162
62 98 168
62 98 170
62 99 169
62 99 171
62 98 165
61 97 167
62 98 170
62 99 175
60 96 167
62 98 169
62 98 165
62 98 166
61 98 164
62 98 162
62 98 168
62 98 171
62 98 168
61 98 169
62 99 170
62 98 168
62 98 163
62 99 171
62 98 166
62 99 168
62 99 169
62 98 168
62 99 173
62 99 174
61 98 166
62 98 160
62 98 162
62 98 166
62 98 168
62 98 165
62 98 169
62 99 173
61 97 162
62 99 171
63 99 171
62 99 171
62 99 173
62 98 164
62 99 171
62 98 165
62 99 172
62 98 166
62 99 171
63 99 171
62 98 164
62 99 170
63 99 173
62 98 168
62 98 163
61 97 165
62 98 168
62 99 171
61 98 161
61 98 167
62 98 165
62 99 173
62 98 161
62 99 168
61 97 162
62 98 162
61 98 167
61 98 163
62 98 163
62 98 166
62 98 166
62 98 165
61 97 160
63 99 170
62 98 166
62 98 165
62 98 163
62 98 167
61 98 162
62 99 171
62 99 168
63 99 173
62 99 163
62 98 163
62 99 171
61 97 159
62 98 167
62 99 169
63 99 169
61 97 155
62 98 162
61 97 159
62 98 170
62 98 165
63 99 167
62 99 170
63 99 166
62 98 159
63 99 169
61 97 157
63 99 167
62 98 171
63 99 168
62 98 164
61 97 154
62 98 163
62 99 166
62 98 164
61 97 157
62 98 162
61 96 152
62 98 159
62 97 160
61 97 156
62 98 160
62 98 158
61 97 156
62 98 165
62 97 156
61 96 151
62 98 162
61 97 163
62 98 160
61 97 151
62 98 161
61 96 151
62 97 158
61 96 150
62 97 155
62 97 162
62 97 158
62 97 156
62 98 161
61 96 156
60 95 150
61 96 152
61 97 154
61 96 147
60 95 144
60 95 149
58 91 135
61 95 147
62 96 151
60 93 144
59 85 111
74 85 89
80 84 46
64 66 29
79 79 12
78 79 20
81 83 17
79 80 21
85 86 20
91 89 18
88 87 23
83 83 21
88 88 26
79 80 23
94 93 32
86 86 27
106 104 29
96 96 29
101 100 36
93 94 31
103 103 30
91 92 39
118 116 36
105 104 41
120 118 48
110 110 39
108 107 31
123 119 45
113 112 35
116 114 41
114 111 43
117 114 42
112 110 35
121 119 42
121 118 46
130 127 45
126 123 49
130 127 49
132 128 45
132 129 49
127 124 46
131 127 50
126 123 50
133 129 47
136 132 52
140 136 54
145 140 54
129 125 51
135 130 42
142 139 52
139 135 52
143 138 56
139 135 49
148 142 60
141 136 47
150 144 55
141 136 60
147 141 51
153 147 55
147 143 51
140 135 49
157 152 58
150 145 55
150 144 60
150 146 49
151 146 54
142 138 44
148 142 57
146 140 60
152 146 56
144 139 49
147 141 55
148 143 54
149 143 60
146 141 48
148 142 56
141 136 49
145 140 53
144 138 54
142 137 42
145 140 49
144 138 52
147 142 51
139 134 39
142 137 42
143 138 41
140 134 54
147 142 51
140 136 48
147 142 49
135 131 39
138 133 49
136 132 42
132 126 52
140 135 47
131 126 47
136 130 49
135 129 44
137 132 45
129 125 48
134 129 47
139 133 49
136 129 39
133 129 39
128 125 41
137 133 47
139 136 44
120 119 32
141 142 30
140 142 37
144 145 39
142 152 36
140 144 34
148 152 30
147 157 19
149 157 28
152 164 11
154 167 22
160 174 16
162 178 0
165 179 0
159 176 16
165 184 0
167 186 0
163 179 0
169 187 0
166 185 0
168 186 0
166 186 0
168 188 0
166 185 0
167 186 0
169 191 0
167 188 0
168 188 0
164 182 0
170 190 0
174 197 76
172 195 36
176 197 84
175 198 62
173 196 72
176 198 72
172 196 44
173 196 62
180 201 88
174 197 76
176 198 67
175 197 76
172 196 62
178 200 102
176 198 99
181 202 105
178 200 99
184 205 120
178 199 102
182 203 117
179 201 102
180 201 111
177 198 102
181 202 105
184 204 127
181 202 125
187 207 135
184 205 122
188 208 147
181 203 117
188 208 149
184 205 133
192 211 147
184 205 125
189 209 137
182 202 117
185 206 137
183 203 133
180 201 125
180 202 117
183 204 133
187 208 135
183 204 130
185 206 130
185 205 130
186 206 135
178 199 120
183 203 122
180 201 111
187 207 135
185 206 130
184 205 127
188 207 137
181 201 130
185 205 137
183 204 117
185 206 130
185 205 120
178 198 108
182 203 108
181 202 120
180 201 120
177 199 108
179 200 105
180 201 114
175 197 108
180 201 105
180 201 92
177 198 80
175 197 88
176 197 95
175 197 92
172 195 76
172 194 67
173 194 72
176 197 76
170 193 62
168 191 57
169 191 51
167 189 62
151 174 80
155 178 78
153 176 88
150 174 86
128 153 120
79 109 145
76 107 153
80 111 147
73 105 152
75 107 153
63 99 158
65 99 147
68 102 150
62 97 150
63 98 149
60 96 159
63 99 160
61 97 162
62 98 165
61 97 155
61 96 155
61 97 163
61 97 158
61 97 163
62 98 165
62 98 165
62 98 159
61 97 164
61 97 160
61 97 164
61 98 170
61 97 162
61 97 163
61 98 162
62 98 160
61 98 164
62 98 170
62 98 165
62 99 171
62 98 166
61 97 160
62 98 168
62 98 162
62 98 164
62 98 168
62 98 168
62 99 169
61 98 168
63 99 170
61 98 167
61 98 166
62 98 169
62 99 170
62 99 168
61 97 163
62 98 166
61 97 159
61 97 160
62 99 172
62 98 168
63 99 169
61 97 161
61 98 167
62 99 167
62 99 171
62 98 169
63 99 173
62 99 169
62 99 172
61 98 170
62 99 169
61 97 163
62 99 171
62 99 168
62 98 168
62 98 171
61 97 158
62 99 170
62 98 167
62 98 162
61 97 162
63 99 169
62 98 165
61 97 160
62 99 172
62 99 172
63 99 168
61 97 159
61 98 165
62 98 165
62 99 165
62 98 166
61 97 160
62 98 167
62 98 166
62 98 168
61 98 163
62 99 167
62 98 162
62 99 170
62 99 170
62 99 166
62 98 168
62 98 165
61 98 164
61 97 161
62 98 163
62 98 160
62 98 166
62 98 160
62 98 167
62 98 167
62 98 169
62 98 166
61 98 160
63 99 165
62 99 165
62 99 167
61 97 161
62 98 165
62 98 165
61 97 159
62 98 161
62 98 165
62 98 167
62 98 164
63 99 168
62 98 161
62 98 167
62 98 158
62 98 166
62 98 163
62 98 162
62 98 165
62 98 162
62 99 168
62 98 163
62 98 162
61 97 155
61 97 153
63 99 163
62 98 160
61 97 154
61 97 161
61 97 157
62 98 159
62 98 160
62 98 164
62 98 164
62 97 152
62 97 155
61 98 161
62 98 161
62 98 158
62 98 161
62 98 165
62 98 158
62 97 157
61 97 152
62 98 157
61 96 155
62 98 159
61 96 151
61 97 154
61 97 156
61 97 156
62 98 162
61 96 157
62 98 162
62 98 157
61 96 158
61 96 149
62 97 158
61 97 154
61 97 153
61 96 155
60 95 147
60 95 140
62 97 157
61 96 154
61 95 145
60 95 152
57 89 132
64 89 118
71 87 102
81 83 50
82 82 29
74 75 17
79 79 17
90 89 23
84 83 20
81 82 24
72 75 19
84 86 27
87 85 25
86 87 26
87 88 32
88 89 27
101 99 29
93 91 33
89 88 27
99 99 30
93 92 26
102 102 32
98 98 30
101 99 30
106 105 38
106 105 30
109 107 42
112 111 43
124 121 46
126 124 35
120 117 42
120 116 49
116 113 40
120 117 43
128 125 46
126 123 46
116 114 44
118 116 53
122 117 49
123 120 43
117 115 28
130 126 43
131 129 47
136 133 47
131 127 47
136 133 39
136 132 48
139 135 53
141 137 57
144 139 55
134 130 50
132 129 47
125 123 43
145 139 53
139 136 51
138 134 42
148 143 53
139 134 49
146 141 50
148 142 58
149 143 57
137 132 51
144 139 49
136 131 47
148 143 57
149 143 61
144 140 51
148 143 56
150 143 61
141 137 52
147 142 50
140 136 44
148 143 54
156 151 54
147 141 58
140 136 44
156 149 59
147 142 49
136 131 52
145 139 51
148 142 51
155 148 60
147 142 45
138 134 41
149 143 58
148 142 53
149 142 57
141 136 45
144 137 53
136 131 48
131 127 42
139 133 51
136 132 51
142 136 44
152 145 57
139 134 49
140 134 49
121 117 32
138 132 56
137 131 48
135 130 47
134 130 42
126 121 42
132 126 47
136 132 45
133 130 45
138 135 36
139 138 42
136 137 28
137 139 28
141 144 37
151 158 34
140 144 34
141 148 25
142 149 22
156 165 34
153 165 22
156 169 19
157 170 11
159 173 11
161 178 16
165 183 0
168 187 0
168 185 0
166 186 0
163 180 0
166 183 0
165 184 0
167 187 0
170 189 0
167 187 0
170 188 0
167 187 0
169 188 0
168 189 0
174 193 0
167 187 0
169 189 0
173 197 44
175 197 57
173 196 67
177 198 76
175 198 80
178 200 80
176 199 76
181 202 88
180 202 99
181 203 99
180 202 95
183 204 120
183 204 127
179 201 88
180 201 111
181 203 105
183 204 105
184 205 125
181 202 114
187 207 135
182 203 111
185 206 130
185 205 125
183 204 111
183 203 127
185 206 127
189 209 137
184 205 137
180 201 117
184 205 133
186 206 142
193 213 167
185 206 133
190 210 149
185 206 142
186 206 133
187 207 133
188 208 144
183 205 127
186 206 147
193 212 161
183 203 140
186 206 142
191 211 157
186 206 149
183 204 133
189 209 144
186 206 147
185 206 135
187 207 153
184 205 135
184 204 144
183 203 142
182 203 130
182 203 111
183 204 127
177 199 108
179 201 117
185 206 127
181 202 125
183 204 120
182 202 120
187 207 135
178 199 120
181 202 122
177 198 105
178 199 108
174 196 99
174 196 76
177 198 102
176 197 105
169 191 80
176 197 95
174 196 84
176 198 88
172 194 80
171 194 72
171 193 72
170 193 44
163 186 76
156 179 82
152 175 82
151 175 86
143 167 94
125 149 103
84 112 145
84 114 154
76 107 155
68 102 149
67 101 152
66 100 155
66 101 155
62 98 158
66 100 154
63 99 160
70 103 156
66 101 158
64 100 160
63 99 164
61 96 156
62 98 160
61 97 163
61 96 154
61 97 158
61 97 162
60 96 157
62 98 169
62 98 166
61 97 156
62 98 164
61 97 159
61 97 168
61 97 163
62 98 168
61 98 171
62 98 168
62 98 163
62 98 164
61 97 163
62 98 166
61 97 162
60 97 159
62 98 167
61 98 169
61 97 159
61 98 166
61 98 168
61 97 163
63 99 168
61 98 169
62 98 166
62 98 163
62 99 170
60 97 157
61 98 164
62 98 164
61 97 163
61 98 165
62 98 166
61 98 168
62 99 167
61 98 165
61 98 164
62 99 170
62 98 169
62 99 170
61 98 162
61 97 159
62 98 166
61 98 169
62 98 166
61 98 164
61 97 166
62 98 167
62 99 170
62 99 172
62 99 167
61 97 163
61 97 164
61 98 167
62 98 171
62 98 166
62 99 169
62 98 168
63 99 172
62 99 170
62 98 167
62 98 166
62 98 165
61 98 162
62 98 168
61 97 159
62 98 163
61 98 162
62 98 169
62 98 168
63 99 171
62 98 168
62 98 171
62 98 165
62 98 168
61 97 165
61 98 165
61 98 162
62 98 170
61 97 157
62 98 163
62 98 165
62 99 170
62 98 165
62 99 168
62 98 164
63 99 170
62 99 166
62 98 162
61 98 163
62 98 165
63 99 168
62 98 168
63 99 170
62 98 162
61 98 164
61 98 160
63 100 171
62 98 167
62 98 163
63 99 168
62 98 166
62 98 164
62 98 161
62 98 163
62 98 165
63 99 169
62 98 162
61 97 157
62 98 164
62 98 161
63 98 161
62 98 164
61 97 156
61 98 163
63 99 168
62 98 162
62 98 166
61 97 154
62 98 164
61 97 158
62 98 160
62 98 160
62 98 161
62 98 160
62 98 163
61 97 159
62 98 164
61 97 155
61 97 160
61 96 155
62 98 160
62 98 160
62 98 160
62 98 168
62 98 161
61 96 152
61 97 156
62 97 156
63 99 168
61 97 157
61 96 158
61 97 151
61 97 153
60 95 151
62 97 158
62 98 157
60 95 148
60 95 142
62 96 155
61 95 152
60 95 147
60 95 147
60 94 146
59 93 143
59 92 140
60 93 142
65 91 119
76 90 93
62 68 54
83 82 20
78 78 14
96 94 14
87 88 18
80 81 22
85 85 19
90 89 27
92 91 23
89 89 26
95 94 26
89 89 24
86 85 33
93 92 31
95 95 23
108 106 28
100 100 16
104 102 26
95 95 23
101 100 30
102 101 37
104 103 33
115 113 39
112 111 46
104 102 36
109 108 33
116 114 39
128 124 47
125 122 46
109 108 39
123 120 42
116 114 41
123 120 38
117 115 42
122 119 37
132 128 47
127 125 43
135 130 47
131 128 48
129 126 48
124 121 47
127 125 42
146 140 52
135 133 44
132 129 41
135 131 48
137 133 42
134 130 42
136 131 49
142 137 57
144 139 54
141 138 51
134 130 52
142 137 56
142 138 49
147 142 53
145 140 50
144 140 52
137 131 45
141 136 53
150 145 59
136 133 37
147 141 48
140 135 44
145 140 56
144 139 53
144 140 47
147 142 51
150 145 51
147 140 52
141 136 51
151 145 57
151 146 52
152 146 53
145 140 45
145 138 52
140 135 47
147 141 56
140 134 49
142 137 48
148 143 56
141 134 48
145 140 42
150 144 51
143 138 42
140 135 48
140 135 52
145 140 52
147 141 53
141 135 47
134 128 48
141 135 45
140 135 45
131 125 39
145 138 51
135 130 36
133 128 44
129 123 39
138 131 44
136 131 44
143 138 49
128 126 28
122 119 30
134 131 42
130 130 37
136 137 36
140 142 36
137 137 28
141 144 37
154 163 28
137 143 22
152 161 30
156 167 22
150 161 19
156 169 16
161 177 0
157 172 11
164 181 0
164 182 16
167 187 0
165 184 0
168 185 0
162 182 0
166 186 0
165 185 0
169 188 0
168 188 0
168 186 0
170 187 0
165 185 0
167 185 0
167 186 0
170 188 0
168 188 0
164 185 0
173 196 72
176 199 72
174 197 62
179 202 92
179 201 84
177 199 88
181 202 92
179 200 99
179 202 95
177 200 84
182 203 102
180 201 111
183 204 120
181 203 114
184 204 114
181 202 117
182 205 114
182 204 111
184 204 125
184 204 135
186 207 133
185 207 135
188 208 144
184 205 122
185 206 135
184 204 122
183 204 125
185 206 130
191 211 161
187 208 135
184 206 125
186 206 137
186 207 137
190 210 147
193 213 157
187 207 149
185 205 137
187 208 144
187 208 157
188 208 149
190 210 153
187 207 147
188 208 147
193 212 167
183 204 127
186 207 147
188 209 147
190 209 144
186 207 135
186 207 149
187 207 151
189 210 147
186 207 142
193 212 163
189 209 151
182 203 111
186 207 135
185 205 151
187 207 137
187 207 135
178 199 125
180 201 122
181 201 140
188 208 140
184 205 122
179 200 111
180 201 127
184 204 130
182 203 114
182 203 120
181 202 108
182 204 117
178 200 99
179 200 99
174 196 76
173 197 67
178 199 95
174 197 80
172 194 97
165 188 70
155 177 105
153 176 86
136 159 99
138 162 97
124 149 134
98 124 135
81 112 149
71 104 149
75 107 155
70 103 147
73 105 150
73 106 148
68 101 155
78 110 158
61 97 151
67 101 156
65 99 153
61 97 158
61 97 155
61 97 158
62 99 167
61 96 154
61 98 162
62 97 154
62 98 162
62 97 163
61 97 157
61 97 162
62 98 164
62 97 156
61 97 161
62 98 162
61 97 159
62 98 165
61 97 161
62 98 167
62 98 164
61 97 160
60 97 165
61 98 168
62 98 165
61 97 160
62 98 166
61 97 164
62 99 169
62 98 164
61 98 165
62 98 166
61 97 162
62 98 162
62 98 170
61 97 163
62 98 171
61 97 165
62 99 172
61 97 165
62 98 166
62 98 167
62 98 167
62 99 168
61 98 165
62 98 164
61 97 165
62 98 171
62 99 170
62 98 166
62 98 162
62 98 167
61 98 165
61 98 169
62 99 168
62 99 169
62 99 172
62 98 170
61 97 160
61 97 163
64 100 172
63 99 170
63 99 170
61 98 162
62 99 170
62 99 170
61 98 164
62 98 164
63 99 170
62 98 171
62 98 162
62 99 171
62 98 167
63 99 172
62 98 168
62 98 164
63 99 171
61 98 168
63 99 168
61 98 169
63 99 168
61 97 160
62 98 167
62 98 169
61 97 158
62 98 163
62 99 172
62 98 165
62 99 169
61 98 170
61 97 157
62 98 162
61 97 156
62 98 166
62 98 164
61 97 158
62 98 167
62 98 165
63 99 168
62 99 165
62 99 169
61 97 157
61 97 161
62 98 161
62 98 163
61 97 157
62 98 161
62 98 164
63 99 168
62 99 167
62 98 162
62 98 163
63 99 170
62 98 161
62 98 168
62 98 158
62 98 161
62 98 161
63 99 165
63 100 169
63 99 166
62 98 163
61 97 161
62 98 162
62 98 158
62 98 160
61 97 158
62 97 155
61 98 160
61 97 157
62 98 164
62 98 162
62 99 166
62 97 156
63 99 163
62 98 157
61 97 156
61 97 163
62 98 164
61 96 153
62 97 159
63 99 164
62 98 160
61 97 153
62 98 162
61 97 157
61 97 156
61 97 151
61 97 160
61 97 157
62 98 155
60 95 145
60 96 153
61 96 147
61 96 147
61 97 155
62 97 158
62 98 159
60 96 148
61 95 148
62 96 151
60 95 143
59 92 137
60 95 142
60 94 146
59 92 137
58 90 142
63 88 123
75 90 94
79 82 53
83 84 32
71 72 12
79 77 17
81 82 24
78 79 20
78 79 20
90 89 18
91 90 13
97 96 21
85 83 27
90 90 28
85 84 23
83 84 22
103 101 28
88 88 25
102 101 28
103 100 33
105 103 28
106 105 31
100 99 30
113 111 39
114 112 33
110 109 30
113 111 27
100 100 39
115 112 40
130 127 39
118 115 38
115 114 39
125 122 42
118 115 30
125 122 47
125 121 43
124 121 45
129 126 46
123 119 38
131 128 39
135 132 44
125 122 42
131 128 42
127 123 36
135 131 46
133 129 51
130 127 55
140 136 53
135 132 47
135 132 45
146 139 55
140 135 38
138 135 42
140 135 49
131 126 48
141 135 57
137 133 51
138 133 45
143 138 49
144 140 47
145 139 51
146 141 49
142 138 42
145 139 52
148 143 56
148 143 54
149 144 56
141 137 48
143 138 44
145 138 42
137 133 45
145 140 50
143 138 51
143 137 48
139 135 41
146 142 51
144 139 48
148 144 51
134 130 42
154 147 53
142 136 47
147 141 51
141 135 49
133 127 41
147 141 48
144 137 53
141 135 42
145 140 47
142 136 49
140 135 49
142 136 42
139 134 41
135 130 34
136 131 47
134 129 45
121 116 32
135 130 44
135 129 47
131 125 39
136 131 37
131 126 44
132 126 47
128 125 34
140 134 52
127 126 30
127 124 34
142 144 30
133 134 30
146 150 34
143 149 22
140 146 30
152 161 19
146 157 22
152 161 22
158 171 28
158 172 0
159 173 19
160 175 19
156 171 0
166 184 11
162 179 11
165 182 0
164 183 0
167 186 0
170 188 0
166 182 0
167 187 0
167 185 0
170 187 0
170 190 0
170 190 0
166 187 0
168 187 0
168 188 0
169 188 0
169 189 0
165 182 0
176 198 67
178 200 84
178 199 88
180 202 102
180 201 88
178 200 111
179 201 105
177 200 95
185 205 122
182 203 111
180 201 120
185 205 120
185 206 133
184 205 135
183 204 120
184 204 130
189 209 142
188 209 137
186 207 135
190 210 153
195 214 167
189 209 142
186 206 140
190 210 149
188 209 142
190 210 151
191 210 159
185 206 137
185 205 135
195 213 171
194 214 167
190 209 155
191 211 149
187 207 140
191 211 163
194 213 173
194 214 173
188 208 153
193 212 165
197 216 179
192 211 159
191 211 159
192 212 161
190 210 144
190 211 159
186 206 142
190 210 159
192 211 163
184 204 147
189 209 142
187 206 153
188 208 159
185 205 147
195 214 165
188 208 147
192 211 159
187 207 155
189 210 149
187 208 137
189 209 151
190 209 151
185 206 137
181 202 122
184 205 140
185 206 140
184 204 127
185 206 135
185 206 135
185 205 133
182 203 127
182 203 117
176 198 95
178 199 95
177 198 111
181 201 117
175 198 88
173 196 84
176 198 88
173 194 88
161 183 103
159 182 108
140 164 115
153 175 103
138 162 113
117 141 135
85 115 150
91 119 154
75 107 154
78 109 154
70 103 149
78 109 154
74 106 162
69 103 149
63 98 159
64 99 159
63 99 162
66 101 161
63 98 154
62 98 159
60 96 155
61 97 162
61 97 157
60 96 153
61 98 166
61 97 158
61 97 155
61 97 162
61 98 162
62 98 167
61 97 165
61 97 161
60 96 165
61 97 159
62 98 162
63 99 167
62 98 166
62 98 165
61 97 159
62 98 170
62 99 164
61 97 163
62 98 167
62 98 167
61 97 164
61 98 169
62 98 166
61 98 167
62 98 166
62 98 169
62 98 164
61 97 159
61 97 158
62 98 162
62 99 170
61 98 169
61 97 160
62 98 170
62 98 165
63 99 174
62 98 166
62 98 163
61 98 160
61 97 163
62 98 164
62 98 169
62 99 164
62 99 171
62 98 171
62 98 165
62 98 166
62 98 168
61 98 162
61 97 163
62 98 171
62 98 165
62 98 166
62 98 162
61 98 164
62 98 162
61 97 158
61 98 164
62 98 164
62 98 167
61 98 167
62 98 167
62 98 167
62 98 164
61 97 164
62 98 160
61 97 163
62 98 167
61 97 163
62 98 163
62 98 165
61 97 162
62 98 165
62 98 160
62 98 165
61 97 159
62 98 162
62 98 160
62 98 171
62 99 171
62 99 172
61 98 164
62 99 170
61 98 164
61 98 159
62 99 169
62 98 167
61 98 163
62 98 168
62 98 170
62 98 165
62 99 168
61 98 160
62 99 165
62 98 166
61 98 164
62 98 161
62 98 168
62 98 163
62 98 165
62 98 165
62 98 164
62 99 167
62 98 163
62 98 158
63 99 164
62 98 164
62 98 163
60 96 157
62 98 162
61 97 157
62 98 162
62 98 164
61 97 161
62 98 159
62 98 161
61 97 152
63 99 169
63 99 164
62 98 162
62 98 160
62 97 159
61 98 165
62 97 154
62 97 154
62 98 161
63 99 163
61 97 160
61 97 155
62 98 158
62 98 162
61 97 153
62 98 160
60 96 154
62 98 160
63 99 166
62 98 156
62 99 162
61 98 159
61 97 154
62 98 159
61 97 160
61 97 159
61 96 149
61 97 159
62 98 158
62 98 156
60 95 147
62 97 154
62 97 151
60 95 148
61 97 150
61 95 144
60 95 145
60 95 151
61 96 149
61 96 147
60 94 147
58 91 130
58 92 134
71 91 111
70 82 75
83 86 58
78 79 25
75 75 8
68 70 5
67 68 13
87 85 6
89 87 17
80 78 23
83 83 25
79 82 17
84 84 16
77 78 20
87 88 17
85 84 20
93 93 14
102 100 27
98 97 25
101 99 28
108 107 31
97 96 23
102 99 31
103 102 17
107 106 29
110 108 36
118 115 34
102 102 30
117 114 24
113 111 27
123 120 42
114 111 31
111 109 37
120 118 33
114 111 32
118 115 46
120 115 39
121 118 44
120 117 43
126 123 48
137 132 43
125 122 37
132 127 42
124 121 42
131 127 45
132 129 54
138 133 44
137 132 43
137 134 42
143 139 45
140 135 45
137 134 37
142 136 45
134 131 41
141 136 42
134 130 42
136 132 53
137 132 50
141 136 49
141 136 41
141 137 39
142 137 43
144 139 47
145 140 51
144 139 46
141 137 34
140 135 48
146 142 47
147 142 51
146 140 52
143 137 49
140 135 49
139 133 39
142 136 48
130 126 30
144 139 53
142 137 36
133 129 28
140 136 42
135 130 45
142 136 49
139 133 37
141 135 49
148 142 53
141 135 49
142 137 48
142 137 47
144 140 41
122 119 34
135 129 45
138 133 44
134 129 41
137 130 39
131 126 42
132 126 47
142 136 49
140 135 51
127 122 41
131 125 41
142 135 44
137 131 42
132 128 41
139 136 41
129 129 34
139 137 45
137 138 41
136 135 30
144 150 30
146 153 30
145 153 22
147 154 30
148 159 19
141 148 22
154 164 11
155 166 19
157 170 22
163 178 0
163 177 11
165 183 11
165 186 0
167 183 0
163 181 0
165 182 0
166 184 0
165 184 0
167 187 0
169 188 0
165 183 0
166 186 0
166 185 0
169 188 0
171 189 0
168 187 0
165 184 0
168 190 0
171 191 0
168 188 0
180 201 102
177 199 76
176 197 105
184 206 120
182 204 105
182 203 117
181 202 117
179 201 105
187 207 137
186 207 133
179 200 108
187 208 133
187 207 133
192 212 157
187 207 147
191 211 151
188 209 137
191 211 157
189 209 155
186 206 137
195 213 167
190 210 159
197 216 171
193 212 159
188 208 149
196 215 169
191 211 155
192 212 161
193 213 159
192 211 163
197 216 182
196 215 177
189 210 165
195 214 173
194 213 171
191 211 161
198 217 186
192 211 167
191 211 165
195 214 181
193 212 171
190 210 159
201 219 193
194 213 167
195 215 171
187 208 147
196 215 181
193 213 171
194 214 165
194 213 175
189 208 153
186 206 147
188 208 157
198 217 181
195 214 173
190 210 155
189 209 155
191 210 167
192 211 163
192 211 159
188 208 140
187 207 147
191 211 157
193 212 163
188 207 153
187 207 142
186 206 142
182 203 125
185 206 127
181 202 122
187 206 147
180 201 122
180 201 117
177 199 99
183 204 114
175 197 99
171 193 80
175 196 105
165 187 95
151 174 122
150 173 108
149 171 118
141 165 108
131 154 118
138 161 136
95 123 151
89 118 145
79 110 156
86 114 159
62 97 153
75 107 152
73 105 150
68 101 150
69 102 147
71 104 153
67 101 149
61 97 155
67 101 155
63 98 153
61 97 157
61 97 159
63 98 155
64 99 165
61 96 157
61 97 156
62 98 159
61 97 160
61 97 155
61 97 157
62 98 166
61 97 161
61 97 163
61 97 162
60 96 155
61 98 167
62 98 166
62 98 164
61 98 167
61 97 163
62 98 166
62 98 165
61 98 168
61 97 163
61 97 162
61 98 161
62 98 169
61 98 165
61 97 159
61 97 161
62 98 161
61 97 161
62 98 163
62 98 169
62 98 162
62 98 166
62 98 164
62 98 165
62 98 167
61 97 165
62 99 166
62 98 165
62 99 167
62 98 166
62 98 164
61 97 162
62 98 167
62 98 167
62 98 166
62 98 164
61 98 169
61 97 166
62 99 171
62 98 169
62 98 165
62 98 163
61 98 167
62 98 168
61 98 166
61 97 164
62 98 162
63 99 171
62 98 164
62 99 166
62 98 166
62 98 169
61 98 162
62 99 166
63 99 171
62 99 163
62 99 169
62 98 163
62 98 163
62 98 163
62 98 166
62 98 163
62 99 168
63 99 174
62 98 167
62 98 164
62 98 167
62 98 163
62 98 166
62 99 170
61 98 164
62 98 164
62 98 165
62 98 160
62 98 162
62 98 162
62 98 166
63 99 169
63 99 169
62 98 163
62 98 166
61 97 158
62 98 164
63 99 169
61 97 160
62 99 164
62 98 164
62 98 166
62 98 165
61 98 166
62 99 166
62 98 164
62 98 167
63 99 169
63 99 169
62 99 165
61 97 156
62 98 171
63 99 165
62 99 168
63 99 167
61 98 164
62 97 153
63 99 164
61 97 156
62 98 161
62 98 161
63 99 166
61 97 155
62 98 163
62 98 165
61 97 160
62 98 162
62 98 164
62 98 158
62 98 161
61 97 157
62 97 159
62 98 160
62 98 161
62 98 167
61 97 155
62 98 163
60 95 147
61 97 154
61 97 157
62 98 162
61 97 157
62 99 166
62 98 162
60 95 148
62 97 155
60 95 149
61 96 151
61 96 150
61 96 151
62 97 159
61 96 146
61 96 153
61 96 145
61 96 152
61 97 158
60 95 148
59 93 136
59 94 139
61 95 145
61 95 149
60 94 145
59 93 144
61 93 140
67 90 114
68 83 86
76 80 53
77 76 31
92 91 14
85 84 20
89 87 8
90 89 20
80 79 20
95 93 21
76 76 22
86 85 25
101 98 22
99 96 20
101 98 18
98 97 24
95 94 16
97 96 34
103 101 19
107 105 28
89 90 36
90 90 26
98 96 31
99 98 27
102 102 29
107 105 39
111 109 26
116 114 37
109 108 29
112 110 34
117 114 32
118 114 36
111 108 40
111 111 29
112 110 40
128 124 42
121 118 35
126 123 36
124 121 41
121 119 30
129 126 39
124 121 34
133 130 38
137 133 47
130 127 37
135 130 48
139 133 46
132 128 49
134 129 37
141 136 45
138 135 44
122 119 37
133 127 47
144 138 56
140 136 43
139 134 45
143 138 45
142 137 37
134 129 42
145 140 54
146 141 45
150 144 51
136 131 42
146 141 54
139 133 49
139 135 42
141 135 54
141 136 47
142 138 46
145 140 49
140 134 45
136 131 34
141 137 44
140 134 49
132 128 41
139 132 52
143 137 53
141 137 41
139 134 47
144 138 42
145 138 45
141 136 37
148 141 49
143 137 39
138 133 44
133 128 47
136 131 42
145 140 53
134 130 37
129 124 47
133 128 44
126 122 32
139 133 41
130 125 42
138 132 47
135 129 47
137 131 39
139 133 53
132 127 39
138 133 42
132 127 39
134 129 36
134 130 44
134 133 34
141 139 44
145 148 32
140 147 19
139 142 32
145 152 30
140 149 19
150 159 22
153 165 25
146 156 22
156 168 16
150 163 11
155 169 0
154 169 11
165 182 11
165 181 0
168 185 0
172 189 0
161 177 0
158 172 0
166 183 0
167 183 0
166 182 0
167 185 0
168 187 0
157 173 0
171 188 0
170 187 0
169 187 0
169 188 0
165 184 0
171 190 0
167 186 0
167 184 0
182 203 105
180 203 99
175 198 99
179 201 108
184 205 117
183 204 125
182 203 111
185 206 125
194 214 163
181 203 105
190 210 149
187 206 142
189 208 140
192 211 159
184 204 133
188 208 159
190 210 151
186 206 151
190 210 151
196 215 179
193 213 167
190 211 159
195 215 173
189 209 153
189 209 161
193 211 177
197 216 182
192 212 171
191 212 165
187 207 151
195 214 167
193 214 173
194 213 184
194 213 171
194 213 184
196 215 184
198 216 186
193 213 167
194 214 173
196 215 175
199 217 191
195 215 181
196 215 175
196 215 177
189 209 163
197 216 186
191 211 161
189 209 161
198 217 191
197 216 186
190 211 159
191 212 155
191 211 161
193 212 173
191 211 171
193 212 181
194 214 173
193 213 163
191 211 157
195 214 171
194 213 169
189 209 149
190 210 149
183 204 133
187 208 147
190 210 163
190 210 155
187 207 151
185 206 130
186 207 147
184 204 142
184 204 130
183 203 125
182 203 108
181 202 117
182 204 133
179 200 115
177 198 122
169 190 127
155 177 131
149 170 143
150 172 136
138 162 110
139 163 126
117 143 129
78 109 136
83 113 152
87 117 148
99 126 152
82 112 152
80 110 148
81 111 150
70 103 151
69 103 155
67 101 158
61 96 154
66 100 154
64 99 159
64 99 155
65 99 156
62 98 153
61 97 156
61 97 160
63 98 153
63 99 155
63 99 163
61 97 158
62 98 160
64 99 161
61 97 162
61 97 160
61 97 163
62 98 163
61 96 156
61 97 168
60 96 158
62 98 165
61 97 162
62 99 169
60 96 161
63 99 173
60 96 165
61 97 163
62 98 166
61 98 167
62 99 165
61 98 164
61 98 166
61 97 163
61 97 159
61 97 161
62 98 169
62 98 168
62 98 166
61 97 161
61 97 168
61 97 165
61 97 167
62 98 169
62 98 167
61 98 163
62 98 165
62 99 171
61 97 159
61 97 163
61 97 163
62 99 174
61 97 164
62 99 167
62 99 173
61 97 161
61 98 165
62 98 168
61 97 157
62 98 171
62 98 163
61 97 158
61 97 158
61 97 162
63 99 164
62 99 172
62 99 167
63 99 174
62 98 170
61 98 168
62 98 164
61 97 161
62 98 169
61 97 158
62 98 166
62 99 170
62 99 164
63 99 170
63 99 171
62 98 159
62 98 159
62 98 162
62 99 170
61 97 159
61 98 164
62 98 162
63 99 167
62 98 164
63 99 169
62 99 167
62 98 164
62 98 166
62 98 166
61 97 159
62 99 167
62 98 166
62 99 170
62 98 164
62 98 160
61 97 157
62 98 163
62 98 166
63 99 165
61 97 160
62 98 161
62 97 157
63 99 165
63 99 170
62 98 164
62 98 166
62 98 156
61 98 165
62 98 164
62 98 163
61 96 158
62 98 161
62 98 162
62 98 163
61 98 160
62 98 163
61 97 155
62 99 167
61 97 157
61 97 161
61 97 154
61 97 157
62 98 164
62 98 159
62 98 160
63 99 163
61 97 154
63 99 162
62 98 161
61 97 150
63 99 163
62 98 156
62 97 151
62 97 155
62 98 161
62 98 153
62 97 155
61 96 153
61 97 154
62 98 160
61 96 153
62 98 163
62 98 159
62 97 155
63 98 157
61 97 155
61 96 148
61 96 155
62 98 158
61 97 153
60 95 153
61 97 152
61 96 153
61 96 160
59 95 147
61 96 157
59 94 141
59 93 145
59 93 140
61 95 157
60 95 148
60 94 141
58 92 137
58 91 129
66 89 113
64 79 86
72 80 63
77 76 14
80 80 11
92 89 14
83 81 9
73 74 20
88 85 9
91 90 18
88 85 19
83 82 19
98 96 21
94 94 12
88 88 20
81 79 10
103 99 25
105 103 22
98 98 28
94 92 18
96 97 18
101 99 24
103 101 23
111 109 32
113 112 22
106 105 26
100 99 25
124 121 33
117 115 22
121 119 36
106 103 35
112 111 30
109 108 32
128 124 39
117 115 32
123 120 34
125 120 46
126 123 36
131 127 39
124 120 40
132 128 43
121 118 32
137 133 43
129 124 51
124 122 36
134 130 40
138 132 54
134 130 47
131 127 43
135 131 46
126 123 36
139 133 45
132 126 37
129 125 42
137 133 42
132 128 41
141 135 49
143 138 42
146 141 52
145 138 54
151 144 51
146 140 47
145 139 48
143 137 51
139 134 51
142 137 43
139 134 49
146 141 48
133 129 42
142 136 44
141 136 48
141 136 52
143 138 45
140 135 42
145 139 44
141 135 45
137 132 41
139 134 44
143 138 52
142 137 44
151 145 51
136 132 41
148 142 51
138 133 34
139 134 39
138 132 47
138 133 42
136 131 37
135 130 30
134 128 45
133 128 44
136 131 44
135 130 45
135 131 32
138 133 45
126 121 32
131 126 45
129 125 34
134 130 34
130 125 32
132 129 39
131 129 42
133 133 32
137 137 34
141 143 25
137 141 32
149 154 22
138 143 32
136 142 28
144 150 25
148 160 22
152 164 11
153 166 22
155 168 0
162 179 0
163 176 0
162 177 0
165 182 0
163 180 0
163 180 0
163 183 0
169 187 0
167 185 0
168 187 0
166 185 0
164 182 0
164 182 0
164 183 0
164 183 0
166 184 0
166 183 0
165 184 0
169 189 0
171 189 0
167 187 0
159 176 0
168 187 0
182 204 125
180 201 125
179 201 99
185 206 133
183 204 122
183 205 133
186 207 135
187 207 137
184 204 140
188 208 140
189 209 149
189 209 144
194 214 169
187 207 147
193 213 175
186 207 140
186 207 140
192 212 165
198 217 181
191 211 157
194 214 175
191 210 163
191 211 155
191 211 161
196 216 181
193 213 167
198 217 181
192 212 177
192 211 159
191 211 169
196 215 184
200 218 189
194 213 169
193 214 169
198 217 186
195 214 175
193 213 175
201 219 198
198 217 198
198 217 189
194 214 177
198 217 189
198 216 188
199 218 193
197 216 179
196 216 186
198 217 194
199 218 193
201 219 198
200 219 193
198 217 189
193 213 171
199 218 194
198 216 179
197 216 182
193 212 179
192 212 167
200 219 191
194 213 171
192 211 167
196 214 186
194 213 169
191 212 157
191 210 161
192 211 165
194 213 163
189 209 151
189 209 153
187 208 133
188 207 147
186 207 142
190 210 144
189 209 147
188 208 144
190 209 161
177 197 125
181 201 136
176 197 137
170 191 143
153 175 139
151 172 152
144 166 136
133 157 139
132 156 139
109 135 134
93 121 152
85 115 143
83 113 153
94 122 158
80 110 146
87 116 152
71 104 151
80 110 156
81 111 154
63 99 159
67 101 148
70 103 153
65 100 157
66 100 154
66 100 151
66 101 158
62 97 154
61 96 152
65 100 156
61 97 156
61 97 159
61 96 155
60 96 152
62 98 169
61 97 159
61 97 159
62 98 162
62 98 174
61 97 166
62 98 162
62 98 165
61 97 156
62 98 164
61 97 167
61 97 159
61 97 162
62 98 163
61 97 164
62 98 169
62 99 170
62 99 169
61 97 162
62 98 161
62 98 163
60 96 158
61 98 159
62 98 163
61 98 170
61 97 157
61 97 161
61 97 165
62 98 167
61 96 163
61 97 161
61 98 169
61 97 155
62 99 169
62 98 166
63 99 173
61 97 160
62 98 165
62 99 171
62 98 167
62 98 165
61 98 168
62 98 167
61 97 160
63 99 169
61 98 165
63 99 171
61 97 162
61 97 161
63 99 172
61 98 163
62 98 167
62 98 167
62 99 169
63 99 166
61 97 161
62 98 162
62 98 167
62 98 164
61 98 164
63 99 169
62 98 161
62 98 164
61 98 164
62 99 167
62 98 158
63 99 166
61 97 169
62 99 168
62 99 165
63 99 168
62 98 162
62 98 162
62 98 167
62 98 166
62 98 165
62 98 168
62 98 165
61 98 164
62 98 166
62 98 166
61 98 159
62 98 166
62 99 167
62 97 152
62 98 163
62 99 169
63 99 161
61 97 157
61 98 162
62 98 164
62 98 167
62 98 161
62 98 160
61 98 164
62 98 163
63 99 168
62 98 165
62 98 160
62 98 162
62 98 165
62 98 163
62 98 164
62 98 160
62 98 161
61 97 157
62 99 167
62 98 167
62 99 166
63 99 166
62 98 168
61 97 156
61 96 151
63 99 164
62 98 165
61 97 160
62 98 157
62 98 153
62 98 162
62 98 159
61 97 153
62 98 158
61 97 153
62 98 159
62 98 162
62 98 158
62 98 163
61 97 155
62 98 157
61 97 154
62 97 162
62 98 162
62 97 153
62 98 162
61 97 154
61 97 152
62 97 154
62 98 158
60 95 148
61 97 148
62 98 157
61 96 148
62 97 152
60 96 148
60 95 145
60 95 144
61 96 152
60 95 147
61 95 155
59 93 138
60 95 143
60 93 137
60 95 142
60 93 141
59 91 138
75 92 103
71 84 89
89 90 36
81 82 36
84 82 18
92 91 14
83 83 13
100 98 0
88 85 10
91 89 14
77 78 22
90 88 16
87 86 11
96 93 18
99 97 18
101 99 17
97 95 18
100 98 20
95 94 26
99 97 16
105 102 28
94 96 22
92 91 28
102 100 24
100 99 29
103 101 22
110 108 36
107 105 25
110 108 28
120 118 29
112 111 24
105 104 28
121 117 37
121 118 35
116 112 25
120 117 33
131 127 30
127 123 41
127 123 41
125 120 38
120 117 33
122 119 44
127 124 36
127 122 44
129 125 45
130 126 41
129 127 41
132 128 44
138 133 51
141 135 49
133 128 50
139 133 47
128 124 36
136 132 45
132 129 38
135 130 38
135 130 37
122 118 31
130 126 30
145 140 45
129 126 37
132 127 36
136 132 34
141 136 34
133 129 42
139 134 49
143 138 47
145 139 51
141 137 43
143 136 51
133 127 32
145 140 39
135 131 41
140 135 45
140 135 36
136 130 45
148 143 44
138 132 47
143 137 47
143 137 34
148 141 48
131 128 36
137 133 36
131 126 39
127 124 36
143 138 37
134 129 37
129 125 37
139 134 41
138 132 34
137 130 44
134 130 37
133 128 36
132 127 39
131 127 34
138 131 47
121 116 30
129 124 41
132 129 39
128 125 41
128 127 34
136 136 32
142 142 41
134 133 22
132 135 22
147 152 28
142 149 22
139 146 22
143 149 22
156 164 30
154 163 28
150 159 16
156 169 16
153 166 11
162 175 11
160 176 11
163 179 0
167 184 11
166 181 0
168 186 0
166 183 0
167 185 0
164 180 0
164 182 0
168 185 0
163 181 0
169 189 0
168 186 0
166 186 0
167 185 0
165 183 0
168 184 0
165 183 0
168 185 0
169 189 0
166 184 0
169 185 0
186 207 133
188 208 140
188 207 147
187 207 142
183 205 122
190 209 155
188 209 135
188 208 135
188 209 147
193 213 167
192 212 165
192 211 169
193 213 165
192 211 167
189 209 147
191 211 165
192 211 161
188 208 153
196 215 179
194 214 171
193 213 169
193 213 167
198 217 194
194 214 177
197 216 184
198 217 188
194 214 175
200 219 201
194 213 171
198 217 191
198 217 198
198 217 191
195 214 179
201 219 204
198 217 196
199 218 194
197 217 188
201 220 207
200 219 203
202 220 198
199 218 196
199 218 193
196 215 188
200 219 201
199 217 196
199 217 201
199 218 186
198 217 194
197 216 191
204 223 214
200 218 194
197 216 184
198 217 186
196 215 179
200 218 198
202 220 207
197 216 189
192 212 165
194 213 184
192 212 157
190 209 169
199 218 194
191 211 167
195 214 182
197 216 184
191 210 163
198 217 186
193 212 161
191 211 165
190 209 153
192 212 163
189 209 153
185 206 135
184 204 137
188 208 147
186 206 149
181 202 130
167 188 136
167 188 150
154 175 145
153 173 155
146 168 140
131 155 152
131 155 130
129 152 148
99 126 149
92 121 148
89 118 156
76 108 151
76 108 155
72 104 143
76 108 151
78 109 161
73 105 154
73 107 161
69 102 159
75 107 165
63 98 156
60 96 158
64 98 154
59 95 148
72 105 157
65 100 158
63 99 158
60 96 151
60 96 151
61 97 161
62 98 159
61 97 156
62 98 168
62 98 163
61 96 158
61 97 157
61 97 157
61 97 164
62 97 161
61 96 158
61 98 166
62 98 165
61 97 157
61 97 156
62 98 165
61 97 165
62 98 169
61 97 160
61 97 162
61 97 165
61 98 168
62 98 159
62 98 170
62 98 164
61 97 165
62 98 167
61 97 164
62 98 165
61 98 165
62 98 164
61 98 171
62 98 164
62 99 173
62 98 161
63 99 168
60 96 157
62 98 168
61 98 165
62 99 169
62 98 166
61 97 164
62 98 165
61 97 161
62 98 165
62 98 162
61 98 164
62 98 167
61 97 161
62 98 165
61 97 163
62 98 157
62 98 162
62 98 164
61 97 164
62 98 167
62 98 166
62 98 164
62 98 165
62 98 161
61 97 159
61 97 156
62 98 167
62 98 163
61 97 156
61 97 164
62 98 161
61 97 157
62 98 167
62 98 163
62 98 164
61 98 165
63 99 165
62 98 167
62 99 169
61 97 158
62 98 162
62 99 165
62 99 169
62 98 156
62 98 166
62 98 160
62 98 163
62 98 164
61 97 158
63 99 163
61 97 158
62 98 160
62 98 163
62 98 158
61 97 159
63 99 168
62 98 156
61 97 160
61 97 153
63 99 171
62 98 165
62 97 160
62 98 156
62 98 162
62 98 165
63 99 161
62 98 159
62 98 161
61 98 163
62 98 160
62 98 164
61 97 156
62 98 159
63 99 169
61 97 152
63 98 161
61 97 156
62 98 161
61 96 143
62 98 160
62 98 157
61 97 152
63 99 163
62 98 163
62 98 156
61 97 156
62 98 159
62 98 158
62 98 162
62 98 163
61 97 158
61 97 161
61 96 152
62 98 156
60 96 147
61 97 150
62 98 156
62 97 154
62 98 160
62 98 156
61 96 151
61 97 156
61 96 150
61 96 147
61 96 148
60 96 150
61 96 156
61 96 149
61 97 153
61 97 154
59 94 142
61 97 155
61 97 151
62 96 148
59 93 140
59 94 139
60 95 145
60 95 143
59 92 131
60 95 144
61 91 126
65 90 124
78 89 77
79 82 54
98 96 25
80 79 21
85 83 18
83 80 8
92 88 5
83 81 14
97 95 18
78 77 14
85 83 23
97 96 23
98 95 16
92 90 19
90 90 12
101 98 21
99 98 18
85 86 16
94 95 33
97 97 23
102 101 22
98 97 20
107 105 28
104 103 30
98 97 15
113 111 29
109 107 24
111 108 24
109 107 18
119 117 32
120 117 34
105 102 29
116 111 33
116 114 37
124 120 39
108 106 38
119 117 24
130 127 28
128 125 37
127 124 40
133 129 41
123 121 34
133 128 48
131 127 37
133 129 43
132 127 41
118 115 36
136 132 36
137 131 43
131 128 41
135 130 41
138 133 48
138 134 44
140 134 49
131 128 34
143 138 47
131 128 39
141 136 39
140 136 49
139 135 36
136 131 36
144 138 51
132 127 34
142 136 45
141 136 50
139 133 48
148 143 41
138 132 41
135 130 41
144 137 44
131 126 37
139 136 37
141 136 48
139 134 33
135 130 41
141 135 47
142 136 42
129 123 28
133 128 41
136 131 37
137 133 39
136 130 39
131 126 34
131 126 47
129 125 42
131 125 37
137 130 52
137 132 34
138 133 37
134 129 41
134 129 42
137 133 28
131 125 39
131 126 42
132 128 28
130 126 36
128 124 36
129 126 37
136 133 36
128 127 30
134 135 30
141 140 36
133 137 28
140 144 28
139 146 22
138 142 22
144 149 28
154 166 11
152 164 19
154 165 19
159 171 22
155 167 28
160 175 0
155 169 11
163 179 11
162 177 0
167 183 0
161 179 0
166 181 0
160 176 0
164 180 0
165 183 0
165 181 0
167 185 0
169 186 0
168 185 0
169 187 0
167 185 0
167 186 0
162 179 0
164 181 0
167 186 0
166 186 0
163 180 0
167 186 0
166 185 0
187 207 137
187 207 147
185 206 135
188 208 140
183 204 125
187 208 137
184 205 125
193 212 167
191 211 163
183 204 135
191 211 161
194 214 167
195 215 181
189 209 155
196 215 177
196 215 182
193 213 169
197 216 191
198 217 193
195 215 179
201 220 198
198 217 189
198 217 189
196 215 189
196 215 177
201 220 203
201 220 201
198 216 182
199 217 191
199 218 198
197 216 193
197 217 189
201 220 206
199 218 194
197 216 191
201 220 201
204 222 212
205 223 220
202 220 209
200 220 203
199 218 199
199 218 201
200 218 198
202 220 204
203 221 209
201 219 203
202 220 204
201 219 207
201 220 206
201 220 203
200 219 203
199 218 194
200 219 198
198 217 193
197 217 186
199 218 191
199 217 191
193 213 179
201 220 207
197 216 188
195 215 186
198 216 193
198 216 191
196 215 184
194 213 177
193 213 165
194 213 171
193 212 167
197 216 182
197 216 177
196 215 179
192 211 161
196 215 177
190 210 163
189 208 157
187 207 156
183 202 154
177 197 169
159 180 158
146 167 152
142 164 154
139 161 165
130 153 143
131 155 158
124 147 151
104 130 161
99 127 158
101 129 154
91 120 164
75 107 166
91 119 152
88 117 161
80 110 154
69 103 160
71 104 153
74 106 155
72 105 158
68 102 163
71 104 154
66 100 158
65 99 155
60 95 153
65 100 166
65 100 159
63 99 159
60 95 149
65 99 153
63 98 159
61 97 160
63 98 158
62 99 171
61 97 160
61 96 155
61 97 159
62 98 170
62 98 167
61 97 159
62 98 164
61 97 163
60 96 157
61 97 160
61 97 159
62 98 170
61 98 163
61 97 167
61 97 169
62 98 165
62 98 167
61 98 165
61 97 162
61 97 162
61 97 161
61 97 161
61 97 156
63 99 172
61 97 160
61 97 160
62 98 165
61 97 159
62 98 169
62 98 167
61 98 167
61 97 165
62 98 166
61 98 165
61 97 162
61 98 163
62 98 166
61 97 166
62 98 167
62 98 164
61 97 168
62 98 166
61 97 161
61 98 161
62 98 164
61 97 160
62 98 169
61 97 165
62 98 163
62 98 164
62 98 159
62 97 159
62 99 167
62 98 163
61 98 164
61 98 161
62 99 172
62 98 160
62 98 167
61 98 164
62 99 169
61 97 157
63 99 167
62 98 164
61 97 156
61 98 162
62 98 165
61 98 161
62 98 159
61 98 163
62 99 168
62 98 161
62 98 165
62 99 164
61 98 161
62 98 165
61 98 164
63 99 167
62 98 158
62 98 168
61 97 163
62 98 165
62 98 159
61 98 167
62 99 167
62 98 160
62 99 170
62 98 163
61 97 157
62 98 165
62 98 161
62 98 157
62 98 160
62 98 157
62 98 161
62 98 166
63 99 172
62 98 160
61 98 160
62 98 162
62 98 163
62 98 157
62 98 162
62 97 158
63 98 160
63 99 164
61 97 159
62 98 160
62 98 164
62 98 157
62 98 164
63 99 163
61 97 157
62 97 155
61 98 163
62 98 158
62 97 157
62 98 161
61 98 161
62 98 157
62 98 158
62 98 155
61 97 152
62 97 154
62 98 155
61 97 152
62 98 162
62 97 153
61 97 158
60 96 150
62 97 155
62 97 159
60 95 148
61 96 153
62 97 154
62 97 154
61 96 147
61 97 154
62 98 156
61 96 151
60 95 142
59 94 147
60 94 152
61 96 145
60 95 141
58 92 128
61 96 148
60 95 139
61 95 141
60 94 142
60 93 145
58 91 132
68 89 104
77 85 75
77 80 47
88 87 25
90 86 3
88 85 5
84 81 12
85 83 18
94 91 8
79 78 8
90 88 8
82 81 14
88 84 18
92 91 9
92 89 0
84 83 14
99 97 18
82 81 8
99 97 25
95 94 16
99 97 26
95 94 23
96 93 18
103 100 16
98 97 28
102 101 24
109 104 25
103 102 25
117 114 26
113 110 35
112 108 32
121 117 40
112 110 27
114 112 28
117 115 33
120 117 37
111 108 31
118 115 35
118 116 35
132 127 41
123 119 33
119 116 32
124 122 38
121 119 33
126 122 38
136 132 41
115 113 29
130 126 44
122 118 32
130 127 37
135 130 39
135 131 35
132 126 45
133 128 39
127 124 34
131 127 42
137 132 40
141 136 51
131 127 41
128 123 30
140 134 36
145 139 45
140 135 42
137 131 44
142 137 41
131 126 30
133 128 42
139 135 41
140 134 39
139 134 37
134 130 30
137 133 37
134 130 32
141 136 36
134 129 39
136 130 41
140 133 32
136 130 30
137 132 37
133 129 44
140 134 44
141 135 47
130 125 37
135 129 37
140 135 47
131 126 36
138 133 37
133 128 30
135 130 36
134 129 41
129 125 32
126 121 39
131 126 41
125 120 32
128 123 34
125 121 34
142 137 37
128 126 34
131 130 28
137 135 32
130 129 22
130 131 19
137 140 19
134 140 19
144 149 30
143 150 19
151 160 16
149 155 22
146 154 16
151 162 11
149 160 16
155 167 16
153 164 16
157 171 11
159 175 0
167 184 0
164 179 0
159 176 0
163 177 0
165 180 0
166 180 0
168 186 0
165 181 0
167 184 0
165 182 0
168 187 0
168 184 0
166 185 0
168 187 0
168 186 0
166 184 0
162 180 0
167 184 0
170 189 0
163 180 0
172 192 0
169 190 0
185 205 137
188 208 135
188 209 147
187 208 130
193 213 157
192 211 165
192 211 169
192 212 163
199 217 184
187 207 153
194 214 173
195 214 173
195 214 177
191 211 159
192 213 169
193 213 171
197 216 182
201 219 199
200 219 196
200 219 198
195 215 182
201 220 201
197 216 186
199 218 199
199 217 201
202 220 211
200 219 198
199 218 198
197 216 188
203 221 207
200 219 203
201 220 199
198 218 199
201 220 204
203 222 214
202 221 209
201 220 204
203 222 212
202 220 203
200 219 203
205 223 215
200 218 198
198 218 194
203 221 218
197 216 189
205 223 218
203 221 214
206 223 215
199 218 194
204 223 218
204 222 214
203 222 211
203 222 207
202 221 207
202 221 206
196 215 188
202 221 207
202 220 204
202 220 206
196 215 196
197 216 182
206 224 215
195 214 182
200 218 193
198 216 194
195 214 184
189 208 165
197 216 186
198 217 186
200 219 196
195 214 181
195 214 177
193 213 171
192 211 163
193 212 173
192 212 175
186 205 172
168 187 164
165 185 183
154 175 164
138 161 157
137 159 160
144 165 154
135 158 168
126 149 167
103 129 154
101 127 160
96 122 153
95 123 165
80 111 156
73 106 155
84 113 164
72 105 151
82 112 150
73 106 157
74 106 154
71 103 149
70 104 161
67 101 156
69 103 157
67 101 159
63 98 156
62 98 160
65 99 149
65 100 158
66 101 157
62 96 152
62 98 161
65 100 160
60 96 160
62 98 164
62 98 167
61 97 162
64 100 171
61 97 160
60 96 155
61 97 165
60 95 159
61 96 155
60 97 159
61 97 164
60 96 161
61 97 164
62 98 165
61 97 159
60 97 164
61 97 163
60 96 156
61 97 155
61 97 163
61 97 159
61 97 163
61 97 167
62 98 168
61 97 160
61 97 166
62 98 167
62 98 161
62 98 164
61 97 166
62 98 162
62 98 164
62 99 165
62 98 165
61 97 159
62 98 164
62 98 159
62 98 170
61 97 160
62 98 165
62 98 163
61 98 166
63 99 170
62 98 171
61 98 166
61 98 164
61 98 163
62 98 164
60 96 153
61 97 162
62 98 161
62 99 164
61 97 166
61 97 156
62 98 165
61 98 161
62 98 161
61 98 165
62 98 165
62 98 163
63 99 174
62 98 162
61 98 166
62 98 166
61 97 160
62 98 159
62 98 160
62 99 166
62 99 168
62 98 165
62 98 163
63 99 169
62 98 162
62 99 166
62 99 168
62 98 165
63 99 164
62 98 163
63 99 166
62 98 162
61 97 160
61 97 159
61 97 157
62 99 167
61 97 159
62 98 159
62 99 169
62 98 163
61 97 150
62 99 166
63 99 163
62 98 162
63 99 168
62 98 160
63 98 162
62 99 167
62 98 163
62 98 161
62 98 159
62 98 156
63 99 163
62 98 157
62 98 159
62 98 158
62 98 166
62 98 163
60 96 145
62 98 163
62 99 166
62 98 164
62 98 159
61 97 153
61 97 156
62 98 160
62 98 162
62 97 156
63 98 160
62 99 164
61 97 151
62 98 161
61 97 155
61 97 153
62 97 156
61 97 156
61 97 156
61 97 163
61 97 154
61 97 153
62 97 153
62 97 152
61 97 156
62 98 161
61 97 156
61 97 154
61 96 151
61 96 147
62 98 159
61 97 152
62 98 154
62 97 157
60 94 140
61 96 148
60 95 148
62 98 159
60 95 142
61 96 153
59 94 141
60 94 138
60 95 144
60 95 142
60 93 135
60 93 137
61 92 132
71 87 102
81 92 87
87 90 46
103 103 20
87 84 9
85 83 12
88 86 8
83 82 3
76 74 8
91 89 8
87 86 9
99 96 18
81 80 11
88 86 0
105 103 18
93 92 18
90 89 12
89 87 23
101 98 14
109 107 20
98 97 20
107 105 33
106 104 25
110 106 25
102 101 20
103 101 18
97 96 26
112 109 21
106 105 28
114 113 16
117 114 29
111 110 24
104 102 21
126 122 30
111 110 23
109 106 21
117 114 25
126 122 39
125 121 34
125 121 31
119 116 30
123 119 36
123 120 34
129 126 33
126 122 33
134 129 37
125 121 36
128 124 30
132 127 28
131 125 42
133 128 39
132 126 32
131 126 31
129 126 39
129 125 37
131 126 33
134 129 39
135 129 36
140 135 42
138 132 34
135 130 36
127 122 34
139 134 42
145 140 47
134 130 41
125 120 30
145 139 41
137 133 39
139 133 47
141 137 34
130 125 39
141 136 37
135 129 30
139 133 44
141 136 44
134 130 30
139 134 37
132 126 37
130 126 32
129 125 28
138 132 52
131 126 41
131 126 30
132 126 41
135 129 41
139 133 36
133 127 30
130 127 22
125 121 36
133 128 37
132 125 37
133 128 34
128 124 34
124 119 34
129 124 36
129 124 37
130 126 34
121 122 25
140 140 34
141 142 30
131 130 22
131 132 32
134 138 19
135 139 28
144 149 25
142 148 28
148 155 25
156 165 22
159 169 16
152 164 11
151 164 11
160 173 0
156 168 16
160 176 11
165 184 0
161 177 0
165 180 0
165 182 0
166 184 0
167 184 0
165 185 0
165 181 0
167 184 0
160 178 0
162 179 0
169 189 0
169 183 0
161 178 0
172 192 0
164 183 0
165 185 0
168 185 0
169 186 0
163 181 0
170 188 0
169 190 0
168 187 0
188 208 144
189 209 155
191 211 155
189 210 142
194 214 175
189 210 151
195 214 175
195 214 181
195 215 179
197 216 184
190 210 169
196 215 181
199 218 193
196 215 188
196 216 186
200 219 199
202 221 206
200 219 201
198 217 198
198 217 189
199 218 199
198 217 189
199 219 199
201 220 199
201 221 211
199 218 196
199 217 196
203 222 209
201 220 204
201 220 211
200 220 207
207 225 226
203 222 212
205 223 217
204 222 214
202 222 214
204 223 214
202 221 207
206 225 224
204 222 215
206 224 226
207 225 226
204 222 223
203 222 209
206 224 224
201 220 209
205 223 217
205 223 212
205 224 218
201 219 206
203 222 212
206 224 224
205 223 217
199 218 201
201 220 203
199 218 198
202 220 207
201 219 199
203 222 211
206 223 214
201 220 206
200 218 194
202 220 204
198 217 191
196 216 188
198 217 194
200 218 191
201 219 199
200 218 191
198 217 189
195 215 186
196 215 177
198 216 179
192 211 165
197 216 187
192 212 180
183 203 182
167 187 176
161 180 187
146 167 170
140 162 164
145 166 188
124 147 169
110 135 163
120 144 160
103 129 156
104 130 171
92 121 165
97 125 165
77 109 150
89 118 159
84 113 154
75 107 158
76 108 149
87 117 155
88 118 154
73 106 152
66 100 156
65 99 155
70 103 157
72 104 157
64 99 166
65 100 153
68 102 156
62 98 169
61 96 153
61 97 164
64 99 163
64 99 158
63 99 163
64 99 162
60 96 151
61 97 159
62 97 155
61 97 164
61 97 162
60 95 149
61 97 161
60 96 154
61 97 167
62 97 157
59 95 149
61 97 162
60 96 151
61 97 159
62 98 166
61 97 161
62 98 167
61 97 164
62 98 159
61 97 160
61 97 164
62 98 163
61 97 164
62 99 167
60 96 163
61 97 160
61 97 166
62 98 167
61 98 165
60 96 158
62 98 169
62 98 163
63 99 167
63 99 164
61 97 160
62 98 167
62 98 165
62 98 168
61 97 161
61 97 164
61 97 161
62 98 166
62 98 164
62 98 167
61 97 165
62 98 163
62 98 164
62 98 163
61 98 159
62 98 165
62 98 165
62 99 165
62 99 167
62 98 165
63 99 166
62 99 172
62 99 165
62 98 167
62 98 165
62 99 168
62 98 167
62 98 164
61 97 158
61 98 165
63 99 170
62 99 172
61 97 160
62 99 171
62 98 160
62 98 163
62 98 160
61 97 158
61 98 164
63 99 167
61 97 164
62 98 161
63 99 165
62 98 164
61 97 161
61 98 164
62 98 169
62 98 160
61 97 160
62 98 164
62 98 158
62 98 163
62 98 165
62 98 161
63 99 165
62 98 162
62 98 162
61 97 155
62 98 164
62 98 163
62 97 157
63 99 163
63 99 166
62 98 160
61 97 155
62 98 166
62 99 165
62 98 162
61 97 158
61 97 150
61 97 159
62 98 163
62 98 153
62 98 162
61 97 151
61 97 155
62 97 156
63 99 161
61 97 155
62 98 158
62 98 161
63 99 164
61 96 151
62 98 161
63 99 164
62 97 155
62 98 157
62 98 162
62 98 159
63 99 165
61 97 157
62 98 159
61 97 154
63 98 156
61 97 156
62 98 159
61 96 150
62 98 157
61 97 151
61 97 153
60 95 146
62 98 155
61 97 150
60 95 143
60 96 150
61 95 149
60 94 143
59 94 145
61 96 143
61 97 147
60 94 138
60 94 138
61 95 141
60 94 141
60 94 141
59 92 133
58 91 128
59 91 129
72 92 99
84 95 78
89 91 33
103 103 11
93 91 5
94 90 16
91 91 8
93 90 18
72 68 14
91 90 12
92 91 16
87 84 17
94 91 22
107 103 3
82 80 16
85 84 16
96 95 16
99 98 16
101 98 18
98 96 14
94 92 8
102 101 20
101 96 16
102 99 18
106 105 18
108 105 22
111 109 25
110 108 26
111 108 33
110 106 16
120 117 22
99 96 24
117 113 33
119 114 31
109 107 21
121 118 31
124 120 24
120 117 29
120 116 33
123 120 29
114 110 37
111 110 29
128 123 30
121 118 22
132 129 39
133 129 28
126 121 28
127 124 31
130 126 37
131 125 27
124 121 26
134 130 38
131 126 38
135 130 43
125 121 22
133 128 38
139 134 42
131 128 40
134 130 22
127 123 25
133 127 37
137 131 45
136 131 36
133 129 36
138 132 39
140 137 36
141 135 47
137 132 41
136 132 30
131 126 41
136 131 30
136 131 34
133 128 32
128 123 34
138 132 34
134 129 42
141 135 41
130 126 36
128 123 28
139 133 45
140 133 42
127 123 36
125 120 34
125 119 32
129 123 32
125 120 36
136 130 42
121 116 36
133 129 32
125 119 34
122 117 37
127 123 37
127 121 16
133 128 34
129 126 25
133 131 28
125 125 22
136 134 37
138 140 36
126 128 16
144 150 28
140 145 11
141 145 28
138 144 11
135 142 0
138 145 16
150 159 22
158 169 16
152 163 16
155 167 0
151 162 16
158 172 0
165 183 11
168 184 0
159 176 0
160 177 0
166 182 0
158 173 0
169 185 0
165 181 0
163 178 0
161 175 0
167 184 0
163 178 0
163 182 0
157 175 0
161 180 0
166 184 0
166 185 0
163 181 0
168 187 0
168 186 0
166 185 0
162 181 0
168 187 0
166 183 0
167 184 0
194 213 165
191 211 163
193 212 165
196 215 175
193 213 171
190 210 153
195 214 169
190 210 161
194 213 167
195 214 188
196 215 181
201 220 203
194 214 177
201 219 204
202 221 207
201 220 203
200 219 194
199 218 194
204 221 206
197 216 184
204 223 215
204 223 212
202 221 209
201 220 206
200 219 204
203 221 207
202 221 215
206 224 224
199 218 194
198 218 201
208 225 227
205 223 218
204 222 212
202 220 206
202 221 214
203 221 207
207 225 226
207 225 221
205 224 217
204 223 218
203 221 211
204 222 215
206 224 220
206 224 224
208 225 226
203 222 214
205 223 224
203 222 217
205 223 223
207 225 223
204 222 215
202 220 214
202 222 212
205 224 221
205 223 217
202 220 203
201 219 203
205 223 214
205 223 215
203 222 214
202 220 207
204 223 214
199 219 198
201 219 201
202 220 201
201 219 207
204 222 207
203 222 209
202 220 199
200 218 191
200 218 201
203 222 206
196 215 179
197 215 190
192 211 183
192 210 177
180 199 181
177 196 192
173 192 197
150 170 183
148 169 191
135 157 183
133 156 181
133 156 175
112 136 168
123 147 166
100 126 169
97 124 165
87 116 159
87 116 159
86 116 157
78 108 155
82 112 150
71 104 164
82 113 163
68 101 148
73 106 162
79 111 165
68 102 155
68 102 156
65 100 158
63 98 156
76 108 159
66 100 161
63 99 158
63 99 158
61 97 157
64 98 161
62 98 163
61 97 164
61 97 161
63 98 159
62 98 157
61 97 163
66 101 165
62 98 165
61 97 157
60 96 158
61 98 164
62 98 169
61 98 167
61 97 166
62 98 165
61 97 162
61 97 159
61 97 159
61 98 165
62 98 163
61 97 163
61 98 168
61 98 168
61 97 161
61 98 164
61 97 170
61 97 164
61 97 156
62 98 166
61 97 159
62 98 167
61 98 165
62 98 166
60 97 157
62 98 166
62 98 158
62 98 166
61 97 163
61 98 165
62 98 163
61 97 158
62 98 160
62 99 166
62 99 169
62 98 164
62 99 171
62 98 169
62 98 165
62 98 160
62 98 166
61 97 161
62 99 170
61 97 158
62 98 169
63 99 167
62 98 161
62 98 158
63 99 168
61 97 159
61 98 162
62 98 162
62 98 161
62 98 163
62 98 160
62 98 164
62 98 169
62 98 161
62 98 167
61 97 156
62 98 164
62 98 166
62 98 169
62 98 162
61 97 159
62 98 164
62 98 161
61 97 158
62 98 162
62 98 165
63 100 171
61 97 163
61 97 163
62 98 166
62 98 164
62 99 168
61 97 155
61 97 155
63 99 162
62 98 167
62 98 161
61 97 155
63 99 164
61 97 157
61 97 156
62 98 164
62 98 160
61 97 157
61 98 158
62 98 165
61 97 156
62 98 160
62 98 164
61 97 157
62 98 163
61 97 160
63 99 164
61 97 155
61 97 153
62 98 154
62 98 163
62 98 161
63 99 160
62 98 163
62 98 156
62 98 163
63 99 164
61 97 162
61 97 158
61 97 154
62 98 156
62 97 155
62 98 160
63 99 167
62 97 158
61 97 152
61 96 150
63 99 164
61 96 150
62 98 163
62 98 157
61 96 148
61 96 148
62 97 152
61 96 150
61 97 156
61 97 153
61 97 157
61 97 154
60 95 144
63 99 163
62 97 157
61 96 148
61 96 150
60 95 141
61 96 144
62 97 153
61 96 151
60 95 142
60 94 140
60 95 144
61 95 145
60 94 140
58 92 135
60 94 138
62 91 127
70 91 106
77 86 73
83 83 42
90 90 14
94 91 11
86 84 8
91 89 8
82 80 3
91 86 0
85 84 8
77 74 8
86 85 16
75 73 14
89 88 0
95 93 8
94 93 11
98 98 11
89 87 8
104 101 2
97 97 21
87 87 22
103 100 14
86 84 10
96 95 28
90 87 12
109 107 21
100 97 18
101 98 22
119 115 28
106 104 16
118 115 36
111 109 24
109 107 18
114 111 31
121 118 16
119 115 21
110 110 16
117 115 28
120 116 25
114 110 26
124 121 33
131 127 31
125 121 26
122 118 22
130 127 35
116 114 31
118 115 31
123 119 34
119 115 25
130 126 36
131 126 38
128 123 41
127 120 39
122 118 34
131 127 36
129 124 30
143 138 41
128 124 37
127 123 32
128 124 37
130 124 37
128 124 25
127 122 36
133 128 32
138 134 22
139 135 34
130 125 34
133 129 30
125 121 32
134 128 39
131 125 36
128 124 25
133 129 28
133 128 28
129 125 39
131 127 28
133 128 32
120 116 25
134 128 36
132 128 39
130 125 28
137 131 37
124 118 34
132 126 34
131 126 36
121 118 28
127 122 39
133 127 36
124 118 34
119 115 32
119 116 25
128 126 28
122 119 28
127 122 32
129 127 22
134 130 34
126 126 28
124 123 25
135 137 28
135 136 36
138 142 25
143 146 28
137 142 19
143 152 11
145 154 19
150 160 11
150 161 16
154 163 22
152 164 11
154 163 11
161 173 0
162 176 11
158 170 0
155 169 0
165 182 0
164 182 0
163 180 0
162 175 0
165 184 0
164 180 0
164 180 0
164 181 0
164 181 0
157 171 0
168 188 0
165 182 0
168 186 0
169 188 0
168 186 0
163 181 0
165 184 0
168 188 0
163 180 0
170 189 0
161 179 0
166 185 0
168 188 0
191 211 167
188 208 151
195 214 169
197 216 184
200 219 199
197 215 186
196 215 184
202 221 207
196 215 188
200 219 198
199 218 198
199 218 193
194 214 181
203 222 217
197 217 191
202 221 209
205 223 217
200 219 199
201 221 209
200 219 198
207 225 227
205 223 220
203 222 209
203 221 207
204 223 214
202 220 204
208 226 227
204 222 217
206 224 223
204 223 217
206 224 227
204 223 220
206 224 227
203 221 214
203 222 221
206 225 224
206 224 221
205 224 221
204 223 217
206 224 223
206 225 228
205 223 220
205 224 218
206 225 224
208 226 230
208 226 227
206 224 223
209 226 233
206 224 226
204 223 220
207 225 226
202 221 209
210 227 231
207 225 227
201 220 211
205 223 217
206 224 223
205 223 218
204 223 214
206 224 218
208 226 224
201 220 207
203 221 203
201 219 199
204 222 214
199 218 199
201 219 206
204 222 214
203 222 211
206 224 217
202 221 211
202 220 199
196 216 181
197 216 190
197 215 203
191 210 195
186 204 199
163 183 185
165 184 194
155 175 194
153 173 194
141 162 188
124 148 178
138 159 180
117 141 175
119 143 175
108 133 179
92 120 164
100 127 161
79 110 157
92 121 163
85 115 161
80 111 160
77 108 161
89 118 152
73 106 161
77 108 152
84 114 162
70 103 162
83 114 155
73 105 150
70 104 162
72 105 154
71 105 152
63 98 155
67 102 161
65 100 159
62 97 153
64 99 150
63 99 162
64 99 160
60 96 158
61 97 160
62 98 165
61 97 151
63 98 160
61 97 156
60 95 151
61 97 163
61 97 161
62 98 160
60 96 152
62 98 163
62 98 160
60 96 155
61 97 163
62 98 168
61 96 159
61 98 168
61 97 164
62 98 168
62 98 165
61 97 167
61 98 165
61 97 159
61 98 164
61 97 155
61 97 161
61 98 161
61 96 155
62 98 166
61 97 162
62 98 163
61 97 162
60 96 158
62 98 168
62 98 168
61 97 165
62 98 164
62 98 166
61 97 159
61 97 156
62 98 165
61 97 160
62 98 167
61 98 163
61 97 157
61 98 162
63 99 165
62 98 163
62 98 163
62 98 164
62 99 168
61 97 155
61 97 160
62 98 161
62 98 163
61 97 156
61 97 158
61 98 162
62 98 167
61 97 159
61 98 161
62 99 168
62 98 161
63 99 171
62 98 161
61 97 159
62 98 164
63 99 165
62 98 170
61 97 159
62 98 160
61 98 165
62 98 162
62 98 163
61 98 162
62 98 160
61 97 162
62 98 160
62 98 162
62 98 160
62 97 157
62 98 165
61 97 164
63 98 161
61 97 156
62 98 157
62 98 160
61 96 151
62 98 162
62 99 163
61 96 153
62 98 161
62 98 156
62 97 156
62 98 160
62 98 158
62 98 161
61 97 158
62 98 160
62 97 155
62 98 160
61 97 154
62 98 157
62 97 152
62 98 159
62 98 160
62 98 164
62 98 157
62 97 156
62 98 158
62 98 156
62 97 150
62 98 162
62 97 152
61 97 156
62 98 159
63 99 167
62 98 154
62 98 160
62 98 159
61 96 149
61 97 152
61 96 142
61 97 151
61 97 148
61 97 147
61 96 149
62 98 158
61 97 149
61 96 145
60 95 139
63 98 158
61 97 154
62 97 152
61 97 149
62 97 153
62 97 152
61 95 149
61 97 151
60 95 148
61 95 148
60 95 145
60 95 141
60 94 139
60 95 148
60 94 138
60 94 140
59 93 136
60 95 145
60 93 143
61 86 106
68 87 103
76 86 79
86 88 26
90 89 14
103 103 14
108 108 14
90 89 12
90 88 0
93 90 8
91 89 14
86 83 11
83 80 9
85 84 11
88 85 14
94 93 3
83 81 14
87 86 16
93 91 14
89 87 8
95 93 0
86 84 11
99 98 14
94 93 16
103 100 11
89 86 9
101 97 16
101 99 24
104 101 15
117 113 30
113 109 22
92 91 20
108 104 22
112 110 22
115 112 36
112 112 24
115 112 19
123 119 36
117 113 26
121 118 26
109 107 21
110 107 33
119 114 29
121 117 24
121 118 25
120 118 21
117 114 21
119 116 22
120 116 24
124 119 19
131 127 37
129 124 32
127 123 30
127 122 24
137 132 44
125 123 25
127 122 34
122 119 22
135 131 40
138 133 30
125 122 24
130 126 34
121 118 25
137 132 44
127 122 30
130 125 36
132 126 30
135 130 39
125 123 30
134 130 37
135 128 37
139 135 30
115 113 19
122 117 32
132 127 30
131 126 36
132 127 36
126 122 25
131 127 28
126 121 34
132 127 34
124 118 30
128 123 32
132 124 32
126 122 34
133 127 32
130 124 32
124 118 37
122 118 22
121 116 25
121 118 34
127 122 30
121 118 34
139 136 34
133 131 25
131 128 25
136 135 28
130 132 0
129 131 34
138 141 22
129 133 11
136 143 16
142 148 30
140 147 28
147 153 11
148 157 16
157 168 19
154 164 16
154 166 0
158 171 11
162 176 0
158 170 0
154 167 0
164 177 0
164 179 0
162 178 0
162 177 0
164 180 0
161 178 0
164 179 0
167 182 0
158 173 0
166 184 0
167 187 0
165 184 0
163 179 0
159 177 0
162 178 0
168 187 0
167 186 0
165 182 0
159 177 0
169 187 0
167 186 0
169 190 0
164 182 0
170 189 0
163 181 0
195 214 181
192 211 167
191 211 163
196 215 179
195 215 179
201 219 194
195 215 184
195 215 188
202 220 207
199 218 199
199 218 189
204 222 211
202 221 206
201 219 203
197 216 196
204 222 220
201 220 214
205 223 220
206 225 224
201 220 204
202 221 211
204 222 212
206 224 221
203 222 215
208 226 226
203 222 212
206 224 221
207 225 228
205 224 218
204 223 224
208 226 230
205 223 214
206 224 224
207 225 228
203 221 217
205 223 226
206 224 223
210 228 234
207 226 231
210 227 233
208 226 234
209 227 234
206 224 226
207 225 226
209 227 231
204 222 217
210 227 234
207 225 228
208 226 230
207 224 223
205 223 224
208 225 230
206 224 223
204 223 218
205 223 223
208 226 230
204 223 220
208 226 228
204 223 221
209 227 230
204 222 214
203 221 211
206 223 217
204 222 215
206 224 217
202 220 203
205 223 214
204 222 214
201 219 204
206 224 220
202 221 207
199 218 191
201 219 203
200 218 203
192 210 200
189 207 196
173 193 193
173 192 206
163 183 200
151 170 199
149 170 194
160 179 203
136 158 194
142 164 188
119 143 179
126 149 181
96 124 175
105 131 174
96 123 167
83 114 162
76 108 154
86 116 157
79 110 160
96 124 163
84 114 173
75 107 161
79 109 156
77 109 158
80 110 159
75 107 157
71 104 154
68 103 158
68 102 168
68 103 157
67 101 157
62 97 158
62 97 154
63 97 157
64 99 160
60 96 158
61 97 162
61 97 159
63 99 166
64 100 165
61 97 162
61 97 161
63 98 161
62 98 164
60 96 158
61 97 156
61 98 167
61 97 160
60 96 156
60 96 159
61 97 166
61 97 158
61 97 160
60 96 155
60 96 157
62 98 161
62 98 161
62 98 161
61 97 161
62 98 162
61 97 156
60 95 156
61 96 158
61 97 160
61 97 166
60 95 151
61 97 159
63 99 170
61 97 160
61 97 160
62 97 158
62 98 165
62 98 165
60 96 153
61 97 163
60 96 151
62 98 166
62 98 164
61 97 162
62 98 166
62 98 165
62 98 159
61 96 158
62 97 160
62 98 165
62 98 165
62 98 156
62 98 165
62 98 165
61 98 167
63 99 165
61 97 159
62 98 158
62 98 162
62 98 163
62 98 165
61 97 161
61 98 162
61 97 155
61 97 155
62 98 161
62 98 164
61 97 158
62 98 161
62 98 154
61 98 164
61 97 162
62 98 164
61 97 161
61 98 161
63 99 167
62 99 169
63 99 163
61 98 161
61 97 155
61 97 160
62 99 167
62 97 159
62 98 158
61 97 155
62 98 163
61 97 152
61 97 157
62 98 163
62 98 156
61 97 151
63 99 161
62 98 160
62 98 162
61 97 156
62 98 161
61 97 157
61 97 157
62 98 159
62 97 157
62 98 159
62 98 162
62 98 156
62 98 162
62 98 162
62 98 159
60 96 154
62 98 155
62 97 155
62 98 156
62 98 157
61 97 157
61 96 151
62 98 159
62 98 166
62 98 156
62 97 155
62 98 159
62 98 159
61 97 155
62 97 157
62 97 152
61 97 149
62 97 155
62 97 154
61 97 152
62 98 159
61 97 154
62 98 163
61 96 151
62 98 157
61 96 152
61 96 147
61 96 149
61 96 150
61 97 153
62 98 159
61 96 148
60 94 142
62 97 150
62 97 148
61 96 153
61 96 147
60 95 152
61 95 143
61 96 151
61 96 146
60 95 140
60 94 149
60 94 139
60 94 143
58 91 135
60 93 128
70 95 120
84 100 107
91 97 61
97 98 36
96 97 0
106 107 18
94 93 0
100 98 11
89 87 0
89 87 11
80 80 11
92 91 0
83 80 14
87 84 16
76 74 3
92 89 14
94 90 11
89 86 21
97 93 16
103 99 18
100 99 11
98 95 14
99 97 21
99 97 3
103 100 22
115 110 21
90 89 16
98 94 8
105 101 18
109 106 26
108 106 16
102 101 18
112 109 22
108 105 18
107 105 18
101 100 18
113 111 18
106 103 18
115 113 14
124 121 19
115 111 33
104 103 16
118 113 29
120 115 25
115 112 25
127 121 25
125 121 25
118 115 19
120 117 31
132 128 22
128 125 28
121 116 25
126 122 25
116 113 28
125 121 25
129 125 26
125 120 22
127 123 28
140 134 36
129 123 32
130 126 30
143 138 36
125 121 28
124 119 32
133 130 36
141 135 41
130 124 37
130 126 36
122 118 25
138 134 36
132 127 25
134 130 32
134 128 39
126 121 19
136 131 28
133 127 41
131 127 30
133 127 32
120 115 25
128 123 30
128 123 30
134 128 34
129 124 28
129 123 25
126 120 32
128 123 25
131 125 34
129 122 32
124 121 30
123 118 25
128 125 19
135 133 28
136 133 37
134 131 30
127 125 32
122 122 16
143 146 25
135 134 22
132 136 22
136 138 25
140 148 11
139 144 16
144 151 0
146 153 19
144 152 11
154 167 11
151 162 0
153 162 16
158 169 16
160 170 16
161 175 11
158 170 0
162 177 0
160 173 0
159 171 0
162 177 0
155 169 0
163 179 0
161 173 0
164 180 0
168 185 0
167 183 0
165 182 0
163 179 0
161 176 0
160 177 0
167 185 0
164 183 0
168 184 0
163 179 0
170 187 0
166 184 0
168 186 0
160 177 0
165 182 0
165 183 0
166 182 0
166 185 0
194 213 171
202 220 196
201 220 201
199 218 193
198 218 189
198 218 199
200 218 198
202 221 212
203 221 207
201 219 199
203 222 209
205 224 218
202 220 199
205 223 218
204 222 211
205 223 218
205 223 224
202 221 212
203 222 212
206 225 226
204 223 215
207 225 226
204 222 212
207 225 226
204 222 212
206 224 226
203 222 215
209 226 230
208 226 227
207 225 231
209 226 234
209 226 231
208 226 227
210 228 237
208 226 227
207 225 220
209 226 230
210 228 237
207 225 227
208 226 228
208 226 234
208 226 230
208 226 236
209 227 230
210 228 237
209 226 233
207 226 230
208 226 233
209 226 234
207 224 224
208 225 227
208 226 226
207 225 226
206 224 223
206 224 220
206 223 224
208 225 224
208 225 224
207 224 226
204 223 215
208 225 230
209 226 228
204 222 217
207 225 224
207 225 223
207 225 224
205 223 214
203 222 211
203 221 214
206 224 218
205 223 215
204 222 204
200 218 205
195 214 191
200 218 213
186 205 211
172 191 201
158 177 204
168 187 210
167 187 210
156 176 208
146 167 205
138 160 204
141 162 188
129 151 185
137 159 187
112 137 186
107 133 175
110 135 180
101 128 166
96 124 166
92 120 168
78 109 163
84 113 152
79 110 156
81 112 164
80 111 156
76 108 154
74 106 163
77 109 162
72 105 148
69 102 159
72 105 162
68 102 161
65 99 154
70 103 160
65 100 155
63 98 156
60 96 151
63 98 160
60 96 151
60 96 154
63 97 153
66 101 157
64 99 160
60 96 155
60 96 159
61 97 159
60 95 155
60 96 159
60 96 153
61 97 166
61 98 166
61 97 158
62 98 166
62 99 166
61 98 162
61 97 161
61 96 157
61 97 159
62 98 160
61 96 160
61 97 158
62 98 166
61 97 161
61 96 158
61 97 166
60 96 151
61 97 165
61 97 162
62 98 169
61 98 160
62 98 162
61 97 157
61 97 159
61 97 161
62 98 161
61 97 158
60 96 159
62 98 162
62 98 164
61 98 165
62 98 162
61 97 157
61 97 163
62 98 166
62 98 164
62 98 163
61 98 162
61 98 163
62 98 170
61 97 157
61 97 157
63 99 167
62 98 168
62 97 158
62 98 159
62 98 163
62 98 160
61 97 155
61 97 159
61 97 160
61 97 161
62 98 162
61 97 153
62 98 159
61 97 155
62 97 162
62 98 161
62 99 168
62 98 160
62 98 165
61 98 163
61 97 156
61 97 152
63 99 167
62 98 157
61 97 159
62 98 163
62 98 163
62 98 166
62 98 158
62 98 158
63 99 168
62 99 165
62 98 170
62 98 159
62 98 162
61 97 157
62 98 158
62 98 165
62 98 164
61 96 154
62 98 154
61 97 154
62 98 168
62 97 157
62 99 163
62 98 165
61 97 151
62 98 157
61 97 158
62 98 160
62 97 155
61 97 156
60 96 157
62 98 164
62 98 157
61 97 155
62 97 153
60 96 150
61 96 153
62 98 162
62 98 161
61 97 159
60 95 142
61 96 155
61 97 156
62 97 152
61 97 158
61 97 149
61 97 158
63 98 158
61 97 151
61 96 150
62 98 158
61 97 151
61 96 145
62 98 159
61 97 150
62 97 155
62 97 153
62 97 152
60 95 140
61 96 149
62 98 157
61 96 145
62 98 163
59 94 141
62 97 154
62 97 153
61 97 151
61 96 156
62 97 156
60 95 143
60 95 136
60 95 145
59 94 135
59 93 136
61 95 144
60 94 138
59 93 139
66 92 122
83 93 89
91 95 56
94 96 25
97 99 3
111 110 0
105 106 8
86 84 11
95 93 0
87 86 8
86 84 2
93 90 12
85 83 8
79 76 11
88 85 12
98 95 14
93 90 0
95 91 21
89 87 8
95 92 16
89 87 11
93 91 11
97 94 14
91 89 16
101 99 14
97 95 21
94 91 14
97 93 19
115 111 11
93 91 11
114 110 27
109 105 16
109 107 24
110 106 22
116 111 24
112 107 25
110 106 33
114 111 26
116 115 12
110 107 18
111 107 24
117 114 25
119 115 26
119 115 27
109 107 22
114 108 27
125 121 18
128 124 32
120 117 22
129 124 37
125 121 25
116 111 19
136 133 25
130 124 31
131 127 22
123 120 25
123 119 28
126 122 28
135 131 34
125 122 22
121 117 22
127 122 25
136 130 39
134 130 28
132 128 28
132 127 36
120 115 19
133 128 30
131 126 34
136 130 36
137 131 36
128 122 36
128 124 30
134 128 22
131 126 32
128 123 32
122 118 32
125 120 19
125 121 36
130 126 22
120 116 16
132 128 28
127 122 34
129 123 34
133 128 22
129 123 34
119 116 22
120 116 19
117 113 28
117 114 28
121 116 19
127 127 22
134 134 22
128 129 30
136 136 28
137 141 28
126 129 19
136 139 22
138 141 19
142 148 22
147 151 22
147 156 16
136 140 16
142 149 19
149 160 11
153 162 16
159 169 16
157 172 0
155 170 0
162 176 0
156 170 0
162 175 0
159 171 0
161 174 0
158 174 0
164 181 0
166 185 0
162 176 0
161 177 0
167 186 0
163 181 0
165 179 0
164 181 0
164 177 0
164 183 0
165 185 0
170 188 0
163 180 0
166 182 0
163 180 0
162 180 0
165 183 0
166 184 0
168 185 0
166 185 0
165 184 0
169 188 0
167 184 0
201 219 199
198 217 189
197 216 188
198 217 198
200 219 203
203 221 211
202 221 209
204 222 214
204 222 211
200 219 207
203 221 214
203 222 211
203 222 215
201 220 215
203 222 212
205 223 217
206 224 227
201 220 211
204 223 223
202 221 209
205 224 224
208 226 228
207 225 226
208 225 226
209 227 233
208 226 233
206 225 224
210 227 237
207 225 224
210 227 236
207 225 227
208 226 233
209 227 236
207 225 226
210 228 238
207 225 223
212 229 240
214 231 249
209 227 233
207 225 227
209 226 234
207 224 221
208 225 230
211 228 231
211 228 240
209 226 226
209 226 236
211 228 236
207 225 226
208 225 226
208 225 227
209 226 228
209 227 231
208 226 227
207 224 227
209 226 227
210 227 234
210 227 230
208 226 231
207 225 220
208 226 226
207 225 224
207 225 227
206 224 218
208 226 227
206 223 223
205 223 218
204 222 214
206 223 215
206 224 224
204 222 215
205 223 211
199 218 198
198 216 203
199 217 220
193 211 219
181 199 208
169 189 214
178 197 228
163 182 211
155 175 210
155 175 212
141 163 199
144 165 201
131 154 191
125 148 192
115 139 180
107 133 182
121 145 179
102 128 177
92 120 170
99 127 168
88 117 167
78 110 169
68 102 161
78 109 159
79 110 158
72 105 152
68 102 166
63 98 148
70 104 162
66 100 154
72 105 142
61 96 155
64 99 162
67 101 165
67 102 162
64 99 154
61 96 156
63 98 165
63 99 161
61 97 159
66 101 162
61 96 157
60 96 159
65 99 151
61 97 160
60 96 158
60 96 154
60 96 151
63 98 157
61 97 161
60 95 154
61 97 155
61 97 159
60 96 158
60 96 163
61 97 162
61 96 157
60 95 155
60 96 158
61 97 156
61 97 166
62 98 160
61 97 165
60 96 157
62 98 164
61 97 157
62 98 163
61 97 161
62 98 169
62 98 164
62 97 154
61 98 163
61 97 160
63 99 165
61 97 163
61 97 163
62 98 165
62 98 167
61 97 156
62 98 164
61 97 157
62 98 161
62 98 170
62 98 161
62 99 169
62 98 165
62 98 166
61 97 157
61 97 156
61 98 160
61 97 156
61 97 161
62 98 164
61 97 157
62 98 160
62 98 160
61 97 153
62 98 160
62 98 163
62 98 158
62 98 159
62 98 163
62 98 164
61 97 164
61 97 156
62 98 158
61 98 161
62 98 164
62 99 166
62 98 160
61 97 162
62 98 158
62 98 163
62 98 163
61 96 155
62 98 159
63 99 165
62 98 169
61 97 156
61 97 154
63 98 160
61 97 158
62 97 157
62 97 153
63 99 163
61 97 160
63 99 165
61 96 149
63 99 163
62 98 162
62 97 160
61 97 155
62 99 168
61 97 153
61 97 152
62 98 159
61 97 158
62 97 154
62 97 159
62 98 161
62 98 161
63 99 164
61 97 157
61 97 155
61 97 156
61 97 154
62 98 155
61 97 153
61 97 156
61 97 155
62 97 148
61 96 153
62 98 154
61 97 154
61 97 151
61 97 151
61 97 153
62 98 154
61 97 153
62 98 155
62 98 153
61 96 151
62 98 157
60 96 149
62 98 156
62 98 156
62 97 152
61 96 148
60 95 145
61 97 150
62 98 159
62 97 155
61 96 148
61 97 149
61 96 149
61 97 150
62 97 150
61 95 146
60 95 149
60 95 143
62 97 151
62 97 149
60 95 144
59 93 136
60 94 142
60 95 144
60 95 140
60 94 140
60 94 143
57 89 125
75 97 114
75 88 89
94 97 55
107 107 26
102 100 11
94 93 18
96 96 16
102 99 12
105 104 11
88 88 8
99 96 0
91 90 0
90 87 14
89 87 0
89 86 11
90 88 0
80 77 18
96 93 0
88 87 8
92 88 14
109 105 3
84 83 8
96 93 8
96 93 19
93 91 1
114 109 11
96 94 16
110 107 16
101 99 11
113 110 25
113 110 26
103 101 14
108 103 19
116 113 29
114 110 18
105 103 22
117 112 19
123 118 19
115 111 14
108 104 12
107 103 11
120 116 18
114 110 18
116 112 19
126 122 25
115 111 25
128 122 32
121 116 30
123 118 25
118 116 19
120 115 33
120 116 31
113 109 19
114 111 28
124 120 29
116 112 22
128 122 16
131 126 26
119 116 22
129 125 31
126 120 28
126 121 30
131 127 26
124 121 25
128 124 32
129 125 30
120 117 22
131 127 32
120 116 19
134 130 25
126 122 30
125 119 30
131 126 30
128 123 25
118 114 25
115 110 22
125 120 25
125 119 25
117 112 16
124 119 30
136 130 39
128 123 32
131 127 28
130 123 36
128 123 28
114 112 11
131 127 19
129 124 28
118 115 25
121 118 19
134 131 22
133 131 30
133 134 25
135 137 19
133 130 25
135 135 28
138 142 22
140 143 25
146 151 11
135 138 0
142 152 0
143 149 11
145 153 19
151 159 16
150 156 19
153 166 11
153 163 16
157 170 0
156 167 11
151 163 0
164 179 0
166 182 0
163 177 0
163 176 0
162 176 0
162 179 0
159 172 0
160 175 0
166 182 0
159 176 0
165 182 0
167 183 0
166 182 0
163 179 0
164 181 0
164 181 0
163 181 0
166 184 0
165 181 0
168 184 0
166 184 0
165 183 0
167 186 0
168 185 0
168 187 0
162 179 0
164 182 0
170 188 0
200 219 198
198 217 191
201 220 203
200 219 204
198 218 201
204 222 212
201 220 198
204 222 211
202 221 206
203 221 206
204 223 217
205 224 217
204 222 218
204 223 215
206 224 223
206 224 221
206 224 220
203 222 212
208 226 224
210 227 233
210 228 240
208 226 230
208 226 228
210 227 233
208 225 230
207 225 224
210 228 245
206 224 221
206 224 223
208 226 230
210 228 234
214 230 244
208 225 230
212 229 238
209 226 231
211 228 240
210 228 236
208 226 233
211 228 236
205 223 230
209 226 231
211 228 236
210 228 234
209 226 228
207 224 227
207 225 230
206 224 228
207 225 228
207 224 228
211 228 240
207 225 221
208 226 230
207 225 230
209 227 231
209 227 231
212 229 234
210 227 228
209 226 231
206 224 221
207 225 228
208 226 231
210 227 231
208 225 223
207 225 220
207 224 227
206 224 226
208 226 227
210 227 231
209 226 230
208 226 228
204 223 215
205 223 214
204 222 216
196 214 208
195 213 217
188 206 214
189 207 229
180 199 218
171 190 220
163 182 216
155 175 213
145 166 206
151 171 206
147 168 203
129 151 191
125 148 192
126 149 193
115 140 178
96 124 181
108 135 181
102 129 181
93 121 178
88 117 169
93 121 166
88 117 171
86 115 160
82 113 159
88 117 161
69 102 160
73 104 148
69 103 165
81 111 160
65 100 157
71 104 157
74 106 153
65 99 155
67 102 162
62 97 153
62 97 152
66 101 165
63 99 163
63 98 160
63 98 159
61 97 154
63 97 153
61 97 158
63 98 154
63 98 154
61 97 161
60 97 161
61 97 154
60 96 159
61 97 159
61 97 164
60 96 157
60 96 157
61 97 159
60 96 156
61 97 158
62 98 162
62 98 160
61 96 154
61 97 164
62 98 161
62 98 161
62 98 164
62 98 166
62 98 169
61 98 163
61 97 163
61 97 162
60 96 150
62 98 160
62 98 168
60 96 155
62 98 167
62 98 164
62 98 162
62 98 165
61 98 164
62 97 158
60 95 151
62 98 167
60 96 158
61 97 156
61 97 159
61 98 162
63 99 163
61 97 157
62 97 154
62 98 165
60 96 155
61 97 159
62 98 160
61 97 164
62 98 154
63 99 166
61 97 161
62 98 165
62 98 161
61 97 158
61 97 153
61 97 156
60 96 155
61 97 151
62 98 161
62 98 158
62 98 163
62 98 165
61 97 149
61 97 162
62 98 155
62 99 165
61 96 148
62 98 159
62 98 162
62 98 160
63 99 170
62 98 160
61 97 157
61 96 148
62 98 158
62 98 163
63 98 162
61 97 157
62 98 162
61 97 160
62 98 159
61 97 158
63 99 160
62 98 163
61 97 157
62 98 161
61 98 158
62 98 158
62 98 159
61 97 155
61 97 156
62 98 161
62 98 157
61 97 154
62 98 163
62 98 163
61 98 159
63 99 162
63 99 163
61 97 159
62 98 159
62 97 154
61 96 154
61 97 155
61 96 153
61 97 150
61 96 153
61 97 150
61 97 156
62 98 156
61 96 151
61 97 153
60 96 147
61 97 153
63 99 160
61 97 150
61 96 148
61 96 149
62 97 153
62 98 156
61 97 150
63 99 164
61 97 155
61 97 154
61 97 149
61 96 152
62 97 153
61 97 153
61 97 152
60 96 152
59 94 139
62 98 158
61 96 145
61 97 150
60 95 148
61 97 149
59 93 138
60 94 139
59 93 137
61 96 147
59 93 140
58 92 129
59 93 139
59 93 131
59 92 137
78 94 95
84 96 87
92 98 46
107 109 26
114 118 0
91 91 5
92 91 0
103 104 0
94 93 11
95 94 8
97 96 11
99 98 0
91 89 8
92 90 0
94 91 11
93 91 0
86 83 14
95 90 14
79 76 2
95 91 18
92 89 14
98 96 16
91 89 0
104 99 14
87 84 14
94 91 8
92 89 0
102 100 14
97 96 8
102 100 0
110 107 21
118 112 24
109 105 14
111 105 18
102 98 8
105 101 14
99 97 11
115 110 24
115 112 19
113 110 18
116 112 25
118 113 11
117 112 19
111 108 18
117 114 24
112 108 24
120 116 14
118 113 25
127 123 28
124 118 22
122 119 19
121 117 16
132 127 32
115 112 16
124 120 30
127 123 24
125 121 29
115 112 19
128 122 30
125 120 25
118 115 19
133 128 30
125 122 16
129 124 30
125 122 32
125 121 30
123 119 25
128 123 34
130 125 34
125 121 30
127 123 32
128 124 25
119 115 22
119 115 16
126 120 22
124 121 22
121 116 25
120 115 30
121 116 28
128 122 30
119 115 22
124 119 28
110 106 16
128 124 32
133 129 19
131 128 11
121 115 28
122 121 19
136 133 34
132 131 22
129 128 19
132 130 16
135 138 16
127 125 16
138 140 16
136 140 19
140 145 19
134 136 25
134 141 0
144 150 30
146 153 11
145 151 0
150 161 19
152 160 0
159 170 19
159 169 11
157 169 11
159 172 0
158 171 0
166 180 0
163 178 0
164 180 0
162 177 0
157 170 0
158 172 0
163 177 0
158 175 0
163 180 0
162 179 0
167 184 0
164 181 0
161 177 0
164 181 0
161 176 0
170 188 0
163 179 0
165 181 0
165 181 0
164 182 0
166 184 0
164 184 0
168 187 0
165 184 0
167 186 0
168 186 0
165 181 0
164 182 0
168 187 0
201 220 203
201 219 203
200 219 199
202 221 209
204 222 211
203 222 212
203 222 212
203 221 209
207 225 223
201 220 211
206 224 220
204 222 217
205 223 217
206 224 223
208 225 228
204 222 212
207 225 226
210 228 234
209 227 230
209 227 237
205 224 224
205 223 217
210 227 237
213 230 241
211 228 237
207 225 227
208 226 233
208 226 227
209 226 233
208 226 230
211 228 236
209 227 233
207 224 226
205 223 224
211 228 236
204 222 218
204 222 220
207 225 227
203 221 218
206 224 224
210 227 228
209 226 227
207 225 228
210 227 234
206 224 223
206 223 221
207 225 227
208 226 233
208 225 228
206 224 221
209 227 233
208 225 226
208 226 226
207 225 233
208 225 226
205 222 223
210 227 231
211 228 236
205 224 221
205 223 221
206 224 220
209 227 233
209 226 233
210 227 234
210 227 236
210 227 234
206 224 226
209 226 230
210 227 233
206 223 221
210 227 233
208 226 221
203 221 213
205 222 232
184 203 209
190 207 222
180 198 223
167 186 211
162 182 214
151 172 211
153 173 205
150 170 211
154 175 209
149 170 208
126 149 191
120 144 194
121 145 194
121 145 191
119 143 188
111 136 184
106 132 183
105 131 188
77 109 168
86 116 170
72 105 157
70 104 171
74 107 158
74 107 163
72 105 163
76 108 162
79 110 164
78 110 163
73 105 156
73 106 154
65 100 159
64 100 161
74 106 160
67 102 157
69 103 160
61 97 160
61 97 165
62 97 153
61 97 160
61 96 149
62 98 161
62 97 157
60 95 149
61 97 159
60 96 159
60 95 154
60 97 160
61 98 161
60 96 160
59 94 146
61 98 162
61 97 158
60 96 155
61 97 160
61 97 159
62 98 161
62 97 161
61 96 160
61 96 149
61 97 165
62 98 160
62 98 163
61 97 164
61 97 159
62 98 165
60 96 153
61 96 159
61 96 160
60 96 158
61 97 169
61 97 154
62 98 171
61 98 162
61 97 162
61 96 158
61 97 160
62 98 160
62 97 157
62 98 158
61 97 155
62 99 168
61 97 156
62 98 166
61 97 158
61 97 161
62 98 161
62 98 164
62 98 166
62 97 163
61 97 160
61 96 153
62 98 161
61 97 159
62 98 165
61 97 159
61 96 161
61 97 158
61 97 154
62 98 168
61 97 156
62 98 161
62 98 162
61 97 159
62 98 156
61 96 153
62 99 167
63 99 167
61 97 156
62 97 160
61 97 158
61 97 157
62 98 158
62 98 158
61 97 154
61 97 158
61 96 150
62 98 160
62 98 165
62 98 162
63 99 164
63 99 164
61 97 156
62 98 156
63 98 162
61 97 157
62 98 159
61 97 160
62 98 160
61 96 148
62 97 156
61 97 152
61 97 156
61 97 156
61 97 158
61 97 159
62 98 164
61 97 152
62 97 155
61 97 155
62 98 154
61 97 156
62 98 163
61 97 150
61 97 158
62 98 163
61 97 156
61 97 154
62 97 151
62 97 153
61 97 159
61 96 152
62 97 151
62 97 158
62 98 157
63 99 163
62 98 155
62 98 155
61 96 142
62 98 158
62 98 156
61 96 141
62 97 151
61 97 150
61 97 152
61 97 152
62 98 154
62 98 153
61 97 153
61 96 153
60 95 143
61 96 148
61 96 150
60 95 144
61 96 154
62 97 155
58 92 135
60 95 140
60 95 143
61 95 144
61 95 145
61 96 147
59 93 133
61 95 142
59 93 133
61 95 143
60 94 139
58 92 122
66 96 138
77 95 100
95 104 65
101 106 34
97 101 0
98 100 11
101 103 11
97 99 11
106 106 11
100 99 8
86 85 14
97 97 16
86 86 0
98 100 11
94 91 18
92 91 11
97 95 0
89 87 3
99 93 19
101 97 14
99 95 11
94 91 14
88 88 0
90 87 0
106 102 3
95 91 3
94 91 8
103 101 8
95 90 11
104 101 16
99 96 0
101 99 9
94 91 3
98 95 0
107 105 16
104 102 11
95 92 14
110 105 14
110 107 14
106 101 16
114 110 14
108 103 22
120 115 16
113 110 21
103 100 0
114 109 19
114 111 21
109 105 16
105 103 16
118 113 18
110 107 19
126 122 19
119 115 16
124 120 28
119 115 22
108 104 11
120 116 14
126 121 28
127 121 19
118 115 19
112 108 19
126 122 28
131 126 37
113 109 16
120 114 25
124 118 22
130 125 37
123 118 25
130 125 25
116 112 16
122 117 22
124 120 22
129 122 28
117 112 19
127 121 19
126 120 28
124 119 32
133 128 30
121 117 22
127 119 28
117 112 16
128 123 22
119 115 22
122 117 22
119 116 30
128 125 22
126 122 19
129 127 22
132 131 28
120 119 22
130 129 28
134 132 34
130 132 19
134 138 16
138 143 16
147 152 16
135 138 11
142 146 19
144 151 16
143 151 22
137 147 11
152 163 11
150 159 25
149 159 0
153 164 0
156 172 11
156 166 0
154 166 0
163 176 0
160 174 0
162 178 0
165 180 0
157 169 0
164 178 0
158 175 0
157 169 0
158 172 0
163 176 0
161 174 0
167 185 0
167 183 0
162 180 0
159 177 0
162 179 0
165 182 0
157 175 0
164 180 0
168 188 0
169 188 0
161 179 0
165 185 0
164 183 0
163 180 0
169 188 0
164 182 0
167 184 0
169 186 0
169 188 0
170 186 0
198 217 196
201 220 199
201 220 204
203 222 211
205 223 218
206 224 220
201 220 203
204 222 214
206 224 221
205 223 218
208 226 228
206 224 217
204 223 223
206 224 223
205 223 220
209 226 230
210 227 230
205 223 223
210 227 234
212 229 241
208 226 230
211 228 236
208 226 231
209 227 233
207 225 230
208 226 231
209 226 231
208 225 226
210 227 234
206 224 227
204 222 218
205 222 218
205 223 220
208 226 230
209 226 226
206 224 224
206 224 224
210 227 231
206 224 220
207 225 226
202 220 214
210 227 236
205 223 218
207 224 221
204 223 214
206 224 217
207 225 226
206 224 224
206 224 228
208 226 230
210 227 233
205 223 212
204 222 215
208 226 231
207 225 226
208 226 227
205 223 217
208 226 233
205 223 218
206 224 220
207 225 224
206 224 226
210 227 230
210 227 230
210 227 233
206 224 223
209 226 226
208 225 224
206 223 218
206 224 224
210 227 227
205 223 221
206 224 215
201 218 216
191 210 223
191 209 229
172 191 213
182 200 229
167 186 218
161 181 217
159 178 211
153 173 212
141 163 205
137 159 203
132 155 200
129 152 195
136 158 198
125 149 194
106 132 188
103 129 183
96 124 179
94 121 169
82 113 177
90 119 175
92 120 171
82 113 171
70 104 164
76 109 163
84 115 164
79 109 162
67 101 161
72 105 158
73 105 162
69 103 164
63 98 156
68 102 161
61 96 154
61 97 161
63 99 164
67 101 153
62 97 156
63 98 156
62 97 157
61 97 159
64 99 164
63 98 156
64 98 149
65 99 156
61 97 157
60 96 152
61 96 155
62 98 167
61 97 155
60 96 159
61 97 158
61 97 163
61 97 155
62 97 161
61 97 162
60 95 155
60 96 153
62 98 161
61 96 153
60 96 156
61 96 161
61 97 160
61 97 157
62 98 160
61 97 161
61 97 155
61 98 162
60 96 155
59 95 153
62 98 165
61 97 159
60 96 159
61 97 158
60 96 160
60 96 156
60 96 157
63 99 167
61 97 161
62 98 161
61 97 154
62 98 166
61 96 150
61 97 158
61 97 158
62 98 164
62 98 159
62 98 165
62 98 162
61 97 155
62 98 164
61 97 159
62 98 163
61 96 153
60 97 156
61 97 157
62 98 163
61 97 153
63 98 162
62 98 163
62 98 161
62 98 163
62 97 159
62 98 159
61 97 161
62 98 163
62 98 160
62 98 160
62 98 160
61 97 157
62 98 169
61 97 158
61 97 161
62 98 162
62 99 165
62 97 165
61 97 161
63 99 164
61 96 150
61 97 156
60 96 153
61 97 155
62 97 158
62 98 158
61 97 151
62 98 158
62 97 157
61 97 151
61 97 160
62 98 159
60 95 147
62 97 155
62 97 155
61 97 155
62 98 162
62 97 155
62 98 158
61 97 155
61 97 153
62 98 162
61 96 149
61 97 153
62 98 157
61 96 154
63 99 162
62 98 154
61 97 154
62 97 155
61 97 153
61 97 152
61 97 156
61 97 152
61 96 156
62 97 154
62 97 151
63 98 157
61 96 147
61 96 149
61 97 149
61 97 147
61 97 158
61 97 152
62 97 151
60 96 144
62 98 156
62 98 157
61 96 144
61 96 148
62 97 152
61 96 149
63 98 157
62 97 150
61 96 146
61 96 150
60 95 148
60 96 144
59 93 136
60 95 141
60 95 135
62 96 147
60 94 142
60 95 140
60 95 142
61 96 147
59 93 133
59 93 142
58 91 125
59 92 140
65 91 116
83 98 92
90 99 63
109 111 37
111 114 0
110 110 0
107 106 0
101 103 11
93 93 8
93 92 3
99 98 8
100 98 0
114 113 3
94 96 3
95 92 0
94 91 14
106 101 0
80 79 14
95 91 11
99 96 0
91 87 11
94 91 8
98 96 14
86 83 14
101 97 11
96 90 1
109 105 0
97 91 11
100 94 11
87 85 16
97 92 12
89 86 11
105 101 16
106 103 21
101 97 8
111 107 8
106 103 8
99 97 8
100 96 8
102 98 19
110 105 22
111 108 0
108 104 16
106 101 19
103 101 11
109 105 14
120 115 16
107 103 11
110 106 11
121 116 22
115 109 19
120 116 16
126 120 22
121 117 19
131 125 30
117 114 22
121 117 16
124 120 16
120 116 25
123 117 19
126 122 21
124 118 22
120 115 11
129 124 22
118 113 22
128 123 30
125 122 28
119 113 25
121 117 28
124 119 28
128 123 28
123 118 19
111 108 22
117 113 19
122 118 19
125 118 32
121 115 11
128 123 22
124 119 28
118 113 19
121 114 30
123 119 28
122 120 19
122 119 19
119 117 19
127 124 19
124 122 22
128 126 19
121 117 25
128 129 11
131 133 19
129 129 16
127 130 16
144 147 19
144 149 11
144 151 19
144 147 16
137 143 11
137 145 16
144 151 16
142 150 11
150 159 11
153 159 16
153 163 0
157 168 11
149 162 0
159 171 0
159 172 0
152 164 0
166 181 0
160 177 0
163 178 0
162 176 0
162 175 0
159 172 0
158 172 0
161 176 0
163 177 0
163 178 0
165 183 0
165 181 0
167 183 0
161 177 0
162 178 0
166 181 0
166 184 0
158 170 0
163 180 0
167 184 0
167 185 0
166 186 0
169 186 0
167 182 0
170 189 0
169 188 0
167 185 0
170 190 0
165 185 0
168 185 0
198 217 199
201 220 204
200 219 207
204 222 218
205 223 220
204 223 217
206 224 221
207 225 226
206 224 220
205 224 221
210 227 230
208 225 226
210 227 233
212 229 236
211 228 234
209 227 236
206 224 227
209 227 234
209 226 236
207 224 228
210 227 228
209 227 237
203 221 224
205 223 223
205 223 226
205 222 226
207 225 226
212 228 240
206 224 220
205 223 220
205 223 221
203 221 211
202 221 211
203 221 211
205 224 221
200 219 198
202 221 211
206 224 220
204 223 215
205 224 224
200 219 201
204 222 217
204 222 214
205 223 218
202 220 206
200 219 203
195 214 186
203 222 217
203 222 212
202 221 206
199 219 198
200 219 207
204 222 214
204 223 220
201 219 207
207 225 221
203 221 206
205 223 220
199 218 198
203 221 214
206 224 220
208 225 224
207 225 220
205 223 217
205 223 217
209 226 231
209 227 231
209 226 226
207 224 223
206 223 224
206 223 220
210 227 228
203 221 221
198 216 223
200 217 231
177 196 211
177 196 225
177 196 220
168 188 219
156 177 206
164 184 215
153 174 213
152 172 211
145 166 209
134 157 201
133 156 199
123 146 194
126 149 195
131 154 201
109 135 187
106 133 191
98 126 182
112 137 188
86 116 176
83 113 171
77 109 173
75 107 165
85 116 167
79 109 158
82 113 166
76 108 158
66 102 166
74 106 166
71 104 160
65 100 160
67 101 163
68 101 156
69 103 156
63 99 163
67 101 162
62 98 165
68 102 153
64 99 156
60 95 154
60 96 159
63 99 160
60 95 153
61 97 157
61 97 159
61 97 159
61 97 163
59 95 160
61 98 168
60 95 153
60 96 154
61 96 159
60 96 153
60 96 155
60 96 156
60 96 160
59 95 150
60 95 155
61 96 160
61 97 151
61 97 156
60 96 151
61 97 165
60 96 154
61 97 159
62 99 172
62 98 160
62 98 162
63 99 165
62 98 159
61 97 157
62 98 160
61 98 168
61 97 155
61 97 161
60 96 157
61 97 157
61 97 159
62 97 155
61 97 158
62 98 160
62 98 162
61 97 157
61 97 161
61 97 160
62 98 161
61 97 161
62 98 168
60 95 148
62 98 160
63 99 168
61 96 153
62 98 163
62 98 168
62 97 159
60 96 153
63 99 163
60 96 152
62 98 160
62 97 154
61 97 156
61 97 160
63 99 170
63 99 162
62 98 162
61 96 150
62 98 158
63 99 163
63 99 166
61 97 151
61 97 156
61 97 155
62 98 159
62 97 153
63 98 163
61 97 155
61 97 157
61 97 155
62 97 156
62 98 155
62 97 162
61 98 160
62 97 156
61 96 151
62 98 157
63 99 161
61 97 161
61 96 147
63 99 165
62 97 152
62 98 160
61 96 155
63 98 160
62 98 157
63 98 155
61 97 153
62 99 163
62 98 153
61 97 161
61 97 160
62 98 157
62 97 151
61 96 150
62 97 156
61 97 152
61 97 156
62 97 151
62 98 157
62 98 159
62 97 155
61 96 151
62 97 154
61 96 150
63 99 160
62 98 157
62 98 156
61 97 153
62 97 147
61 96 152
62 97 148
61 96 151
62 98 159
62 98 155
61 97 155
62 97 154
62 98 162
62 98 153
60 95 140
62 98 158
62 97 154
62 97 152
61 96 145
60 95 140
61 96 139
59 94 136
62 97 157
60 95 144
61 95 145
61 96 143
60 95 148
59 93 136
59 94 132
61 96 144
60 94 139
59 93 137
59 93 132
61 92 135
59 88 121
89 101 83
91 99 66
107 112 18
110 110 0
95 95 3
103 105 11
99 102 11
94 96 11
103 103 11
110 112 0
106 104 8
101 98 14
91 90 0
97 96 0
103 100 19
83 80 11
87 87 11
96 93 3
86 85 0
88 88 14
92 90 11
97 94 0
94 92 0
91 87 0
85 82 8
103 99 14
95 91 16
93 89 8
101 98 0
97 95 0
102 99 0
109 104 11
106 103 8
96 92 8
100 95 0
112 108 14
116 112 11
98 96 8
115 110 11
109 104 16
104 101 21
102 99 16
119 113 18
104 101 11
111 108 11
108 105 0
105 100 0
124 119 22
105 104 16
117 113 3
118 114 25
114 110 11
118 115 11
127 122 19
118 114 18
116 112 0
119 114 11
119 114 11
115 109 22
123 118 22
105 102 19
124 120 19
121 115 22
119 114 22
122 117 19
126 120 19
121 117 19
115 113 22
122 118 16
118 113 19
124 118 28
120 114 22
118 114 19
125 119 11
115 110 25
120 115 19
116 111 22
128 123 25
113 108 25
124 121 16
123 118 19
123 119 25
124 121 22
130 127 32
128 125 25
119 121 16
120 118 25
136 134 22
121 119 16
133 137 11
138 137 0
145 147 25
138 142 11
149 155 22
141 145 25
146 151 11
147 156 0
145 151 0
140 147 16
154 162 16
156 167 11
147 158 0
153 165 0
155 167 0
158 170 0
155 166 0
155 168 0
160 171 0
159 174 0
157 171 0
163 177 0
155 169 0
166 181 0
161 176 0
162 176 0
159 173 0
162 175 0
167 181 0
160 176 0
165 183 0
164 182 0
160 175 0
164 180 0
165 182 0
165 181 0
163 180 0
161 177 0
164 181 0
161 177 0
163 179 0
165 185 0
165 182 0
169 187 0
168 185 0
169 186 0
163 181 0
167 186 0
165 182 0
205 222 214
207 224 220
206 224 226
203 222 217
205 223 215
204 222 212
206 225 223
208 225 228
209 226 233
205 223 220
212 229 237
209 226 227
210 227 233
207 225 231
210 227 233
207 225 226
209 226 231
206 224 226
210 227 237
208 226 226
208 225 226
206 223 217
207 225 223
202 221 212
205 223 215
204 222 215
204 222 215
204 222 218
203 222 221
199 217 203
204 222 217
201 220 203
200 219 204
200 219 201
198 217 206
202 221 214
202 221 207
201 219 206
198 217 196
201 220 201
199 217 191
199 218 201
200 219 196
198 217 198
199 218 201
197 216 189
197 216 193
198 217 191
201 220 199
203 221 215
199 218 209
202 220 204
196 215 193
200 219 199
200 220 204
201 220 207
198 217 191
199 218 194
202 220 207
202 220 203
201 219 206
203 221 204
201 219 196
201 219 206
203 222 212
204 222 215
204 222 211
205 222 217
207 224 220
204 221 214
207 224 223
206 223 224
199 217 214
200 218 229
194 212 227
176 194 220
171 190 215
175 194 219
174 193 220
170 189 223
149 170 203
149 170 210
143 165 199
151 172 212
142 164 204
130 153 201
127 151 199
134 157 202
133 156 196
121 145 192
111 137 187
117 142 194
112 137 188
109 134 185
94 122 179
83 114 167
82 113 170
81 112 172
83 114 168
79 111 169
74 107 167
78 110 171
76 108 168
70 103 162
69 102 159
65 99 155
68 102 158
64 99 165
66 100 149
63 98 161
66 101 156
64 99 151
70 103 161
66 100 157
69 103 153
63 99 160
62 98 157
62 98 161
63 97 153
61 96 151
61 97 160
61 97 158
61 96 163
61 97 158
60 96 160
61 97 157
61 97 159
61 97 159
60 96 158
62 98 164
62 97 158
60 96 149
61 97 159
61 97 159
61 98 163
62 98 161
61 98 163
61 96 158
61 97 154
61 97 159
62 98 168
61 96 154
62 98 157
61 97 158
61 97 159
61 97 153
61 97 164
61 97 163
60 95 147
62 98 165
60 96 154
61 97 164
61 97 152
62 98 166
61 97 160
61 97 160
60 96 150
62 98 159
61 97 161
61 98 160
61 97 158
61 97 161
62 98 161
60 96 153
62 98 169
60 96 159
62 97 158
61 97 154
61 97 160
62 98 162
61 98 159
61 96 151
61 97 153
62 98 162
61 97 159
62 98 160
61 97 160
61 97 159
61 97 162
62 98 161
61 97 155
62 98 160
61 97 160
62 98 156
61 97 156
61 97 156
61 96 151
61 97 156
62 98 156
60 96 144
61 96 153
61 97 157
62 98 160
62 98 158
62 98 160
62 98 158
62 97 153
62 98 158
62 98 161
61 98 161
61 96 144
62 98 156
62 98 157
62 98 161
61 97 147
61 97 157
61 96 155
62 98 158
61 97 156
61 97 155
62 97 154
61 97 151
61 97 156
62 99 164
61 97 157
62 97 157
63 99 162
61 96 144
62 98 157
62 97 152
61 97 154
61 97 155
61 96 149
62 97 155
61 96 149
62 98 151
62 97 152
62 98 156
61 96 150
62 97 154
62 97 150
62 97 147
61 97 150
61 96 147
61 97 153
62 98 160
61 96 149
60 95 147
62 98 160
62 97 155
61 97 154
61 97 151
60 96 147
61 97 151
60 95 143
61 97 149
60 95 135
62 98 157
59 94 140
61 96 144
59 93 135
61 96 142
61 95 144
61 96 145
61 95 144
59 93 129
59 93 127
60 94 145
59 92 126
60 93 129
57 90 124
75 95 100
95 107 84
96 105 53
107 112 42
99 102 0
107 108 11
120 123 0
101 104 11
93 95 0
99 101 0
101 98 11
88 89 14
89 87 0
89 88 11
100 96 8
97 96 8
87 85 0
88 87 0
90 88 0
100 99 0
93 87 3
98 96 11
91 87 8
95 89 11
94 92 12
89 88 16
93 90 0
97 92 0
101 97 14
96 91 11
98 94 11
108 103 0
103 98 0
107 104 0
114 108 11
101 94 14
110 106 16
112 107 11
106 101 0
102 99 0
106 102 12
105 101 0
100 95 11
107 102 14
114 110 11
110 105 0
121 115 28
109 106 16
119 115 11
112 108 8
119 113 19
120 116 19
110 107 19
115 111 11
128 124 22
111 107 11
116 112 16
118 114 14
113 109 16
118 115 11
121 116 11
119 115 16
118 112 11
121 117 19
115 109 11
113 110 11
116 111 25
123 117 19
119 113 19
109 105 0
114 107 19
118 113 11
127 122 25
115 111 22
122 115 19
121 115 11
115 111 16
106 102 11
123 118 19
120 117 16
118 117 19
131 128 28
112 111 19
131 130 25
129 126 19
114 110 0
128 126 19
123 123 11
135 136 19
130 131 16
136 138 22
139 141 16
131 135 11
141 148 0
138 144 11
148 154 25
138 143 16
137 141 0
159 170 16
149 160 11
152 159 0
149 158 0
156 168 0
153 166 0
156 165 0
155 164 0
157 167 0
155 168 0
157 171 0
157 168 0
159 173 0
159 174 0
157 169 0
160 177 0
162 176 0
155 167 0
161 174 0
162 173 0
160 176 0
165 180 0
161 175 0
167 182 0
165 180 0
168 184 0
168 185 0
163 180 0
161 179 0
166 179 0
163 181 0
164 182 0
163 181 0
161 177 0
169 186 0
168 185 0
166 183 0
166 183 0
169 187 0
167 185 0
169 188 0
205 222 215
206 224 218
207 225 228
210 227 234
206 223 214
204 222 214
209 226 230
211 228 238
210 228 237
209 226 231
210 228 234
210 228 236
208 226 226
208 226 227
206 224 226
208 226 227
205 223 221
208 225 228
204 222 217
206 224 223
210 228 236
207 225 226
206 224 226
203 222 214
206 224 218
204 222 212
200 220 204
202 221 206
203 221 206
196 215 191
204 222 220
197 216 184
197 216 189
201 219 198
198 217 196
196 215 186
195 215 186
197 216 189
200 219 196
197 216 186
197 217 193
195 214 184
196 215 184
198 217 196
193 213 175
195 214 193
196 215 177
198 217 188
201 219 201
199 218 199
194 213 181
197 216 189
196 215 191
193 214 182
193 213 182
198 217 194
198 217 191
198 217 186
196 215 188
199 218 193
200 219 203
199 218 201
197 217 194
200 218 204
203 222 207
205 223 215
205 223 214
205 223 215
202 220 198
206 224 215
204 221 220
205 222 225
200 218 220
179 198 207
188 206 220
181 200 223
182 200 220
161 181 203
164 183 213
158 178 211
145 167 205
154 174 206
144 166 203
136 158 199
148 169 209
141 163 208
126 150 201
138 161 202
114 139 190
122 146 198
110 135 188
112 137 193
107 133 182
98 125 183
90 118 176
89 118 179
81 112 171
80 111 172
70 103 162
69 103 164
72 105 171
67 101 157
76 108 155
76 108 165
69 103 168
69 103 157
72 105 162
77 108 164
74 106 164
66 100 158
62 97 156
61 97 160
63 98 162
62 97 149
62 97 154
63 98 161
62 97 158
62 98 160
60 96 157
60 96 158
63 97 151
61 97 158
59 95 151
60 95 147
61 97 158
60 96 161
60 96 157
60 95 148
62 97 156
60 96 154
62 98 162
61 97 152
61 96 160
61 97 157
62 98 163
61 96 154
61 97 158
60 96 155
61 97 157
61 97 160
61 97 154
60 96 150
61 97 158
60 96 156
61 97 157
60 96 151
61 97 159
61 97 159
61 97 160
61 96 161
61 97 159
62 98 164
61 97 161
62 98 168
61 97 160
61 97 161
61 97 155
61 97 155
62 98 162
63 99 160
61 96 155
61 96 155
62 98 163
61 97 154
61 97 152
62 98 156
61 97 155
61 96 151
62 98 157
62 97 161
61 97 155
62 98 164
62 98 162
62 98 161
62 98 157
62 98 163
62 98 160
62 98 162
61 97 149
62 98 160
62 98 163
61 97 157
62 98 157
62 97 155
61 97 159
62 98 159
62 97 157
62 97 153
61 96 150
62 98 162
62 98 162
62 97 156
61 98 162
62 98 161
61 96 156
61 97 161
61 97 151
62 97 155
62 98 162
61 97 155
61 98 160
61 96 145
62 98 160
62 98 158
61 97 155
61 97 155
62 97 155
60 96 152
61 97 154
61 97 159
62 97 154
62 98 156
61 97 156
61 97 151
61 97 152
62 97 153
61 96 150
60 96 150
62 98 155
61 96 148
61 96 148
62 98 158
62 98 156
61 96 153
62 98 161
61 96 143
61 97 160
61 97 152
60 95 143
61 97 150
61 97 150
61 96 145
61 97 153
61 97 149
61 96 150
61 96 145
62 97 156
61 97 147
61 96 144
61 96 150
62 97 151
61 97 148
60 95 142
61 97 150
61 96 141
61 96 150
60 95 142
60 95 142
61 95 146
61 96 151
60 96 143
60 94 135
61 96 143
61 96 143
60 95 138
60 95 143
61 97 151
61 95 146
59 92 127
59 93 133
58 89 128
72 97 116
87 99 80
102 109 51
106 107 18
101 103 0
106 109 0
114 118 0
109 111 0
104 104 0
100 102 0
103 105 11
103 104 11
96 97 8
98 95 11
93 91 0
82 80 0
92 91 8
99 95 0
82 83 8
107 104 12
90 89 0
92 87 0
88 84 0
105 101 8
102 98 0
92 89 0
84 80 0
89 83 0
91 88 8
90 86 0
92 88 0
98 95 0
93 91 8
102 97 0
102 98 0
101 96 0
100 96 0
106 102 0
105 102 0
99 95 18
109 105 8
87 83 16
103 99 16
110 106 0
101 97 0
106 100 11
108 105 11
97 93 16
119 114 18
114 110 19
107 102 8
117 114 16
116 111 11
110 107 14
109 104 19
104 99 14
115 110 0
112 108 0
113 109 11
121 114 16
110 106 16
112 107 19
117 112 16
125 120 16
111 105 16
127 120 28
116 110 16
116 111 11
111 106 16
115 111 22
113 108 19
117 112 28
121 117 0
117 112 22
128 126 11
117 113 11
117 115 22
127 125 16
123 123 16
123 123 16
119 116 28
130 129 11
123 121 25
126 125 25
134 133 19
126 126 16
132 133 0
131 132 19
133 136 16
138 140 16
131 133 11
134 136 11
141 146 0
144 149 16
134 138 22
143 149 0
149 155 16
142 148 11
147 158 0
144 152 0
158 167 16
151 160 0
154 164 0
159 169 0
160 173 0
157 169 0
156 168 0
162 174 0
161 176 0
158 170 0
159 170 0
159 171 0
161 174 0
158 174 0
165 180 0
159 173 0
161 175 0
165 180 0
163 179 0
165 180 0
163 177 0
164 182 0
163 181 0
161 176 0
163 180 0
162 176 0
166 182 0
158 175 0
164 181 0
162 179 0
164 183 0
161 178 0
165 184 0
163 179 0
162 178 0
166 185 0
165 181 0
167 188 0
168 187 0
205 223 221
207 225 227
207 225 228
211 228 236
207 225 226
208 226 231
206 224 221
207 225 224
207 225 227
207 225 221
208 225 227
208 225 226
205 223 214
209 226 230
206 224 221
206 223 217
205 223 215
201 219 206
204 222 217
204 223 218
200 220 203
205 223 217
197 216 196
203 221 206
201 219 201
195 214 191
200 219 204
196 215 193
196 216 191
195 214 186
190 211 169
198 217 203
200 220 206
192 212 181
200 219 199
196 215 188
193 213 177
190 210 153
191 211 161
193 212 173
197 217 193
191 212 167
191 211 177
193 214 182
193 213 167
191 212 175
193 213 169
194 214 189
192 212 169
192 213 181
195 215 177
191 211 169
193 213 177
194 214 182
191 211 177
198 217 188
195 215 179
195 215 182
198 217 188
198 217 189
197 217 194
201 219 204
198 217 194
196 216 186
202 220 209
199 219 199
198 217 196
201 219 203
202 221 207
203 221 211
201 219 213
197 215 217
201 218 219
176 195 206
186 204 221
176 195 216
173 192 212
166 185 214
157 178 207
160 181 209
148 169 205
151 171 200
151 172 209
143 165 208
137 160 202
129 152 193
132 155 201
126 149 189
112 137 187
122 146 197
122 146 198
110 135 190
101 128 183
87 117 179
91 120 181
94 122 181
101 128 182
79 110 176
76 109 171
79 110 172
70 104 161
74 106 171
81 112 168
72 104 161
66 101 158
69 101 155
69 103 161
78 109 162
71 104 158
68 102 164
63 98 162
62 98 158
59 95 149
61 97 156
63 98 159
64 99 154
60 96 160
61 97 165
61 97 156
64 99 161
60 96 158
63 99 160
60 96 153
60 96 160
62 97 152
60 96 150
61 96 155
63 98 161
61 97 161
61 96 157
61 97 159
60 96 154
60 95 159
61 97 163
61 96 157
61 97 158
60 96 157
60 96 156
61 98 160
61 97 157
61 97 160
62 98 166
61 97 160
61 97 160
60 96 156
60 96 153
62 98 165
61 96 149
61 96 158
61 97 162
62 98 160
63 99 163
61 97 159
60 96 155
62 97 157
61 97 156
61 97 155
62 98 160
60 96 154
62 98 165
62 98 161
61 97 161
61 96 155
61 97 155
60 96 153
61 97 160
62 98 159
61 97 161
61 97 155
63 99 160
61 97 158
61 97 156
61 98 162
61 97 152
62 98 157
61 97 154
60 96 153
61 96 155
61 97 151
61 97 159
62 98 160
61 97 155
62 98 161
61 97 157
62 99 170
61 97 160
62 98 156
62 98 157
61 97 156
61 97 154
62 97 159
62 98 154
62 98 157
62 97 155
61 97 153
62 98 159
62 98 157
62 98 158
61 97 152
62 98 158
62 97 157
61 97 151
61 97 152
61 97 158
62 97 157
61 97 154
62 98 161
62 98 153
61 96 143
61 97 155
61 97 156
61 97 150
61 96 144
62 98 163
61 96 144
62 98 155
62 98 157
62 98 162
62 98 155
61 96 148
61 97 148
60 96 148
61 97 149
61 97 148
61 97 151
62 98 160
62 97 152
61 96 153
62 97 155
62 98 156
62 97 153
61 96 155
61 97 150
62 97 152
60 95 144
61 96 151
60 96 137
61 96 156
61 96 149
61 96 143
62 98 153
61 95 138
60 94 140
61 96 144
60 95 140
62 97 152
60 95 143
61 96 144
60 95 140
61 96 151
60 95 136
61 95 145
61 95 138
61 96 143
61 96 146
58 91 123
61 95 139
57 90 127
59 93 130
59 92 131
69 97 125
84 103 107
107 113 57
113 123 52
114 118 0
116 121 0
106 112 0
118 123 0
107 111 0
112 114 19
92 93 0
106 110 0
104 102 0
94 96 0
93 93 0
92 91 0
97 95 0
101 101 0
98 99 0
96 93 11
98 96 11
95 91 11
96 94 8
92 90 0
94 90 0
88 88 0
97 92 0
97 94 0
89 86 0
96 92 0
98 93 8
98 96 0
87 85 8
101 97 0
97 94 0
96 93 11
84 81 0
86 83 0
106 101 0
98 93 8
97 93 11
107 102 3
102 98 0
106 102 14
98 95 11
107 104 0
112 108 0
110 106 8
115 110 16
107 103 11
115 109 19
115 109 11
118 114 16
107 103 0
107 102 11
112 107 16
117 112 16
116 113 22
112 106 11
121 116 16
121 117 16
118 113 16
109 104 11
112 108 0
108 104 19
118 112 11
113 109 0
120 115 22
116 110 19
118 112 16
110 105 11
113 107 11
116 113 25
123 117 16
123 120 19
128 126 19
126 124 22
119 116 22
128 129 11
122 119 16
119 115 16
122 120 0
116 115 19
123 120 19
126 126 16
127 128 19
137 136 16
134 136 19
133 135 19
134 136 16
139 140 19
149 156 16
137 139 19
130 136 0
139 146 11
150 158 11
142 147 0
144 152 11
157 166 11
152 163 0
152 161 16
155 162 11
154 164 0
154 167 0
156 168 0
157 171 0
158 170 0
158 168 0
154 164 0
152 166 0
165 178 0
160 172 0
166 179 0
161 174 0
154 167 0
165 181 0
162 173 0
158 172 0
157 173 0
159 172 0
165 179 0
165 183 0
164 181 0
161 179 0
160 177 0
164 181 0
157 173 0
166 183 0
165 180 0
163 178 0
163 178 0
167 186 0
159 176 0
170 188 0
163 181 0
168 187 0
167 185 0
169 188 0
165 185 0
162 179 0
210 227 234
209 226 230
208 225 223
207 225 228
206 224 221
203 222 217
208 226 228
210 227 236
208 225 228
209 227 234
204 222 215
201 219 206
203 221 207
205 223 215
200 219 204
203 222 212
203 222 215
202 221 211
197 217 193
198 217 191
200 219 204
199 218 199
200 219 196
198 217 188
193 213 177
196 215 191
194 213 191
195 214 177
193 214 173
192 212 167
193 213 179
192 212 169
192 212 167
192 213 175
190 210 157
190 211 163
189 210 161
187 208 165
187 208 142
193 213 175
187 208 161
187 207 149
190 210 159
188 209 151
189 210 161
190 211 163
188 209 151
186 208 151
187 208 153
188 209 142
191 211 167
188 209 159
194 213 175
193 213 169
189 209 147
192 212 163
188 208 157
192 212 175
189 210 151
192 212 169
193 213 175
192 212 184
189 209 173
192 212 171
196 216 181
197 217 188
197 217 191
199 218 193
198 217 196
196 215 206
193 212 205
190 209 197
182 201 203
185 204 210
171 191 207
173 192 216
169 188 207
160 180 208
154 175 203
160 181 209
142 163 199
152 173 205
148 169 206
135 157 197
131 154 201
136 158 201
134 157 197
117 142 195
132 154 199
125 149 195
123 147 197
115 140 188
119 143 190
117 142 197
118 143 194
104 131 185
80 111 175
86 116 182
87 116 179
80 111 177
74 107 169
64 99 170
69 102 161
77 109 173
63 98 160
67 101 160
72 104 163
70 103 152
68 102 160
70 102 151
67 102 169
71 103 152
66 100 156
62 97 148
62 97 160
64 99 160
63 99 159
65 100 160
62 97 156
59 94 151
63 97 159
60 96 157
60 96 153
61 97 154
63 98 157
60 96 150
60 96 155
60 96 150
60 96 157
60 96 156
63 98 159
61 98 164
61 97 161
61 97 159
60 96 154
60 96 157
61 97 156
59 95 155
61 96 153
61 98 162
61 96 154
61 97 163
61 97 151
60 96 149
61 97 161
61 97 156
61 97 159
61 97 156
61 97 160
62 98 161
59 94 148
61 96 150
60 96 158
62 98 160
61 97 163
61 97 158
61 97 157
62 98 162
62 98 162
62 98 163
61 97 156
61 97 164
62 98 168
62 98 163
61 96 150
60 96 148
61 97 159
62 98 168
62 98 159
61 97 158
62 98 158
62 98 158
62 98 159
61 97 152
61 97 161
62 97 158
62 98 162
61 97 160
62 98 163
61 97 152
61 97 155
61 97 156
62 98 160
62 98 158
62 98 159
61 97 160
62 98 159
61 97 158
61 97 157
62 99 167
60 95 149
62 98 154
61 97 161
60 96 152
62 97 153
62 98 160
62 98 156
61 97 155
62 97 156
61 96 152
61 97 153
62 98 156
61 97 153
62 97 157
61 97 152
61 97 153
62 97 153
62 98 164
62 97 154
62 97 156
62 97 155
61 97 151
62 98 161
61 96 147
62 98 159
62 97 161
62 97 153
61 96 145
62 97 150
62 98 158
61 97 155
60 94 143
61 97 154
61 97 149
63 99 164
62 98 156
62 98 155
62 97 149
61 96 144
61 97 150
61 96 142
61 96 149
61 97 156
61 97 149
61 96 147
61 97 151
60 95 152
62 97 153
61 96 149
60 95 139
61 96 139
61 96 143
61 96 145
60 96 135
61 96 152
61 97 154
60 94 146
60 95 136
61 96 147
62 97 142
59 94 138
62 97 147
60 94 135
60 95 142
61 95 147
58 92 128
60 94 128
60 94 136
58 91 125
57 90 121
63 93 123
91 107 97
104 116 75
112 119 18
113 116 11
122 127 0
104 106 0
116 119 0
100 101 0
99 99 0
99 100 11
102 102 11
108 110 0
103 101 0
100 101 8
87 86 0
94 93 0
91 88 0
92 91 8
95 92 0
88 87 0
96 93 0
108 104 11
92 91 8
100 97 0
90 87 0
95 92 0
83 82 0
98 95 11
94 91 0
91 87 0
105 102 0
94 92 0
105 100 0
101 95 11
103 98 11
98 93 0
110 103 11
98 96 8
90 86 0
94 91 8
112 108 11
101 98 0
104 100 0
110 105 11
102 97 11
112 106 0
105 101 16
99 93 11
103 100 11
105 100 0
107 104 0
108 103 0
93 89 0
120 114 19
107 102 0
111 102 22
114 109 16
117 111 22
111 107 11
126 121 0
111 106 0
103 98 19
107 104 11
111 107 11
115 111 16
112 107 0
116 111 16
111 108 16
114 111 22
125 120 0
125 121 16
120 116 11
123 119 11
110 107 0
116 114 0
127 123 16
119 117 16
131 130 30
131 128 11
124 121 19
124 123 0
122 120 16
134 134 16
123 124 0
130 132 0
133 133 16
133 135 11
127 129 0
128 130 16
128 128 0
137 146 0
131 133 0
144 150 16
138 144 0
144 149 19
143 150 0
155 164 0
150 159 11
146 153 0
153 162 0
157 168 0
159 174 0
160 173 0
159 175 0
155 168 0
156 168 0
156 169 0
165 176 0
153 165 0
161 173 0
162 177 0
160 174 0
164 180 0
161 175 0
148 162 0
162 178 0
162 176 0
160 173 0
159 173 0
162 178 0
165 181 0
164 182 0
162 177 0
166 183 0
168 185 0
165 183 0
163 179 0
159 174 0
162 180 0
165 183 0
165 183 0
167 183 0
168 186 0
165 183 0
163 179 0
168 187 0
166 185 0
164 181 0
167 186 0
207 225 228
208 226 226
208 225 224
210 227 231
207 225 223
208 226 223
210 227 233
203 222 212
208 225 224
206 224 220
203 221 217
204 222 217
205 223 221
201 220 206
200 219 201
205 223 212
201 220 207
204 222 212
201 220 203
196 216 182
195 216 184
192 211 177
196 216 193
195 215 175
194 214 179
190 210 167
197 216 186
193 213 173
194 214 177
189 210 155
188 209 161
185 207 151
188 209 153
189 209 155
191 211 153
185 206 135
186 208 142
186 207 149
189 210 163
185 207 144
184 205 147
187 208 137
183 205 142
187 208 153
185 206 137
184 206 122
183 205 120
191 212 165
185 207 130
184 206 144
189 210 153
187 207 157
182 204 125
185 207 137
186 208 149
188 209 142
189 209 151
190 211 159
185 206 140
189 210 161
192 212 167
193 213 179
193 214 182
192 212 165
192 211 165
194 213 171
190 210 173
192 212 165
192 212 175
192 212 181
192 211 197
183 202 208
171 191 196
182 201 204
182 201 217
170 189 208
154 174 197
166 185 209
148 170 203
151 172 203
151 173 201
145 167 203
138 161 194
133 156 194
132 155 203
129 152 194
127 150 194
129 152 199
120 144 190
125 149 197
110 136 190
110 135 192
110 135 184
104 131 186
103 130 185
102 129 179
110 136 192
100 127 182
88 118 184
79 110 171
84 114 177
79 110 175
67 101 159
63 99 166
73 105 165
75 108 166
68 102 156
73 105 165
69 103 161
73 105 167
68 102 162
74 105 159
71 103 151
68 101 150
65 99 148
66 100 155
61 97 162
60 96 153
60 96 160
61 97 162
62 97 152
62 97 153
62 97 149
61 96 157
61 97 157
61 96 156
60 96 150
62 97 156
60 95 149
61 97 162
61 97 161
61 97 155
61 97 161
60 96 148
61 97 161
61 97 157
60 96 153
62 98 163
60 96 154
61 97 151
61 97 160
62 98 164
61 97 156
61 97 156
60 96 162
61 97 156
61 97 155
62 97 154
62 98 163
62 98 163
60 96 153
60 96 153
61 97 156
61 97 159
60 95 147
62 97 157
61 97 154
61 98 160
61 97 155
61 96 157
61 97 164
61 97 154
61 97 161
61 97 161
60 96 154
61 96 151
62 98 161
62 98 154
62 97 154
59 95 145
61 96 150
61 97 157
62 98 159
62 98 157
61 97 161
61 97 153
62 98 166
61 97 161
62 98 158
60 96 148
61 97 152
62 97 157
62 98 160
61 97 159
62 98 160
61 97 160
62 98 161
61 96 144
61 97 154
61 97 157
61 97 160
61 97 156
62 98 161
61 97 155
62 98 159
60 96 153
61 97 150
61 98 160
62 98 157
61 96 150
61 96 148
61 97 158
62 98 159
62 98 160
60 96 154
61 97 150
61 97 152
61 97 148
62 98 159
61 97 158
62 98 160
61 97 152
61 96 153
61 97 153
62 97 154
60 96 144
62 97 154
61 97 155
62 97 152
61 96 156
60 96 145
61 95 137
62 97 152
61 96 150
62 97 149
63 99 166
61 97 153
62 97 153
61 97 153
62 98 157
61 97 147
59 94 135
62 97 153
60 96 147
61 96 144
61 95 148
61 96 143
61 96 148
61 96 145
61 96 145
61 96 147
61 96 149
61 96 155
61 96 148
62 98 150
60 95 139
61 96 145
61 96 143
61 96 143
61 95 145
61 96 144
61 96 142
59 94 135
60 94 141
60 94 142
60 95 138
60 94 138
59 93 135
59 93 131
62 94 129
79 99 104
92 105 81
98 109 56
97 103 40
114 117 0
92 96 11
122 124 0
112 113 11
106 108 0
98 100 0
103 106 16
94 93 0
104 103 11
101 101 0
102 103 0
104 105 11
93 95 0
95 97 0
96 94 11
102 102 0
100 98 0
104 105 0
92 93 0
99 96 8
98 100 0
103 104 0
104 100 8
96 94 8
89 89 0
105 100 0
94 91 0
93 90 0
107 102 11
104 100 0
108 102 0
105 101 0
88 85 0
109 104 0
111 104 16
97 91 0
101 98 0
107 102 0
101 98 0
105 100 11
113 108 0
104 98 8
100 94 0
115 110 0
103 99 11
102 97 11
112 109 0
97 93 0
119 115 11
107 100 8
110 105 0
112 107 0
120 116 16
110 106 11
119 113 11
111 105 11
106 102 0
120 116 11
108 104 0
112 106 0
112 107 0
116 110 11
111 106 11
117 111 11
113 111 16
112 108 11
116 112 16
120 116 11
120 117 11
118 116 0
131 127 22
116 110 11
119 114 11
119 118 11
116 115 0
126 128 11
125 125 19
121 120 11
133 132 11
133 136 16
138 140 25
129 127 11
133 138 16
143 148 11
137 143 11
141 148 0
138 142 0
146 152 0
141 144 0
149 155 0
148 155 16
145 153 0
153 160 11
152 162 0
156 164 0
157 168 0
153 163 0
148 158 0
157 168 0
159 171 0
159 172 0
156 164 0
154 166 0
159 170 0
159 170 0
164 179 0
159 173 0
156 171 0
159 173 0
161 175 0
159 173 0
158 171 0
162 177 0
165 181 0
161 174 0
159 173 0
159 175 0
162 176 0
164 179 0
161 175 0
163 178 0
163 180 0
165 180 0
159 174 0
162 177 0
166 182 0
162 178 0
166 181 0
162 181 0
167 186 0
165 183 0
165 184 0
166 182 0
169 186 0
166 184 0
169 189 0
207 225 221
208 226 227
204 222 212
207 225 226
207 225 228
204 222 217
205 223 214
206 224 218
203 222 215
205 223 221
200 219 207
199 218 198
199 218 191
201 220 204
197 216 189
196 215 193
197 216 193
194 214 175
195 214 175
193 213 173
194 214 173
191 211 169
190 211 159
191 211 167
190 210 159
190 211 159
192 213 173
189 210 151
190 211 161
189 210 159
188 209 144
189 210 161
182 204 127
186 208 149
184 205 127
185 206 135
182 205 127
182 203 122
177 199 120
182 205 130
183 206 130
183 204 130
184 206 135
181 204 125
182 204 137
181 204 130
180 202 120
183 204 140
181 203 130
188 209 147
177 199 122
185 207 153
183 205 127
183 205 140
182 204 122
180 201 120
185 206 137
185 207 151
179 201 114
187 209 151
187 207 157
187 208 144
192 212 167
187 207 153
185 207 149
189 209 157
189 210 157
189 210 156
190 210 170
189 209 177
181 202 172
180 199 194
167 188 194
165 186 194
170 189 203
163 182 200
154 174 199
154 175 202
145 166 189
148 170 197
140 162 206
139 162 200
138 160 198
119 143 187
132 156 195
136 158 199
129 152 199
133 156 199
114 139 188
136 158 199
100 127 188
117 141 191
105 132 187
104 131 188
106 132 185
99 126 181
103 130 187
82 113 179
90 120 184
77 110 175
71 104 172
80 111 172
81 111 171
78 110 174
65 100 169
65 100 159
76 108 163
78 109 166
76 107 157
63 98 165
68 101 159
69 102 161
64 99 154
66 100 157
66 100 158
61 97 162
60 96 157
63 98 160
63 98 159
62 98 163
58 94 150
60 95 151
60 96 156
60 96 155
60 96 150
59 94 152
61 97 155
61 97 160
61 98 166
60 95 153
61 97 157
60 95 154
60 96 151
60 96 156
60 95 155
61 97 159
62 97 157
61 97 157
61 96 156
60 96 154
61 97 153
61 97 163
61 97 158
61 97 160
61 97 157
61 96 152
61 97 157
61 96 154
60 96 154
60 96 158
61 97 161
62 98 165
61 97 157
61 97 155
62 98 163
61 98 159
60 96 157
62 97 155
60 96 153
61 97 152
61 97 164
61 97 151
62 98 159
61 97 153
61 97 157
61 96 153
61 97 156
60 95 148
61 97 151
62 97 156
61 97 155
59 95 144
62 97 156
62 98 156
61 97 155
62 98 156
62 98 162
60 96 151
61 97 160
62 97 155
61 96 149
62 98 160
61 96 155
62 97 156
62 97 157
61 97 154
62 97 154
62 98 160
62 98 160
62 98 154
61 97 153
61 97 153
62 97 156
62 97 158
61 96 148
62 97 159
61 97 152
62 97 154
62 98 157
61 97 156
62 97 159
60 96 150
62 98 158
61 97 154
61 97 154
62 98 158
61 97 159
61 97 156
62 98 161
63 99 165
62 98 157
62 97 150
62 98 158
62 97 151
61 96 145
61 97 149
61 97 155
63 98 156
61 97 150
61 97 152
61 96 152
62 98 162
62 97 153
61 97 158
61 96 149
61 96 143
61 96 148
61 97 155
62 97 149
62 97 148
60 96 147
61 97 151
62 97 154
60 96 145
61 97 156
61 96 150
61 96 148
60 96 148
60 95 147
61 96 149
61 96 149
61 96 144
62 97 150
61 96 142
61 96 140
60 94 140
61 96 147
60 94 141
60 95 145
60 95 139
61 96 152
59 94 131
58 92 125
59 93 135
59 93 134
61 95 135
59 93 136
58 90 117
59 92 131
58 90 124
82 102 110
104 119 80
104 111 48
120 127 18
111 116 0
107 110 0
111 117 0
109 112 0
95 98 0
111 114 0
112 113 0
102 103 11
108 110 0
108 111 0
109 109 0
96 96 0
96 97 0
98 102 0
116 118 0
91 93 0
107 107 0
104 102 11
97 94 0
94 93 11
103 103 0
83 82 0
98 97 0
104 101 8
98 95 0
91 85 0
91 86 0
90 87 0
105 101 0
107 103 11
105 98 0
98 93 0
96 92 8
103 99 0
94 88 0
94 90 0
98 93 0
106 101 0
101 97 8
98 92 0
109 103 0
109 104 16
106 103 0
98 92 0
105 100 0
96 90 0
111 103 11
94 90 0
109 107 0
107 103 0
108 102 0
111 105 11
113 109 0
102 99 0
113 108 0
115 112 19
107 103 0
117 112 11
106 102 0
128 124 11
120 115 19
108 104 16
108 104 16
117 114 16
116 114 11
125 121 0
127 125 19
123 118 19
121 118 11
126 125 19
120 115 0
123 119 11
118 117 16
128 125 16
128 128 11
139 138 11
131 131 11
136 140 0
133 135 11
132 136 11
138 141 16
134 134 11
131 133 0
128 133 0
142 148 0
137 140 11
130 134 16
148 154 11
145 151 0
151 159 16
145 153 11
145 151 0
143 150 11
159 167 0
151 159 0
152 163 0
153 162 0
159 169 0
159 169 0
157 168 0
162 174 0
158 168 0
165 179 0
153 167 0
160 172 0
161 178 0
152 164 0
161 176 0
157 169 0
161 175 0
163 178 0
162 174 0
159 170 0
162 175 0
161 174 0
163 178 0
162 177 0
164 180 0
164 180 0
166 183 0
164 180 0
163 177 0
165 181 0
164 180 0
166 184 0
162 178 0
163 179 0
157 172 0
171 189 0
160 177 0
163 179 0
169 188 0
164 181 0
163 180 0
167 185 0
166 185 0
209 226 230
208 226 226
205 223 214
204 222 221
201 220 211
200 219 206
200 219 206
200 219 207
201 219 198
202 220 209
200 219 201
197 216 196
197 217 198
196 215 196
191 211 169
194 214 177
191 211 171
195 216 188
197 216 179
190 211 159
194 214 181
189 210 167
194 214 173
185 206 135
188 209 155
188 209 153
188 208 155
187 208 147
188 209 161
180 202 120
182 204 108
186 207 135
179 203 122
178 201 108
182 204 122
179 202 122
183 205 108
182 204 120
181 203 130
186 207 125
177 200 105
180 203 117
180 202 111
181 204 114
180 203 111
177 200 88
178 201 117
182 204 122
183 205 120
180 203 102
179 201 105
174 197 80
182 204 117
186 208 149
181 203 117
181 203 120
182 204 130
181 203 117
182 204 130
182 204 130
184 205 122
186 207 135
185 206 140
185 207 137
186 208 140
189 210 155
191 211 157
187 209 155
185 205 161
177 198 149
175 196 170
171 192 180
155 177 174
158 179 189
153 173 188
150 171 183
144 165 192
138 159 180
146 168 194
152 173 201
138 160 187
145 166 199
134 156 193
123 147 185
139 161 192
129 153 194
120 145 187
113 139 185
125 149 194
114 139 190
108 134 189
119 144 195
101 128 185
109 134 183
102 129 183
101 128 183
95 124 185
89 118 181
102 129 187
99 127 186
88 117 175
76 108 169
84 114 177
70 104 161
73 105 163
68 102 169
71 104 169
68 102 160
76 108 163
74 106 160
76 108 169
62 97 159
74 107 163
72 103 156
66 100 151
70 102 160
66 100 161
62 97 159
63 98 154
61 97 158
61 97 155
61 96 158
62 97 156
62 96 143
60 95 152
61 96 151
61 97 160
63 98 157
68 101 154
60 96 156
63 98 154
59 94 148
61 96 151
61 97 156
60 96 151
60 96 151
62 98 160
60 96 154
62 98 160
60 96 151
61 97 156
61 96 153
61 97 157
61 97 157
61 97 158
62 98 159
60 96 153
61 97 156
62 98 163
62 97 156
62 98 160
60 96 151
61 97 154
62 98 159
61 97 157
61 97 160
62 97 159
62 98 161
61 98 160
61 97 149
62 98 159
62 97 155
61 97 163
61 97 157
61 96 155
62 98 160
60 96 153
61 97 153
62 97 159
63 99 167
61 97 155
61 97 154
61 96 149
61 98 159
61 97 155
62 98 160
61 96 149
61 96 149
62 98 158
62 97 156
61 97 149
61 96 154
62 97 156
61 97 154
61 97 155
62 98 157
62 98 161
61 96 149
62 98 158
60 96 157
61 97 150
62 97 157
61 96 150
62 98 157
61 97 155
62 97 152
61 97 151
60 96 144
61 96 149
62 98 163
62 97 152
63 99 165
61 96 151
62 97 151
62 98 154
62 98 159
62 98 157
62 97 157
60 95 148
61 97 151
62 98 156
62 97 149
62 98 152
61 97 147
62 97 152
61 96 148
62 97 159
60 95 137
62 97 155
62 98 152
61 97 154
61 97 149
61 97 148
61 96 148
61 96 148
60 95 143
61 96 149
62 98 160
61 96 151
60 95 148
61 96 145
60 95 140
61 96 153
61 97 154
62 96 142
62 98 156
61 97 144
61 96 147
61 96 150
61 96 144
61 96 147
60 95 144
60 95 136
59 94 140
61 96 144
61 96 151
61 96 137
61 96 141
60 95 139
60 95 140
60 94 148
61 95 142
58 91 128
59 94 141
61 95 141
58 92 127
59 93 133
59 92 130
57 88 123
62 93 120
86 106 107
107 120 62
109 120 47
114 117 18
124 130 0
117 124 0
109 113 0
103 107 0
111 115 0
113 114 0
123 127 16
107 111 0
109 114 0
103 108 0
105 106 0
98 97 0
108 109 11
107 106 0
100 100 0
100 101 0
100 99 0
107 104 0
106 106 0
92 90 0
98 93 0
87 83 11
106 106 0
88 88 11
89 85 0
99 96 0
101 98 0
98 94 0
100 97 0
91 87 0
99 97 0
113 108 11
93 89 0
108 104 0
104 99 0
100 96 0
102 100 0
99 95 0
97 93 0
102 99 0
107 104 0
102 97 0
115 109 0
115 110 0
109 102 11
104 99 11
108 105 0
114 109 0
97 94 0
115 110 11
114 110 0
107 102 19
113 109 0
108 105 0
109 103 0
101 98 0
108 106 11
107 106 11
113 111 11
106 103 0
120 117 11
113 108 0
115 112 0
114 111 16
122 116 0
117 114 0
123 121 16
120 119 11
120 118 0
107 105 0
125 123 16
122 120 11
123 120 11
132 132 11
126 124 0
128 129 0
132 136 0
131 130 11
136 136 11
126 126 0
131 132 11
132 134 16
138 143 11
134 134 16
142 146 19
138 145 11
144 150 0
141 147 0
143 149 0
144 148 0
149 157 0
149 158 0
149 159 0
157 168 0
151 161 0
153 162 0
156 167 0
152 162 0
157 167 0
154 163 0
155 167 0
161 175 0
161 174 0
151 162 0
159 170 0
157 170 0
162 174 0
160 175 0
154 165 0
154 167 0
162 176 0
159 173 0
163 179 0
159 175 0
160 174 0
161 175 0
163 179 0
162 176 0
164 179 0
160 174 0
165 181 0
160 175 0
161 179 0
162 177 0
164 180 0
164 179 0
162 179 0
164 181 0
163 180 0
165 180 0
167 185 0
165 183 0
164 182 0
166 184 0
161 180 0
165 184 0
203 222 218
203 221 209
201 220 206
202 221 209
202 221 209
202 221 207
202 221 211
200 219 198
200 220 204
195 215 189
198 217 196
195 214 182
194 215 186
189 210 167
194 214 169
190 211 167
192 213 171
186 207 149
190 210 157
187 209 153
189 210 161
185 207 142
181 204 135
184 206 135
183 204 140
187 208 137
180 202 130
184 206 130
179 201 117
186 207 149
183 205 133
180 203 114
179 201 105
185 206 122
186 208 142
177 200 105
178 201 92
180 202 99
179 201 102
178 201 111
175 199 92
180 203 105
178 201 99
179 202 84
179 201 111
175 199 95
176 199 102
174 197 88
181 203 108
175 199 99
180 203 108
178 200 92
181 204 122
177 199 108
177 200 88
175 198 80
184 206 135
179 202 108
179 201 114
180 202 127
178 200 102
178 201 102
176 199 111
182 204 122
181 203 120
184 206 135
183 204 127
178 200 141
178 198 155
180 201 152
172 194 165
167 189 174
149 171 175
154 175 190
145 167 188
142 164 185
142 164 188
137 160 195
136 159 181
128 151 187
135 158 181
130 154 189
123 147 181
122 147 187
126 149 188
109 136 190
123 147 196
123 146 191
122 146 191
120 145 191
120 145 195
109 135 182
117 141 191
99 126 181
97 125 187
103 130 190
103 129 184
93 122 183
105 131 192
84 114 176
80 111 173
90 119 177
82 112 179
77 109 174
68 102 175
68 103 164
67 102 166
73 106 164
69 103 165
66 101 164
70 104 164
71 104 162
67 101 163
70 102 155
73 105 164
62 98 165
61 96 157
63 98 158
61 96 155
62 98 157
63 98 155
62 97 155
62 98 163
63 98 151
63 98 156
61 97 155
61 97 165
60 96 157
60 96 152
61 97 154
60 95 146
61 97 158
60 95 148
60 95 150
61 96 155
60 96 158
60 96 154
62 98 166
60 95 149
60 96 155
61 96 154
60 95 144
61 96 157
61 96 155
61 97 154
60 96 148
61 96 150
61 97 153
60 95 148
61 97 157
61 97 160
62 98 165
62 98 162
60 95 152
61 97 160
60 96 149
61 96 156
61 96 151
60 96 151
62 98 161
60 96 159
62 97 153
61 97 155
61 97 154
61 97 152
62 97 158
62 98 158
61 97 159
61 97 159
60 96 144
60 96 156
61 96 156
61 97 152
61 97 157
60 96 157
62 98 155
61 96 150
62 98 158
61 96 155
62 97 157
61 96 153
62 98 155
61 97 154
62 98 161
61 97 156
62 98 160
63 99 161
61 97 157
62 98 160
61 97 153
61 97 147
61 97 157
62 98 162
62 97 151
62 98 156
61 96 152
62 97 158
62 98 157
62 98 163
60 95 148
62 98 153
62 98 157
62 97 152
60 96 148
62 97 153
62 98 158
62 98 155
62 97 160
62 97 152
61 97 149
61 97 154
61 97 158
62 98 160
62 98 158
61 97 156
61 97 149
62 98 157
62 98 158
62 97 151
62 98 158
62 97 154
61 97 150
60 95 143
61 96 147
61 97 145
61 96 151
61 96 149
61 96 149
61 97 152
62 98 159
60 96 143
61 96 147
62 97 151
61 96 144
60 96 147
61 96 151
61 96 147
62 97 152
61 97 149
61 95 140
60 95 144
60 95 146
61 96 148
62 97 150
60 95 143
61 96 149
60 95 145
61 96 145
60 95 135
61 95 141
60 94 141
60 93 132
60 94 141
60 95 136
57 90 123
60 94 135
58 92 124
59 93 129
59 92 125
71 97 131
83 99 84
107 120 76
109 114 32
95 99 0
118 124 0
121 127 0
118 124 0
122 128 0
109 114 0
109 114 0
114 118 0
117 121 0
105 107 0
102 102 0
89 92 0
108 111 0
105 110 0
91 93 0
105 106 0
100 101 11
100 101 0
106 105 0
93 95 0
88 88 11
106 104 0
101 97 0
107 106 0
105 103 0
101 100 0
94 92 0
90 90 0
97 96 3
104 102 0
100 99 0
99 96 0
105 102 0
97 94 0
95 93 0
103 98 0
111 107 0
105 105 0
101 98 0
109 105 8
105 100 0
105 101 0
97 94 0
104 98 0
97 94 0
112 107 0
113 112 0
95 91 0
103 99 0
103 99 0
102 101 0
113 108 0
103 97 0
115 112 11
89 85 0
113 109 11
110 105 0
114 112 11
114 112 0
104 103 0
116 110 0
112 109 0
116 115 11
107 104 0
108 106 0
116 115 11
118 117 16
116 114 11
121 120 11
121 119 0
123 121 11
129 130 11
127 124 16
130 126 16
126 126 16
133 136 11
131 129 25
123 126 11
142 145 19
123 122 0
130 132 11
139 142 11
134 137 0
137 138 0
139 147 0
134 137 0
146 151 0
146 150 0
138 145 11
152 160 0
153 161 11
147 155 0
150 158 0
152 163 0
155 164 0
152 160 0
152 161 0
152 163 0
154 166 0
152 161 0
151 163 0
154 164 0
156 168 0
162 175 0
154 164 0
156 169 0
162 176 0
163 176 0
152 161 0
160 174 0
159 174 0
155 169 0
161 176 0
161 177 0
154 168 0
159 176 0
166 182 0
163 179 0
163 179 0
166 181 0
161 178 0
155 170 0
164 178 0
160 175 0
163 178 0
160 177 0
162 180 0
163 181 0
160 177 0
162 181 0
167 184 0
164 182 0
164 182 0
159 176 0
169 187 0
166 183 0
163 181 0
203 221 214
201 220 215
204 221 215
204 222 207
204 222 211
199 217 199
197 216 194
200 219 204
195 214 186
195 215 181
192 212 165
189 210 161
192 211 177
190 210 159
196 216 181
187 209 149
186 207 157
189 210 157
184 205 135
184 206 133
185 206 147
186 207 140
183 205 137
184 205 125
184 205 122
182 205 127
181 202 108
178 200 102
181 202 99
182 204 111
177 200 108
179 201 102
180 203 122
178 200 92
180 202 108
177 200 99
176 200 88
177 200 72
180 201 108
175 198 80
173 196 72
175 199 92
176 200 88
174 197 95
171 194 67
178 201 111
181 203 108
171 194 92
174 198 57
176 199 88
175 198 72
178 200 92
178 201 88
176 198 88
178 200 92
174 197 76
175 198 92
173 196 88
175 198 84
177 200 95
177 199 95
179 201 108
176 199 95
181 204 117
177 199 84
179 201 133
180 202 108
180 203 126
180 201 137
178 200 154
165 188 137
155 177 166
152 174 161
141 162 173
130 153 164
150 172 194
140 163 194
147 169 193
125 149 176
135 158 185
134 156 178
135 158 185
121 145 179
122 146 183
121 145 184
121 146 182
119 143 183
122 146 192
124 148 188
100 128 182
108 135 189
115 139 185
98 126 182
88 118 181
117 142 183
98 125 182
87 116 172
99 126 180
100 127 183
96 124 185
96 123 181
92 121 181
82 113 178
74 107 175
74 106 174
74 106 163
75 107 169
64 100 162
65 100 159
71 104 163
64 99 162
69 103 171
69 103 161
64 98 151
60 96 162
67 101 155
67 101 159
68 102 152
67 101 163
60 95 150
60 96 153
59 94 150
63 98 157
61 96 141
60 96 153
62 96 151
60 96 146
59 95 148
60 95 147
60 95 150
63 98 154
61 96 153
61 97 158
61 96 150
61 97 161
61 97 153
61 97 159
62 98 160
61 97 151
59 94 149
60 96 151
62 98 162
60 95 154
60 96 150
60 95 150
60 96 144
60 96 152
60 96 156
62 98 160
61 96 154
61 97 159
59 94 150
61 97 154
61 96 156
62 98 161
61 96 156
60 95 147
62 98 155
62 97 156
61 96 153
62 98 162
61 97 153
61 97 157
61 96 152
62 98 158
62 98 159
62 98 159
62 99 167
60 96 155
61 97 154
62 98 165
62 97 159
61 97 153
62 97 153
61 96 147
61 97 153
61 97 153
61 97 158
62 98 157
62 98 159
61 97 149
60 95 142
61 97 155
61 97 154
61 96 150
63 99 164
62 98 157
61 97 150
62 98 158
62 98 158
61 96 145
62 98 158
60 96 154
61 97 155
61 97 152
62 98 155
62 97 154
61 97 151
61 97 151
61 97 147
61 96 149
62 97 155
62 98 157
62 97 158
62 98 156
61 96 149
62 98 156
62 97 151
61 96 150
61 96 151
61 97 152
61 96 150
62 98 155
61 97 155
61 96 145
61 96 155
61 96 137
62 97 157
61 97 149
62 98 154
62 97 150
61 97 152
61 97 148
61 96 143
62 97 154
61 97 151
62 97 149
60 96 139
60 95 140
60 96 147
61 96 149
61 96 144
61 96 144
62 97 149
61 97 149
61 96 151
61 96 147
62 97 149
61 97 147
60 95 143
61 96 141
61 96 135
61 97 150
61 96 150
60 95 147
62 97 150
60 96 145
62 97 149
60 94 141
59 93 131
59 93 126
60 95 139
60 94 134
59 93 129
60 94 137
59 93 135
60 94 134
60 95 142
58 89 121
84 105 82
101 114 68
105 115 60
116 122 0
118 121 0
106 110 0
122 128 0
108 111 0
109 116 0
111 115 0
106 111 0
115 118 0
112 116 0
107 108 0
112 116 0
103 104 0
114 116 0
105 105 0
108 112 0
101 101 0
92 94 0
103 104 0
104 103 0
88 87 0
94 93 0
98 98 0
92 89 0
92 91 0
95 95 0
103 100 0
108 107 0
98 98 0
102 101 0
99 98 0
112 109 0
112 110 0
93 90 0
106 106 0
90 88 0
104 101 0
108 101 0
108 107 0
103 99 0
95 89 0
97 95 0
107 101 0
106 105 0
109 107 0
103 98 0
109 104 0
101 99 0
120 115 11
102 95 0
112 110 0
109 107 11
111 106 11
106 101 0
117 113 0
120 116 11
111 106 0
112 108 0
115 112 0
114 109 0
118 114 0
112 110 0
121 119 0
121 116 11
121 119 11
116 113 0
123 120 0
123 120 0
111 110 16
122 122 0
124 123 0
121 121 0
122 124 11
136 134 16
123 122 0
121 124 0
119 118 0
127 131 0
139 139 0
140 143 11
136 139 0
137 142 0
132 135 11
137 139 16
139 145 0
140 145 0
153 162 0
144 149 0
140 148 0
153 164 11
145 154 0
151 160 0
153 165 0
156 163 0
146 154 0
151 159 0
159 171 0
158 169 0
154 165 0
151 161 0
152 163 0
153 163 0
157 168 0
153 164 0
159 171 0
150 160 0
155 167 0
154 168 0
156 169 0
162 176 0
152 164 0
160 173 0
162 178 0
162 178 0
160 174 0
165 180 0
157 170 0
159 174 0
158 176 0
166 183 0
162 177 0
162 179 0
162 179 0
164 180 0
161 175 0
159 175 0
158 175 0
165 183 0
159 176 0
168 186 0
161 177 0
162 178 0
168 185 0
168 184 0
162 180 0
160 177 0
165 180 0
161 179 0
209 226 227
201 219 198
201 220 207
198 217 196
200 219 203
199 218 194
193 213 181
194 214 177
190 210 165
193 213 173
193 213 173
188 209 161
193 213 163
189 209 163
186 208 142
184 207 140
183 205 125
184 206 137
188 209 147
181 203 108
184 205 127
181 203 120
180 202 105
182 204 120
179 201 92
180 203 117
176 200 92
175 198 92
176 199 92
175 198 80
180 203 108
176 200 88
176 199 67
177 200 88
179 202 88
178 201 114
174 198 76
175 198 88
177 200 102
173 198 76
173 197 80
169 193 51
176 199 76
175 199 62
175 199 67
174 197 72
174 198 67
175 199 88
174 197 72
170 194 72
173 197 80
174 197 72
177 200 76
171 196 62
174 197 57
174 197 76
172 196 76
175 198 84
175 199 80
172 196 67
176 199 92
175 198 80
175 198 80
178 201 95
177 200 92
176 199 92
175 198 95
179 201 102
168 191 120
167 189 120
155 178 131
148 171 130
130 153 160
126 149 166
131 154 177
135 157 184
128 152 178
130 153 179
122 147 169
136 158 188
140 162 181
120 145 174
129 153 187
115 141 175
101 128 158
118 142 182
116 142 184
107 133 169
109 134 175
101 128 172
101 128 182
102 129 181
115 139 184
107 134 180
93 122 181
101 129 186
96 124 186
90 119 179
104 131 184
100 128 185
101 128 184
91 120 179
79 110 177
81 112 173
77 108 171
77 109 173
65 100 170
71 105 169
76 108 171
66 100 165
68 102 168
79 111 166
66 100 160
63 99 157
61 96 159
64 99 162
67 101 155
62 97 154
64 98 160
60 95 143
64 98 151
60 95 151
61 97 164
60 96 156
63 98 154
60 95 149
60 96 153
62 96 143
61 97 151
60 95 154
60 96 154
61 97 155
61 96 157
60 95 155
61 97 157
61 97 156
61 97 153
60 95 145
61 97 157
60 96 156
60 96 155
61 96 158
61 97 160
60 95 151
59 95 150
60 96 147
61 96 153
60 96 158
61 97 156
61 97 159
62 98 162
61 97 151
61 96 150
62 98 161
60 96 147
59 95 144
60 95 154
62 98 164
61 97 158
62 98 156
60 96 151
62 98 158
61 97 156
61 97 156
61 97 159
60 96 154
61 97 157
62 98 159
60 96 155
60 96 153
60 96 150
62 98 161
62 98 156
61 97 155
62 97 156
62 97 154
61 97 152
61 97 156
61 96 149
61 97 154
62 98 158
62 98 158
62 98 159
62 98 157
62 98 162
60 96 149
61 96 149
62 97 155
62 98 157
61 96 147
61 97 152
61 97 154
61 97 152
61 97 154
61 97 155
61 97 150
62 97 152
61 97 155
61 96 148
62 98 156
61 97 154
61 97 148
61 97 151
61 97 158
62 98 156
61 96 154
61 96 148
61 96 147
61 96 148
61 97 153
61 96 155
63 98 158
62 97 154
61 96 149
62 98 156
60 94 141
61 97 148
62 97 155
62 97 154
62 97 149
60 96 145
61 97 150
61 97 156
61 97 148
61 96 148
61 97 153
62 97 143
61 96 145
61 96 150
62 97 155
62 97 147
60 95 143
60 95 137
60 95 140
61 96 151
60 96 147
60 95 144
61 96 147
60 95 145
62 97 154
60 95 141
61 96 144
60 95 135
61 95 142
60 94 142
60 95 141
61 96 148
60 95 136
60 95 136
60 95 142
61 97 147
60 95 138
57 91 125
58 92 132
59 93 131
60 94 134
60 94 133
59 92 126
71 99 130
78 100 101
99 115 68
114 121 32
117 125 0
120 127 0
114 122 0
109 114 0
103 109 0
122 127 0
111 115 0
102 109 0
105 108 0
110 114 0
102 105 0
102 106 0
105 110 0
94 99 0
111 115 0
110 112 0
104 107 11
101 104 0
104 103 0
101 104 0
101 102 0
108 106 0
98 98 0
95 94 11
94 94 0
90 89 0
103 103 0
114 114 0
95 92 0
98 95 0
102 101 0
83 80 0
112 110 0
97 95 0
101 98 0
101 99 0
106 105 0
87 86 0
98 94 0
101 99 0
107 105 0
96 91 0
94 90 0
99 98 0
111 110 0
107 104 0
109 104 0
108 106 0
108 105 0
112 105 0
103 101 0
121 120 0
112 108 0
109 104 0
105 103 0
110 108 11
118 115 11
107 104 0
120 117 0
113 111 0
114 111 0
127 126 0
109 109 11
114 110 11
118 117 0
113 110 0
113 113 0
125 120 0
117 118 11
128 126 0
128 129 0
124 122 0
112 109 0
121 117 16
131 131 0
133 132 0
129 130 0
133 137 0
135 139 11
138 142 16
139 144 0
132 134 11
142 147 0
141 147 0
145 150 0
143 147 0
144 152 0
151 156 11
152 159 0
148 155 0
150 159 0
152 159 0
151 160 0
148 156 0
149 157 0
153 162 0
158 171 0
147 158 0
161 172 0
154 164 0
154 165 0
150 158 0
158 168 0
156 168 0
154 164 0
157 169 0
158 172 0
155 168 0
157 169 0
161 173 0
158 169 0
159 172 0
162 175 0
162 178 0
156 168 0
165 180 0
163 179 0
162 178 0
163 178 0
163 176 0
162 179 0
158 174 0
158 174 0
163 179 0
160 177 0
167 183 0
163 179 0
161 179 0
163 180 0
165 182 0
165 184 0
163 182 0
166 184 0
167 187 0
160 178 0
163 179 0
172 190 0
165 185 0
202 220 203
200 218 203
202 220 203
198 218 199
194 214 179
191 212 171
194 214 175
190 211 159
192 212 163
188 208 151
183 205 122
186 208 144
183 205 130
188 209 144
187 208 133
181 203 127
179 201 120
179 201 111
181 202 117
181 202 127
176 199 105
179 201 95
181 203 114
178 199 88
176 200 88
180 202 102
180 203 102
175 198 88
175 198 84
174 197 67
177 200 92
172 196 62
171 195 76
177 200 99
175 199 76
174 198 72
173 196 76
173 196 57
173 196 80
175 198 92
175 199 76
173 197 62
174 197 72
170 194 67
175 199 80
174 198 62
175 198 84
175 198 72
174 198 72
172 196 76
172 197 88
171 194 67
175 198 76
173 195 76
171 194 80
174 197 44
170 193 51
176 198 62
177 200 92
175 198 72
175 198 88
176 199 84
175 198 67
177 200 99
175 197 80
172 196 84
177 199 78
170 194 82
172 195 114
169 191 118
162 185 143
142 166 125
126 152 164
116 142 155
118 143 173
120 145 167
110 136 153
124 148 169
112 137 166
126 150 174
106 132 172
117 142 170
128 151 179
111 137 170
121 146 187
101 128 175
123 148 179
108 134 189
98 126 167
105 132 183
101 128 173
107 134 175
100 128 180
100 128 180
102 129 181
83 114 178
97 125 172
105 131 184
94 123 173
91 120 182
88 118 179
89 118 173
81 112 169
85 115 174
88 117 176
79 110 175
71 104 170
66 101 164
70 104 171
76 107 168
67 101 168
70 104 166
74 106 162
74 106 167
64 99 157
64 100 167
65 99 151
64 99 159
63 99 157
61 96 153
60 96 158
61 96 151
60 95 157
61 97 160
62 97 156
67 101 149
62 97 157
62 97 143
60 95 156
59 95 147
60 96 157
60 95 151
64 99 159
60 96 145
59 95 148
59 94 155
59 95 149
61 97 156
60 95 145
60 96 150
61 97 154
61 96 158
59 95 151
60 96 156
61 97 155
61 97 159
60 95 149
61 97 152
61 96 152
60 95 148
60 95 147
59 94 142
60 96 150
61 97 156
61 97 159
61 96 155
62 98 159
61 97 155
61 97 155
62 98 162
61 96 148
61 96 149
61 97 155
62 97 156
62 98 160
60 96 156
62 98 158
61 97 154
60 95 150
60 96 142
61 97 157
61 97 155
62 97 150
63 99 163
61 97 154
62 97 151
62 98 161
62 98 157
61 97 157
60 96 154
61 97 152
62 98 162
61 97 155
61 97 150
62 97 155
62 97 153
61 97 158
60 96 147
61 96 146
61 96 145
61 96 153
61 96 155
62 97 148
61 98 159
61 97 155
61 97 148
60 96 155
61 97 156
62 98 155
61 97 155
60 96 141
61 96 147
61 97 157
61 96 147
61 97 153
62 98 156
61 96 148
61 96 143
62 97 154
60 95 143
60 96 150
61 96 151
62 97 149
61 96 149
60 96 150
61 96 145
62 97 157
61 96 147
61 96 149
62 97 153
61 97 149
62 97 155
61 96 145
61 97 148
61 97 148
61 96 141
61 96 149
61 96 141
61 96 143
60 96 139
60 96 150
60 95 141
61 96 142
62 97 148
61 97 153
61 96 142
62 97 147
61 96 144
61 96 145
61 95 136
60 96 145
62 97 147
62 97 145
61 96 142
60 94 133
61 96 148
60 94 134
60 95 134
60 95 143
61 96 147
59 93 130
61 96 137
60 94 136
59 93 130
60 94 124
57 91 125
58 91 127
59 92 132
73 99 108
86 104 90
110 122 60
118 125 36
117 125 0
113 120 0
115 122 0
115 120 0
126 133 0
109 114 0
103 109 0
109 111 0
107 111 0
106 112 0
106 111 0
106 110 0
107 109 0
106 109 0
117 119 0
111 115 0
106 107 0
114 117 0
102 102 0
96 101 0
103 100 0
103 108 0
104 105 0
105 106 0
83 77 0
103 102 0
100 103 0
97 99 0
103 104 0
93 94 0
110 110 0
112 111 0
96 93 0
97 94 0
97 94 0
102 99 0
86 84 0
99 97 0
96 93 0
100 98 0
105 103 0
105 103 0
109 108 0
98 93 0
110 110 0
102 101 0
107 105 0
114 113 0
101 97 0
112 107 11
101 98 0
101 95 0
103 102 0
108 105 0
112 113 0
113 110 11
114 111 11
111 106 11
109 108 0
108 105 0
118 118 0
117 116 0
111 110 0
104 103 11
119 117 16
122 124 0
126 125 11
125 123 16
126 126 0
121 121 0
130 134 0
128 129 11
134 137 0
136 137 11
133 133 0
134 140 0
136 138 0
124 123 11
132 136 0
137 140 11
138 142 0
136 140 0
143 150 0
139 141 0
141 146 0
141 145 0
143 150 0
149 158 0
153 161 0
148 154 0
150 157 0
151 159 0
150 158 0
154 163 0
153 162 0
146 156 0
159 170 0
149 157 0
150 159 0
159 169 0
154 165 0
155 168 0
154 165 0
156 170 0
153 164 0
157 171 0
154 167 0
158 169 0
159 173 0
164 177 0
151 162 0
159 174 0
159 172 0
159 172 0
166 179 0
164 178 0
156 172 0
162 177 0
167 184 0
164 178 0
164 179 0
165 181 0
164 178 0
161 176 0
162 180 0
161 176 0
164 181 0
163 178 0
166 183 0
163 181 0
164 180 0
165 184 0
167 184 0
161 178 0
166 181 0
163 179 0
163 180 0
166 183 0
194 213 177
194 214 188
195 214 188
195 215 186
195 214 179
192 212 175
191 211 165
188 209 157
191 212 169
191 211 163
184 205 140
190 210 159
184 206 122
185 206 151
179 201 120
177 200 108
180 202 122
178 202 99
174 197 95
180 203 105
177 201 95
177 200 92
177 200 84
178 200 99
178 201 95
175 199 80
176 199 80
171 194 84
178 200 80
173 197 51
171 195 67
171 195 62
173 197 76
176 200 92
172 196 67
176 200 88
171 194 72
172 196 57
174 197 76
173 197 67
175 199 80
171 193 67
172 196 72
175 198 62
175 198 72
177 200 80
176 200 80
174 197 62
171 195 51
171 195 62
170 194 57
168 191 57
171 194 57
170 194 72
172 195 80
169 193 57
173 198 76
174 198 84
174 197 95
177 200 84
173 196 72
172 195 62
175 198 76
173 196 80
174 197 88
172 195 84
174 198 84
175 198 97
169 192 62
162 186 88
151 175 115
135 160 137
122 146 151
106 133 154
111 136 159
108 134 160
111 137 153
119 143 175
119 145 170
119 144 171
113 139 170
107 133 162
121 146 173
111 137 177
111 137 170
99 126 169
102 129 176
109 136 173
95 123 173
114 140 175
102 129 170
103 130 177
91 120 171
97 125 174
94 123 176
102 130 181
95 123 174
89 119 173
94 123 180
92 120 177
82 113 177
82 113 174
72 105 168
84 114 179
83 114 175
82 113 180
77 108 171
77 109 166
72 104 162
73 106 173
64 99 161
70 104 167
77 109 169
72 105 159
67 101 163
64 99 159
72 104 157
63 98 165
61 97 165
71 103 160
68 102 164
66 100 156
60 96 154
63 98 158
63 98 157
62 97 147
60 95 149
60 96 155
60 95 147
58 93 149
60 96 154
60 95 149
59 95 151
59 94 144
61 96 154
61 97 152
60 95 150
59 94 144
60 95 151
61 97 154
60 96 153
60 96 149
60 95 146
61 96 150
60 95 151
60 96 150
62 97 162
61 96 148
60 96 149
61 96 153
61 97 158
61 97 153
60 96 150
61 96 153
61 97 156
61 97 157
60 96 149
61 96 148
61 96 153
62 98 156
61 96 157
62 97 157
62 98 154
60 96 152
61 97 157
61 96 149
60 95 150
61 97 154
61 97 156
61 96 149
60 96 150
62 97 156
61 97 153
61 97 156
61 97 159
61 97 155
62 98 159
62 98 157
61 96 147
61 97 155
62 98 157
61 96 159
62 97 151
61 97 154
61 97 152
61 96 155
62 97 152
62 98 165
61 97 153
61 97 148
61 97 150
61 97 156
61 97 151
62 98 155
62 97 159
62 98 153
62 98 156
62 98 157
62 98 158
62 97 151
61 97 152
62 98 162
61 96 152
61 96 144
62 98 157
61 97 154
63 98 160
61 97 147
61 97 155
61 97 157
62 97 148
61 97 151
61 96 145
61 97 154
62 98 158
62 98 156
61 96 144
62 98 153
60 96 145
62 98 153
62 97 150
62 97 156
60 95 142
61 96 150
60 96 142
60 95 137
62 97 153
61 96 149
61 96 147
61 97 147
62 97 148
62 98 153
60 96 143
60 95 131
61 96 148
61 95 143
61 96 139
60 95 139
60 95 134
61 97 148
60 95 137
59 94 130
61 96 149
60 95 142
61 95 137
61 96 145
60 95 142
60 94 134
59 93 135
60 94 135
59 93 130
59 94 129
60 94 137
59 92 130
57 90 131
59 93 135
60 93 135
61 92 119
69 94 103
85 100 67
106 117 54
106 114 31
115 122 0
118 125 0
123 129 0
111 122 0
111 120 0
115 120 0
115 120 0
117 122 0
116 123 0
115 120 0
112 116 0
106 110 0
109 115 0
118 124 0
104 107 0
101 105 0
116 118 0
104 108 0
117 120 0
101 103 0
114 120 0
107 108 0
111 111 0
102 103 0
100 97 0
109 107 0
100 97 0
97 95 0
106 102 0
105 107 0
98 100 0
104 105 0
105 107 0
97 99 0
113 113 0
102 102 0
103 105 0
93 93 0
98 96 0
100 96 0
114 113 0
106 106 0
106 102 0
106 101 0
116 115 0
107 107 0
110 111 0
110 109 0
111 109 0
113 109 0
108 106 0
112 108 0
110 106 0
116 112 0
115 110 0
108 105 0
110 108 0
115 115 0
109 107 0
113 113 11
116 116 0
118 114 0
114 113 0
110 108 0
121 120 0
121 121 0
118 117 0
127 129 0
124 123 0
122 124 0
126 128 0
134 134 0
134 136 0
124 127 0
135 136 0
141 144 0
132 134 0
126 130 0
138 142 0
146 151 0
140 146 0
143 149 0
137 140 0
143 148 0
148 154 0
144 150 0
144 153 0
152 160 0
144 150 0
151 160 0
149 153 0
151 159 0
156 165 0
152 160 0
148 156 0
142 153 0
149 158 0
159 172 0
151 161 0
156 166 0
154 166 0
158 169 0
159 171 0
162 175 0
157 168 0
158 171 0
160 174 0
154 167 0
158 172 0
165 181 0
161 175 0
157 172 0
161 175 0
157 172 0
164 179 0
159 174 0
163 177 0
158 173 0
160 171 0
161 179 0
162 179 0
159 174 0
157 172 0
163 179 0
160 174 0
165 181 0
162 179 0
159 176 0
165 183 0
162 181 0
163 180 0
161 176 0
165 184 0
169 186 0
161 178 0
165 184 0
166 185 0
165 183 0
197 216 191
197 217 181
195 216 182
191 211 167
188 208 153
188 209 147
189 210 155
188 209 144
183 204 122
181 203 127
183 204 133
182 204 137
181 203 117
179 201 114
180 202 105
180 202 114
179 202 111
181 203 117
176 199 92
175 199 84
177 200 95
177 199 76
174 197 62
176 200 72
175 198 67
174 197 80
172 196 76
176 199 72
176 199 95
174 198 36
174 198 62
173 197 84
172 196 76
173 197 62
173 196 80
173 196 76
172 195 51
175 199 67
172 196 76
173 196 51
174 197 62
173 196 76
175 198 72
172 196 67
172 195 62
175 198 76
171 195 72
173 197 80
169 193 51
170 194 44
175 197 80
174 197 67
172 196 72
173 197 67
171 195 88
173 196 51
175 200 92
173 196 62
172 195 44
171 195 72
172 194 84
171 194 57
173 197 80
172 195 84
175 197 80
170 193 57
173 196 84
172 195 74
165 189 100
164 187 78
152 175 107
139 163 126
123 149 130
109 136 150
99 127 155
99 127 167
96 123 154
120 145 158
113 139 159
119 144 158
108 134 171
112 138 169
101 128 163
100 127 170
104 130 167
111 138 170
104 131 164
103 130 172
104 131 170
104 131 168
96 124 163
92 121 169
98 126 178
93 122 178
98 126 175
90 119 174
82 113 174
87 117 166
85 115 173
81 112 173
90 119 180
85 115 175
88 117 173
87 116 177
89 118 179
91 120 179
68 102 170
83 114 175
78 110 174
71 104 171
61 97 163
64 99 164
73 105 151
72 104 159
61 97 160
66 100 155
70 104 166
68 101 164
68 102 163
63 99 161
63 97 152
67 100 155
61 97 159
63 98 157
62 98 163
61 96 146
63 98 155
66 100 157
65 100 157
62 97 157
62 98 155
61 96 148
58 93 153
63 98 151
60 95 150
61 97 157
61 96 150
59 95 147
60 95 145
62 97 161
60 95 148
60 95 149
61 97 154
60 95 148
61 97 157
61 97 161
61 96 150
61 97 157
61 97 157
61 97 155
60 95 148
60 96 150
60 95 144
61 97 158
61 96 151
59 94 144
60 96 150
61 97 154
61 97 155
61 97 154
61 96 150
61 96 152
62 97 157
62 98 156
61 97 150
60 96 146
60 96 144
61 97 153
61 97 152
61 96 151
61 97 151
61 97 160
62 98 165
61 96 147
60 96 149
61 96 151
60 95 148
60 96 149
60 95 148
61 97 149
61 97 155
60 96 149
62 98 161
61 97 158
62 98 160
61 97 151
61 96 150
62 97 149
61 97 151
62 98 157
62 97 156
61 96 154
61 97 145
62 97 157
61 97 149
62 97 150
62 98 150
62 97 156
62 98 155
61 96 149
60 96 149
63 98 155
62 97 151
61 97 150
61 97 152
61 96 142
61 96 145
62 98 154
62 97 154
61 97 149
61 96 144
61 97 152
61 97 151
62 97 150
61 96 149
61 97 152
60 96 145
61 96 148
62 97 151
60 94 136
62 98 156
62 97 148
60 95 136
61 96 141
61 97 153
61 96 151
60 95 142
60 95 140
60 96 147
60 95 143
62 97 147
60 95 140
61 95 136
60 95 139
60 95 137
60 94 137
62 97 150
61 96 142
61 96 144
60 96 142
61 96 141
60 95 140
59 94 141
60 95 142
61 95 135
59 94 137
61 96 148
59 93 131
61 95 141
61 96 141
61 96 148
60 95 145
59 93 133
59 93 134
57 90 120
59 93 127
57 90 126
64 93 120
80 99 100
100 113 68
113 121 47
114 122 18
114 122 0
112 119 0
118 126 0
123 130 0
110 115 0
115 122 0
107 113 0
117 125 0
109 114 0
112 118 0
116 121 0
114 118 0
107 114 0
114 118 0
117 123 0
114 120 0
114 118 0
109 115 11
105 107 0
107 112 0
99 102 0
109 111 0
95 95 0
106 112 0
100 103 0
106 110 0
101 99 0
102 106 0
109 109 0
116 119 11
94 92 0
109 109 0
116 117 0
110 111 0
109 106 0
104 106 0
106 104 0
102 100 0
115 111 0
108 108 0
106 105 0
105 103 0
104 104 0
107 105 0
102 100 0
114 111 0
113 113 0
109 106 0
117 115 0
114 113 0
122 121 0
115 112 0
115 115 0
114 114 0
111 108 0
111 110 0
122 122 11
121 118 0
122 123 0
114 113 0
115 112 0
128 130 16
118 117 0
116 113 0
124 125 0
120 120 0
125 127 0
123 122 11
130 134 0
124 125 0
129 130 11
123 125 0
121 122 0
137 141 0
134 134 0
141 144 0
138 146 0
142 148 11
138 143 0
133 134 0
143 147 11
144 151 0
143 148 0
146 153 0
147 154 0
144 152 0
139 144 0
143 149 0
141 149 0
149 160 0
147 156 0
149 159 0
153 163 0
149 156 0
150 159 0
146 155 0
155 166 0
156 165 0
159 170 0
158 169 0
157 170 0
156 167 0
156 170 0
158 170 0
159 173 0
157 170 0
157 170 0
160 172 0
157 172 0
157 169 0
158 173 0
156 169 0
161 175 0
155 169 0
162 175 0
162 178 0
163 177 0
162 177 0
164 177 0
158 172 0
162 178 0
165 181 0
165 183 0
160 175 0
157 173 0
165 179 0
161 178 0
164 182 0
162 178 0
164 180 0
167 185 0
165 184 0
166 183 0
166 184 0
168 188 0
166 182 0
164 179 0
165 182 0
192 212 177
190 211 163
194 213 169
190 211 159
187 208 142
185 206 142
182 204 135
180 201 105
181 203 127
184 206 135
180 202 114
181 204 114
180 203 105
177 200 92
177 199 84
176 199 88
177 199 92
176 199 80
174 197 80
175 198 92
176 200 84
175 198 57
174 198 84
173 196 51
172 196 92
175 198 76
178 201 102
169 194 51
173 197 72
172 196 67
176 199 88
172 195 62
172 196 57
172 195 62
175 198 62
175 199 76
174 198 76
172 195 76
170 193 67
171 195 76
173 198 76
172 195 67
177 200 92
173 196 67
173 196 62
174 199 76
174 198 80
171 195 62
168 192 62
173 196 88
171 195 67
174 198 51
171 194 88
172 196 67
168 191 72
173 197 72
174 198 80
169 193 99
174 197 44
174 197 76
175 198 76
169 193 88
171 195 44
174 198 76
173 196 76
171 195 72
172 195 72
171 195 60
170 193 72
165 188 88
145 169 88
131 157 118
118 145 134
116 142 151
102 130 153
93 121 147
96 124 157
97 124 147
101 129 149
107 133 163
107 134 157
104 130 157
101 129 166
108 134 155
104 131 154
95 124 156
108 134 173
99 127 180
105 132 164
101 129 160
91 120 164
94 123 173
100 128 174
79 111 161
86 116 167
88 117 171
90 120 172
89 118 170
89 118 171
84 114 170
76 108 173
84 114 172
85 115 176
75 107 170
79 110 171
76 108 172
81 112 177
79 111 172
71 104 170
71 105 171
61 97 164
71 104 165
73 105 164
66 100 157
77 108 168
64 99 162
71 103 160
69 102 154
67 101 166
65 99 163
64 98 151
64 98 150
60 96 153
62 97 146
60 95 152
62 97 150
60 96 159
63 97 150
61 97 156
62 97 147
60 95 150
59 94 143
59 95 146
61 96 150
60 95 154
61 97 154
61 97 153
60 95 149
59 94 144
61 97 152
60 95 149
61 96 153
59 95 150
60 95 148
61 97 153
60 96 145
61 97 159
60 96 154
61 97 157
60 95 145
61 96 158
61 97 157
60 96 150
61 97 153
60 96 157
60 95 151
61 97 159
61 97 151
61 96 148
60 96 150
61 97 151
61 97 156
62 98 159
60 96 145
61 96 148
60 96 145
61 96 148
62 98 157
61 97 155
61 97 145
61 96 148
61 97 153
61 96 157
61 96 147
61 97 152
61 96 148
60 96 152
61 97 150
62 98 158
61 97 158
62 97 155
61 97 156
61 97 152
62 97 150
61 97 154
62 97 159
63 98 160
62 97 151
61 96 147
60 96 143
61 96 145
61 97 154
62 97 156
61 96 141
61 97 152
61 96 148
61 97 148
61 96 148
60 95 145
61 97 156
61 97 153
61 97 153
61 96 152
60 96 145
61 96 141
62 98 153
61 97 150
61 96 147
61 96 151
62 97 153
61 97 153
62 98 157
61 97 149
61 96 141
60 96 142
61 96 149
62 97 152
62 97 149
61 96 147
61 96 148
60 95 141
60 95 141
62 97 145
60 96 140
60 94 136
62 97 150
62 97 149
61 96 144
62 98 151
61 96 144
60 95 144
60 95 134
60 95 140
61 96 144
61 97 148
61 96 142
60 95 143
61 96 148
62 98 152
60 95 147
60 94 139
61 95 137
61 96 147
62 97 149
59 94 133
61 96 141
61 95 139
60 94 137
61 95 141
59 94 136
60 95 141
59 94 133
59 92 132
60 94 128
61 95 134
57 90 123
62 93 108
76 100 108
89 106 87
103 114 68
108 118 36
119 124 0
123 131 0
109 115 0
122 126 0
111 117 0
112 116 0
114 120 0
123 132 0
118 121 0
114 121 0
115 122 0
125 132 0
111 115 0
122 128 0
109 111 0
112 115 0
113 119 0
111 113 0
109 113 0
113 116 0
108 110 0
106 109 0
114 119 0
107 109 0
112 115 0
102 105 0
101 104 0
118 119 0
102 104 0
107 108 0
115 117 0
113 113 0
109 109 0
109 111 0
104 105 0
104 102 0
113 113 0
107 108 0
104 103 0
113 112 0
114 115 0
122 122 0
106 108 0
107 110 0
107 107 0
103 100 0
113 109 0
111 111 0
110 105 0
110 109 11
120 117 0
109 108 0
104 105 0
122 120 0
120 117 0
113 114 0
119 118 0
120 120 0
115 112 0
117 118 0
119 119 11
120 120 0
122 122 0
123 124 0
131 132 0
122 123 0
127 128 0
119 120 11
126 130 0
128 128 0
128 130 0
131 131 0
131 136 0
124 126 0
129 130 0
128 128 0
135 142 0
134 135 11
144 151 0
139 144 0
140 144 0
152 158 0
145 151 0
144 148 0
148 154 0
149 154 0
149 157 0
152 161 0
142 151 0
156 167 0
152 161 0
159 169 0
155 165 0
152 161 0
150 162 0
152 163 0
154 163 0
157 167 0
152 161 0
147 154 0
150 161 0
155 169 0
155 166 0
157 169 0
160 170 0
157 168 0
156 167 0
158 173 0
156 169 0
147 159 0
161 174 0
163 178 0
161 176 0
158 174 0
155 167 0
159 175 0
160 175 0
163 177 0
160 174 0
161 175 0
155 168 0
161 175 0
159 173 0
161 177 0
166 184 0
163 178 0
165 181 0
161 178 0
166 183 0
167 183 0
160 174 0
164 182 0
163 182 0
163 179 0
164 181 0
163 182 0
163 183 0
166 184 0
165 183 0
191 211 157
192 212 171
189 210 161
184 206 137
186 207 140
184 205 130
185 206 142
184 205 117
181 204 111
177 199 88
177 200 108
177 199 105
176 200 95
175 198 76
180 202 99
180 202 102
174 198 76
178 201 80
176 200 76
174 198 88
173 196 72
170 194 67
174 198 57
169 192 51
174 197 84
171 195 80
170 194 57
172 195 67
176 200 92
172 195 67
175 198 76
175 198 84
174 198 84
174 197 84
175 199 84
171 194 80
174 198 67
172 196 62
171 195 84
172 194 62
171 195 57
177 200 99
175 198 72
171 195 76
170 194 80
170 195 84
174 198 88
172 195 62
173 197 80
175 198 84
170 194 67
174 198 80
171 193 67
171 195 84
171 195 72
172 195 62
170 194 80
171 194 80
171 194 67
173 196 67
172 196 62
172 196 92
171 194 62
175 198 84
172 194 76
171 195 62
174 199 76
172 195 67
171 195 92
155 179 90
151 176 117
130 155 126
121 146 125
107 134 129
95 123 147
101 128 155
98 126 164
109 136 158
99 127 150
105 132 147
106 133 160
107 134 148
104 131 161
106 133 164
102 129 156
97 126 165
101 128 161
105 132 171
103 130 155
92 121 161
98 126 162
90 119 162
99 127 168
83 114 162
101 128 172
84 114 165
99 126 177
91 120 161
75 107 169
74 107 171
92 121 179
68 103 161
84 115 178
85 114 174
75 108 170
76 108 173
69 103 170
76 108 175
80 111 171
64 99 164
71 104 166
70 104 168
73 105 162
74 106 165
72 105 167
61 97 163
72 105 169
62 98 160
72 105 161
62 98 161
67 101 161
74 105 153
65 99 156
60 95 159
63 98 155
60 95 152
66 100 155
61 97 159
62 97 156
60 96 158
62 97 143
59 94 149
61 97 160
60 95 152
60 96 148
60 95 145
63 97 154
60 95 147
61 97 154
61 96 156
59 95 151
62 97 156
60 95 150
61 97 158
60 96 147
61 97 154
61 96 151
61 96 150
61 97 157
61 97 147
61 96 157
59 94 140
61 97 156
61 97 154
61 97 154
61 97 156
61 96 154
60 96 155
60 96 148
61 97 156
61 97 154
61 97 152
60 95 145
61 97 154
61 96 150
61 97 156
61 97 150
61 97 155
61 97 153
61 97 151
61 96 144
61 96 154
60 96 150
60 95 141
61 96 148
62 97 154
62 98 159
60 96 151
62 98 160
62 97 156
61 96 142
62 97 154
61 96 153
62 97 155
61 97 152
60 95 135
62 97 154
61 97 148
60 95 143
61 97 153
62 98 153
61 96 149
62 98 152
61 97 149
61 96 141
59 94 141
61 97 153
60 95 147
62 97 152
61 97 150
62 97 151
60 96 142
62 97 153
62 97 150
60 95 139
61 96 141
61 96 147
62 97 153
61 97 149
60 95 140
61 96 144
61 96 144
61 96 147
61 96 144
61 96 147
61 96 149
60 95 144
60 95 141
61 97 142
61 96 142
59 94 139
61 96 142
61 96 145
61 96 142
62 98 155
61 96 145
61 96 143
61 96 144
61 95 142
60 95 137
61 96 141
61 96 141
61 96 143
60 95 136
60 95 136
60 95 137
61 97 152
60 95 136
61 96 150
61 96 144
60 95 140
61 96 140
61 95 139
60 95 141
60 95 135
58 92 122
60 94 141
61 96 140
60 95 144
60 95 144
59 93 125
60 94 139
59 92 133
60 94 138
59 93 126
57 90 116
59 90 121
76 100 96
93 110 76
115 124 47
103 113 25
112 120 0
117 126 0
115 123 0
117 126 0
126 133 0
100 108 0
106 113 0
110 115 0
121 124 0
111 117 0
119 125 0
113 119 0
109 113 0
112 120 0
115 118 0
113 119 0
115 118 0
117 121 0
104 106 0
114 121 0
107 113 0
112 114 0
107 111 0
120 126 0
112 117 0
110 111 0
119 120 0
106 109 0
95 94 0
95 95 0
104 105 0
104 108 0
107 110 0
101 102 0
112 115 0
106 108 0
110 109 0
112 112 0
109 112 0
113 115 0
107 105 0
123 124 0
120 120 0
108 112 0
112 111 0
104 105 0
115 111 0
116 116 0
105 103 0
105 104 0
112 107 0
121 123 0
109 108 0
118 116 0
124 121 0
116 113 11
123 122 0
114 114 0
123 120 11
121 121 0
131 133 0
125 126 0
123 123 0
124 124 0
129 130 11
128 131 0
129 129 0
140 140 0
130 136 0
123 124 0
134 136 0
132 135 0
128 129 0
139 139 0
133 134 0
138 142 0
134 136 0
139 143 0
147 152 0
143 150 0
145 150 0
140 146 0
135 141 0
142 150 0
141 149 0
141 148 0
150 159 0
152 159 0
150 158 0
157 166 0
154 162 0
154 166 0
150 156 0
157 168 0
148 157 0
149 158 0
151 162 0
154 164 0
155 162 0
149 160 0
152 160 0
152 162 0
149 158 0
154 165 0
160 172 0
157 169 0
151 164 0
159 172 0
160 176 0
155 168 0
151 164 0
162 175 0
161 175 0
159 174 0
160 176 0
163 177 0
165 182 0
161 174 0
161 176 0
165 181 0
161 174 0
159 172 0
162 178 0
163 180 0
161 178 0
162 179 0
161 176 0
160 177 0
164 179 0
158 174 0
168 184 0
169 188 0
162 179 0
166 183 0
168 186 0
165 185 0
164 183 0
164 183 0
167 184 0
184 206 142
184 205 140
182 204 120
184 205 125
180 202 117
182 204 120
181 203 114
181 203 108
180 203 102
179 201 92
173 196 72
175 199 80
174 197 67
176 199 67
174 197 72
172 196 72
171 194 76
176 199 80
174 197 72
173 197 67
172 196 72
172 196 84
174 197 67
172 195 76
174 198 72
172 196 72
172 196 72
171 196 80
172 196 67
172 195 76
171 195 62
172 195 67
173 196 67
172 196 76
173 197 62
175 199 57
170 194 51
172 195 72
174 198 88
173 196 36
173 196 67
173 196 62
170 193 57
170 194 76
173 196 76
170 194 72
171 195 62
169 192 80
173 197 57
175 198 57
172 197 76
170 193 80
171 195 51
171 194 57
172 196 76
170 193 62
170 194 92
171 196 76
172 196 76
172 195 80
174 198 80
172 195 51
170 193 51
173 196 72
174 197 92
171 195 76
175 198 80
175 198 80
168 192 74
163 186 60
163 187 90
149 172 110
138 163 120
111 138 136
93 121 151
93 121 156
94 123 147
98 126 141
94 122 149
109 137 159
92 120 151
105 132 147
101 128 152
104 132 159
89 118 158
114 140 170
105 132 174
90 120 163
87 117 162
90 120 157
94 123 167
94 123 168
100 128 162
85 116 168
97 125 170
88 119 176
103 131 175
85 116 174
87 117 165
81 112 167
84 115 172
82 113 173
76 108 164
73 106 172
79 111 166
81 112 175
79 110 172
71 104 167
70 104 172
76 108 168
76 108 168
71 105 171
68 102 160
69 103 172
68 101 160
76 108 169
69 103 158
61 97 166
76 107 159
67 100 155
67 101 164
68 102 156
64 99 157
59 94 145
64 99 147
59 94 139
59 94 143
60 95 156
62 97 145
59 94 147
63 98 150
61 97 157
60 95 147
59 94 146
61 96 153
60 95 148
61 96 151
62 96 147
61 96 148
60 96 150
61 97 161
60 95 152
61 96 147
60 95 149
61 96 154
62 97 154
60 95 144
61 96 150
61 97 156
60 95 147
62 98 165
62 98 159
60 96 153
60 96 158
62 97 156
61 97 154
60 96 153
61 97 154
61 96 149
60 96 153
61 96 151
60 96 145
59 95 142
61 97 156
60 95 153
61 97 153
60 95 145
60 95 145
61 97 154
61 97 152
62 98 158
60 95 147
61 97 157
61 97 157
62 97 150
61 96 153
60 96 151
61 97 154
62 97 155
61 96 148
62 98 158
62 98 160
60 96 147
60 95 144
62 97 149
61 96 144
61 97 157
61 96 145
61 96 144
61 97 151
61 97 151
60 95 136
62 98 153
62 98 158
62 97 148
61 96 141
60 95 151
61 97 153
62 98 156
61 97 152
61 97 149
60 95 141
61 97 150
62 98 157
61 97 153
60 95 142
62 97 151
62 97 150
61 97 149
61 97 153
61 96 148
60 96 148
61 97 153
61 97 151
60 96 145
60 95 141
62 97 152
61 96 145
62 97 150
61 96 150
61 97 150
60 95 139
60 95 137
61 96 150
61 96 150
61 96 143
60 95 140
61 96 143
60 95 143
60 95 133
62 97 148
61 96 141
62 97 148
60 95 139
60 95 144
60 94 133
61 96 145
61 96 140
61 96 147
61 96 142
61 96 137
60 94 135
61 96 138
60 95 140
60 94 125
60 95 143
61 96 149
59 94 130
59 94 129
60 93 134
60 94 121
59 94 131
57 90 120
58 92 127
61 95 140
58 90 119
66 94 106
82 102 99
102 113 63
117 126 40
118 127 0
119 129 0
114 122 0
111 120 0
119 128 0
114 124 0
119 129 0
115 122 0
110 116 0
127 133 0
118 126 0
106 113 0
101 106 0
111 117 0
114 119 0
105 111 0
93 96 0
114 120 0
110 114 0
122 129 0
109 114 0
102 105 0
107 108 0
104 104 0
103 107 0
116 119 0
108 111 0
109 112 0
102 103 0
111 111 0
120 123 0
114 117 0
96 98 0
115 119 0
122 125 0
109 112 0
106 106 0
98 97 0
115 115 0
116 118 0
118 120 0
116 117 0
108 111 0
110 108 0
120 120 0
115 113 0
123 123 0
114 115 0
114 116 0
118 114 0
126 124 0
113 112 0
124 124 0
114 113 0
116 117 0
117 118 0
111 111 11
119 121 0
128 132 0
119 116 0
125 127 0
130 133 0
125 127 0
133 135 0
129 131 0
117 117 0
116 114 0
128 127 0
125 128 0
129 130 0
133 136 0
131 134 0
128 133 0
137 144 0
134 140 0
133 138 0
141 144 0
134 137 0
135 137 0
142 146 0
141 148 0
143 149 0
145 152 0
146 154 0
142 147 0
143 148 0
148 155 0
147 155 0
148 155 0
143 151 0
139 147 0
146 154 0
155 165 0
148 158 0
152 161 0
145 151 0
154 164 0
153 161 0
152 164 0
154 166 0
152 162 0
158 172 0
158 172 0
158 171 0
156 171 0
159 171 0
151 164 0
152 164 0
156 170 0
158 170 0
161 176 0
155 168 0
156 167 0
159 172 0
155 169 0
154 168 0
160 175 0
161 175 0
159 174 0
160 175 0
155 170 0
160 176 0
161 177 0
166 184 0
162 178 0
160 176 0
164 177 0
162 179 0
164 180 0
162 178 0
161 178 0
167 185 0
168 184 0
166 184 0
166 183 0
166 185 0
168 187 0
165 184 0
162 178 0
167 184 0
185 207 140
187 208 144
183 204 133
184 206 127
180 202 111
179 202 102
182 204 111
180 202 108
180 202 99
176 198 84
176 199 62
173 196 88
172 197 62
172 195 80
170 194 51
175 199 57
173 196 57
172 196 72
174 197 36
173 196 76
175 198 88
174 198 72
173 196 51
172 197 80
174 198 84
171 195 72
172 195 62
174 198 88
173 196 62
173 196 72
173 197 72
170 194 62
170 195 67
173 197 84
173 196 80
173 197 67
172 196 80
171 195 88
172 196 67
175 199 72
168 192 80
171 194 88
172 195 76
171 194 57
172 196 76
173 197 88
176 199 76
172 195 62
172 195 76
171 194 72
171 195 88
169 193 72
173 196 92
170 193 67
173 195 57
171 194 80
174 197 80
168 192 72
175 198 80
171 194 57
170 194 62
171 195 62
171 195 76
174 198 88
172 196 67
174 197 72
173 196 62
172 195 62
166 190 70
167 190 99
160 181 88
147 171 100
132 156 113
112 138 133
92 120 147
92 121 151
85 115 151
88 117 148
89 118 152
88 118 152
98 125 154
78 109 155
92 121 149
109 135 159
90 119 151
93 121 160
94 123 157
94 122 154
91 120 150
107 134 171
101 129 168
95 124 153
90 119 167
96 124 167
102 130 166
90 120 160
90 119 169
98 125 171
92 122 174
93 122 169
100 128 174
93 122 167
90 119 172
98 126 184
82 113 170
74 107 167
79 110 175
78 110 172
91 120 176
78 110 173
68 102 167
79 110 170
75 107 170
69 103 170
76 108 165
69 102 156
63 98 154
71 105 164
60 96 158
68 102 157
67 101 154
73 104 156
69 102 153
65 100 155
59 94 154
62 97 148
64 99 157
62 96 147
62 96 151
61 96 154
62 96 154
59 94 154
59 94 146
60 95 147
62 97 145
61 95 140
60 95 148
59 94 144
61 96 151
59 95 148
60 95 150
60 95 152
60 96 153
61 96 148
59 94 139
61 96 150
60 95 151
60 94 146
60 96 144
60 95 153
60 95 141
59 95 138
61 96 147
61 96 150
59 95 151
60 96 150
61 96 148
61 97 149
61 97 162
61 96 150
60 95 143
61 96 154
60 95 149
60 96 148
60 96 151
60 95 147
61 96 154
61 96 150
61 97 150
61 96 154
61 97 150
61 97 152
62 97 152
61 96 154
61 97 160
61 97 150
60 95 145
61 97 156
61 97 153
61 97 153
60 96 148
61 97 155
61 97 153
61 96 148
61 97 153
60 95 144
62 98 153
61 97 149
61 97 154
61 96 147
62 97 155
61 96 142
60 96 147
61 97 152
61 97 149
60 96 150
61 97 151
61 96 150
62 97 153
61 96 149
61 97 150
61 96 149
61 97 152
60 95 142
62 97 154
61 96 151
61 96 149
61 96 145
61 96 150
60 95 143
62 98 150
61 97 147
62 97 150
62 97 153
60 95 142
60 96 141
61 97 156
59 94 134
62 98 154
61 97 148
61 97 150
61 96 141
61 96 139
62 97 153
62 97 151
61 97 151
61 96 144
60 96 143
62 97 149
61 95 140
60 95 135
61 96 145
61 96 142
61 97 153
60 95 133
62 97 147
62 97 150
61 96 141
60 94 133
61 95 143
60 95 141
60 94 133
60 93 133
60 94 137
62 97 148
61 95 138
59 93 127
59 92 125
60 95 142
59 93 134
58 91 121
58 91 123
58 92 129
60 94 127
58 92 122
63 93 119
75 99 109
95 111 73
105 114 36
116 122 25
111 119 0
119 127 0
115 125 0
109 115 0
113 120 0
117 124 0
114 121 0
118 126 0
105 112 0
118 127 0
112 120 0
111 119 0
108 114 0
112 120 0
117 123 0
118 122 0
114 118 0
115 121 0
120 125 0
112 119 0
110 116 0
114 119 0
107 112 0
118 121 0
112 114 0
115 119 0
119 121 0
108 111 0
109 112 0
102 106 0
113 117 0
115 116 0
117 120 0
104 105 0
112 115 0
106 107 0
108 109 0
105 105 0
115 117 0
112 114 0
109 109 0
122 125 0
123 123 0
108 107 0
124 123 0
120 124 0
112 118 0
117 119 0
119 122 0
110 111 0
117 118 0
121 119 0
121 124 0
120 123 0
114 114 0
117 118 0
132 137 0
121 122 0
121 120 0
131 133 0
123 123 0
118 121 0
115 117 0
128 132 0
128 128 0
131 133 0
137 141 0
132 136 0
126 131 0
122 125 0
124 124 0
126 126 0
137 142 0
137 140 0
146 153 0
134 137 0
139 145 0
145 152 0
142 149 0
138 143 0
144 150 0
147 155 0
143 149 0
144 153 0
147 154 0
141 147 0
147 153 0
144 151 0
139 144 0
148 155 0
151 160 0
145 154 0
147 157 0
150 159 0
153 163 0
147 155 0
156 166 0
142 152 0
160 171 0
154 165 0
159 173 0
157 167 0
157 170 0
157 169 0
155 170 0
152 165 0
155 169 0
154 166 0
158 172 0
156 170 0
162 178 0
160 171 0
160 176 0
158 170 0
162 178 0
162 176 0
160 175 0
162 180 0
156 172 0
160 172 0
163 179 0
163 176 0
155 169 0
159 174 0
164 180 0
160 176 0
162 176 0
164 177 0
163 179 0
163 178 0
161 177 0
165 184 0
167 185 0
164 181 0
165 183 0
163 181 0
161 179 0
163 180 0
168 185 0
166 185 0
184 205 127
183 205 140
181 203 105
182 203 120
176 199 84
176 198 84
172 196 76
176 200 92
177 200 92
178 201 76
172 196 76
176 199 76
175 199 80
175 199 62
174 198 72
175 199 80
175 199 92
170 194 57
173 196 67
172 196 62
174 198 72
172 195 62
173 197 67
173 197 84
171 195 72
171 196 62
174 197 44
171 195 72
169 193 67
174 198 84
171 196 51
174 198 76
172 196 72
172 196 72
172 195 62
171 195 57
171 195 57
171 194 36
171 195 76
174 199 102
173 197 95
171 195 84
172 195 72
170 194 72
174 198 80
173 197 72
175 199 80
172 196 72
173 198 88
171 195 67
172 196 80
172 195 72
170 193 76
171 195 67
168 192 51
171 195 84
170 194 76
172 196 84
170 194 51
170 193 57
168 192 76
170 194 76
172 195 67
173 196 67
171 195 67
168 192 62
171 194 57
174 197 84
168 192 60
165 189 80
163 187 86
154 178 100
135 159 113
119 144 135
110 137 149
97 125 154
93 122 151
92 120 147
97 125 144
111 137 159
99 127 156
98 126 160
107 133 147
103 130 155
102 130 149
90 118 149
100 127 149
106 134 170
104 131 168
101 128 158
102 130 164
94 123 162
98 125 159
100 128 171
88 118 159
89 118 165
104 131 165
93 121 163
87 117 164
93 121 161
76 108 166
92 122 174
87 117 165
81 112 169
83 113 166
81 112 174
75 107 167
85 115 175
71 104 173
73 106 173
76 108 167
73 106 172
71 105 174
60 96 154
64 99 161
68 102 163
63 98 158
67 101 164
77 108 162
60 96 152
67 101 158
65 99 157
64 98 150
66 100 154
69 102 158
64 97 146
62 98 156
61 96 149
61 96 148
64 99 156
59 94 144
60 95 146
59 95 153
62 97 153
59 95 149
61 96 155
59 94 144
59 94 150
61 96 151
57 91 139
60 95 144
60 95 150
59 93 140
60 96 150
60 95 148
61 97 153
60 96 154
61 96 154
59 94 144
60 96 150
60 96 152
60 96 140
61 96 148
60 95 144
61 96 149
60 96 148
60 96 147
61 96 148
61 97 156
61 96 150
60 96 144
60 95 143
61 97 152
61 96 154
60 96 149
60 95 144
62 97 151
61 96 149
60 96 150
60 95 140
61 96 147
62 98 156
60 95 145
60 95 147
62 98 159
61 97 148
60 95 148
61 96 141
61 97 151
61 97 154
60 96 143
61 96 143
61 97 153
61 96 151
61 97 157
61 96 151
60 95 145
62 97 154
61 97 150
61 96 150
61 96 142
61 96 145
61 96 147
61 96 152
62 98 159
62 97 152
60 95 142
61 96 149
61 96 143
61 97 147
60 95 142
61 96 145
61 97 147
60 96 150
61 96 141
62 98 157
62 97 156
61 96 148
60 95 141
62 97 152
61 96 143
60 95 141
62 97 147
60 95 144
60 95 140
59 94 139
61 96 147
62 97 152
62 98 152
61 96 150
62 97 152
60 95 140
61 96 144
61 96 144
61 96 151
61 96 145
60 95 144
62 97 147
61 96 142
62 97 150
61 96 144
61 96 145
61 96 149
61 96 148
60 95 136
60 95 136
60 95 141
61 96 137
61 96 143
61 95 140
60 95 140
60 94 136
62 97 147
60 95 141
59 93 135
59 92 127
60 95 138
59 93 127
59 93 134
58 92 129
59 93 136
59 92 117
60 94 136
59 93 128
59 92 125
70 97 113
80 102 102
95 109 67
114 125 41
114 120 0
125 133 0
112 122 0
118 126 0
125 136 0
124 131 0
106 114 0
118 126 0
116 125 0
107 115 0
116 122 0
127 134 0
116 123 0
114 121 0
113 121 0
110 116 0
125 132 0
117 124 0
121 128 0
118 123 0
113 119 0
106 110 0
105 108 0
110 113 0
112 121 0
116 121 0
106 109 0
105 109 0
121 126 0
117 124 0
114 117 0
120 123 0
111 116 0
119 123 0
114 118 0
112 113 0
122 125 0
117 120 0
108 113 0
103 105 0
113 118 0
122 125 0
113 113 0
115 116 0
114 116 0
124 128 0
109 111 0
120 122 0
115 117 0
116 117 0
127 127 0
108 109 0
119 121 0
121 125 0
109 110 0
125 129 0
125 128 0
131 131 0
130 131 0
125 128 0
124 127 0
128 131 0
136 139 0
136 142 0
123 123 0
138 143 0
142 147 0
131 132 0
136 140 0
131 134 0
141 146 0
137 143 0
130 135 0
147 152 0
144 150 0
134 139 0
138 143 0
131 136 0
145 152 0
144 150 0
139 145 0
146 151 0
146 153 0
147 153 0
148 158 0
150 157 0
144 152 0
144 153 0
145 156 0
149 157 0
144 152 0
151 159 0
148 158 0
154 164 0
150 159 0
153 162 0
153 165 0
155 168 0
150 160 0
151 161 0
154 167 0
153 164 0
157 169 0
155 165 0
155 166 0
159 171 0
158 172 0
158 172 0
157 170 0
160 174 0
158 170 0
158 173 0
161 174 0
163 175 0
155 172 0
160 174 0
159 176 0
163 180 0
160 176 0
161 177 0
164 180 0
162 175 0
163 177 0
165 179 0
161 179 0
159 175 0
165 179 0
162 177 0
158 175 0
160 175 0
162 177 0
164 181 0
157 172 0
163 179 0
168 186 0
160 175 0
163 182 0
169 184 0
165 182 0
166 184 0
166 183 0
183 205 133
179 202 120
175 199 88
177 200 105
180 202 95
175 199 88
177 199 76
176 200 80
176 199 67
175 198 72
177 200 76
175 200 102
171 195 72
174 198 80
172 195 72
172 196 76
175 199 57
172 196 62
170 194 72
171 195 80
172 196 62
172 196 88
173 197 84
171 196 72
174 197 72
173 195 67
168 192 62
174 197 62
171 195 72
173 197 76
173 197 67
174 197 57
170 194 80
171 195 76
175 197 44
168 192 76
168 192 51
173 197 51
169 193 80
171 194 57
168 192 51
169 192 76
174 197 62
171 195 72
173 198 72
170 193 76
173 197 88
171 194 67
171 196 57
169 193 84
176 199 67
168 191 67
172 197 76
174 198 67
173 197 76
171 196 80
172 196 95
172 195 62
170 193 88
169 192 72
174 197 88
171 194 99
171 195 67
173 197 67
170 193 76
169 192 88
167 191 76
171 196 80
168 192 80
170 193 84
161 185 90
156 180 97
142 166 113
125 150 124
112 138 152
94 122 151
104 131 152
94 122 144
91 120 142
92 120 151
88 117 147
93 121 133
98 126 154
98 125 140
101 128 160
110 136 144
116 140 158
99 127 153
91 120 149
101 129 153
93 121 161
92 121 155
108 135 171
105 132 154
94 122 162
88 118 164
84 115 167
88 117 166
87 116 164
90 119 155
93 121 165
100 128 181
92 121 165
84 115 171
84 115 163
86 116 168
76 109 169
79 110 167
78 110 173
80 110 169
78 109 168
69 103 167
67 101 161
70 104 168
70 103 162
76 108 173
67 100 159
73 105 164
74 106 163
68 102 162
64 98 156
66 100 149
63 97 159
71 104 162
68 100 146
60 95 146
61 96 150
58 93 147
60 95 150
60 95 147
60 95 155
61 96 155
62 96 148
59 94 151
61 96 141
59 94 145
60 95 144
60 95 144
64 99 158
59 94 148
62 97 151
60 95 147
59 94 137
59 94 140
60 96 148
61 96 145
62 97 152
61 96 147
61 97 153
61 96 155
62 98 158
61 96 149
60 96 152
60 95 143
60 95 145
61 96 143
60 95 143
60 96 151
61 96 154
60 96 149
61 97 154
60 95 141
62 97 161
61 96 153
61 97 154
61 96 152
60 95 138
61 96 149
61 97 157
61 96 148
61 97 155
61 97 153
61 97 155
61 96 151
60 95 141
62 97 153
61 97 151
61 96 144
61 97 147
62 97 151
60 95 140
61 96 150
61 96 145
61 96 150
60 95 147
60 96 150
61 97 156
62 97 153
60 95 148
60 96 143
60 94 141
61 97 150
61 96 143
60 95 148
60 95 140
61 96 147
61 97 147
60 95 151
60 95 137
62 97 147
61 97 148
60 96 148
61 96 148
61 96 142
61 97 147
61 96 148
61 96 148
60 95 134
60 95 140
60 95 140
61 96 145
61 96 147
60 95 140
61 96 142
60 95 145
60 96 151
61 97 149
61 95 151
60 95 151
62 97 148
60 95 148
59 94 140
61 96 141
60 96 142
61 96 140
60 95 140
62 97 152
62 98 151
61 96 144
61 96 142
62 98 156
59 94 131
59 94 134
61 96 139
60 95 140
60 94 133
61 96 144
61 96 145
61 96 142
59 93 135
60 94 134
59 93 135
61 95 133
60 95 141
60 95 134
61 96 141
61 95 142
59 93 144
59 94 129
59 93 127
60 94 136
59 93 133
59 93 118
58 92 113
61 92 131
72 98 116
97 115 86
115 127 70
117 127 25
121 133 0
108 117 0
111 119 0
133 143 0
110 117 0
111 118 0
109 118 0
108 114 0
114 121 0
112 113 0
111 118 0
122 130 0
105 109 0
116 122 0
117 124 0
114 122 0
120 126 0
117 123 0
113 118 0
118 124 0
117 125 0
116 122 0
114 119 0
122 131 0
111 115 0
118 123 0
116 121 0
116 119 0
105 107 0
108 111 0
113 115 0
113 116 0
113 120 0
118 123 0
124 131 0
117 120 0
123 129 0
113 115 0
112 114 0
113 117 0
110 110 0
106 108 0
123 127 0
113 114 0
125 128 0
127 132 0
114 113 0
117 118 0
124 127 0
112 113 0
115 118 0
111 107 0
129 134 0
120 125 0
120 123 0
119 120 0
118 122 0
120 123 0
123 127 0
130 133 0
127 130 0
126 131 0
128 133 0
123 126 0
122 124 0
131 134 0
130 133 0
138 142 0
129 132 0
135 139 0
137 141 0
133 137 0
127 131 0
130 132 0
145 151 0
141 147 0
138 144 0
136 140 0
147 156 0
143 150 0
146 152 0
140 146 0
141 146 0
144 151 0
140 145 0
145 155 0
144 151 0
146 153 0
151 159 0
146 153 0
152 162 0
149 156 0
149 159 0
143 151 0
149 158 0
152 161 0
152 161 0
148 158 0
151 162 0
156 165 0
152 162 0
154 167 0
158 173 0
156 169 0
156 168 0
154 166 0
154 164 0
154 167 0
156 168 0
159 173 0
158 171 0
156 170 0
159 173 0
165 180 0
161 175 0
159 172 0
158 170 0
162 176 0
158 174 0
158 173 0
160 178 0
163 179 0
159 175 0
166 182 0
163 179 0
157 174 0
164 183 0
160 175 0
162 181 0
164 183 0
162 180 0
165 183 0
160 174 0
163 181 0
166 184 0
163 179 0
170 189 0
165 182 0
166 185 0
166 184 0
163 182 0
177 200 108
175 198 95
175 198 95
176 199 80
175 199 99
175 199 80
172 195 62
174 197 88
172 196 51
174 197 84
175 198 62
170 195 62
175 198 76
173 196 72
172 197 84
173 197 76
175 199 67
174 197 72
173 197 95
174 198 67
176 199 76
172 196 72
174 197 67
173 197 67
173 197 76
171 195 67
170 195 80
172 196 99
172 195 51
170 194 84
174 197 80
171 194 76
175 198 62
171 196 72
170 193 25
173 196 72
171 196 84
171 194 95
172 195 57
173 196 62
170 194 67
172 196 72
175 199 102
173 197 84
171 194 57
168 192 84
171 195 88
172 196 88
172 196 76
174 198 92
168 192 67
172 195 80
168 192 62
169 193 80
171 195 88
171 195 57
172 196 80
169 192 57
172 196 62
173 197 88
170 194 80
172 195 67
172 195 67
171 195 95
171 195 80
166 189 67
169 192 72
171 195 72
168 192 67
173 196 80
162 187 82
156 179 92
144 169 107
130 154 103
115 140 118
96 125 141
96 124 157
98 126 159
96 124 142
90 119 141
90 119 147
92 121 161
104 131 155
97 125 148
105 131 139
90 119 148
93 122 141
99 126 157
95 123 156
101 128 158
95 124 153
103 131 154
94 123 157
89 118 157
95 123 164
91 121 171
88 117 164
85 115 161
81 112 166
88 117 165
85 115 172
95 124 170
90 120 160
94 122 166
80 112 167
77 108 157
84 114 170
82 113 171
80 111 161
70 103 168
73 106 168
77 109 173
65 101 171
65 101 169
72 105 170
80 111 170
65 100 157
68 102 159
67 101 167
73 105 159
63 98 155
70 102 156
63 97 150
65 99 144
59 95 148
63 98 149
63 98 152
60 95 151
61 95 148
59 94 148
59 95 152
63 98 151
59 95 145
59 94 144
61 96 152
62 96 142
59 94 149
58 93 143
60 95 141
62 97 148
58 93 136
61 96 143
61 96 149
61 96 150
61 97 153
60 96 146
60 95 144
60 96 145
61 96 148
59 94 140
60 95 147
62 98 158
60 96 149
60 95 143
60 95 141
61 96 145
61 97 149
61 96 150
61 97 155
60 96 144
61 96 147
62 97 154
61 96 145
61 97 153
61 97 153
61 97 149
60 95 147
61 96 143
60 96 143
60 96 151
61 96 149
61 96 145
61 97 157
59 94 150
59 95 147
60 95 147
59 94 137
61 96 139
60 96 147
61 96 149
60 95 140
62 97 151
62 97 154
60 96 150
61 96 145
61 96 151
62 98 163
61 97 147
60 96 144
61 96 149
62 97 153
61 96 144
62 97 151
62 97 155
60 96 147
61 96 150
60 95 143
60 95 141
61 96 145
61 97 149
60 95 137
62 98 151
61 96 148
62 97 149
60 96 150
61 97 147
61 96 150
61 96 147
61 96 147
62 98 150
61 96 137
62 97 152
62 97 150
61 97 152
61 96 145
62 97 145
61 96 147
60 94 141
62 98 154
60 95 137
60 96 147
61 96 145
61 96 142
60 95 140
61 96 147
62 97 149
61 96 140
60 95 136
60 95 137
61 97 151
61 96 139
62 97 151
61 97 152
59 94 139
61 96 139
59 94 133
61 96 139
61 96 139
59 94 129
60 95 130
60 95 137
61 96 150
59 94 140
60 95 135
61 96 138
60 94 136
60 94 134
60 95 138
59 93 135
59 93 120
58 91 132
58 92 125
60 94 143
59 92 130
60 92 125
84 104 100
96 115 84
115 128 60
108 117 25
112 120 0
113 120 0
120 131 0
118 129 0
118 125 0
117 125 0
108 115 0
112 119 0
122 132 0
122 129 0
114 123 0
111 116 0
117 123 0
117 125 0
123 132 0
122 130 0
116 122 0
114 118 0
117 123 0
119 124 0
127 134 0
111 118 0
106 111 0
108 113 0
110 114 0
120 124 0
117 122 0
118 124 0
117 121 0
116 118 0
118 123 0
107 108 0
123 128 0
103 108 0
110 114 0
114 117 0
104 107 0
128 135 0
117 120 0
106 110 0
104 105 0
116 121 0
122 122 0
116 119 0
131 137 0
128 134 0
131 134 0
124 126 0
120 121 0
120 124 0
130 136 0
127 130 0
125 129 0
110 111 0
117 119 0
121 124 0
130 132 0
118 122 0
125 130 0
128 130 0
128 131 0
127 128 0
127 130 0
130 129 0
133 135 0
132 136 0
129 132 0
136 141 0
138 142 0
137 142 0
135 141 0
132 137 0
133 138 0
138 144 0
134 137 0
143 148 0
146 155 0
141 150 0
145 152 0
141 146 0
146 152 0
144 150 0
142 149 0
145 152 0
150 159 0
144 148 0
151 161 0
148 158 0
150 158 0
146 154 0
144 153 0
146 153 0
156 166 0
147 156 0
153 167 0
160 173 0
156 168 0
150 160 0
160 173 0
150 162 0
152 163 0
153 166 0
160 172 0
154 163 0
156 170 0
157 168 0
154 165 0
153 167 0
157 170 0
158 171 0
154 169 0
156 171 0
157 172 0
156 169 0
158 172 0
159 173 0
159 175 0
155 168 0
163 179 0
158 173 0
167 182 0
165 181 0
161 177 0
161 176 0
162 178 0
160 177 0
158 174 0
160 177 0
160 175 0
162 177 0
164 180 0
155 172 0
165 182 0
162 179 0
163 182 0
161 178 0
158 177 0
164 182 0
166 186 0
169 186 0
163 182 0
176 200 95
172 195 57
175 198 67
174 197 80
174 197 57
175 198 62
175 199 80
177 200 67
173 196 62
172 195 36
174 198 67
174 197 67
177 201 88
170 194 67
174 198 88
176 200 80
170 194 67
174 198 76
174 198 92
174 198 80
171 195 67
175 198 76
174 198 72
171 195 36
172 196 88
172 196 72
173 196 67
172 196 76
170 195 67
169 194 76
169 194 72
171 196 102
170 195 67
171 196 76
170 194 67
171 195 51
173 197 72
172 195 76
171 195 76
170 193 72
170 194 67
168 193 57
172 196 102
170 195 80
169 192 76
173 197 51
171 195 76
167 191 67
170 192 57
171 195 88
169 192 72
169 193 62
173 197 62
173 197 92
165 188 92
174 197 88
173 197 72
165 188 67
169 192 67
171 194 62
171 194 76
169 193 76
169 192 57
166 190 51
168 192 57
166 191 51
171 195 95
169 192 72
168 191 44
170 193 76
172 195 76
163 187 67
152 176 90
131 157 117
125 151 122
113 140 147
103 130 152
95 123 144
98 126 160
86 116 152
97 125 158
105 133 168
102 129 158
99 127 146
89 118 152
95 123 149
88 117 152
98 126 158
99 127 153
102 129 146
97 125 153
103 130 144
92 121 161
103 131 167
101 128 149
91 120 162
87 116 163
99 127 155
100 127 159
94 122 164
95 123 168
91 119 168
87 117 164
88 118 160
87 117 167
93 122 176
71 104 161
86 116 171
74 107 165
78 110 168
86 116 170
80 112 173
80 111 166
76 107 166
68 102 157
72 105 166
70 104 171
71 104 166
61 97 158
73 105 158
64 99 158
72 104 158
67 101 164
67 100 148
68 102 164
62 97 155
64 98 157
61 95 139
68 101 149
60 95 149
61 96 159
60 95 147
63 98 147
59 94 145
64 98 147
60 95 144
59 94 139
61 96 151
59 94 145
59 94 147
63 98 150
60 95 151
60 95 144
61 96 151
61 96 149
60 96 150
60 95 147
61 96 144
60 95 143
59 94 139
59 94 140
61 96 154
59 94 147
62 97 149
60 96 147
60 96 149
61 96 152
61 96 154
59 94 147
62 97 156
62 97 150
61 96 153
60 95 145
60 95 142
60 95 144
60 95 136
61 96 152
62 98 155
60 95 140
61 96 148
61 96 148
60 95 151
62 97 153
60 95 145
61 97 153
60 95 150
61 96 139
61 96 145
61 97 152
61 96 152
61 96 140
61 97 152
62 97 150
61 96 147
60 95 139
60 95 141
61 97 149
60 95 144
61 96 149
61 96 147
61 96 148
61 96 149
60 96 149
61 97 152
62 97 145
61 97 151
60 95 145
61 96 145
61 96 147
60 95 137
62 97 152
61 96 144
61 96 141
61 96 139
61 96 143
61 97 153
61 96 145
60 95 142
60 95 141
60 95 144
61 97 147
60 95 141
60 95 141
62 97 153
61 96 145
60 95 143
60 95 140
62 97 150
60 95 142
61 96 143
60 95 136
61 96 139
61 96 145
60 95 149
62 97 143
60 94 142
61 96 145
60 95 144
61 97 148
61 96 144
60 95 140
60 95 135
61 96 140
60 95 136
62 97 148
60 93 130
59 94 127
60 95 135
61 96 140
59 94 131
61 95 144
60 95 134
58 92 126
59 93 130
60 94 138
59 93 133
61 96 139
59 93 130
58 92 130
59 93 129
59 93 139
58 91 120
59 93 128
58 90 128
64 91 101
92 109 87
107 123 63
113 123 26
121 133 0
121 129 0
110 118 0
121 132 0
117 129 0
118 128 0
112 120 0
114 123 0
122 130 0
132 144 0
113 120 0
117 126 0
111 117 0
118 124 0
116 125 0
116 124 0
125 135 0
121 129 0
124 133 0
115 122 0
115 123 0
125 133 0
120 126 0
121 126 0
122 129 0
113 118 0
113 118 0
110 115 0
119 126 0
110 116 0
111 113 0
117 123 0
126 131 0
116 120 0
122 126 0
117 117 0
121 125 0
122 128 0
118 123 0
107 108 0
120 125 0
117 121 0
123 127 0
116 120 0
121 127 0
128 134 0
122 127 0
126 129 0
126 133 0
126 132 0
126 130 0
121 123 0
123 128 0
130 132 0
137 143 0
132 136 0
123 126 0
123 126 0
142 147 0
127 129 0
135 141 0
127 130 0
129 134 0
135 140 0
136 140 0
136 141 0
129 129 0
135 139 0
143 146 0
135 138 0
136 143 0
134 140 0
141 147 0
139 145 0
137 142 0
140 145 0
139 145 0
147 156 0
144 152 0
148 155 0
141 145 0
142 148 0
146 152 0
145 151 0
146 155 0
151 161 0
148 159 0
152 163 0
146 152 0
145 152 0
149 158 0
147 157 0
145 156 0
156 167 0
145 154 0
147 156 0
148 158 0
156 163 0
153 164 0
155 167 0
149 161 0
155 165 0
151 160 0
149 162 0
152 162 0
153 162 0
155 168 0
161 174 0
159 172 0
159 173 0
160 175 0
161 175 0
160 176 0
162 178 0
157 171 0
162 176 0
162 176 0
162 178 0
161 175 0
161 176 0
161 176 0
155 170 0
154 166 0
157 172 0
160 177 0
161 179 0
159 173 0
165 183 0
159 175 0
161 176 0
161 177 0
165 182 0
169 186 0
164 181 0
170 188 0
167 186 0
165 182 0
166 183 0
159 176 0
161 178 0
165 185 0
161 178 0
175 198 84
177 200 88
174 198 51
176 199 80
175 199 67
173 197 62
174 197 84
172 196 62
176 200 88
173 196 44
173 196 84
171 195 44
170 194 88
171 195 67
172 195 76
173 198 80
174 197 67
169 194 57
172 196 72
175 200 84
173 197 67
174 198 72
173 197 76
173 197 76
173 197 62
169 194 80
171 195 51
170 194 62
171 195 88
175 198 76
172 195 62
172 195 72
174 197 44
171 194 67
177 199 67
173 196 67
171 194 44
174 198 92
170 194 88
169 193 72
172 195 80
173 197 67
172 195 67
168 192 51
170 193 51
169 193 72
172 195 80
171 195 80
169 193 51
170 193 57
170 193 62
173 197 84
167 190 51
168 192 57
171 195 99
168 190 76
165 188 51
170 194 76
168 191 72
170 192 72
171 195 88
168 192 67
171 195 80
167 189 72
166 189 72
170 193 51
173 194 67
169 192 80
169 194 76
169 192 72
167 189 60
161 184 70
155 179 95
145 169 115
130 155 121
110 135 122
102 130 158
90 118 143
100 126 137
100 127 143
82 112 144
90 119 150
94 122 145
100 127 145
101 128 148
111 138 159
93 121 150
91 120 160
102 129 150
96 123 150
107 133 158
103 129 151
92 120 149
88 117 153
100 127 158
100 128 153
102 129 170
107 133 154
92 121 163
91 120 164
101 129 170
92 121 171
86 116 167
98 126 167
100 127 171
90 119 164
77 110 170
86 116 163
81 112 160
86 115 168
84 115 172
79 111 172
83 113 169
85 115 171
74 106 161
65 100 162
64 99 164
64 99 157
68 101 161
67 101 163
70 103 163
70 103 162
68 102 161
67 101 159
72 105 163
60 95 149
69 101 155
60 95 144
62 97 151
64 98 153
64 98 149
60 95 144
64 98 158
61 96 150
64 98 145
63 97 148
60 96 149
63 98 148
60 95 140
63 97 145
60 95 152
63 97 144
60 95 141
61 97 151
61 97 150
59 94 140
60 95 137
59 94 147
59 94 141
60 95 150
60 96 151
60 95 145
60 95 141
60 95 154
58 92 136
61 96 148
60 96 147
61 97 149
60 96 149
61 97 155
61 96 147
61 96 152
61 96 152
61 96 148
61 96 149
61 96 143
61 96 145
60 95 139
60 95 139
60 95 141
60 95 150
61 96 145
62 98 159
61 96 147
60 95 141
62 97 150
62 97 151
61 96 152
61 96 155
61 97 145
61 96 152
61 96 147
61 97 155
61 96 150
61 96 151
61 96 148
61 97 154
61 96 143
61 96 144
62 98 154
60 95 137
61 96 143
61 96 144
61 97 153
61 96 147
60 95 147
61 97 148
61 97 152
62 98 154
61 97 148
60 96 141
62 97 147
61 96 142
61 96 145
61 96 150
61 96 148
60 95 141
61 96 148
61 96 147
61 96 141
60 95 140
60 95 134
60 95 145
60 95 141
61 96 148
60 94 135
61 96 143
61 96 143
60 94 134
61 96 148
60 94 134
61 96 144
61 96 147
60 95 142
61 96 140
61 96 143
60 95 137
60 94 122
62 98 153
61 96 140
60 96 145
59 94 133
61 95 143
62 97 153
59 94 135
59 93 126
58 93 125
60 95 139
61 96 143
60 94 135
60 94 133
60 95 132
59 93 134
59 93 132
60 94 130
60 95 137
60 94 130
60 94 130
58 91 134
59 92 120
59 92 121
59 93 129
58 90 118
61 92 114
84 105 92
95 109 68
112 125 40
124 135 0
121 132 0
121 129 0
116 124 0
113 120 0
121 132 0
120 129 0
112 121 0
115 122 0
115 124 0
129 138 0
105 110 0
121 130 0
118 126 0
119 128 0
124 133 0
101 106 0
101 110 0
114 119 0
118 128 0
117 122 0
116 125 0
102 110 0
127 133 0
113 118 0
110 115 0
114 122 0
110 118 0
119 123 0
118 124 0
115 121 0
111 119 0
123 130 0
120 125 0
117 122 0
118 126 0
122 129 0
117 121 0
120 126 0
124 129 0
111 113 0
124 128 0
119 122 0
117 122 0
118 120 0
117 121 0
109 111 0
126 129 0
120 125 0
125 128 0
121 123 0
121 124 0
131 137 0
123 129 0
127 132 0
130 137 0
137 140 0
136 144 0
122 128 0
130 136 0
133 139 0
133 139 0
129 134 0
122 124 0
136 139 0
134 141 0
136 141 0
131 135 0
140 147 0
140 147 0
147 154 0
137 143 0
138 143 0
134 139 0
151 162 0
144 151 0
139 145 0
139 146 0
144 150 0
154 162 0
139 145 0
147 155 0
136 142 0
142 149 0
144 151 0
146 155 0
141 149 0
151 161 0
145 151 0
151 159 0
149 160 0
143 152 0
150 158 0
152 164 0
150 161 0
151 160 0
157 167 0
148 159 0
146 156 0
154 165 0
154 166 0
155 167 0
154 168 0
152 161 0
153 163 0
160 172 0
155 170 0
150 160 0
151 166 0
150 162 0
157 169 0
162 176 0
162 177 0
159 174 0
156 170 0
156 170 0
163 180 0
164 178 0
159 174 0
160 176 0
157 171 0
162 176 0
163 176 0
161 177 0
163 178 0
160 177 0
163 181 0
164 181 0
164 182 0
160 176 0
159 175 0
163 180 0
165 183 0
162 179 0
164 180 0
164 183 0
164 182 0
160 176 0
159 177 0
165 184 0
166 188 0
167 184 0
168 188 0
175 199 76
173 197 67
173 197 67
173 197 62
175 199 80
174 199 84
174 197 76
168 192 62
173 197 80
172 196 62
170 193 67
172 196 67
174 199 76
171 194 51
171 195 76
175 198 72
172 196 67
174 198 76
171 194 72
171 195 62
172 196 62
174 197 88
174 198 67
170 195 76
175 198 80
173 196 67
171 195 76
174 197 67
170 194 72
174 197 67
171 195 76
174 198 76
174 198 84
171 195 51
170 194 95
171 195 76
172 195 67
167 191 62
170 194 76
169 193 76
169 192 84
172 196 80
173 197 88
167 191 76
173 197 72
171 195 67
168 192 72
167 191 76
169 194 92
172 195 76
171 195 76
170 194 76
171 195 84
174 198 102
168 192 92
168 192 84
169 193 95
169 192 62
167 190 72
169 192 80
171 194 62
166 190 80
170 193 62
172 196 92
165 189 62
167 190 72
170 194 80
168 191 67
165 189 62
169 192 57
166 190 76
167 189 88
161 185 86
155 179 99
136 160 120
118 143 120
106 132 130
96 124 139
87 116 140
96 123 142
89 118 143
95 123 148
87 117 150
96 125 159
100 127 143
101 128 157
101 129 158
85 115 154
99 126 145
90 119 152
90 118 148
93 121 149
113 138 158
87 116 155
101 129 171
106 132 151
94 123 157
86 116 155
83 112 151
97 126 169
89 118 156
99 126 158
84 114 158
94 121 168
85 115 163
91 120 157
84 114 163
94 122 163
78 109 165
84 114 163
69 103 165
82 112 164
75 107 163
78 109 171
70 104 170
76 108 163
75 106 161
68 102 169
62 98 167
67 101 164
65 98 157
69 101 155
73 105 162
67 100 155
69 101 154
65 99 159
68 100 154
66 100 153
62 97 147
60 96 156
61 97 155
61 96 142
63 97 151
63 98 150
62 96 141
59 94 140
60 96 156
62 96 146
60 94 143
63 98 151
59 94 141
59 94 150
61 96 148
60 95 137
59 94 144
61 96 143
60 96 150
59 94 146
61 96 151
61 96 154
61 97 156
60 96 148
59 94 139
61 96 140
60 95 140
61 96 148
62 97 153
61 96 151
61 97 152
59 94 138
60 95 142
60 96 148
63 98 159
60 95 153
61 97 154
60 95 143
61 96 150
60 95 144
60 96 151
60 96 153
61 96 149
61 97 150
61 96 150
60 96 139
62 97 156
61 96 148
61 96 148
60 95 144
61 96 148
61 97 152
62 97 147
60 95 144
61 97 148
61 96 144
61 97 152
60 96 148
61 96 148
62 97 149
62 97 152
61 96 144
60 96 135
61 96 150
60 96 142
61 96 142
61 96 145
61 96 142
61 97 151
61 97 151
61 97 149
60 95 141
61 97 148
61 96 148
61 96 147
61 96 144
61 97 149
60 95 142
61 96 147
60 95 141
61 97 151
62 97 151
62 97 153
60 94 137
60 95 148
60 95 140
59 94 133
62 97 151
61 95 145
59 94 131
61 95 144
60 94 136
60 95 139
61 96 137
60 95 142
60 95 137
60 95 145
60 94 135
60 95 133
59 94 140
61 97 145
61 96 136
60 95 134
61 95 142
60 95 136
60 94 134
61 97 144
61 96 140
60 95 130
59 93 129
59 93 136
60 95 134
59 92 124
59 94 130
59 94 126
58 92 122
59 93 127
60 95 139
60 94 143
58 91 126
58 92 123
59 92 127
57 90 109
56 89 122
57 89 104
74 99 115
90 109 97
102 118 65
116 127 36
122 134 0
123 134 0
127 137 0
114 122 0
116 128 0
114 123 0
113 122 0
110 119 0
119 130 0
117 127 0
122 132 0
120 128 0
117 129 0
117 125 0
126 134 0
119 129 0
107 115 0
121 130 0
126 134 0
111 114 0
114 123 0
119 127 0
124 132 0
111 118 0
121 124 0
122 129 0
119 126 0
111 117 0
121 127 0
118 123 0
123 130 0
122 130 0
125 131 0
129 135 0
118 123 0
118 121 0
131 136 0
128 132 0
123 126 0
122 126 0
116 123 0
132 138 0
128 132 0
110 115 0
126 130 0
130 139 0
118 124 0
124 129 0
126 131 0
125 127 0
122 127 0
125 131 0
133 138 0
124 125 0
120 122 0
119 125 0
129 131 0
123 129 0
131 136 0
126 129 0
126 130 0
146 154 0
125 131 0
130 136 0
125 130 0
138 145 0
141 147 0
129 135 0
142 149 0
140 146 0
135 143 0
143 152 0
135 141 0
139 146 0
138 146 0
137 144 0
135 140 0
141 147 0
147 153 0
145 153 0
133 138 0
145 154 0
152 162 0
146 155 0
146 155 0
145 156 0
144 152 0
151 161 0
151 162 0
148 159 0
146 154 0
146 157 0
140 148 0
152 163 0
152 161 0
154 165 0
151 163 0
153 164 0
159 172 0
157 169 0
155 169 0
144 153 0
155 163 0
152 165 0
157 169 0
158 171 0
153 167 0
147 158 0
156 170 0
158 171 0
161 174 0
157 172 0
154 170 0
164 180 0
160 176 0
155 169 0
164 179 0
157 170 0
154 168 0
162 178 0
159 174 0
158 173 0
160 177 0
162 178 0
159 175 0
162 179 0
162 177 0
160 173 0
166 183 0
160 174 0
164 182 0
164 180 0
165 184 0
162 178 0
161 178 0
164 183 0
165 182 0
162 177 0
164 182 0
167 186 0
168 183 0
167 186 0
164 180 0
176 199 76
174 197 84
174 198 62
175 199 72
176 199 76
175 199 67
170 195 84
176 200 88
174 198 84
173 197 72
171 194 67
173 198 99
172 196 62
172 195 84
174 198 72
169 192 44
173 197 76
172 196 72
170 193 84
174 197 72
172 197 80
171 195 72
170 193 57
172 196 67
170 195 62
170 194 95
173 197 88
173 197 80
169 192 44
172 196 99
171 195 62
169 193 84
174 198 92
169 192 57
171 196 88
172 196 80
172 197 76
172 197 95
170 194 67
172 196 72
164 188 84
168 193 80
174 197 84
173 198 95
170 195 76
171 195 62
168 191 36
171 194 76
171 194 72
172 196 62
172 195 72
170 194 84
169 192 44
169 193 80
175 198 84
170 193 80
170 193 67
170 194 62
170 194 76
166 189 62
164 188 44
167 191 76
167 190 62
169 193 57
168 191 84
169 192 80
170 194 80
165 188 62
169 193 92
164 186 57
171 194 95
171 194 92
156 180 88
161 184 60
138 162 117
131 156 120
116 142 137
91 120 139
107 133 135
82 112 151
91 120 156
90 119 152
98 126 146
88 116 151
94 122 156
85 115 142
94 122 141
87 116 150
100 127 145
80 109 135
104 130 150
90 119 148
86 115 150
91 121 146
93 121 147
96 124 159
98 126 140
91 120 148
93 121 154
100 127 170
95 123 158
103 130 163
82 113 161
89 118 159
84 114 161
76 108 156
87 116 163
85 114 170
81 112 157
77 108 168
81 112 163
73 106 162
70 104 168
74 107 168
78 109 166
75 107 169
71 104 167
68 101 159
67 101 161
79 110 170
65 99 161
64 99 160
71 104 165
64 98 154
65 99 155
65 99 149
62 97 148
67 101 152
61 96 151
62 97 155
60 95 152
60 96 149
60 95 140
59 94 142
59 94 140
59 95 144
61 96 145
61 95 143
61 95 139
61 96 151
61 94 138
60 94 140
60 95 141
61 97 153
60 95 145
62 97 153
61 96 149
61 96 148
61 96 148
61 96 147
61 96 154
59 94 141
60 96 147
60 95 143
60 95 145
60 95 143
59 93 140
59 94 139
60 95 147
62 97 152
60 96 145
60 95 139
61 96 153
59 95 133
60 95 134
60 95 142
61 97 148
60 95 155
60 95 144
61 97 145
62 97 155
61 97 151
61 96 148
61 96 151
60 94 140
61 96 148
62 97 151
60 95 135
60 95 148
62 97 154
60 96 142
60 95 136
61 97 156
62 97 150
59 94 137
61 96 150
61 96 141
60 95 147
61 96 139
61 96 141
62 98 159
60 95 139
60 95 145
61 96 150
62 97 145
62 97 147
61 96 144
61 96 142
62 98 157
61 96 144
60 95 137
60 96 143
59 94 136
61 96 145
61 96 151
61 96 145
61 96 142
61 97 152
60 95 141
61 97 151
61 97 150
61 97 148
59 94 145
61 97 148
60 94 142
60 95 147
61 96 143
60 95 147
61 96 145
61 95 139
61 96 144
61 96 148
61 97 147
60 95 140
60 95 136
60 95 144
59 94 131
60 95 145
60 95 144
61 96 142
61 96 141
61 97 143
59 94 133
59 93 137
61 96 139
59 93 131
60 95 139
60 95 135
58 93 127
60 94 133
59 94 126
60 95 135
59 92 125
60 95 138
60 94 130
57 91 113
58 91 118
58 92 126
57 90 107
57 90 115
57 91 124
58 91 118
64 93 115
87 110 107
92 108 71
99 111 40
118 129 18
114 126 0
127 138 0
121 132 0
119 130 0
117 128 0
112 119 0
118 126 0
120 129 0
117 126 0
117 123 0
126 134 0
130 138 0
120 130 0
128 137 0
114 124 0
118 128 0
124 135 0
126 136 0
117 124 0
123 131 0
112 121 0
121 130 0
123 131 0
120 130 0
123 130 0
131 138 0
119 125 0
112 118 0
127 135 0
115 120 0
120 127 0
107 115 0
127 137 0
119 128 0
123 129 0
121 130 0
123 130 0
119 126 0
126 132 0
122 128 0
124 126 0
124 133 0
128 133 0
121 128 0
117 122 0
122 129 0
130 135 0
128 132 0
125 130 0
133 140 0
131 136 0
127 130 0
124 130 0
126 131 0
132 138 0
129 137 0
127 132 0
128 133 0
128 137 0
139 145 0
127 133 0
130 134 0
133 139 0
138 143 0
132 139 0
117 119 0
142 151 0
137 142 0
141 147 0
138 142 0
137 143 0
132 139 0
136 143 0
139 144 0
136 140 0
145 151 0
138 144 0
146 153 0
145 154 0
148 157 0
145 153 0
147 158 0
144 154 0
146 153 0
140 147 0
144 153 0
145 156 0
147 156 0
152 161 0
148 157 0
150 160 0
149 159 0
146 150 0
153 163 0
148 157 0
158 168 0
156 166 0
158 169 0
151 163 0
149 161 0
157 168 0
153 167 0
158 171 0
155 166 0
159 172 0
157 171 0
157 169 0
155 167 0
152 164 0
156 171 0
159 174 0
153 164 0
159 173 0
158 171 0
152 166 0
157 171 0
155 168 0
162 180 0
163 178 0
160 176 0
163 177 0
156 168 0
162 177 0
159 174 0
166 180 0
165 185 0
158 174 0
162 179 0
161 179 0
158 175 0
163 179 0
164 181 0
164 181 0
164 182 0
159 177 0
165 184 0
162 178 0
160 177 0
164 182 0
165 182 0
163 182 0
164 183 0
165 183 0
171 195 72
174 197 72
172 196 51
174 198 76
174 198 57
172 195 80
174 198 88
172 196 57
173 197 62
174 198 72
170 193 57
173 197 62
171 194 67
172 195 88
174 197 57
175 198 76
173 196 76
173 196 57
173 197 67
173 197 62
169 194 88
172 196 76
170 194 67
173 197 92
169 193 80
173 198 92
174 198 76
169 192 67
173 197 76
169 194 88
170 195 57
173 197 76
172 195 76
171 195 80
171 196 92
166 190 76
169 194 99
167 191 62
172 195 84
168 192 88
171 193 57
168 193 67
172 195 67
169 193 80
171 195 80
170 194 62
167 190 51
168 192 62
167 192 76
172 197 76
168 192 84
170 194 72
167 192 84
164 188 62
166 190 84
170 194 84
165 189 62
168 192 72
167 190 51
165 188 44
168 191 67
170 195 84
162 187 72
171 194 62
171 194 88
163 187 62
170 193 57
166 189 80
167 191 92
167 190 72
169 193 80
166 190 80
163 186 62
156 181 76
153 177 118
136 160 113
110 136 131
107 133 142
92 120 137
91 120 137
89 117 139
98 126 154
87 116 134
93 121 141
111 137 154
100 128 149
90 118 156
95 123 154
91 119 145
85 115 143
87 116 159
91 120 155
107 134 161
95 122 155
105 131 156
97 125 151
97 124 146
99 127 157
98 125 159
90 120 153
89 118 158
91 120 160
99 126 166
101 128 154
90 119 154
80 110 158
79 110 158
90 119 159
80 111 167
84 114 168
83 112 158
78 109 160
81 111 158
84 114 176
78 109 161
79 110 170
76 107 166
67 101 164
64 99 160
64 99 163
72 104 162
67 101 156
68 102 164
65 99 157
68 101 150
65 99 148
67 100 155
69 100 141
60 96 148
63 97 149
61 95 146
60 95 151
62 97 148
61 95 140
59 94 145
60 96 144
64 98 142
61 96 147
62 96 138
61 95 136
60 95 146
62 97 143
63 97 143
61 96 144
59 94 141
59 94 134
61 97 150
58 92 133
60 95 144
61 96 157
59 94 139
60 95 150
59 94 143
59 94 145
60 95 147
60 94 133
59 95 133
60 95 142
59 95 140
59 94 139
60 95 143
60 96 143
60 95 141
61 96 147
62 97 153
60 95 139
59 93 131
61 96 151
60 95 137
59 94 143
60 95 144
61 97 147
60 95 142
61 96 148
61 96 140
61 96 141
60 95 141
60 95 140
62 97 149
60 95 139
62 97 152
59 94 136
59 94 142
61 97 149
63 98 155
61 96 152
61 96 144
58 92 131
60 95 139
60 96 143
61 96 137
61 96 148
61 97 153
61 95 141
60 94 145
61 95 140
61 97 153
60 95 136
61 96 144
61 96 141
61 96 145
59 94 133
61 97 148
60 95 141
61 96 142
60 95 142
60 96 136
61 96 148
59 94 139
60 95 136
60 95 140
61 96 149
61 96 145
62 97 144
61 96 145
61 96 147
60 94 137
62 97 154
61 96 141
62 97 148
61 96 140
59 94 126
62 97 151
60 96 143
61 96 144
60 95 137
58 92 125
61 96 141
60 95 135
60 95 140
59 94 131
60 95 140
60 95 137
61 96 136
60 95 135
61 96 145
59 94 133
60 95 137
60 95 136
59 93 130
59 94 127
59 93 130
58 91 125
59 93 122
59 93 124
59 93 126
58 92 118
60 95 139
58 92 128
58 92 115
58 92 118
59 91 120
79 103 94
93 113 70
102 118 70
113 125 0
128 138 0
123 135 0
123 136 0
109 119 0
125 133 0
122 132 0
112 122 0
127 138 0
114 126 0
117 126 0
114 123 0
132 143 0
121 129 0
116 126 0
123 132 0
124 135 0
122 131 0
125 132 0
125 134 0
117 124 0
128 135 0
113 121 0
119 129 0
122 132 0
122 132 0
120 128 0
129 136 0
121 128 0
125 133 0
122 131 0
125 132 0
122 131 0
121 130 0
128 136 0
123 130 0
123 129 0
122 129 0
121 128 0
122 130 0
124 131 0
114 118 0
121 129 0
121 126 0
125 134 0
121 126 0
122 126 0
122 127 0
133 138 0
116 120 0
124 132 0
123 128 0
123 128 0
129 137 0
125 131 0
135 140 0
128 135 0
124 131 0
124 127 0
138 144 0
136 142 0
132 138 0
131 138 0
136 142 0
131 137 0
143 149 0
133 141 0
131 138 0
138 146 0
135 143 0
144 151 0
128 134 0
142 150 0
139 146 0
145 152 0
144 152 0
138 146 0
145 153 0
143 152 0
137 144 0
139 146 0
142 149 0
145 150 0
145 155 0
138 143 0
144 151 0
148 158 0
154 162 0
150 160 0
147 155 0
150 160 0
149 158 0
151 159 0
154 166 0
150 162 0
153 164 0
156 170 0
148 160 0
160 171 0
155 168 0
155 164 0
146 157 0
156 169 0
153 163 0
161 175 0
156 168 0
153 167 0
151 164 0
164 176 0
163 178 0
155 170 0
159 174 0
158 171 0
156 169 0
158 174 0
151 164 0
160 175 0
157 170 0
159 175 0
157 171 0
161 176 0
158 175 0
163 179 0
161 176 0
161 177 0
151 164 0
163 178 0
157 174 0
165 182 0
159 174 0
165 183 0
161 176 0
168 188 0
160 177 0
168 185 0
163 181 0
166 182 0
167 183 0
160 179 0
167 183 0
164 183 0
164 181 0
164 180 0
158 177 0
162 181 0
175 200 88
172 196 57
173 197 76
170 194 62
174 197 72
174 198 76
171 195 57
176 199 62
177 201 88
175 198 76
175 199 92
172 196 80
173 197 76
174 198 62
172 196 72
169 193 76
172 196 72
170 194 57
174 198 92
173 196 36
176 198 57
172 197 76
174 197 76
170 194 67
175 198 67
170 193 57
171 194 72
173 196 57
171 195 76
172 195 67
173 197 92
169 192 36
173 196 62
168 192 72
172 196 72
172 196 76
173 196 95
171 195 76
172 196 80
168 192 67
170 195 72
171 195 62
168 193 67
167 191 88
169 192 51
169 193 80
170 194 51
171 195 76
171 194 62
165 190 67
170 195 76
169 192 80
167 191 51
170 195 67
167 191 76
169 194 88
167 191 99
166 190 84
166 189 57
169 193 84
170 194 80
166 190 67
163 187 80
166 189 80
169 192 57
167 190 36
168 191 72
164 188 80
162 185 76
167 190 80
166 189 57
166 189 62
169 192 76
165 188 72
155 179 92
150 174 111
129 153 103
108 134 131
90 119 139
90 118 141
86 115 135
97 124 149
95 123 147
87 115 136
95 123 133
93 121 140
101 128 146
100 127 152
92 121 139
89 117 145
94 121 156
84 114 153
85 114 145
93 120 159
96 124 157
96 123 145
97 123 156
88 117 162
83 113 149
99 126 159
99 126 152
91 119 160
98 124 137
86 115 159
87 116 158
84 114 161
92 120 156
89 118 166
87 117 165
93 121 157
70 103 159
83 113 172
80 111 168
78 110 161
77 108 168
72 105 171
67 101 160
71 105 166
67 101 160
72 104 160
68 102 163
67 100 156
61 97 154
64 99 153
84 113 169
70 102 152
64 97 137
64 98 151
63 98 151
62 96 144
59 94 149
60 95 134
67 100 146
61 95 140
62 96 146
60 94 131
58 93 145
58 93 140
60 95 147
61 96 141
60 96 149
61 96 144
60 95 140
60 94 132
62 96 140
59 94 135
61 96 145
59 94 134
59 94 139
60 95 140
60 95 144
60 95 148
61 97 154
59 93 140
60 95 146
60 95 143
60 95 139
59 94 147
60 95 140
59 93 126
60 96 144
60 95 144
60 95 144
60 96 144
60 95 145
61 97 155
59 94 141
61 96 144
61 97 148
61 97 155
59 94 141
60 95 142
60 95 145
61 96 145
62 97 153
60 96 147
60 95 147
61 97 150
61 96 142
61 96 150
61 97 151
60 95 137
60 95 144
61 96 150
60 95 148
61 96 141
61 97 154
61 97 147
60 95 147
61 97 145
61 96 148
61 96 140
61 96 149
61 95 142
61 96 142
62 98 150
60 94 137
60 95 141
61 96 145
59 93 139
60 95 141
60 96 143
61 97 147
59 93 127
60 95 136
61 97 147
60 95 137
60 95 141
61 96 145
62 97 150
58 93 127
60 94 130
61 96 142
60 95 137
61 96 140
60 94 130
60 95 139
61 96 142
61 97 151
59 93 129
61 96 140
60 95 137
60 95 143
61 96 145
61 96 143
60 95 133
60 95 143
62 97 145
60 95 142
59 93 129
60 94 135
60 95 135
60 94 136
61 96 143
60 94 135
60 94 131
60 95 134
60 95 136
61 96 147
59 94 127
59 93 127
59 94 133
59 93 129
60 94 133
58 92 127
60 94 129
58 92 124
58 91 121
59 93 121
58 91 125
58 92 126
63 92 95
94 115 94
100 115 48
114 127 51
114 125 18
119 129 0
119 130 0
121 131 0
123 132 0
118 128 0
117 127 0
115 127 0
116 129 0
128 139 0
132 145 0
114 124 0
122 131 0
122 134 0
120 132 0
126 134 0
113 124 0
121 129 0
124 132 0
118 128 0
112 121 0
119 130 0
115 123 0
125 132 0
125 135 0
121 128 0
123 129 0
122 132 0
122 129 0
108 116 0
122 128 0
112 120 0
130 140 0
127 136 0
134 144 0
127 136 0
132 142 0
115 121 0
138 146 0
129 138 0
132 139 0
121 126 0
121 128 0
125 131 0
130 138 0
129 135 0
125 129 0
121 127 0
135 143 0
118 124 0
122 127 0
130 135 0
133 139 0
126 131 0
126 132 0
124 131 0
132 138 0
135 143 0
131 137 0
138 144 0
141 147 0
136 143 0
137 143 0
132 139 0
140 145 0
145 154 0
136 143 0
137 141 0
143 149 0
133 141 0
132 140 0
141 151 0
145 153 0
142 149 0
143 150 0
146 152 0
137 144 0
147 160 0
150 161 0
139 147 0
143 152 0
143 148 0
144 151 0
149 158 0
137 141 0
150 161 0
140 149 0
147 155 0
154 165 0
145 152 0
147 157 0
150 159 0
151 162 0
153 162 0
155 167 0
152 164 0
156 170 0
148 160 0
152 164 0
152 163 0
154 162 0
152 164 0
148 163 0
155 165 0
156 167 0
157 170 0
158 174 0
155 170 0
155 168 0
154 166 0
156 169 0
166 179 0
150 162 0
158 171 0
159 175 0
159 175 0
157 171 0
160 173 0
160 176 0
158 171 0
166 182 0
157 172 0
164 181 0
161 176 0
163 180 0
165 183 0
163 182 0
160 176 0
163 178 0
162 179 0
164 182 0
162 178 0
161 177 0
162 179 0
164 182 0
160 176 0
160 177 0
168 187 0
162 179 0
162 182 0
164 184 0
162 179 0
162 180 0
166 185 0
165 185 0
174 198 76
171 195 62
172 196 67
173 197 80
172 196 76
171 194 44
174 198 62
170 193 51
172 195 57
172 196 95
171 195 72
170 195 88
174 197 62
171 195 62
173 197 67
169 193 84
173 196 67
173 197 67
171 197 88
175 199 102
175 200 99
170 193 84
172 195 72
171 196 92
172 195 72
171 195 72
173 196 80
169 193 76
174 197 67
169 193 72
170 194 67
167 192 62
173 196 80
172 196 72
169 193 80
170 193 62
172 196 67
167 191 72
170 194 72
168 193 57
166 190 72
167 191 57
168 192 72
169 192 57
169 192 76
167 190 80
172 195 99
168 192 72
170 193 72
167 191 72
166 190 57
170 194 84
171 195 88
167 191 62
168 191 62
170 194 88
161 185 67
164 187 72
166 189 84
170 192 51
160 183 67
165 188 44
162 187 72
167 191 80
167 191 51
168 192 72
164 188 67
170 195 80
165 188 76
171 194 72
164 188 72
167 191 72
165 190 80
166 191 80
164 187 57
150 173 111
141 165 102
114 140 124
97 124 132
98 125 141
96 125 141
90 118 142
90 119 154
84 114 144
91 120 141
81 111 135
90 118 137
93 121 154
99 126 147
88 117 146
93 120 144
90 119 146
90 119 158
97 124 160
100 127 154
100 126 156
105 132 168
95 121 152
100 128 151
83 113 155
102 128 143
92 120 153
87 116 149
89 118 160
102 129 157
90 118 163
91 121 152
96 124 171
70 101 149
86 116 166
74 106 162
77 110 167
81 110 154
87 116 170
76 108 166
74 106 162
82 113 173
72 105 168
76 108 162
61 97 152
64 98 153
67 101 162
63 97 158
65 100 166
68 101 156
65 99 149
73 105 162
66 99 146
67 100 148
69 99 130
62 96 148
68 100 139
65 98 150
58 93 142
61 96 149
66 99 147
67 100 147
61 96 133
59 94 139
59 94 135
60 95 145
60 95 147
59 94 133
58 93 139
59 94 135
58 93 136
60 95 148
60 94 143
60 95 141
59 94 130
60 96 155
59 95 147
61 96 154
59 95 144
60 96 147
61 96 148
60 95 147
59 94 137
61 96 147
61 96 140
58 93 135
60 95 137
59 94 144
60 96 151
61 96 142
61 96 143
60 95 150
60 95 139
61 97 151
62 97 149
62 97 147
61 97 149
61 97 149
61 96 151
60 96 145
61 96 144
61 96 144
60 95 141
60 95 145
62 97 150
62 97 150
59 94 137
61 97 145
60 95 144
61 96 143
61 96 145
61 96 147
60 95 142
62 97 145
62 97 151
60 96 148
60 95 140
59 94 130
61 96 141
60 95 142
60 94 144
61 96 147
61 96 155
60 94 134
59 94 129
62 97 152
61 96 139
60 95 139
60 95 137
61 96 145
60 95 142
59 94 136
61 96 152
61 96 145
60 95 136
61 96 142
61 97 147
60 94 135
62 97 150
60 95 133
60 95 140
59 94 130
59 94 136
59 94 135
61 97 145
60 95 141
60 95 136
60 95 141
61 96 137
60 95 137
60 95 143
59 93 133
61 96 140
59 93 139
60 94 135
61 96 140
59 94 137
61 95 141
60 95 135
59 93 127
59 93 126
60 94 126
60 95 131
59 94 133
60 95 140
60 94 137
61 96 141
60 94 131
58 91 126
59 92 128
58 92 120
60 94 129
58 91 126
59 93 130
56 89 118
63 94 116
79 101 76
93 112 79
102 115 60
113 124 25
120 133 0
110 119 0
120 132 0
121 132 0
115 127 0
128 141 0
123 135 0
123 133 0
126 138 0
124 137 0
122 133 0
122 135 0
129 140 0
113 125 0
130 143 0
120 127 0
123 130 0
120 130 0
117 125 0
122 133 0
120 130 0
114 123 0
126 136 0
119 130 0
122 132 0
124 131 0
133 144 0
128 138 0
131 138 0
125 133 0
128 135 0
124 134 0
117 124 0
131 136 0
136 141 0
126 132 0
120 128 0
123 131 0
132 139 0
125 134 0
132 140 0
125 131 0
128 136 0
133 144 0
127 135 0
118 126 0
124 132 0
133 140 0
127 133 0
122 128 0
128 134 0
133 143 0
131 138 0
133 140 0
131 136 0
136 144 0
124 130 0
132 138 0
136 141 0
135 145 0
131 139 0
125 131 0
129 137 0
135 144 0
139 145 0
141 150 0
130 137 0
135 143 0
140 147 0
146 154 0
132 137 0
138 144 0
135 146 0
141 150 0
144 153 0
139 147 0
151 159 0
145 155 0
142 151 0
143 152 0
151 161 0
151 162 0
146 156 0
134 140 0
148 157 0
145 155 0
146 155 0
145 156 0
152 163 0
154 163 0
153 163 0
151 162 0
155 168 0
147 157 0
149 159 0
146 156 0
153 168 0
153 161 0
151 163 0
151 165 0
154 166 0
160 175 0
151 163 0
152 164 0
153 164 0
158 172 0
155 170 0
158 172 0
159 172 0
159 175 0
160 174 0
155 169 0
157 172 0
156 170 0
156 171 0
154 167 0
163 179 0
159 175 0
150 164 0
155 168 0
156 174 0
159 174 0
162 178 0
158 172 0
158 175 0
154 167 0
159 174 0
162 180 0
164 180 0
159 176 0
167 185 0
156 172 0
167 184 0
162 179 0
163 180 0
160 178 0
162 178 0
164 182 0
168 187 0
162 179 0
163 181 0
165 183 0
161 180 0
168 185 0
168 186 0
172 196 76
171 195 72
171 195 72
168 192 44
172 197 80
175 198 72
171 195 88
174 197 76
174 198 76
172 196 67
172 195 67
169 193 67
173 197 76
172 196 92
172 196 72
171 195 76
172 196 80
171 196 76
171 195 62
173 196 57
172 197 76
169 193 67
175 198 51
171 195 80
170 195 80
169 193 62
169 193 62
171 194 67
174 197 51
167 191 62
170 195 80
170 194 72
172 196 80
173 197 76
170 194 80
170 194 88
169 192 72
171 195 62
162 187 67
166 190 67
168 192 62
169 194 88
170 193 80
167 192 80
169 194 80
169 193 76
165 188 57
170 195 102
171 195 99
170 194 72
164 188 51
166 189 62
170 195 80
170 194 84
165 188 67
169 192 84
172 196 95
170 193 80
167 190 80
168 192 84
171 195 76
170 192 67
168 190 57
169 192 62
170 194 76
160 183 44
168 191 72
158 181 57
170 193 67
156 179 72
166 189 88
167 190 76
162 185 72
168 191 80
161 185 78
157 181 62
148 172 102
131 154 100
108 133 111
96 124 135
106 133 153
107 134 163
96 124 149
95 123 154
79 108 137
107 134 143
83 112 143
88 116 147
89 118 147
90 118 138
110 136 154
97 125 150
101 128 149
95 123 151
89 117 135
92 121 145
98 125 161
97 123 148
102 129 138
83 113 143
97 125 147
78 108 146
92 120 157
92 120 147
82 112 150
86 116 151
82 112 156
85 115 157
94 122 156
87 116 160
75 106 154
78 110 151
89 118 153
82 112 161
84 113 160
73 106 155
72 105 166
76 107 160
74 106 168
78 109 165
62 98 169
67 101 160
73 105 163
61 96 156
60 95 151
66 100 156
59 95 146
72 105 157
64 99 155
68 100 146
63 98 150
64 98 153
61 95 136
67 100 143
61 94 132
59 94 140
59 94 136
59 95 143
57 91 134
61 95 136
59 94 143
61 94 133
62 97 153
58 93 141
63 97 139
60 95 141
58 93 134
59 95 147
59 95 143
60 95 139
60 95 144
58 93 136
61 96 149
60 95 140
60 94 136
60 96 150
59 94 138
59 94 137
59 94 143
61 96 145
60 95 139
57 91 124
61 96 144
60 95 143
60 95 141
61 96 145
60 96 146
60 95 144
60 95 144
61 96 147
61 96 145
61 97 147
61 95 136
59 94 136
60 96 142
60 95 146
60 95 136
59 94 139
60 95 144
61 95 140
61 97 153
60 95 140
61 96 147
60 96 142
61 96 148
59 94 137
59 93 136
61 96 145
62 97 153
61 96 144
61 97 151
59 94 140
61 96 142
61 97 145
61 96 144
61 96 141
59 94 139
59 94 134
61 97 149
61 96 140
61 96 142
61 96 145
60 95 137
62 97 147
61 96 137
62 97 148
60 95 142
60 95 139
60 95 139
61 96 145
60 95 137
61 96 140
62 97 148
61 96 140
60 95 134
61 96 137
60 94 137
60 95 140
61 96 136
61 96 137
61 96 140
60 95 136
60 95 133
60 94 139
61 96 139
60 94 136
60 94 137
61 96 139
59 93 122
59 93 125
61 96 142
60 95 137
59 94 130
60 95 133
61 96 145
60 95 133
58 91 120
59 93 126
60 95 139
59 93 122
60 94 135
58 91 125
58 92 121
58 91 120
58 91 121
59 93 133
58 91 125
56 90 120
58 92 125
57 89 118
70 97 107
93 113 81
91 106 58
116 129 41
123 138 18
113 124 0
119 129 0
121 133 0
120 133 0
125 138 0
125 138 0
116 124 0
127 138 0
120 132 0
121 134 0
124 133 0
127 138 0
127 134 0
121 131 0
112 121 0
123 130 0
127 139 0
131 143 0
119 128 0
125 138 0
121 130 0
121 129 0
122 135 0
129 140 0
130 140 0
121 129 0
124 134 0
129 140 0
124 135 0
118 128 0
124 133 0
135 144 0
123 130 0
122 130 0
126 135 0
127 135 0
125 131 0
135 144 0
126 135 0
135 146 0
120 130 0
121 128 0
122 129 0
127 133 0
125 132 0
135 144 0
129 140 0
126 132 0
130 138 0
139 146 0
129 138 0
136 144 0
128 136 0
139 148 0
116 125 0
123 127 0
134 141 0
128 135 0
133 139 0
134 143 0
131 139 0
141 150 0
140 147 0
133 139 0
134 144 0
134 141 0
139 145 0
143 149 0
148 157 0
140 147 0
142 150 0
146 155 0
136 146 0
138 146 0
140 148 0
140 148 0
143 150 0
144 152 0
144 152 0
149 161 0
149 158 0
145 154 0
149 160 0
138 143 0
150 159 0
148 158 0
145 154 0
147 158 0
148 158 0
149 160 0
155 166 0
152 166 0
154 164 0
150 162 0
150 160 0
150 162 0
154 168 0
147 159 0
154 167 0
155 169 0
157 170 0
153 164 0
154 168 0
156 168 0
154 169 0
155 169 0
155 166 0
161 175 0
156 171 0
157 172 0
159 174 0
154 166 0
157 171 0
154 168 0
158 173 0
161 178 0
160 175 0
164 179 0
163 178 0
157 173 0
162 179 0
161 178 0
163 179 0
161 176 0
163 180 0
162 179 0
157 173 0
164 180 0
167 183 0
161 176 0
164 180 0
160 176 0
162 179 0
160 178 0
158 175 0
168 187 0
161 176 0
164 183 0
164 181 0
162 180 0
164 182 0
161 178 0
166 187 0
167 186 0
167 186 0
171 195 62
171 196 72
175 198 84
175 198 88
177 200 92
173 197 72
171 195 72
174 197 95
171 195 80
174 198 67
171 195 57
172 196 80
170 193 51
172 195 62
174 198 88
173 196 80
170 195 76
169 194 51
173 196 80
172 197 76
172 196 67
171 195 72
168 193 72
173 197 72
171 194 51
171 194 72
172 195 57
171 195 44
173 197 80
170 194 62
171 195 72
169 193 44
171 195 95
169 193 76
169 193 62
172 196 80
171 194 62
171 195 88
169 193 67
171 195 80
168 192 80
170 194 92
170 193 67
168 193 92
169 193 72
170 194 84
169 193 67
170 194 88
167 191 57
170 194 80
172 196 72
168 191 67
169 192 72
170 193 84
170 193 76
167 190 72
160 184 62
172 196 62
164 188 72
168 191 72
166 190 80
169 192 57
168 192 51
167 190 62
165 189 92
167 191 84
167 190 51
166 190 92
173 197 92
163 186 84
163 187 84
167 190 57
166 190 67
162 185 57
163 187 62
162 185 60
155 178 67
140 164 114
124 147 127
101 127 134
93 121 145
96 123 149
107 133 141
86 114 137
88 117 140
91 119 134
90 118 146
86 115 148
81 110 145
94 122 144
92 120 150
99 126 161
92 120 153
101 128 155
98 125 144
92 120 140
103 128 152
92 120 150
99 125 149
92 120 144
98 125 156
103 130 155
95 123 151
98 125 146
79 109 153
91 120 161
102 130 157
93 121 160
73 105 154
89 117 158
86 114 156
82 112 163
85 114 155
84 114 164
73 106 155
74 106 164
66 100 156
67 101 163
74 105 156
72 105 158
71 104 161
68 102 161
73 106 162
63 98 152
70 103 160
61 97 158
62 97 159
68 100 150
59 94 150
66 100 151
64 98 142
64 96 147
63 96 146
62 97 150
66 99 136
67 100 148
60 95 142
60 95 143
61 95 137
60 95 138
60 94 141
62 96 137
61 96 139
61 95 145
60 94 142
59 94 148
61 95 147
60 95 140
59 94 138
58 92 134
60 95 146
59 94 136
59 94 136
60 95 138
60 94 140
59 94 135
59 94 139
59 94 140
61 96 150
61 96 143
59 94 137
61 96 148
60 95 143
59 95 144
59 94 134
61 96 148
59 94 140
61 97 147
61 96 149
59 94 135
60 95 146
60 96 145
61 96 143
59 93 129
60 95 137
60 95 143
60 95 144
60 95 141
60 95 144
61 96 147
62 97 149
60 96 148
60 96 143
61 96 148
59 94 137
59 94 137
61 97 152
60 96 137
61 96 140
61 96 150
60 95 141
61 96 141
61 96 139
61 97 148
61 96 140
62 97 142
60 96 141
61 96 141
61 96 140
61 96 143
61 96 140
60 95 136
59 94 142
60 95 144
61 95 136
59 94 135
62 97 151
60 94 137
62 96 151
60 95 131
60 95 141
60 95 140
60 95 141
60 94 137
60 95 140
59 94 136
60 95 133
61 95 136
60 95 139
60 95 140
60 94 130
60 95 135
58 92 126
60 96 135
61 96 141
60 95 130
60 94 137
61 95 131
60 95 131
61 95 136
59 94 137
61 96 150
61 96 151
60 95 143
61 95 141
58 91 120
60 94 127
60 94 137
60 95 133
59 92 127
59 94 127
59 93 127
57 90 126
58 92 124
58 92 129
58 92 127
58 91 115
57 90 129
55 87 105
66 95 114
93 113 90
99 117 72
116 132 33
118 129 0
120 134 0
113 123 0
121 133 0
120 131 0
122 133 0
121 134 0
120 132 0
124 137 0
118 128 0
118 128 0
117 128 0
127 138 0
113 124 0
120 131 0
120 131 0
123 134 0
115 127 0
127 139 0
122 131 0
128 137 0
125 138 0
116 125 0
121 131 0
128 137 0
118 128 0
125 135 0
117 129 0
131 141 0
121 132 0
127 137 0
131 141 0
124 134 0
131 142 0
120 129 0
121 130 0
130 138 0
127 138 0
131 140 0
125 132 0
130 139 0
126 133 0
131 139 0
126 133 0
123 134 0
131 141 0
125 133 0
138 148 0
136 144 0
134 142 0
127 136 0
131 139 0
127 136 0
137 147 0
137 145 0
126 134 0
138 147 0
137 146 0
135 143 0
133 140 0
138 147 0
143 151 0
143 151 0
131 139 0
139 146 0
136 139 0
148 158 0
137 144 0
132 137 0
129 135 0
138 146 0
143 151 0
131 139 0
140 150 0
144 155 0
143 155 0
149 158 0
148 160 0
145 157 0
136 144 0
149 162 0
148 156 0
142 150 0
139 148 0
152 165 0
147 159 0
148 160 0
149 159 0
147 157 0
149 160 0
150 162 0
150 160 0
149 158 0
155 170 0
143 150 0
147 158 0
149 160 0
159 173 0
148 159 0
159 173 0
145 157 0
156 170 0
153 168 0
162 176 0
147 160 0
156 170 0
158 171 0
158 171 0
161 176 0
159 174 0
155 171 0
156 170 0
155 170 0
155 167 0
158 172 0
154 169 0
160 178 0
154 167 0
158 173 0
164 179 0
159 176 0
157 169 0
152 167 0
159 176 0
160 176 0
165 183 0
161 179 0
163 180 0
162 178 0
159 176 0
166 182 0
161 179 0
160 176 0
165 184 0
163 181 0
164 181 0
165 181 0
163 181 0
166 184 0
168 186 0
166 184 0
165 182 0
162 178 0
167 186 0
165 182 0
164 183 0
168 189 0
170 194 51
175 198 67
171 194 62
172 196 67
171 195 62
172 195 62
169 193 76
174 197 57
170 193 44
174 198 80
171 195 80
174 198 84
173 197 62
171 194 44
167 191 62
172 195 84
173 197 51
170 194 72
175 199 80
170 194 67
171 194 76
172 196 88
171 195 95
168 192 51
172 196 67
169 193 76
170 195 84
170 194 72
174 198 88
166 190 72
170 194 76
168 192 76
172 196 84
168 192 57
172 196 76
172 196 95
166 190 72
167 192 76
167 192 72
168 193 92
168 192 72
169 193 67
170 195 84
167 191 84
164 188 67
169 193 92
170 194 88
164 187 67
171 194 92
167 191 80
168 192 76
171 195 88
171 196 80
164 187 62
168 191 51
164 187 44
171 195 80
167 190 88
166 189 72
168 190 57
165 189 88
165 189 84
168 191 57
171 194 80
167 188 57
165 188 76
161 184 57
162 185 76
165 188 62
168 191 67
164 186 72
165 188 84
167 189 67
162 186 57
160 185 44
164 188 80
156 179 86
150 173 99
129 153 110
106 133 139
92 120 134
86 115 137
87 115 133
87 115 146
85 114 140
91 118 137
93 120 139
94 121 137
92 120 152
101 128 160
90 118 155
93 121 148
89 117 140
84 112 142
92 119 144
90 118 155
89 118 146
101 127 143
90 118 156
97 125 152
94 121 147
99 125 147
90 118 148
103 129 158
94 122 149
99 126 156
89 117 156
92 119 154
97 124 153
87 116 165
88 117 155
80 111 151
96 124 166
80 111 162
76 107 157
84 112 154
76 108 166
74 105 152
67 101 158
71 104 167
73 105 166
68 102 163
72 103 154
70 103 160
66 100 160
67 100 149
65 99 151
59 94 141
71 103 155
65 99 146
70 100 141
63 97 146
63 97 153
64 98 141
65 98 145
64 98 145
62 96 150
60 96 150
59 94 149
60 96 146
61 95 133
60 95 143
63 96 137
58 92 130
58 93 140
59 94 131
58 93 134
60 95 146
61 97 142
60 95 155
60 94 142
59 93 132
61 96 144
61 96 150
60 95 141
60 95 138
59 94 146
60 95 145
60 95 141
61 97 150
59 94 140
60 95 142
60 95 147
62 97 149
60 95 144
61 96 151
62 97 153
60 95 136
59 93 135
61 96 144
61 96 145
60 95 136
60 95 137
61 96 148
60 95 141
61 96 147
60 95 140
60 95 139
60 94 146
61 96 143
62 97 150
61 96 144
63 98 152
61 96 139
60 95 139
61 96 143
59 94 129
60 95 139
60 95 131
60 95 136
60 95 144
60 95 136
60 95 137
61 97 143
61 95 148
61 96 140
60 95 135
60 95 136
61 96 139
60 96 145
61 96 149
59 94 133
60 95 141
60 96 141
60 95 142
60 94 135
59 93 137
60 95 143
59 94 134
59 93 126
61 96 143
60 95 141
60 95 136
61 95 137
60 95 136
60 94 131
59 93 122
59 93 129
60 95 135
60 94 137
61 95 137
60 95 135
61 95 137
59 94 130
59 93 124
61 95 141
61 96 135
60 94 137
59 94 136
60 94 131
59 94 129
59 94 122
58 92 124
60 94 129
59 93 134
60 94 131
61 96 140
59 93 131
59 93 129
60 95 129
59 92 121
59 93 129
58 91 124
59 94 134
59 93 126
58 92 110
58 91 116
57 90 120
58 91 117
69 97 108
99 118 70
111 127 51
116 130 36
117 128 25
123 136 0
114 129 0
113 124 0
114 128 0
120 134 0
119 132 0
131 142 0
126 140 0
128 138 0
123 134 0
122 133 0
116 127 0
122 133 0
133 145 0
119 132 0
118 127 0
119 133 0
127 140 0
125 133 0
125 138 0
128 141 0
131 140 0
125 134 0
143 155 0
129 142 0
126 137 0
124 133 0
130 142 0
131 142 0
117 127 0
128 140 0
122 131 0
133 145 0
123 133 0
135 147 0
131 142 0
139 151 0
132 140 0
121 129 0
139 147 0
135 145 0
127 134 0
135 143 0
125 131 0
123 134 0
121 130 0
130 141 0
133 140 0
125 134 0
134 146 0
123 131 0
141 149 0
123 132 0
129 138 0
138 146 0
132 140 0
126 135 0
135 143 0
132 140 0
140 150 0
133 144 0
132 139 0
140 151 0
138 147 0
141 149 0
139 148 0
134 143 0
142 153 0
134 142 0
142 152 0
143 152 0
140 147 0
150 162 0
147 156 0
144 154 0
141 151 0
149 162 0
143 153 0
143 154 0
141 152 0
147 156 0
146 158 0
145 155 0
146 155 0
146 157 0
153 163 0
145 152 0
150 161 0
143 154 0
152 163 0
157 169 0
148 162 0
152 162 0
148 160 0
144 152 0
151 162 0
152 164 0
155 168 0
149 161 0
157 171 0
150 163 0
154 168 0
152 166 0
157 171 0
156 168 0
160 174 0
154 170 0
158 170 0
157 171 0
153 169 0
155 170 0
149 161 0
163 176 0
154 168 0
159 174 0
156 170 0
160 176 0
164 180 0
163 179 0
160 175 0
159 174 0
165 182 0
166 182 0
162 178 0
164 180 0
155 171 0
159 173 0
165 182 0
160 177 0
165 182 0
159 177 0
167 186 0
162 180 0
165 181 0
162 179 0
162 179 0
163 181 0
163 181 0
164 182 0
164 180 0
166 184 0
161 178 0
162 179 0
162 179 0
161 179 0
171 190 0
173 196 57
173 196 62
173 197 62
175 197 51
171 194 72
172 196 72
173 198 76
172 196 57
171 195 76
172 196 95
172 195 76
168 193 67
169 193 76
171 196 67
173 196 92
174 197 62
171 195 76
170 194 62
169 194 99
169 194 80
171 195 72
171 195 76
169 192 57
172 195 67
166 191 67
167 190 57
171 195 72
169 193 57
173 197 88
167 191 67
170 194 95
170 195 72
169 193 67
168 191 57
168 193 88
171 195 76
170 193 57
167 191 72
168 192 92
167 192 88
170 194 67
167 191 72
169 192 51
169 193 99
170 194 76
170 193 62
165 190 76
172 196 88
166 190 67
173 197 88
166 190 67
172 196 88
170 194 80
166 190 67
167 190 62
167 191 72
167 191 92
168 192 80
162 187 51
170 193 62
166 190 72
164 188 72
164 187 76
167 191 99
164 188 92
169 193 67
165 189 80
167 191 72
161 185 72
166 189 80
162 185 57
157 179 36
168 191 80
164 187 62
165 189 80
160 182 67
162 184 80
154 177 72
134 158 95
121 146 129
98 125 116
93 120 141
89 117 145
92 120 146
92 120 150
94 121 147
89 118 142
97 124 151
88 117 141
89 117 141
103 130 160
94 121 146
98 124 143
87 115 140
92 120 137
97 124 159
89 117 139
95 123 159
82 110 137
90 117 137
81 111 143
96 123 139
94 122 152
90 118 141
98 125 144
110 135 169
94 122 148
95 123 153
90 119 154
89 117 157
84 114 157
91 119 155
78 109 161
86 115 161
86 115 150
85 114 165
81 111 161
69 102 154
80 110 166
76 107 149
69 102 156
67 101 159
63 97 151
73 105 160
68 101 157
71 104 161
76 106 161
64 99 159
71 103 160
71 103 150
67 98 146
64 99 144
66 98 141
69 101 149
65 99 153
59 94 145
60 95 134
60 94 136
58 93 134
59 94 133
60 94 142
59 94 144
62 97 145
61 96 147
59 94 136
62 95 127
61 96 148
60 95 139
61 95 129
60 95 142
59 94 137
59 94 136
59 94 134
59 94 141
59 93 135
60 95 140
59 94 138
60 95 141
60 95 141
60 95 138
59 93 133
60 95 141
60 95 143
59 94 141
60 95 142
59 94 139
60 95 141
60 96 145
60 95 136
60 95 139
61 96 146
61 96 143
61 96 145
61 96 144
59 94 138
60 95 135
62 97 150
61 96 142
60 94 134
60 96 147
61 96 145
61 96 142
61 96 133
61 96 141
61 96 147
59 93 130
60 94 133
62 97 152
60 95 141
60 95 142
59 94 137
59 94 126
60 96 145
62 98 150
59 94 135
60 95 139
61 97 144
59 94 137
62 97 151
61 96 142
62 97 149
61 96 143
61 96 141
61 95 144
60 95 137
61 96 140
61 96 145
58 92 126
60 95 134
61 96 137
60 95 136
59 93 126
60 95 137
61 96 141
60 95 141
61 96 139
60 95 139
60 95 140
60 95 136
60 94 130
60 94 129
61 96 144
60 95 135
60 94 133
61 95 137
59 94 130
60 94 125
59 93 133
59 94 126
60 94 131
58 92 126
60 95 134
61 95 137
58 92 117
60 95 133
59 93 118
58 92 125
60 94 129
59 93 130
58 92 126
57 91 114
59 93 132
59 93 122
60 94 135
59 93 121
57 90 121
57 90 103
56 89 121
71 99 111
75 96 99
101 115 65
122 134 31
117 129 0
127 141 0
128 140 0
121 133 0
115 126 0
115 126 0
129 142 0
108 118 0
124 138 0
136 150 0
122 135 0
116 128 0
126 138 0
117 128 0
113 124 0
120 130 0
116 128 0
122 132 0
124 137 0
118 130 0
134 148 0
118 129 0
119 128 0
127 140 0
131 141 0
131 143 0
131 142 0
130 140 0
116 129 0
120 132 0
113 123 0
128 140 0
122 133 0
126 137 0
129 141 0
123 132 0
135 147 0
130 140 0
130 141 0
122 132 0
134 148 0
131 141 0
128 136 0
122 130 0
137 147 0
119 128 0
140 150 0
128 136 0
124 135 0
125 136 0
131 141 0
133 142 0
122 131 0
141 152 0
126 136 0
131 141 0
134 142 0
134 143 0
138 147 0
134 144 0
144 154 0
140 149 0
143 154 0
136 144 0
133 143 0
147 156 0
146 157 0
143 155 0
141 148 0
143 154 0
145 155 0
143 152 0
148 160 0
146 158 0
137 149 0
147 157 0
152 164 0
144 153 0
145 156 0
150 160 0
144 155 0
148 158 0
145 154 0
143 151 0
151 161 0
151 165 0
153 166 0
147 158 0
156 168 0
148 161 0
147 156 0
151 159 0
150 162 0
147 158 0
153 167 0
152 162 0
152 164 0
154 169 0
161 174 0
150 161 0
148 160 0
154 168 0
149 162 0
155 167 0
154 170 0
155 169 0
153 168 0
146 157 0
154 169 0
154 168 0
156 169 0
161 177 0
161 175 0
158 171 0
154 167 0
156 172 0
156 172 0
161 177 0
158 174 0
161 175 0
157 172 0
156 174 0
163 179 0
158 173 0
162 181 0
157 173 0
159 175 0
163 177 0
159 177 0
161 179 0
161 176 0
160 177 0
162 179 0
160 175 0
165 179 0
160 178 0
167 186 0
162 180 0
163 179 0
159 176 0
163 183 0
164 180 0
158 175 0
163 181 0
166 185 0
163 180 0
168 188 0
162 177 0
168 192 72
169 193 51
173 196 51
172 197 72
169 192 57
173 197 80
173 197 62
174 197 76
171 196 84
172 195 72
168 193 76
172 196 88
170 193 67
173 196 51
170 195 84
173 197 92
172 196 67
171 195 62
173 197 62
170 194 84
169 193 80
171 195 62
171 195 67
169 193 62
171 195 72
171 195 72
167 191 72
169 192 72
170 195 62
168 192 72
170 194 67
168 192 72
170 195 72
171 195 62
168 192 76
171 194 51
170 193 67
168 192 67
165 189 57
167 191 67
172 196 95
169 193 84
169 193 76
172 196 72
169 192 57
161 186 76
168 192 67
169 194 88
167 191 80
167 191 67
165 188 76
169 193 88
166 190 80
163 186 67
164 188 72
169 193 51
168 191 67
168 192 84
164 189 62
162 185 88
160 183 57
166 189 76
164 187 72
166 190 36
167 191 51
164 188 88
167 190 76
168 192 84
164 187 72
168 192 76
161 184 84
163 187 67
163 186 72
165 188 57
164 187 67
164 187 84
157 180 74
155 178 70
146 169 88
135 159 114
110 135 107
83 113 133
95 122 145
94 122 133
93 121 142
87 116 139
81 110 144
91 119 136
87 114 133
87 115 134
92 120 150
87 116 147
96 123 149
88 117 134
96 124 155
93 120 152
96 124 148
96 122 151
102 127 132
95 123 151
82 111 143
85 113 143
98 124 152
88 116 154
109 134 155
85 114 143
87 116 160
93 121 151
91 119 160
90 118 147
96 124 159
86 114 157
89 117 160
86 115 166
82 112 160
75 106 149
77 108 154
69 102 162
82 111 154
83 112 158
77 107 162
70 103 152
66 100 152
72 103 157
72 104 161
64 98 153
77 107 160
70 102 158
68 101 153
66 99 151
72 103 150
61 96 153
64 97 145
62 96 143
70 100 137
68 100 142
60 94 137
59 93 136
61 94 141
60 95 141
62 96 137
68 101 145
62 96 145
61 96 138
58 93 133
60 95 143
58 92 137
60 94 143
59 94 140
60 94 139
62 97 150
59 94 146
59 94 140
60 95 141
60 95 143
60 95 139
60 95 143
60 95 133
58 93 133
60 95 148
59 94 130
59 93 126
60 95 143
59 94 136
60 95 136
61 96 140
60 95 133
60 95 139
60 95 143
60 95 142
60 94 134
60 96 147
59 94 129
59 94 141
60 95 140
60 95 134
61 96 145
61 96 145
59 94 136
60 95 144
61 97 149
61 96 141
60 94 131
62 97 143
60 95 137
61 96 145
62 97 151
61 95 139
62 97 147
61 96 145
61 97 148
59 93 139
59 94 131
60 95 139
61 96 144
60 94 131
60 94 131
60 95 140
60 96 143
61 96 140
60 95 141
60 94 131
61 96 148
60 95 139
61 95 133
60 95 141
60 95 131
60 95 137
59 94 127
62 97 144
60 95 141
60 95 134
60 95 129
60 95 134
60 94 133
61 96 145
59 94 135
60 94 134
59 94 126
61 96 135
61 96 136
60 94 126
59 93 130
61 95 137
58 92 115
61 96 139
59 94 133
60 95 143
61 96 145
59 94 127
59 93 127
60 94 134
59 94 134
60 95 133
59 93 117
60 94 135
60 94 131
58 92 117
58 91 114
59 92 122
62 97 144
59 93 118
57 90 117
58 91 117
57 89 124
56 89 108
58 91 121
55 87 110
70 96 94
103 121 74
110 126 57
113 127 18
125 139 0
126 141 0
116 130 0
124 137 0
116 127 0
127 138 0
116 129 0
112 122 0
115 128 0
125 139 0
125 138 0
135 146 0
126 138 0
117 130 0
132 146 0
129 141 0
122 137 0
119 129 0
126 138 0
131 142 0
127 139 0
128 140 0
118 129 0
134 146 0
128 140 0
124 135 0
122 133 0
124 134 0
127 135 0
127 136 0
126 135 0
138 148 0
129 139 0
127 138 0
113 120 0
129 140 0
132 141 0
124 134 0
127 136 0
127 139 0
133 143 0
136 145 0
130 140 0
135 144 0
124 133 0
130 138 0
134 147 0
135 146 0
128 140 0
132 142 0
140 152 0
139 151 0
130 140 0
131 139 0
141 154 0
141 150 0
137 148 0
140 151 0
139 150 0
138 149 0
134 146 0
136 144 0
140 151 0
134 143 0
134 142 0
138 147 0
149 161 0
137 145 0
136 146 0
140 151 0
143 155 0
138 149 0
141 152 0
141 151 0
139 146 0
144 156 0
147 156 0
145 156 0
145 156 0
148 160 0
150 162 0
155 169 0
147 158 0
143 154 0
155 165 0
144 156 0
148 161 0
144 154 0
151 163 0
148 159 0
156 169 0
149 161 0
153 165 0
148 162 0
157 169 0
152 164 0
150 161 0
155 168 0
149 160 0
155 169 0
157 170 0
156 170 0
159 172 0
155 169 0
158 174 0
159 173 0
155 170 0
159 175 0
155 170 0
154 169 0
157 169 0
158 173 0
155 167 0
151 164 0
155 171 0
161 174 0
157 172 0
159 174 0
159 175 0
158 173 0
162 179 0
163 181 0
158 174 0
167 182 0
163 178 0
161 178 0
162 179 0
163 179 0
155 172 0
160 176 0
158 175 0
161 177 0
157 172 0
161 178 0
166 185 0
165 184 0
160 179 0
165 183 0
166 184 0
160 180 0
160 178 0
166 187 0
166 185 0
166 186 0
166 185 0
165 183 0
164 183 0
165 185 0
173 197 88
174 197 76
174 199 84
173 197 72
171 195 72
174 198 88
170 194 62
171 196 67
173 196 72
172 196 62
172 195 72
172 196 62
170 194 72
171 194 72
169 194 99
167 191 72
171 195 76
173 198 80
171 195 80
167 191 57
172 196 84
172 196 62
170 194 67
170 194 76
167 191 72
171 195 62
172 196 92
171 195 62
172 196 80
173 197 92
170 194 76
171 195 72
172 196 76
174 197 67
166 190 67
171 195 67
165 188 67
166 189 67
173 197 88
170 195 92
170 193 72
166 191 84
169 193 76
166 190 57
166 190 80
171 194 80
167 191 67
163 187 67
169 193 76
169 193 84
167 190 76
170 193 72
164 189 67
165 189 72
169 192 62
164 188 62
171 195 67
166 190 76
163 186 44
167 190 84
166 190 80
166 190 88
162 185 44
160 184 51
164 189 67
161 184 44
168 192 80
162 185 72
160 184 88
163 187 76
166 191 95
165 189 80
166 190 72
168 190 72
163 187 76
159 182 62
158 182 88
160 184 76
156 179 88
146 170 105
131 156 117
105 132 132
91 119 133
85 113 129
97 125 143
91 118 147
76 106 123
88 116 142
93 121 136
93 120 120
96 122 142
83 112 145
91 119 143
90 118 142
105 131 152
94 122 141
87 116 142
94 121 138
84 113 147
98 124 141
91 118 149
105 130 134
88 116 143
88 116 144
97 123 153
91 119 156
88 118 151
83 112 160
94 121 158
99 126 157
95 122 141
86 115 150
85 114 156
83 112 152
77 108 158
79 109 157
84 113 157
75 106 154
91 118 170
63 98 159
74 105 159
71 104 159
71 102 153
74 105 155
65 99 160
69 101 156
74 105 161
61 97 156
67 101 156
63 96 154
68 100 149
60 95 142
61 96 149
64 98 153
59 94 143
68 100 132
65 98 146
60 95 151
58 92 133
62 95 141
61 95 134
66 98 139
61 94 129
58 92 137
64 97 138
61 95 133
63 95 135
59 93 133
58 92 133
58 93 136
59 94 136
60 95 142
59 94 139
58 92 126
60 95 141
59 94 137
60 95 137
59 94 140
60 95 139
58 93 131
61 96 145
60 95 150
60 95 141
59 94 137
58 92 136
61 96 139
60 95 140
60 95 140
60 95 143
61 96 140
60 94 134
60 95 138
60 95 134
60 95 144
58 93 131
60 94 140
60 95 134
60 95 144
61 96 145
61 96 147
60 96 144
61 96 150
60 95 143
61 96 137
59 94 133
61 97 139
60 95 143
59 94 133
59 94 136
60 95 143
60 95 140
60 95 135
60 95 136
60 95 135
59 94 129
60 95 143
60 95 139
61 96 145
60 95 140
60 95 139
61 96 144
60 96 141
60 94 127
60 95 137
60 95 136
61 96 143
60 95 141
60 95 134
59 94 131
61 96 141
60 95 136
60 94 126
59 93 121
60 94 133
62 97 149
60 95 131
59 93 130
59 94 139
59 93 131
60 95 143
59 93 127
59 93 130
60 94 134
60 94 133
59 93 130
59 93 127
58 93 121
61 95 136
60 94 136
59 93 129
59 93 133
59 94 129
60 95 140
60 95 135
60 94 130
59 93 125
58 92 113
59 93 127
58 91 117
59 93 120
56 89 107
58 92 125
59 93 125
57 90 111
57 90 121
59 92 127
56 88 108
73 98 94
95 112 63
104 122 70
117 132 36
120 134 0
115 126 0
124 139 0
112 123 0
118 130 0
119 133 0
122 134 0
125 138 0
127 137 0
116 128 0
121 134 0
113 124 0
118 129 0
120 134 0
119 129 0
131 143 0
130 143 0
121 132 0
131 141 0
127 137 0
124 138 0
135 147 0
117 127 0
129 140 0
128 139 0
125 139 0
127 141 0
126 139 0
122 135 0
120 132 0
129 142 0
125 135 0
121 134 0
132 144 0
124 132 0
130 140 0
132 141 0
133 143 0
131 140 0
136 146 0
123 134 0
131 142 0
121 133 0
130 142 0
131 140 0
137 149 0
139 150 0
130 142 0
119 128 0
131 141 0
124 135 0
134 145 0
134 145 0
137 149 0
128 137 0
133 146 0
141 151 0
142 153 0
132 141 0
127 134 0
129 138 0
138 148 0
139 148 0
141 149 0
144 155 0
140 154 0
139 149 0
140 153 0
136 146 0
143 155 0
139 148 0
141 151 0
135 145 0
140 148 0
143 154 0
144 156 0
150 159 0
149 162 0
152 162 0
151 165 0
150 161 0
151 164 0
145 155 0
147 160 0
148 160 0
153 166 0
152 165 0
158 170 0
147 159 0
146 157 0
147 161 0
152 165 0
151 162 0
155 168 0
153 166 0
154 169 0
151 163 0
145 156 0
144 156 0
153 166 0
156 170 0
163 175 0
154 168 0
152 165 0
157 170 0
158 169 0
148 159 0
159 173 0
154 168 0
158 172 0
156 169 0
155 170 0
157 169 0
159 176 0
152 168 0
157 172 0
166 181 0
155 171 0
154 171 0
160 176 0
163 179 0
158 174 0
162 179 0
159 176 0
158 175 0
164 180 0
168 187 0
163 182 0
161 179 0
159 172 0
163 181 0
161 179 0
166 184 0
166 185 0
158 174 0
162 179 0
162 180 0
163 181 0
162 180 0
161 176 0
164 182 0
164 181 0
164 185 0
164 182 0
167 184 0
163 183 0
167 186 0
161 180 0
168 188 0
174 198 76
175 199 76
173 197 76
173 197 76
172 196 67
172 196 62
171 196 67
172 195 88
171 194 67
169 193 84
171 195 88
171 194 51
172 196 76
167 191 76
172 196 76
173 197 80
168 192 36
174 198 88
170 194 62
168 192 62
170 194 72
172 196 84
169 193 88
168 191 67
171 194 67
165 190 51
170 194 76
174 198 67
166 191 80
170 195 67
168 192 84
170 195 62
169 193 62
171 195 80
167 191 76
172 196 80
171 195 62
166 191 76
169 193 76
169 192 67
168 192 92
170 194 62
164 188 67
165 189 88
164 188 72
166 191 76
168 192 62
163 187 67
167 191 67
169 192 67
168 192 62
166 190 51
167 191 67
164 188 72
166 191 84
167 191 80
169 193 84
162 185 62
169 193 88
162 186 76
166 190 57
162 186 92
171 195 62
162 185 72
164 188 84
167 191 76
163 188 76
166 189 67
168 191 80
162 186 57
165 188 92
167 192 92
162 185 84
167 191 72
162 185 62
161 184 67
163 187 62
162 185 72
155 178 78
149 172 100
125 150 111
114 139 111
93 121 134
99 126 139
80 110 140
107 134 151
81 110 137
96 123 124
93 121 144
87 116 150
87 115 143
87 114 137
86 115 141
97 124 148
87 116 155
86 115 124
88 116 145
94 122 148
94 121 151
100 127 148
104 130 148
96 124 147
102 128 142
101 128 144
96 122 141
87 115 134
89 117 137
95 122 153
106 131 145
81 111 137
87 117 160
88 117 156
96 124 170
90 117 158
91 118 157
91 119 155
86 115 155
76 107 159
84 113 160
75 107 154
68 101 158
69 103 157
74 105 160
75 107 168
71 103 154
68 100 144
61 96 151
72 103 154
74 105 149
63 98 148
69 100 151
68 100 141
62 97 144
60 95 150
61 94 139
62 96 134
67 98 139
64 97 145
59 93 134
60 94 138
59 94 139
65 98 145
58 93 137
59 93 133
62 96 133
59 93 136
59 94 137
62 95 133
61 96 140
59 94 139
57 91 126
60 94 139
60 95 127
60 95 148
59 94 131
58 92 133
58 93 131
59 93 131
59 94 133
60 96 139
61 95 141
59 94 133
60 94 136
60 95 136
59 94 137
60 95 139
60 95 139
59 94 148
61 96 141
61 95 141
60 95 141
61 96 151
61 96 136
60 95 137
60 95 135
60 95 143
59 94 135
60 95 142
59 94 137
60 95 145
60 95 141
61 96 142
60 95 140
60 96 144
59 94 136
60 95 142
60 94 129
60 95 144
59 94 136
60 95 137
61 96 141
61 96 140
58 92 129
60 94 137
60 95 140
60 95 139
58 92 124
60 96 139
59 93 126
61 96 136
61 96 148
58 93 127
59 93 130
60 95 137
60 95 137
61 96 139
60 95 136
60 95 141
61 96 143
59 93 126
60 95 142
60 95 140
60 95 139
61 95 131
60 95 137
61 95 134
60 94 133
58 92 122
60 95 139
59 92 130
60 94 133
61 96 140
59 92 131
58 92 117
61 95 137
59 93 124
60 94 133
60 94 133
59 94 129
60 95 133
58 91 118
59 93 124
58 92 118
59 94 125
58 92 125
59 93 127
57 90 107
60 94 135
58 91 124
59 92 125
59 92 122
57 90 115
57 90 114
56 90 111
59 93 121
58 91 117
59 88 95
89 113 94
112 129 60
112 128 40
121 137 25
124 137 0
113 125 0
127 141 0
123 137 0
124 135 0
116 129 0
118 132 0
120 133 0
111 127 0
119 132 0
113 125 0
125 138 0
118 130 0
126 141 0
122 135 0
127 141 0
136 148 0
133 147 0
119 133 0
130 144 0
129 144 0
131 143 0
131 145 0
118 131 0
138 152 0
116 126 0
128 140 0
119 130 0
120 132 0
138 152 0
128 142 0
136 147 0
139 152 0
135 149 0
120 133 0
127 139 0
133 141 0
134 146 0
128 139 0
126 135 0
141 153 0
124 134 0
131 144 0
132 143 0
140 149 0
126 137 0
133 146 0
136 149 0
138 153 0
133 143 0
146 156 0
134 143 0
127 137 0
137 147 0
134 144 0
133 144 0
137 147 0
134 145 0
143 154 0
140 151 0
137 147 0
137 147 0
140 151 0
137 148 0
144 154 0
144 157 0
138 146 0
139 152 0
139 153 0
139 148 0
149 160 0
142 154 0
141 150 0
144 156 0
139 150 0
147 159 0
156 170 0
146 158 0
154 167 0
152 164 0
151 165 0
152 165 0
144 155 0
151 164 0
146 157 0
136 147 0
155 168 0
137 149 0
154 166 0
152 165 0
152 163 0
152 163 0
146 159 0
149 162 0
148 162 0
154 169 0
148 161 0
156 171 0
151 163 0
160 173 0
155 170 0
154 167 0
149 159 0
151 164 0
152 168 0
157 174 0
154 170 0
157 172 0
158 172 0
155 169 0
158 174 0
155 170 0
157 170 0
157 172 0
157 171 0
152 167 0
162 179 0
161 176 0
164 179 0
162 178 0
161 179 0
159 174 0
161 178 0
160 175 0
159 175 0
161 177 0
161 176 0
158 175 0
160 179 0
161 179 0
159 175 0
161 179 0
165 185 0
163 179 0
159 177 0
162 180 0
156 172 0
156 171 0
168 187 0
163 181 0
162 180 0
163 182 0
167 185 0
158 177 0
167 185 0
158 177 0
168 186 0
164 181 0
166 185 0
171 195 72
173 197 84
171 195 76
174 196 84
169 193 76
171 194 84
172 195 67
171 194 72
175 199 84
171 194 67
168 192 80
167 191 84
171 196 72
171 195 72
172 197 76
172 196 76
172 196 95
170 194 84
171 195 88
169 192 62
166 191 88
169 193 80
173 197 95
167 191 76
170 194 67
170 195 88
170 194 72
170 194 57
167 191 67
169 193 67
170 194 62
167 191 72
169 194 80
168 192 67
164 187 72
169 193 84
167 191 80
169 194 62
168 193 76
166 189 80
162 187 51
170 195 84
166 190 80
167 191 72
168 193 80
168 192 62
172 196 72
167 191 36
170 193 72
164 189 88
169 194 72
170 195 88
173 197 92
166 190 72
171 195 72
169 193 76
166 190 80
169 193 72
163 188 80
163 187 67
165 189 84
168 191 80
162 186 67
165 188 67
162 186 67
162 186 62
162 185 62
163 187 51
161 184 62
157 180 51
159 183 92
161 185 72
157 180 67
164 187 76
165 189 84
159 181 51
166 189 51
167 191 92
165 188 84
158 180 72
146 168 74
131 155 113
117 142 118
93 121 141
82 110 127
88 116 131
96 123 133
92 120 143
99 126 151
91 119 141
95 122 145
93 121 149
90 118 143
100 127 146
84 112 141
102 128 150
94 121 157
83 112 141
83 111 141
83 112 141
100 127 145
106 131 140
91 119 146
96 123 139
91 118 139
100 126 148
90 117 143
73 104 148
97 124 153
79 108 135
105 130 151
94 121 151
101 126 163
83 113 166
98 125 153
83 113 164
87 115 149
87 114 159
82 111 142
81 111 163
77 107 156
76 105 156
71 103 157
79 110 169
72 105 162
76 106 162
77 107 158
61 97 159
66 99 149
69 101 145
66 99 150
68 100 142
63 96 140
67 99 154
71 102 139
65 99 148
60 95 136
62 96 133
62 96 139
62 97 140
63 97 137
64 97 139
58 93 131
60 95 139
60 94 141
61 95 137
60 95 137
65 99 137
60 94 137
57 91 129
60 94 131
59 94 138
60 95 143
60 94 134
60 95 141
59 94 140
60 95 143
61 97 149
61 95 137
59 94 143
59 94 132
60 95 139
61 95 143
58 92 136
60 95 147
58 92 126
59 93 124
59 94 136
59 94 136
59 94 131
61 96 143
59 94 134
59 94 142
61 97 150
60 96 139
60 95 137
58 92 121
60 95 136
60 95 141
60 96 141
60 94 129
60 95 137
61 96 145
60 95 134
61 96 142
59 94 136
61 96 141
61 96 145
60 95 143
60 95 140
61 96 139
60 95 142
60 95 137
59 94 130
61 97 148
60 95 139
59 95 140
61 96 144
60 95 142
60 95 142
62 97 148
59 94 133
59 93 130
60 95 142
61 96 134
60 95 139
61 96 144
60 95 135
58 93 125
60 94 131
59 94 129
61 96 143
59 94 142
60 95 136
60 94 142
62 97 145
59 93 129
59 93 133
61 96 141
60 95 142
60 94 130
58 91 124
58 93 130
58 92 126
62 97 144
60 94 135
60 94 131
59 93 125
59 94 133
59 93 129
60 94 130
58 93 130
58 92 122
60 94 135
59 92 122
59 92 125
59 92 121
58 92 118
59 93 127
58 92 124
56 89 114
58 90 122
57 91 114
56 89 114
56 89 120
70 99 110
73 98 84
99 115 72
113 127 51
117 131 18
129 145 0
119 134 0
118 131 0
129 142 0
109 122 0
108 124 0
130 145 0
126 138 0
119 131 0
118 132 0
121 134 0
115 126 0
119 134 0
121 134 0
127 142 0
126 141 0
123 136 0
128 140 0
114 125 0
115 126 0
127 139 0
123 135 0
123 136 0
142 157 0
136 147 0
133 146 0
133 145 0
133 146 0
123 136 0
132 141 0
134 147 0
132 144 0
126 138 0
138 152 0
143 155 0
127 137 0
131 139 0
124 136 0
123 132 0
130 141 0
128 139 0
131 143 0
133 143 0
136 145 0
144 158 0
125 138 0
132 143 0
129 140 0
137 149 0
137 145 0
136 146 0
132 143 0
133 144 0
138 149 0
132 141 0
136 149 0
134 144 0
141 155 0
135 149 0
139 149 0
140 152 0
143 155 0
137 146 0
135 143 0
138 147 0
142 154 0
140 149 0
136 145 0
143 152 0
135 147 0
136 145 0
146 156 0
138 149 0
144 156 0
143 154 0
146 158 0
141 152 0
152 165 0
148 159 0
143 154 0
142 152 0
149 161 0
147 158 0
147 159 0
145 159 0
147 156 0
145 159 0
147 159 0
149 161 0
152 166 0
152 167 0
157 172 0
148 160 0
144 159 0
156 169 0
147 159 0
150 164 0
149 161 0
154 167 0
145 158 0
157 172 0
155 168 0
151 162 0
152 166 0
154 168 0
155 169 0
159 175 0
151 164 0
156 170 0
155 168 0
151 167 0
151 166 0
156 170 0
159 174 0
162 177 0
156 170 0
157 174 0
158 171 0
154 170 0
159 174 0
158 174 0
159 178 0
167 184 0
157 173 0
156 172 0
154 170 0
164 181 0
164 182 0
161 177 0
159 179 0
154 170 0
159 174 0
160 178 0
162 179 0
163 182 0
156 173 0
169 187 0
164 180 0
165 184 0
163 181 0
162 181 0
167 186 0
163 181 0
162 180 0
164 183 0
166 185 0
165 185 0
165 185 0
159 179 0
164 182 0
170 194 84
172 196 72
175 199 76
169 194 67
175 199 62
173 197 80
167 192 80
172 196 62
168 192 62
172 196 51
172 196 84
171 195 62
172 195 57
171 195 76
168 193 76
168 192 67
172 196 88
170 194 51
169 194 80
170 194 62
170 194 72
170 193 67
170 194 84
169 192 67
165 190 80
161 185 36
170 194 76
169 193 72
166 191 76
171 195 84
170 195 72
170 194 51
172 196 80
169 194 62
165 189 72
164 189 72
167 191 76
165 189 99
170 194 76
167 191 72
168 192 76
170 193 76
170 194 80
168 192 62
164 188 57
162 186 72
166 190 84
161 184 57
166 189 88
166 191 92
166 190 92
161 184 51
164 188 72
167 192 72
165 191 80
159 183 67
161 184 76
160 184 62
166 190 84
163 188 84
164 187 80
161 185 80
169 193 57
156 179 72
170 194 95
169 192 80
155 179 57
164 187 67
166 189 57
159 183 88
165 189 76
162 184 51
163 187 88
165 190 95
161 185 80
159 182 72
159 182 57
159 182 57
155 178 80
155 178 74
150 174 117
139 161 100
118 143 114
94 121 126
85 113 136
87 115 133
82 110 126
88 115 130
92 119 151
92 119 125
87 115 134
96 123 147
84 112 130
94 121 149
95 121 141
91 119 148
88 115 136
100 127 151
90 118 140
91 119 143
91 118 141
103 128 118
97 124 126
101 128 152
98 125 158
102 128 148
106 131 164
88 116 139
87 116 155
84 114 147
99 125 151
96 123 150
98 124 159
87 115 150
72 104 148
85 113 152
83 113 145
76 108 149
71 103 150
70 103 156
66 100 153
84 114 161
77 107 157
73 104 159
68 100 151
67 101 156
72 104 154
66 99 146
60 96 150
77 105 146
69 101 142
64 98 154
70 102 147
69 100 142
61 94 137
63 98 147
64 98 141
61 95 140
69 100 134
65 98 133
63 96 136
62 96 144
64 97 131
62 97 143
59 94 137
60 94 129
59 94 131
62 96 143
60 95 141
60 94 140
58 92 129
59 93 134
60 95 137
60 94 142
59 94 137
60 95 134
60 94 140
59 93 127
58 92 124
60 95 135
59 93 131
60 95 139
58 92 125
59 94 125
60 95 137
60 94 141
61 95 145
60 95 140
60 96 144
59 93 129
59 94 136
60 95 135
61 96 139
60 95 137
60 94 139
60 95 134
60 95 142
60 94 136
60 95 139
58 92 128
60 95 131
60 96 144
60 95 139
60 94 130
60 95 134
59 94 133
59 93 127
60 94 134
60 95 136
60 95 136
61 97 143
60 94 130
59 94 145
61 97 147
60 95 140
61 96 147
61 96 140
61 96 141
61 96 142
60 95 136
61 96 133
59 93 131
59 94 139
59 93 136
59 94 134
58 92 122
60 94 130
60 94 125
59 93 124
61 96 141
59 93 133
60 94 135
59 93 125
60 94 134
60 95 131
60 94 134
59 93 125
60 94 126
59 93 129
59 93 127
58 92 125
60 95 134
60 95 130
59 93 129
61 96 139
59 94 129
58 92 120
59 94 121
58 91 120
59 93 124
59 93 129
59 93 125
61 95 130
58 91 121
59 93 122
58 92 125
58 92 127
57 91 120
58 91 127
59 92 130
59 93 124
58 91 120
57 90 120
56 88 103
59 89 108
71 99 97
89 109 72
97 114 67
125 141 44
112 124 18
116 130 0
121 135 0
124 139 0
131 144 0
119 133 0
117 129 0
122 135 0
124 137 0
119 133 0
120 133 0
124 137 0
130 143 0
116 128 0
124 140 0
126 140 0
127 141 0
127 140 0
127 139 0
127 138 0
123 136 0
131 145 0
121 134 0
122 134 0
133 145 0
115 127 0
121 131 0
122 136 0
117 129 0
136 148 0
138 150 0
128 143 0
123 134 0
119 131 0
135 147 0
134 148 0
127 140 0
122 135 0
137 148 0
133 142 0
127 141 0
123 134 0
132 145 0
132 144 0
135 149 0
125 134 0
131 143 0
134 145 0
138 151 0
122 133 0
133 148 0
127 140 0
136 148 0
143 153 0
133 144 0
143 152 0
144 158 0
134 145 0
133 144 0
136 146 0
137 147 0
134 146 0
134 145 0
143 154 0
145 155 0
145 157 0
138 149 0
139 152 0
141 152 0
135 144 0
140 152 0
148 161 0
142 152 0
139 148 0
141 151 0
136 147 0
144 157 0
147 160 0
149 159 0
142 150 0
152 166 0
149 163 0
146 160 0
144 154 0
147 157 0
142 151 0
153 167 0
148 162 0
149 161 0
147 160 0
155 168 0
155 169 0
152 163 0
152 164 0
148 161 0
151 165 0
148 161 0
156 170 0
159 175 0
151 165 0
159 173 0
154 168 0
154 169 0
154 168 0
146 161 0
156 170 0
157 171 0
154 167 0
152 167 0
163 180 0
160 174 0
159 174 0
158 173 0
156 172 0
156 173 0
157 172 0
159 176 0
155 169 0
154 169 0
159 174 0
154 167 0
159 174 0
161 178 0
163 179 0
163 178 0
156 174 0
157 175 0
163 181 0
158 172 0
162 180 0
161 179 0
156 173 0
164 179 0
157 174 0
164 183 0
160 178 0
166 185 0
162 179 0
162 178 0
164 181 0
165 184 0
162 179 0
164 184 0
161 176 0
155 171 0
162 178 0
163 182 0
165 184 0
166 184 0
169 187 0
166 185 0
172 195 72
173 197 84
175 198 67
172 196 84
174 198 72
173 197 84
170 194 57
170 194 72
168 192 62
171 195 62
169 193 67
174 198 80
176 199 72
169 193 67
174 197 67
167 192 72
172 196 67
171 195 72
170 194 62
170 193 62
169 194 95
172 197 84
168 193 95
171 195 72
170 194 62
173 197 72
171 194 80
168 191 67
166 191 80
171 195 88
172 196 51
171 195 72
166 190 72
165 189 57
170 195 84
170 194 88
169 192 67
169 193 84
168 192 57
170 194 84
166 191 76
167 191 84
166 190 72
166 190 76
164 188 72
164 188 67
169 193 80
170 194 84
165 189 57
169 192 72
163 187 84
169 193 84
162 186 88
168 192 62
165 189 72
166 190 51
172 196 76
170 194 62
161 185 62
162 186 51
162 186 67
160 184 84
163 185 62
160 182 44
154 178 51
166 189 76
161 185 76
165 189 62
160 183 62
160 184 88
163 187 76
159 183 57
167 191 67
157 180 62
150 173 62
161 184 88
163 186 84
154 177 67
158 181 84
164 187 95
159 183 78
151 175 107
121 145 94
118 142 129
96 123 136
90 118 141
80 109 136
86 115 125
83 111 122
99 125 145
88 115 138
84 112 130
89 117 133
90 118 133
89 116 138
96 123 139
92 119 137
105 131 136
101 127 149
90 117 136
91 118 141
94 122 139
93 120 147
92 120 147
105 130 150
93 120 131
99 126 143
105 130 145
90 117 148
98 125 156
93 120 131
88 116 142
87 115 144
94 122 157
90 118 149
99 126 161
98 124 157
76 107 153
85 114 154
82 111 152
80 108 148
77 107 157
67 100 156
76 107 159
78 107 151
63 97 154
70 103 154
67 100 145
67 99 144
73 103 154
60 94 138
66 100 149
66 100 144
62 95 136
66 99 139
64 98 131
70 101 131
65 98 138
61 95 138
63 97 147
61 95 133
62 95 133
60 94 126
61 96 149
59 93 133
62 95 131
61 95 139
63 96 131
60 94 132
59 94 136
59 93 143
60 95 136
59 94 133
59 94 141
57 91 129
59 93 133
59 93 138
58 93 130
59 94 129
61 95 147
60 95 144
58 92 129
60 95 140
60 95 141
59 94 125
60 95 140
59 94 130
59 94 137
60 95 136
59 94 135
59 94 137
61 96 141
60 95 139
59 94 131
59 93 129
59 94 137
59 94 133
59 94 136
61 96 141
61 96 139
61 96 147
60 94 131
59 93 127
60 95 140
61 96 147
60 95 141
58 93 125
60 95 140
59 94 136
60 94 140
61 96 149
59 94 122
59 93 131
61 96 131
61 96 149
61 96 140
59 94 137
60 94 131
59 93 127
61 96 143
60 95 141
61 96 140
60 94 130
59 94 133
59 94 126
59 93 129
60 94 133
59 94 125
60 94 125
58 93 124
58 93 129
59 93 129
58 92 122
61 95 141
61 96 134
59 93 133
60 95 133
60 95 136
58 91 115
59 94 121
60 94 127
57 91 113
59 93 125
59 93 121
60 94 133
59 94 135
59 94 131
59 93 130
60 94 127
59 93 126
58 91 115
59 92 118
58 92 126
60 95 134
59 93 125
59 94 117
58 92 121
55 88 114
57 89 114
59 93 126
58 91 125
58 91 118
58 91 113
58 89 96
76 103 102
86 106 77
96 115 67
113 129 25
120 134 18
118 131 0
115 131 0
121 135 0
121 135 0
115 126 0
115 130 0
120 134 0
123 136 0
117 130 0
126 142 0
120 132 0
126 142 0
131 148 0
114 124 0
128 143 0
120 133 0
119 132 0
119 132 0
124 137 0
132 146 0
127 138 0
127 139 0
133 146 0
120 133 0
128 143 0
129 141 0
120 134 0
128 140 0
117 128 0
125 136 0
136 149 0
125 137 0
136 149 0
125 138 0
142 156 0
129 143 0
134 146 0
137 150 0
131 141 0
123 134 0
131 143 0
136 148 0
138 150 0
136 150 0
137 150 0
131 143 0
135 147 0
139 153 0
129 140 0
140 151 0
140 151 0
135 149 0
132 142 0
135 147 0
144 154 0
145 158 0
144 155 0
140 150 0
139 148 0
135 146 0
135 145 0
138 148 0
145 159 0
140 150 0
137 150 0
144 157 0
144 155 0
142 153 0
139 152 0
143 156 0
145 157 0
148 161 0
144 158 0
145 155 0
139 152 0
142 156 0
145 156 0
148 159 0
145 156 0
141 151 0
145 158 0
143 153 0
146 158 0
148 160 0
149 161 0
156 168 0
155 170 0
145 158 0
147 160 0
152 163 0
154 166 0
145 160 0
150 164 0
149 161 0
153 168 0
157 171 0
153 168 0
155 168 0
161 175 0
151 165 0
151 166 0
157 173 0
156 173 0
154 170 0
152 166 0
151 167 0
154 170 0
155 171 0
159 173 0
160 177 0
152 168 0
157 173 0
158 172 0
155 172 0
160 178 0
158 173 0
154 168 0
155 171 0
159 173 0
162 178 0
160 178 0
159 177 0
152 166 0
161 178 0
159 176 0
161 180 0
155 170 0
159 173 0
158 175 0
166 183 0
166 184 0
163 180 0
167 186 0
160 178 0
160 178 0
162 178 0
161 177 0
163 183 0
161 180 0
160 178 0
165 185 0
164 183 0
156 174 0
165 182 0
162 179 0
169 188 0
164 183 0
160 178 0
165 184 0
163 181 0
166 185 0
171 195 67
170 194 62
170 195 72
169 192 67
172 196 88
173 196 84
171 195 84
172 196 62
172 196 62
174 198 80
171 194 67
174 198 62
170 194 72
174 198 62
168 191 72
171 195 80
168 191 51
170 194 57
169 193 67
171 195 76
172 195 80
173 197 72
169 192 67
174 198 57
172 196 84
169 193 67
168 192 72
170 194 99
172 196 57
168 193 95
169 193 67
169 193 62
164 188 72
164 188 67
167 192 67
171 195 76
167 191 84
169 194 84
170 194 67
172 196 67
168 191 57
168 192 80
171 195 76
170 195 84
168 192 72
166 190 88
170 194 57
167 191 92
167 191 72
167 191 62
165 189 80
162 187 67
162 187 76
162 186 84
166 190 88
168 191 80
164 188 72
167 190 80
166 190 67
162 185 57
165 188 80
167 190 76
162 185 72
165 189 80
162 186 84
165 188 92
163 187 57
158 181 62
164 188 72
161 185 76
166 188 72
163 187 88
164 187 57
161 184 76
153 174 25
161 184 76
161 184 92
155 178 57
154 177 76
159 182 76
158 180 72
155 177 60
140 163 90
129 154 98
108 134 126
79 109 121
88 116 133
105 131 141
82 110 130
96 123 132
98 124 151
93 121 144
91 119 140
100 126 150
104 129 140
98 124 141
100 127 149
101 127 146
103 129 147
92 119 133
102 127 139
95 122 146
96 123 145
89 117 141
90 118 144
100 126 143
97 124 145
85 113 127
93 121 144
101 127 143
93 120 149
93 120 149
82 112 147
96 123 153
89 117 156
93 120 154
98 125 156
84 113 150
80 109 149
77 108 153
82 111 156
91 118 155
79 109 154
70 102 147
66 100 153
77 107 157
64 98 151
81 110 161
64 98 148
69 101 156
68 99 142
70 100 136
68 99 143
63 97 146
67 99 145
67 100 150
62 97 140
69 100 141
68 101 139
63 95 135
69 99 128
60 94 133
68 98 132
60 93 123
60 93 125
60 94 141
58 93 130
60 93 118
59 93 131
60 94 132
59 93 126
61 96 139
59 93 139
58 92 121
59 93 129
58 92 133
58 93 133
60 95 141
60 95 136
59 94 134
60 95 143
60 95 142
60 95 134
60 95 142
60 94 136
60 95 135
59 94 129
59 93 130
58 92 129
60 95 131
59 93 144
58 92 120
60 95 141
59 94 130
60 94 131
60 96 141
60 94 131
60 94 136
59 94 130
61 97 145
60 95 137
60 94 131
61 96 145
60 95 135
59 94 139
60 95 140
59 93 136
59 94 130
61 95 136
59 94 131
60 94 140
60 95 133
60 95 131
60 95 126
60 95 143
60 95 140
61 96 142
60 95 137
60 95 135
61 95 140
59 94 131
59 94 136
60 95 135
61 95 137
60 95 134
60 95 134
60 95 134
60 95 140
60 94 130
61 96 137
59 93 130
59 93 131
59 93 121
58 92 127
59 93 126
59 94 129
59 92 124
59 93 122
60 95 135
58 92 130
59 93 126
58 92 122
59 92 127
61 96 131
60 95 133
59 93 124
59 93 129
58 92 117
60 95 134
60 94 130
58 91 117
57 90 110
59 93 125
58 91 125
60 93 131
60 94 130
60 94 131
59 93 122
58 91 115
58 92 114
59 93 125
59 93 125
54 86 94
66 96 101
93 114 92
99 117 72
114 130 51
113 123 18
115 126 0
116 129 0
123 136 0
109 123 0
131 145 0
130 144 0
117 131 0
119 133 0
136 150 0
111 124 0
117 133 0
125 139 0
126 140 0
129 143 0
122 137 0
121 135 0
123 136 0
127 142 0
134 150 0
125 138 0
135 149 0
129 144 0
123 135 0
127 140 0
126 140 0
133 147 0
128 138 0
130 142 0
129 142 0
140 153 0
134 145 0
136 150 0
136 152 0
133 147 0
137 150 0
137 150 0
138 152 0
138 153 0
130 142 0
130 142 0
134 148 0
131 143 0
131 144 0
134 145 0
141 156 0
127 141 0
139 152 0
136 149 0
136 151 0
131 143 0
132 145 0
148 160 0
129 140 0
133 144 0
138 147 0
138 151 0
143 154 0
146 161 0
138 149 0
146 160 0
139 150 0
142 153 0
137 148 0
145 156 0
133 143 0
133 144 0
143 154 0
138 150 0
136 147 0
138 151 0
146 159 0
152 165 0
145 158 0
139 150 0
149 163 0
147 161 0
147 161 0
144 156 0
148 162 0
146 160 0
141 153 0
145 160 0
150 161 0
151 163 0
147 158 0
149 163 0
149 162 0
152 164 0
147 161 0
146 158 0
150 166 0
149 161 0
147 160 0
147 162 0
153 169 0
149 161 0
155 170 0
151 167 0
148 160 0
158 174 0
144 156 0
157 173 0
153 167 0
147 159 0
161 177 0
150 165 0
152 167 0
158 173 0
156 170 0
155 169 0
156 171 0
158 172 0
156 171 0
162 178 0
159 176 0
154 167 0
159 174 0
158 172 0
157 173 0
161 173 0
155 171 0
164 180 0
156 172 0
158 176 0
159 176 0
162 179 0
161 180 0
160 177 0
155 174 0
161 179 0
163 180 0
161 178 0
163 179 0
164 183 0
162 178 0
158 176 0
167 185 0
166 183 0
160 178 0
167 184 0
166 185 0
166 184 0
158 176 0
160 179 0
164 183 0
166 186 0
162 181 0
168 189 0
163 180 0
166 184 0
163 183 0
171 191 0
173 196 84
171 194 62
172 196 57
174 197 88
170 193 67
171 194 76
171 195 51
171 195 67
170 193 51
170 194 44
171 195 57
168 193 67
168 192 67
161 185 51
170 194 67
171 194 62
171 195 57
174 198 88
166 190 92
171 194 67
167 191 67
170 194 76
168 192 80
166 190 76
169 193 57
170 194 44
168 192 72
171 195 57
164 189 51
171 195 67
166 191 51
172 196 67
163 186 57
167 191 88
169 193 76
168 193 88
166 189 62
165 189 44
165 189 80
169 192 80
170 193 67
168 193 72
161 186 76
164 187 62
167 192 92
165 189 72
167 191 62
166 189 62
169 193 80
165 189 76
160 184 72
168 191 62
170 194 67
165 189 72
171 194 88
159 183 72
165 190 72
160 184 67
165 189 88
164 187 67
164 187 67
166 190 76
166 190 92
162 185 67
160 182 72
161 186 80
164 187 76
165 189 67
161 185 72
162 186 80
164 187 80
158 181 62
154 178 62
158 180 72
159 183 80
157 179 84
160 184 102
165 188 99
155 178 84
163 185 62
157 180 80
157 180 74
156 179 80
135 158 103
118 143 115
97 125 134
87 115 134
87 114 137
93 120 128
89 116 134
86 115 137
69 99 119
85 112 136
92 120 130
85 113 127
98 124 140
96 123 143
100 127 152
103 128 142
87 114 124
96 122 148
92 119 142
75 104 133
92 119 148
85 113 126
91 118 137
95 122 142
95 122 142
101 126 149
102 128 144
91 118 139
80 109 143
90 116 142
89 116 137
89 117 145
87 116 150
88 114 151
88 116 147
80 110 155
89 118 163
81 111 155
88 115 149
79 108 154
66 100 158
77 107 157
73 105 156
76 106 154
75 107 164
60 93 127
72 103 148
65 98 151
66 100 153
68 98 130
64 96 140
72 102 139
72 101 138
70 101 145
61 95 141
67 99 139
65 96 133
67 100 136
64 95 116
57 91 125
58 92 138
60 92 122
60 94 128
58 92 133
63 97 141
60 94 139
59 93 137
60 94 130
59 93 129
58 92 132
60 95 141
59 94 134
60 95 142
59 93 133
60 95 145
60 96 142
59 94 133
59 93 131
60 94 137
61 96 139
60 95 141
59 93 124
60 95 137
60 94 141
59 94 133
60 95 139
61 96 139
60 95 136
59 93 134
59 94 133
59 94 137
59 93 134
60 95 145
61 96 143
60 95 141
60 94 129
61 96 136
60 94 139
60 95 136
59 94 134
59 94 133
60 94 134
58 93 129
61 95 137
59 93 125
61 96 140
58 93 129
60 95 141
60 94 118
60 95 140
58 93 124
60 94 131
60 94 136
61 96 140
59 94 133
60 95 142
60 95 135
58 93 136
59 94 133
60 94 133
59 94 133
61 96 137
58 92 120
59 93 126
59 94 133
59 94 129
61 95 142
59 94 129
60 95 135
59 93 121
58 92 131
60 95 130
58 93 130
59 92 129
60 95 131
59 93 121
60 95 137
59 93 122
59 93 122
60 95 133
59 93 122
59 93 122
58 91 111
58 91 120
59 94 129
57 91 107
59 93 121
59 93 131
58 92 115
59 93 127
59 93 125
58 92 125
57 90 114
58 92 121
57 90 108
57 90 111
57 90 114
56 89 114
57 91 113
74 102 97
83 104 70
96 115 60
105 120 54
123 137 31
114 128 0
120 135 0
117 130 0
118 133 0
109 124 0
115 128 0
117 133 0
133 147 0
126 141 0
130 143 0
124 137 0
124 139 0
124 138 0
117 132 0
126 140 0
116 130 0
129 146 0
128 141 0
122 138 0
121 133 0
137 151 0
124 138 0
131 146 0
121 134 0
119 132 0
131 143 0
135 150 0
119 133 0
129 144 0
129 143 0
137 151 0
131 143 0
121 133 0
131 146 0
126 139 0
134 147 0
138 153 0
135 148 0
135 149 0
126 140 0
138 149 0
140 151 0
133 146 0
132 142 0
134 148 0
128 140 0
147 158 0
137 152 0
131 142 0
139 155 0
129 143 0
137 147 0
146 156 0
142 153 0
133 147 0
137 149 0
136 148 0
138 151 0
137 151 0
142 154 0
138 150 0
144 155 0
140 153 0
135 147 0
139 149 0
144 155 0
147 158 0
146 160 0
144 157 0
142 155 0
143 154 0
150 165 0
142 154 0
142 157 0
145 156 0
144 155 0
151 164 0
145 158 0
148 163 0
151 165 0
157 172 0
147 157 0
144 153 0
143 156 0
146 158 0
148 160 0
150 165 0
150 163 0
154 167 0
145 158 0
154 164 0
149 160 0
145 156 0
148 163 0
152 165 0
158 176 0
152 167 0
154 168 0
147 163 0
151 166 0
151 165 0
155 169 0
157 174 0
147 159 0
154 171 0
157 172 0
155 170 0
152 166 0
155 169 0
155 171 0
155 170 0
157 172 0
156 170 0
160 176 0
161 178 0
162 178 0
158 175 0
160 174 0
153 164 0
157 173 0
155 171 0
159 176 0
157 173 0
159 174 0
158 175 0
161 179 0
160 178 0
163 182 0
161 178 0
162 179 0
157 173 0
158 173 0
162 180 0
159 177 0
160 179 0
163 181 0
164 181 0
164 184 0
161 177 0
163 182 0
165 181 0
162 180 0
165 184 0
162 181 0
165 185 0
165 185 0
166 184 0
164 183 0
164 184 0
165 184 0
163 182 0
167 186 0
162 182 0
168 191 44
175 198 67
171 195 72
174 198 84
170 194 80
171 194 57
172 196 84
168 191 62
171 194 62
168 193 76
172 197 95
172 195 67
171 195 76
169 192 51
169 193 76
168 191 88
168 192 62
170 194 72
170 194 76
170 195 72
171 195 99
168 193 67
169 194 72
170 193 57
168 192 76
168 192 80
168 191 62
169 193 88
167 190 76
166 190 72
169 194 80
167 191 72
166 191 92
170 194 95
166 190 72
168 191 51
172 196 84
171 195 80
162 187 76
165 190 80
167 191 76
167 191 80
171 195 80
166 190 62
166 190 76
164 187 67
161 185 67
163 188 72
162 185 67
169 193 92
162 187 76
165 189 76
166 190 62
166 190 72
166 191 92
162 187 80
166 190 76
164 189 95
158 181 62
162 185 67
165 189 57
161 184 51
156 180 84
159 183 67
157 180 36
161 184 62
161 184 76
160 184 57
159 182 80
159 182 62
162 185 62
158 181 72
166 189 70
161 184 72
160 183 67
156 179 72
163 186 76
155 178 95
152 175 62
157 180 72
158 181 76
157 180 82
153 176 95
149 173 108
123 148 99
111 136 111
94 121 131
84 112 113
103 129 136
84 113 130
93 120 133
97 123 145
90 117 121
76 106 127
81 110 136
94 120 128
96 122 144
87 115 145
103 129 145
91 118 144
88 114 130
91 118 143
95 121 149
85 112 133
95 122 154
88 115 136
94 122 145
94 121 150
93 119 134
91 119 142
93 120 146
98 124 152
80 109 152
89 117 143
84 112 140
97 123 143
85 114 154
83 111 151
87 114 150
93 120 150
86 112 144
80 110 154
71 102 155
64 98 158
88 116 156
74 104 148
70 102 150
73 104 156
68 101 154
62 97 155
66 99 148
63 97 148
69 101 149
61 94 134
61 95 138
69 101 147
63 97 141
65 99 145
71 101 135
64 97 135
62 94 120
67 98 133
62 95 120
57 92 130
57 90 122
59 93 136
61 95 127
59 94 131
64 98 142
60 94 133
62 96 131
59 93 130
61 96 139
61 95 140
61 95 140
58 92 133
61 95 134
59 94 133
59 94 131
59 93 130
58 93 130
59 93 126
59 94 137
59 93 134
60 95 139
60 95 135
61 95 136
59 93 133
60 95 131
59 93 139
60 94 136
61 96 136
62 96 149
61 96 139
60 95 135
59 93 133
61 96 145
59 93 130
60 95 134
59 93 128
59 93 134
59 93 133
61 95 138
60 95 142
60 95 142
60 94 133
61 97 152
59 93 127
60 95 131
60 95 131
60 94 134
59 94 131
62 98 151
60 94 127
59 94 131
60 95 135
60 95 142
59 93 124
58 93 125
60 94 136
59 94 130
61 96 140
60 95 136
59 93 125
60 95 141
59 94 135
61 96 136
59 93 127
59 94 134
59 93 118
60 95 141
57 91 124
60 94 122
59 93 125
60 95 140
59 93 127
59 93 124
59 94 125
58 92 124
60 94 131
60 95 135
58 92 124
58 92 125
58 92 120
58 91 121
59 94 134
57 91 121
59 94 124
59 93 120
59 93 125
59 93 120
59 93 125
57 90 110
59 92 122
58 92 113
57 90 108
59 93 126
58 91 117
57 90 110
57 90 115
57 89 123
61 91 113
76 101 95
90 108 60
100 116 67
105 119 40
120 136 0
126 141 0
119 132 0
111 125 0
118 131 0
116 129 0
122 138 0
115 130 0
114 128 0
122 136 0
116 129 0
124 139 0
126 141 0
126 140 0
126 139 0
125 139 0
132 147 0
119 132 0
123 136 0
127 140 0
129 142 0
127 142 0
139 151 0
128 142 0
136 154 0
126 141 0
132 144 0
123 135 0
128 141 0
134 149 0
128 143 0
136 150 0
124 135 0
139 153 0
120 135 0
129 143 0
126 139 0
135 151 0
129 141 0
140 155 0
137 152 0
135 151 0
135 148 0
134 149 0
140 154 0
133 147 0
143 156 0
132 146 0
140 155 0
143 158 0
131 142 0
136 150 0
139 152 0
140 153 0
143 157 0
138 151 0
139 152 0
147 159 0
137 151 0
133 146 0
140 155 0
140 153 0
146 159 0
142 156 0
137 150 0
147 159 0
138 151 0
143 155 0
143 156 0
139 152 0
143 155 0
142 156 0
150 166 0
150 163 0
146 161 0
147 159 0
147 161 0
150 163 0
147 161 0
149 161 0
145 160 0
145 158 0
155 169 0
144 156 0
145 157 0
150 162 0
156 172 0
151 167 0
141 153 0
150 165 0
145 159 0
154 169 0
146 158 0
143 155 0
157 173 0
147 162 0
148 161 0
156 169 0
155 171 0
151 166 0
156 171 0
154 169 0
151 166 0
152 164 0
157 172 0
156 171 0
156 171 0
155 170 0
153 167 0
161 176 0
158 172 0
150 166 0
159 176 0
152 167 0
156 170 0
158 175 0
159 175 0
154 170 0
158 174 0
162 178 0
153 169 0
157 173 0
163 182 0
159 177 0
156 172 0
162 180 0
156 172 0
162 178 0
165 183 0
159 178 0
164 182 0
164 181 0
163 178 0
158 175 0
162 179 0
161 178 0
162 181 0
163 181 0
163 182 0
165 183 0
159 176 0
166 185 0
163 180 0
162 181 0
164 184 0
160 179 0
159 177 0
165 184 0
162 180 0
162 181 0
165 184 0
166 185 0
162 182 0
168 187 0
173 196 62
165 189 80
170 193 44
171 195 72
169 193 67
170 194 76
169 194 57
168 191 51
168 192 72
172 195 76
170 193 57
168 193 62
172 196 57
170 194 57
164 187 67
169 193 67
170 195 88
167 192 84
167 191 57
172 196 72
167 191 88
169 194 76
166 191 72
170 194 62
170 195 76
169 192 88
169 193 80
170 193 62
169 194 92
167 192 67
169 192 67
170 193 72
168 192 76
170 195 76
168 192 80
170 195 80
168 193 76
164 188 62
168 193 84
167 192 72
167 191 57
169 194 76
165 188 57
170 193 51
170 195 92
166 190 57
166 189 72
165 189 62
164 188 67
162 186 76
166 191 76
163 188 67
165 189 62
166 190 67
163 186 67
165 190 95
161 185 84
163 186 44
162 186 67
161 185 76
161 185 80
161 184 76
162 185 76
161 185 72
159 183 51
154 178 84
158 182 84
164 188 51
158 182 76
158 181 62
163 187 95
163 187 95
159 182 72
158 180 51
161 184 80
160 183 76
159 183 67
158 181 92
156 179 67
154 177 76
151 174 72
155 178 78
156 179 76
156 178 86
139 161 88
120 144 105
94 120 101
91 118 132
93 118 117
88 115 134
100 126 135
100 127 149
89 117 144
88 116 143
100 126 147
96 122 140
91 118 129
83 111 125
89 116 139
91 117 134
77 105 132
92 119 130
96 121 142
95 122 144
86 114 145
101 127 141
88 116 139
93 120 134
113 136 146
97 123 141
99 125 149
95 121 142
92 120 145
94 120 154
100 127 139
96 122 140
88 116 145
80 109 145
102 127 161
75 105 148
86 114 147
85 113 156
72 102 151
77 108 152
88 116 164
79 109 156
75 106 152
68 101 147
69 101 135
74 102 149
71 101 137
68 101 154
74 104 144
63 97 149
67 100 156
62 95 139
69 102 140
61 95 134
71 100 125
64 97 126
65 96 137
59 93 129
61 96 134
56 90 118
64 97 134
62 96 139
62 95 125
60 94 125
67 100 133
59 93 133
59 94 130
57 91 122
60 95 139
59 94 137
59 94 129
60 94 134
59 93 131
59 94 134
59 93 135
60 94 127
60 95 142
58 92 131
59 93 127
59 94 143
59 94 134
60 95 141
58 93 127
59 94 134
59 93 120
61 96 139
59 93 126
59 93 133
59 93 130
59 94 126
59 94 135
59 94 130
59 93 133
59 94 134
60 94 136
61 96 144
59 94 141
59 93 130
59 94 135
59 93 126
60 95 131
60 95 135
59 94 133
60 95 140
61 96 141
59 94 130
60 95 135
60 95 130
60 95 136
59 94 127
60 95 137
59 93 127
59 93 134
60 94 136
59 94 127
58 92 126
60 94 125
58 92 124
60 94 139
60 95 135
59 93 125
59 94 134
60 95 124
59 94 127
58 92 125
60 95 134
58 92 122
59 93 127
59 94 125
59 94 131
59 93 127
59 92 126
58 93 125
59 93 126
59 93 125
58 92 111
58 92 129
58 91 117
60 94 130
59 93 114
61 95 134
59 93 127
56 89 110
59 93 124
58 91 121
58 92 115
56 90 118
57 90 117
59 93 127
58 91 115
58 91 118
56 88 110
59 92 115
57 90 114
56 90 103
58 92 125
58 89 108
72 98 97
90 110 84
98 117 67
107 123 47
118 133 25
123 137 0
128 143 0
113 128 0
112 126 0
116 130 0
126 140 0
126 141 0
118 132 0
116 129 0
118 132 0
122 137 0
114 127 0
129 144 0
127 140 0
117 131 0
128 141 0
130 144 0
128 143 0
132 148 0
125 139 0
132 146 0
127 141 0
124 137 0
122 137 0
138 152 0
131 145 0
127 143 0
124 139 0
135 149 0
126 139 0
135 150 0
121 135 0
127 143 0
135 150 0
127 141 0
140 151 0
134 148 0
131 144 0
134 148 0
135 148 0
138 152 0
136 149 0
136 151 0
127 138 0
142 156 0
126 140 0
144 157 0
134 149 0
141 155 0
128 141 0
136 148 0
135 148 0
144 159 0
125 136 0
141 154 0
135 147 0
137 151 0
148 161 0
136 147 0
146 161 0
141 154 0
132 146 0
142 155 0
143 156 0
145 157 0
136 149 0
144 156 0
149 164 0
151 166 0
135 146 0
141 155 0
153 168 0
146 156 0
143 154 0
146 161 0
150 165 0
149 161 0
146 158 0
140 148 0
145 158 0
150 164 0
152 166 0
147 164 0
152 164 0
144 159 0
148 164 0
145 157 0
148 162 0
153 166 0
148 161 0
150 164 0
154 172 0
143 156 0
150 163 0
157 170 0
156 171 0
155 170 0
146 159 0
152 168 0
157 172 0
149 160 0
150 165 0
148 163 0
154 172 0
152 170 0
149 163 0
147 162 0
153 170 0
152 166 0
155 171 0
153 169 0
151 166 0
156 171 0
154 171 0
158 173 0
154 171 0
158 173 0
152 168 0
151 166 0
155 170 0
157 172 0
158 175 0
160 178 0
160 176 0
164 182 0
158 175 0
163 180 0
156 170 0
157 174 0
163 182 0
162 178 0
161 177 0
160 178 0
160 179 0
161 178 0
164 180 0
164 182 0
159 177 0
164 183 0
164 181 0
160 176 0
161 181 0
156 174 0
162 181 0
163 183 0
160 177 0
160 175 0
164 182 0
165 186 0
161 179 0
165 184 0
161 181 0
161 179 0
168 188 0
171 195 72
169 194 80
170 194 57
170 194 67
168 192 67
168 192 57
167 191 62
168 192 72
171 195 72
169 193 72
170 193 67
169 193 76
173 197 88
169 191 62
171 195 51
167 192 80
170 194 76
168 192 76
169 192 44
169 193 80
169 193 76
167 191 84
169 193 57
169 194 80
165 190 76
169 193 72
170 195 67
168 193 88
171 194 51
166 189 57
171 195 62
165 189 84
171 194 72
166 191 57
165 189 72
168 191 67
169 193 57
167 192 84
168 192 44
163 187 80
166 191 95
169 194 92
162 185 51
166 190 72
162 186 67
164 189 67
165 189 76
165 189 57
168 193 76
169 192 57
167 190 51
161 185 88
165 188 67
164 188 72
165 189 84
164 188 62
168 193 95
162 186 80
162 184 67
165 190 88
163 187 84
163 187 92
166 190 80
162 185 51
159 183 84
158 181 67
164 188 92
162 185 62
160 183 80
161 184 95
154 177 57
157 181 67
158 182 67
159 181 51
155 178 57
155 178 62
147 171 72
155 178 57
155 178 67
154 176 72
156 180 76
161 184 72
158 181 72
149 171 60
153 175 88
135 158 99
113 137 103
94 119 126
96 123 136
97 124 138
92 119 119
102 128 136
92 119 127
86 114 132
88 115 134
100 126 137
92 118 132
88 115 138
93 119 138
87 115 133
107 132 145
97 123 141
92 120 146
100 125 137
85 113 143
107 133 153
100 125 136
105 131 153
84 112 137
98 124 140
101 127 143
94 119 143
95 121 135
103 128 149
92 118 146
95 120 137
91 118 151
102 127 146
78 108 152
92 119 148
84 111 150
72 104 149
73 104 139
76 107 145
83 110 146
77 108 152
72 103 152
73 103 144
73 104 149
72 104 152
66 99 146
67 98 141
74 104 150
69 100 139
63 97 147
64 97 137
66 98 137
73 105 141
68 100 137
66 98 138
68 100 141
66 98 142
61 95 132
61 95 139
59 93 136
62 96 136
58 93 131
59 94 138
59 94 131
58 92 124
60 94 137
59 93 127
59 93 130
58 91 124
62 96 131
59 93 129
59 94 133
58 92 126
58 92 135
59 93 129
59 93 136
58 92 127
59 93 134
60 95 140
58 92 131
58 92 126
59 94 141
59 93 121
60 95 136
58 92 129
60 95 139
59 93 118
59 93 122
60 95 141
60 95 139
61 96 134
59 94 130
60 95 136
61 96 141
59 94 126
58 92 127
60 95 141
60 95 137
59 94 139
59 93 125
60 95 137
60 94 125
58 91 115
60 95 137
59 93 126
59 93 121
59 94 134
60 95 129
60 94 129
61 95 134
59 93 127
61 96 130
58 93 125
60 95 127
58 92 131
60 94 135
58 92 117
59 93 129
60 94 127
59 93 129
57 90 115
59 93 129
57 91 117
58 92 127
61 95 131
60 94 135
59 93 120
59 94 131
60 94 134
59 92 126
60 94 136
59 93 129
60 95 135
59 92 124
59 93 134
57 91 117
59 93 125
60 94 135
58 93 121
60 95 124
58 92 120
57 91 103
59 92 120
59 93 130
58 92 118
59 93 129
56 89 103
58 92 118
57 90 108
59 93 127
58 91 122
58 92 115
58 91 115
57 90 115
57 88 99
73 98 80
104 123 76
112 127 40
108 122 32
114 128 0
114 130 0
133 150 0
121 136 0
122 136 0
126 141 0
119 133 0
106 119 0
121 133 0
128 142 0
124 140 0
121 134 0
124 139 0
122 138 0
125 138 0
133 148 0
120 135 0
109 123 0
126 140 0
119 133 0
121 136 0
130 144 0
127 142 0
131 147 0
124 140 0
125 138 0
137 153 0
130 145 0
125 138 0
133 146 0
135 152 0
125 142 0
124 138 0
136 151 0
128 145 0
126 140 0
132 148 0
136 151 0
128 141 0
134 146 0
139 153 0
143 158 0
133 150 0
136 150 0
143 155 0
136 149 0
148 161 0
131 145 0
131 144 0
135 147 0
131 144 0
141 155 0
142 158 0
145 160 0
133 148 0
134 146 0
150 164 0
142 157 0
134 146 0
140 151 0
139 153 0
135 149 0
142 157 0
144 159 0
135 150 0
150 164 0
152 167 0
140 154 0
144 158 0
138 152 0
148 162 0
146 159 0
147 162 0
146 160 0
144 157 0
148 161 0
146 160 0
145 158 0
149 163 0
143 156 0
147 162 0
143 157 0
147 160 0
143 156 0
152 166 0
147 162 0
156 171 0
157 171 0
150 160 0
150 166 0
157 173 0
144 157 0
150 166 0
151 168 0
146 162 0
150 164 0
156 172 0
152 166 0
155 170 0
154 170 0
151 166 0
150 165 0
157 174 0
150 165 0
152 167 0
156 172 0
154 169 0
158 173 0
159 174 0
157 171 0
158 175 0
160 175 0
162 179 0
158 173 0
159 175 0
161 178 0
151 166 0
153 169 0
161 177 0
163 179 0
158 175 0
158 174 0
161 178 0
157 174 0
162 178 0
163 179 0
159 175 0
156 173 0
161 180 0
159 176 0
151 168 0
162 179 0
162 180 0
165 183 0
166 186 0
163 183 0
162 180 0
165 184 0
159 177 0
163 183 0
161 179 0
158 177 0
162 180 0
165 186 0
163 181 0
164 184 0
166 185 0
169 190 0
158 177 0
167 186 0
164 182 0
165 185 0
162 182 0
166 187 0
164 185 0
164 183 0
174 198 88
173 198 76
168 192 62
174 198 88
172 196 92
166 189 67
170 194 67
171 196 95
173 196 67
175 198 84
166 189 57
171 195 72
164 188 44
172 195 57
170 194 67
168 193 76
169 194 76
167 191 67
170 194 88
168 193 62
169 193 80
172 196 67
168 193 84
170 195 88
172 197 84
168 192 67
166 189 62
170 194 84
165 190 84
166 190 72
171 195 62
166 191 95
164 189 102
171 195 80
168 192 88
167 190 44
165 190 99
165 190 76
164 188 57
167 190 57
171 195 76
167 192 99
169 193 84
162 186 88
170 194 76
164 188 84
162 187 72
165 190 80
170 194 76
164 188 62
162 186 51
163 186 36
162 185 88
165 188 62
162 186 62
164 188 51
156 179 51
163 187 76
166 190 92
167 192 95
164 187 84
163 187 84
160 184 57
163 187 72
160 183 57
167 190 80
161 185 72
159 183 72
163 186 62
159 182 57
161 183 67
162 186 72
166 189 76
153 176 67
159 182 84
158 182 62
151 174 57
161 184 95
155 178 84
158 182 84
153 178 67
147 170 72
148 170 62
154 176 62
147 170 92
146 169 72
134 158 102
115 140 121
82 110 118
77 105 121
102 127 139
90 117 130
90 117 141
90 117 132
95 120 128
91 117 139
98 124 134
94 121 131
94 120 141
92 117 137
79 108 124
96 122 151
90 117 134
86 113 133
79 108 127
90 116 130
84 112 138
89 116 142
89 115 126
98 124 135
90 117 127
92 119 134
90 117 129
96 123 146
98 123 145
94 120 138
87 114 136
78 107 141
95 120 135
84 113 147
77 107 146
90 118 149
72 103 137
81 110 146
74 104 139
68 101 150
82 110 154
70 101 138
69 100 141
69 101 150
69 101 155
78 105 143
73 102 141
69 100 145
69 101 139
64 98 150
67 99 134
67 100 131
64 97 135
58 92 129
67 98 137
63 97 127
60 94 130
63 96 133
65 97 128
63 96 127
61 95 133
55 88 113
61 94 125
62 95 134
57 91 125
58 92 127
59 93 133
62 95 127
59 94 129
58 92 122
60 94 136
59 94 134
58 92 121
58 92 129
59 94 131
58 92 120
59 93 129
58 92 123
59 93 133
59 93 124
57 91 120
58 92 118
58 91 118
60 94 127
60 94 125
61 96 143
59 93 127
57 91 120
60 94 136
58 92 131
59 93 118
58 92 113
60 95 134
59 94 133
59 94 130
59 94 137
59 93 137
59 93 125
60 93 133
60 94 131
59 94 130
60 95 133
59 94 122
59 94 122
61 96 133
59 94 121
60 95 137
58 92 125
61 96 135
58 91 113
60 95 130
60 95 140
60 94 134
60 94 125
59 93 124
59 93 121
59 94 131
61 95 135
60 94 130
58 91 121
59 93 125
60 94 133
59 93 124
60 95 130
60 94 133
58 92 122
60 95 131
59 94 121
61 95 131
59 93 126
58 91 124
60 93 126
59 94 121
58 92 125
59 94 131
59 93 129
59 94 124
58 92 120
57 91 111
58 92 114
58 92 121
59 93 124
59 93 124
59 93 120
56 89 110
58 91 120
57 90 117
58 92 120
57 90 95
57 90 120
57 91 114
57 90 117
60 92 107
80 104 90
75 98 82
92 110 47
118 132 40
113 128 25
109 122 0
113 128 0
121 137 0
121 135 0
122 135 0
129 147 0
116 130 0
133 149 0
118 132 0
127 143 0
112 126 0
122 137 0
126 138 0
125 140 0
122 136 0
125 139 0
128 142 0
126 141 0
128 144 0
125 138 0
115 131 0
118 132 0
130 146 0
131 143 0
139 153 0
133 148 0
120 135 0
131 146 0
140 155 0
133 148 0
138 153 0
127 141 0
124 138 0
128 144 0
141 156 0
120 133 0
134 148 0
130 144 0
131 146 0
135 149 0
145 159 0
141 157 0
142 157 0
142 156 0
141 155 0
137 150 0
131 146 0
143 156 0
130 146 0
133 146 0
136 151 0
140 156 0
133 145 0
147 162 0
142 157 0
141 156 0
137 150 0
134 149 0
141 157 0
141 155 0
145 158 0
144 159 0
139 153 0
143 157 0
145 160 0
150 167 0
146 162 0
142 155 0
146 160 0
138 149 0
151 164 0
142 156 0
147 161 0
143 158 0
154 170 0
138 152 0
134 146 0
148 161 0
134 149 0
150 165 0
145 156 0
144 160 0
147 162 0
153 168 0
153 167 0
150 164 0
156 170 0
153 168 0
150 166 0
146 162 0
149 164 0
147 161 0
149 164 0
161 176 0
149 165 0
152 166 0
149 164 0
151 164 0
155 171 0
152 167 0
151 165 0
154 171 0
155 170 0
155 169 0
157 173 0
156 170 0
157 173 0
156 171 0
152 168 0
156 174 0
164 180 0
158 175 0
158 173 0
158 175 0
162 180 0
157 175 0
158 176 0
155 173 0
158 174 0
158 174 0
161 176 0
152 169 0
157 174 0
154 169 0
159 176 0
158 175 0
155 170 0
160 176 0
165 182 0
164 181 0
159 174 0
169 188 0
162 179 0
157 175 0
162 180 0
160 179 0
158 175 0
165 185 0
164 180 0
158 177 0
162 179 0
166 183 0
161 180 0
162 180 0
165 183 0
165 185 0
164 186 0
166 185 0
162 180 0
166 186 0
164 182 0
167 186 0
164 182 0
167 186 0
167 186 0
166 185 0
174 198 67
167 191 80
174 199 95
169 194 76
172 197 80
172 197 92
171 195 62
173 196 67
171 196 51
173 197 80
171 196 88
169 193 84
169 193 36
168 192 72
173 196 62
168 192 57
166 189 62
171 195 102
170 194 72
169 194 76
168 192 72
168 192 62
168 192 67
166 191 67
166 191 76
168 193 88
167 191 84
167 191 62
166 190 76
163 189 99
169 192 57
163 186 67
167 191 72
164 188 44
166 190 84
168 191 51
163 186 72
169 194 80
164 187 44
171 195 95
157 181 62
166 190 72
163 188 88
168 191 62
163 187 76
168 190 67
172 195 80
160 183 76
167 190 72
162 186 72
161 184 67
167 191 76
165 190 76
167 191 95
165 189 72
163 187 84
160 184 51
161 184 88
161 185 76
164 188 72
160 184 62
158 182 54
159 184 76
157 181 72
165 189 92
163 186 62
159 183 62
159 182 57
164 188 84
157 180 36
155 177 80
162 185 80
155 178 72
151 174 57
159 183 102
154 176 88
156 178 84
148 172 72
152 174 44
154 176 80
160 183 62
155 177 67
155 178 72
159 181 72
156 178 72
146 169 80
145 168 92
124 147 97
102 126 100
87 115 127
97 124 138
79 107 139
93 120 130
89 116 131
104 129 143
79 108 134
97 123 140
91 117 134
94 122 147
85 113 131
87 113 135
93 120 133
84 113 139
81 110 131
95 122 135
96 123 135
94 120 135
97 123 147
105 131 139
95 121 118
89 116 138
82 111 136
94 121 157
85 114 145
95 121 141
88 116 147
91 117 137
97 123 152
98 125 134
82 111 158
75 105 144
80 109 136
85 113 153
67 100 147
79 108 149
73 105 154
74 105 146
77 107 154
76 105 145
79 106 147
85 113 150
80 109 160
76 106 147
82 107 143
67 99 142
74 103 137
67 99 142
69 100 129
62 95 128
63 97 145
71 101 140
58 92 130
69 101 133
64 96 135
64 97 120
62 94 112
60 93 125
61 95 141
61 95 124
59 94 137
61 95 133
61 96 143
62 96 125
59 93 124
59 93 122
59 93 136
60 94 133
58 92 122
60 94 135
59 93 132
59 93 132
59 94 134
58 92 123
58 92 123
60 94 137
59 93 134
59 94 130
58 92 121
58 92 120
59 94 137
59 93 124
60 94 125
60 94 125
60 95 129
60 94 135
60 95 129
58 93 120
60 95 135
60 94 131
58 92 130
60 95 137
59 93 130
59 93 122
59 94 131
61 95 134
60 95 142
59 94 125
59 93 127
60 95 139
58 92 125
58 92 122
59 93 122
59 94 125
58 93 122
60 94 133
61 95 131
61 95 135
59 94 121
58 92 117
59 94 133
60 95 135
59 93 121
58 91 115
59 93 115
60 95 135
59 94 134
59 93 121
59 93 131
59 93 118
59 93 122
58 93 124
58 93 133
58 92 113
60 94 131
58 92 122
58 92 122
58 92 120
58 92 124
57 91 118
60 94 131
59 94 125
59 93 134
59 93 135
60 94 124
58 92 114
56 89 105
57 91 121
56 89 107
58 92 121
57 90 99
58 91 115
58 91 120
58 92 121
56 89 110
58 91 114
58 91 120
55 86 97
59 90 97
66 93 88
81 105 88
98 116 57
103 120 40
116 132 0
110 123 0
118 131 0
123 137 0
114 129 0
117 129 0
116 130 0
117 131 0
121 135 0
116 130 0
130 145 0
121 137 0
129 146 0
121 135 0
133 150 0
120 135 0
123 138 0
131 146 0
129 141 0
117 132 0
126 140 0
132 149 0
128 144 0
134 147 0
122 135 0
123 138 0
134 151 0
123 138 0
134 150 0
134 150 0
127 142 0
128 143 0
131 147 0
133 147 0
133 146 0
130 145 0
138 154 0
134 149 0
129 143 0
124 139 0
131 145 0
127 140 0
130 147 0
140 153 0
138 154 0
126 138 0
128 144 0
141 157 0
134 146 0
134 147 0
134 148 0
140 154 0
140 154 0
126 140 0
135 148 0
147 164 0
145 159 0
132 146 0
145 159 0
146 161 0
135 148 0
138 152 0
135 148 0
152 166 0
143 158 0
148 165 0
143 157 0
141 156 0
135 149 0
140 156 0
140 154 0
153 168 0
146 160 0
144 159 0
143 156 0
142 155 0
143 158 0
141 156 0
149 162 0
151 165 0
141 153 0
148 161 0
148 162 0
146 161 0
151 165 0
149 163 0
149 165 0
147 161 0
147 160 0
151 168 0
145 161 0
151 167 0
143 158 0
157 173 0
152 167 0
154 169 0
152 168 0
157 174 0
156 172 0
157 171 0
154 167 0
154 170 0
152 168 0
158 173 0
154 169 0
151 167 0
154 171 0
156 173 0
147 161 0
157 175 0
154 171 0
155 170 0
151 167 0
161 179 0
153 169 0
162 177 0
156 174 0
161 177 0
161 176 0
153 169 0
152 169 0
160 177 0
159 177 0
159 173 0
157 172 0
159 176 0
159 177 0
162 179 0
158 176 0
165 182 0
160 176 0
163 179 0
167 187 0
158 176 0
161 180 0
160 177 0
163 182 0
165 183 0
157 174 0
165 182 0
161 180 0
162 182 0
163 182 0
164 181 0
167 187 0
167 186 0
159 178 0
162 179 0
161 180 0
163 182 0
170 188 0
168 189 0
160 180 0
157 177 0
166 185 0
163 184 0
165 185 0
162 181 0
173 197 80
173 197 62
170 194 72
169 193 76
172 196 76
177 200 76
173 197 80
173 197 92
170 194 72
168 192 44
171 196 99
166 190 62
171 195 76
170 194 67
169 193 80
168 192 84
172 196 88
170 194 72
170 193 67
165 190 84
169 193 51
168 192 62
170 194 80
172 195 67
167 191 72
169 194 76
167 191 84
170 195 76
168 192 80
169 192 67
168 192 62
166 190 62
169 194 92
170 194 67
164 187 62
164 188 62
172 196 67
164 188 67
165 189 57
165 189 57
167 191 76
164 188 72
163 187 84
165 188 44
160 185 67
170 194 67
167 191 92
159 183 76
160 185 76
167 191 80
167 190 72
168 192 76
169 193 80
163 187 76
168 192 72
162 186 51
159 183 62
168 192 80
166 191 67
159 182 67
159 183 67
167 191 88
162 186 51
162 186 88
154 178 51
162 186 76
162 186 84
162 186 76
165 188 67
154 178 72
155 179 62
159 183 88
151 174 72
160 183 80
162 185 51
155 179 80
151 174 72
153 175 84
156 180 76
157 180 57
149 171 62
154 178 76
146 168 51
152 174 62
166 189 72
142 164 62
152 174 86
138 160 80
105 130 114
106 132 133
87 114 124
91 118 133
97 123 136
83 111 133
104 129 154
86 114 116
99 125 132
91 118 131
99 125 134
98 123 137
88 114 132
91 117 134
103 129 144
90 116 121
91 118 149
87 114 127
98 123 137
98 124 139
91 118 132
103 129 143
95 121 139
86 114 140
88 116 133
107 132 137
81 109 133
109 133 150
100 126 145
101 127 154
88 115 135
87 114 130
83 111 139
86 113 139
92 117 150
88 115 144
74 105 146
86 114 155
90 117 151
67 100 141
83 110 145
86 112 153
69 100 143
69 100 142
66 99 149
69 98 126
60 94 131
60 94 142
69 100 129
67 100 149
75 104 132
67 99 137
69 101 129
61 94 125
62 95 132
59 93 139
60 94 127
59 93 129
60 93 125
59 93 127
61 95 129
58 92 129
59 92 118
59 93 142
59 92 127
61 95 132
59 93 123
57 91 122
59 94 136
59 93 131
59 93 125
58 92 121
60 94 135
58 92 130
58 92 120
58 91 118
59 94 127
58 93 121
59 93 122
58 92 126
57 91 117
60 95 134
57 91 122
59 94 134
58 92 114
59 94 126
60 95 137
59 92 118
58 92 122
57 91 122
60 95 130
60 94 133
59 93 120
59 93 129
60 94 135
59 93 124
59 93 129
59 93 130
59 94 122
60 95 133
60 94 131
59 93 120
59 93 114
59 93 122
59 92 135
57 91 121
59 94 129
59 93 125
60 94 131
60 95 134
60 95 136
59 93 129
59 93 126
59 93 120
59 94 131
58 92 125
60 94 126
60 95 136
58 91 117
60 94 130
59 93 136
58 92 118
59 94 125
60 94 125
60 95 129
57 91 122
58 92 117
57 90 111
57 91 124
58 92 122
56 90 120
58 92 117
58 92 118
58 92 113
57 90 113
57 90 113
58 92 113
58 92 118
57 90 117
59 93 125
58 92 122
58 91 121
58 91 120
56 89 107
58 91 118
56 89 107
55 88 102
58 91 113
56 88 94
72 98 80
73 97 92
98 116 57
104 118 44
120 131 25
119 134 0
113 124 0
104 117 0
129 144 0
116 132 0
123 140 0
116 131 0
114 128 0
120 136 0
112 126 0
116 133 0
121 136 0
123 138 0
127 141 0
124 140 0
120 136 0
121 133 0
109 124 0
131 148 0
120 135 0
136 153 0
132 148 0
131 147 0
122 137 0
133 149 0
129 144 0
131 146 0
127 140 0
123 140 0
137 152 0
145 160 0
131 147 0
125 141 0
124 136 0
124 139 0
128 141 0
139 156 0
133 146 0
141 157 0
130 144 0
133 148 0
130 144 0
135 148 0
142 158 0
130 145 0
140 157 0
134 147 0
144 159 0
129 145 0
138 153 0
135 150 0
138 153 0
130 143 0
146 162 0
144 158 0
139 154 0
136 148 0
144 159 0
139 155 0
140 156 0
139 154 0
138 151 0
140 155 0
140 155 0
144 159 0
148 164 0
145 161 0
143 158 0
142 159 0
135 148 0
140 153 0
145 161 0
137 152 0
141 152 0
149 163 0
145 161 0
138 152 0
149 162 0
151 169 0
142 158 0
147 161 0
152 167 0
148 159 0
145 159 0
148 165 0
150 164 0
141 155 0
151 167 0
142 156 0
155 171 0
149 165 0
150 167 0
150 167 0
146 162 0
139 153 0
160 177 0
145 161 0
154 168 0
156 172 0
150 165 0
155 171 0
153 169 0
157 171 0
161 177 0
150 164 0
152 166 0
151 168 0
155 172 0
159 178 0
152 168 0
154 169 0
159 173 0
154 169 0
158 174 0
158 176 0
153 166 0
157 173 0
150 167 0
159 176 0
150 163 0
158 175 0
163 179 0
158 175 0
159 177 0
159 176 0
155 171 0
158 178 0
164 182 0
165 184 0
159 176 0
154 172 0
164 184 0
160 175 0
159 178 0
162 180 0
158 174 0
160 178 0
163 182 0
164 182 0
161 179 0
163 182 0
165 183 0
163 183 0
161 178 0
163 182 0
163 182 0
156 172 0
168 188 0
164 182 0
161 180 0
165 183 0
160 181 0
163 183 0
167 188 0
165 185 0
169 189 0
165 184 0
169 189 0
171 195 80
172 196 51
171 195 76
172 197 57
174 198 67
170 194 88
168 190 80
167 192 72
170 195 76
168 191 57
171 194 72
175 199 84
169 193 67
168 192 67
168 192 67
162 185 88
171 196 76
174 198 72
167 192 72
169 193 72
169 193 57
170 194 84
168 193 67
168 192 76
171 196 67
172 196 67
169 193 57
167 192 84
169 193 76
163 188 51
168 192 72
172 196 76
162 186 72
164 188 57
167 191 72
161 185 62
164 188 67
168 192 76
171 196 84
164 188 76
165 189 84
166 191 62
161 184 72
165 190 72
170 194 62
164 188 88
165 189 62
168 191 62
165 189 72
162 186 76
170 194 84
163 188 88
167 191 80
165 189 62
165 189 76
168 192 62
164 189 67
161 185 44
164 187 67
160 183 76
161 185 80
164 188 88
165 189 95
162 184 62
156 179 76
160 183 84
165 190 92
161 184 36
157 180 67
165 189 84
155 178 76
157 181 57
160 183 80
148 171 62
153 176 62
151 175 44
157 180 72
157 180 67
157 180 80
153 175 84
152 175 67
154 176 76
149 171 44
155 178 72
150 172 72
146 169 67
154 176 67
145 167 62
125 147 99
112 136 93
86 113 111
99 125 126
82 111 133
95 121 141
95 120 140
88 115 124
102 128 140
89 116 123
101 127 141
92 118 133
99 125 126
100 126 143
85 112 127
99 124 148
93 120 140
104 129 133
98 123 139
99 124 133
90 117 129
99 124 135
106 131 150
102 127 148
100 126 135
95 120 133
84 112 134
96 121 144
84 112 143
100 125 132
95 122 136
88 115 138
87 114 140
88 116 145
90 117 148
88 113 143
85 114 151
84 112 145
83 111 149
89 114 153
80 109 151
86 111 133
73 103 142
70 100 143
68 97 134
84 111 153
73 103 145
69 100 142
66 97 130
76 104 133
69 99 120
67 99 128
67 97 129
67 97 117
61 95 131
63 96 129
62 95 126
68 99 124
60 93 122
59 92 118
59 93 124
57 90 126
58 92 127
62 95 134
63 95 118
57 90 113
60 93 124
59 93 129
59 94 124
59 94 125
57 91 126
58 93 122
59 93 125
58 92 120
58 93 139
60 95 133
58 92 127
58 92 120
59 93 133
58 91 122
59 94 134
59 94 140
59 93 128
58 91 125
58 91 118
58 93 126
59 93 122
57 91 117
58 92 127
58 92 127
60 94 130
59 94 125
58 92 123
60 94 126
58 91 122
60 94 133
60 95 134
60 94 127
59 94 120
59 94 129
59 94 135
58 93 127
59 94 126
56 90 113
59 94 131
59 93 124
59 93 127
60 94 127
59 94 120
59 93 126
59 94 121
59 93 133
58 92 125
59 93 121
59 93 125
60 94 136
60 94 131
58 93 126
59 93 120
57 91 113
59 93 129
59 93 115
59 93 118
60 94 130
59 93 125
61 95 134
59 92 115
59 93 115
57 90 115
58 91 115
58 92 121
59 92 126
59 93 127
60 94 135
59 93 122
58 92 118
58 91 118
60 94 124
57 91 107
57 91 107
59 92 114
59 93 121
57 90 108
57 91 107
57 89 107
57 90 111
56 89 108
55 88 105
66 92 86
90 112 94
101 120 65
104 120 40
105 120 25
124 140 0
112 125 0
132 146 0
109 124 0
125 139 0
115 129 0
114 129 0
118 132 0
119 133 0
120 135 0
126 141 0
116 129 0
130 145 0
122 137 0
130 146 0
121 138 0
126 141 0
125 141 0
132 147 0
139 155 0
132 147 0
131 146 0
126 142 0
120 133 0
129 144 0
126 139 0
130 143 0
135 150 0
134 151 0
129 144 0
129 143 0
139 153 0
132 146 0
136 151 0
120 135 0
127 143 0
139 156 0
133 145 0
139 154 0
137 153 0
133 150 0
138 152 0
127 140 0
132 148 0
134 149 0
141 157 0
136 150 0
144 158 0
135 149 0
133 149 0
138 154 0
142 159 0
142 161 0
135 149 0
141 155 0
132 146 0
143 157 0
130 142 0
143 157 0
136 152 0
148 163 0
138 154 0
146 162 0
143 160 0
137 151 0
133 148 0
141 154 0
141 155 0
149 165 0
147 164 0
137 152 0
141 157 0
147 162 0
141 155 0
151 167 0
153 167 0
149 165 0
144 158 0
156 171 0
146 158 0
149 164 0
150 165 0
147 164 0
153 168 0
146 160 0
147 162 0
154 168 0
143 158 0
153 171 0
153 169 0
160 176 0
155 168 0
145 158 0
146 159 0
145 159 0
149 164 0
148 164 0
158 175 0
156 171 0
149 162 0
157 172 0
152 169 0
157 175 0
148 162 0
154 171 0
155 169 0
159 176 0
154 171 0
158 175 0
155 170 0
156 172 0
160 176 0
155 171 0
156 174 0
152 168 0
158 175 0
155 172 0
159 177 0
155 172 0
158 172 0
159 176 0
159 175 0
153 169 0
164 181 0
157 173 0
158 177 0
162 183 0
152 170 0
159 176 0
160 176 0
158 176 0
165 183 0
162 179 0
156 172 0
163 181 0
163 180 0
164 182 0
164 183 0
163 181 0
160 180 0
161 178 0
161 180 0
164 183 0
162 180 0
163 182 0
164 184 0
164 184 0
162 181 0
165 182 0
168 188 0
163 182 0
160 178 0
164 183 0
162 183 0
167 186 0
167 186 0
165 184 0
164 183 0
166 184 0
173 197 72
172 196 95
171 194 95
167 191 76
173 196 84
171 196 84
164 188 76
166 191 72
173 196 80
173 197 84
171 195 72
170 194 44
173 196 88
169 193 67
168 192 51
171 196 84
168 192 62
171 194 62
171 195 95
170 195 67
169 194 102
170 195 57
168 194 84
170 194 84
171 196 88
171 195 76
165 189 72
167 193 92
170 195 72
167 190 57
170 195 99
166 191 72
168 192 62
167 191 88
170 194 84
170 193 67
169 193 84
163 187 80
168 193 88
166 190 62
161 185 51
164 187 67
167 191 76
158 182 67
160 183 57
165 188 84
167 191 67
164 188 57
161 186 80
166 189 57
159 182 62
163 186 76
170 193 72
160 183 62
166 188 80
167 190 57
164 187 67
157 181 84
162 186 72
163 187 102
163 187 57
163 187 76
159 183 84
161 185 76
163 186 62
163 186 62
154 178 76
159 182 76
153 176 72
150 174 44
148 171 51
157 180 84
157 181 76
158 181 72
154 177 62
154 177 80
157 180 76
151 173 67
148 170 76
158 181 88
151 173 51
153 175 76
140 163 84
161 184 84
153 175 62
146 168 80
164 187 99
152 174 107
148 170 88
124 147 92
105 129 103
76 105 108
87 114 127
93 120 129
96 122 117
91 118 122
86 112 114
93 119 134
84 110 102
96 122 140
93 119 142
95 121 150
88 114 121
92 119 138
98 123 124
96 121 136
80 107 131
93 119 131
86 112 136
101 126 137
89 115 131
103 127 132
90 117 120
97 123 137
92 119 121
93 120 135
91 118 145
89 116 125
89 116 142
90 117 142
89 117 146
94 120 151
90 118 148
83 111 144
91 118 153
82 111 156
73 104 150
74 104 147
81 110 150
75 104 140
66 98 145
65 98 144
81 109 146
80 108 145
75 101 126
75 105 143
70 99 123
74 103 135
79 108 132
68 98 124
74 103 128
65 98 140
62 95 135
72 101 117
60 94 126
63 95 117
62 95 123
59 93 127
63 96 126
61 93 118
61 95 132
59 92 122
58 91 115
60 95 135
61 94 126
58 92 120
58 92 118
58 91 114
58 92 127
60 94 137
60 95 135
58 93 122
57 91 117
56 90 107
59 93 127
59 93 122
57 91 117
57 91 118
60 94 130
61 95 127
59 92 129
59 93 125
59 93 131
60 95 129
57 91 117
59 93 126
59 94 127
60 95 136
58 92 126
59 93 127
59 93 126
60 94 131
59 93 131
59 93 122
60 95 137
57 91 113
59 93 113
59 92 126
57 91 115
58 91 122
59 93 125
60 94 126
60 94 129
58 92 127
60 95 136
59 94 126
59 93 121
57 91 121
59 93 118
57 91 110
59 93 130
59 93 129
60 94 122
59 93 121
59 93 135
58 92 122
60 95 137
57 91 121
58 91 121
58 92 131
58 92 118
58 91 115
58 92 120
60 94 129
59 93 124
57 90 114
59 92 130
58 92 117
59 93 125
58 91 126
56 88 121
55 88 99
57 90 117
58 92 111
59 93 124
59 93 125
57 90 103
58 91 113
57 90 103
58 92 124
54 86 92
58 91 114
57 89 115
57 90 108
56 87 97
73 97 92
84 105 80
89 109 67
107 124 41
113 130 25
119 133 0
125 141 0
117 131 0
110 124 0
105 117 0
123 138 0
119 134 0
125 140 0
120 135 0
120 136 0
123 137 0
120 134 0
117 132 0
120 136 0
122 137 0
120 133 0
124 139 0
132 147 0
122 136 0
138 154 0
125 141 0
131 144 0
125 139 0
131 146 0
128 142 0
120 136 0
127 145 0
128 144 0
134 149 0
137 151 0
127 143 0
133 148 0
139 155 0
133 149 0
122 138 0
139 156 0
118 133 0
132 148 0
141 158 0
127 142 0
132 146 0
144 160 0
130 145 0
138 155 0
136 151 0
145 162 0
143 158 0
129 145 0
137 153 0
136 149 0
138 153 0
142 158 0
141 155 0
139 154 0
139 154 0
141 157 0
129 143 0
140 156 0
139 154 0
139 155 0
144 160 0
142 159 0
140 154 0
147 161 0
137 152 0
147 162 0
145 160 0
152 168 0
142 155 0
144 159 0
146 162 0
151 166 0
145 160 0
141 157 0
140 155 0
155 172 0
148 165 0
152 169 0
144 160 0
147 165 0
145 163 0
139 152 0
150 165 0
149 163 0
157 172 0
151 168 0
148 161 0
152 167 0
154 171 0
151 169 0
150 167 0
156 173 0
154 169 0
154 172 0
147 163 0
149 163 0
147 162 0
154 172 0
149 168 0
158 174 0
158 174 0
158 175 0
155 169 0
153 168 0
157 175 0
150 165 0
151 165 0
158 176 0
152 167 0
156 175 0
159 176 0
154 171 0
158 176 0
157 173 0
156 174 0
155 173 0
157 171 0
157 174 0
158 175 0
157 172 0
158 178 0
161 176 0
164 180 0
159 177 0
157 174 0
159 178 0
158 176 0
160 179 0
156 174 0
160 179 0
161 179 0
156 174 0
158 174 0
163 181 0
160 177 0
162 180 0
156 173 0
161 178 0
164 184 0
163 180 0
164 181 0
165 184 0
162 181 0
165 184 0
152 171 0
161 180 0
163 182 0
167 185 0
165 184 0
160 177 0
160 177 0
160 178 0
161 181 0
164 183 0
166 186 0
162 183 0
161 180 0
169 190 0
166 187 0
162 183 0
172 196 88
171 195 67
168 192 67
173 197 80
168 192 57
170 193 51
170 193 57
172 195 57
171 195 57
171 195 72
171 195 72
171 195 72
169 193 67
169 194 80
169 193 67
166 190 80
169 194 57
169 192 62
167 191 62
172 195 62
166 190 67
166 190 57
172 196 80
167 191 62
170 194 62
167 191 72
170 194 62
168 192 67
168 192 62
165 189 76
167 192 84
169 194 102
167 192 76
167 192 76
170 194 62
165 189 76
171 195 72
165 189 92
165 189 62
161 185 67
171 195 92
165 189 62
165 189 80
164 189 84
165 189 57
167 191 72
169 194 67
164 188 67
164 188 62
165 189 88
169 192 62
160 184 80
167 191 105
163 188 72
158 182 67
162 186 72
162 186 67
164 188 80
164 188 84
161 185 72
162 185 76
167 191 67
160 182 72
158 181 80
153 178 80
164 186 67
163 187 92
160 182 57
165 188 57
153 176 67
154 178 57
161 185 80
154 177 72
163 187 72
157 181 80
158 182 76
158 182 88
155 176 62
150 172 76
151 174 84
160 183 72
157 180 44
159 182 44
155 177 102
157 178 76
143 163 76
148 170 67
150 171 76
142 164 67
137 159 92
128 151 102
108 132 122
93 119 126
101 126 124
90 116 120
98 125 139
93 118 123
85 112 128
79 108 130
84 112 124
98 124 125
94 120 131
90 116 131
91 118 124
91 117 141
91 118 141
89 115 129
93 120 139
96 122 122
97 123 153
87 114 114
97 123 137
99 124 125
103 129 142
101 126 143
94 120 140
105 131 151
100 125 140
84 112 140
96 122 142
94 120 143
88 115 134
88 115 146
85 113 137
94 120 135
76 106 137
91 116 149
81 110 135
70 100 139
83 110 142
70 99 137
77 103 126
79 108 148
83 107 138
71 101 136
65 97 135
73 104 148
68 98 126
70 101 134
64 96 130
75 102 124
63 94 120
64 96 124
61 94 127
61 95 126
62 94 121
64 95 115
62 96 133
58 91 115
60 94 126
60 94 126
61 94 124
60 93 126
57 90 107
57 90 118
59 93 122
58 91 121
59 93 120
57 91 117
58 92 127
59 93 130
57 90 124
58 91 115
59 93 120
57 90 124
58 93 129
60 95 130
59 94 122
57 90 119
59 93 126
58 93 126
59 93 125
57 91 122
60 94 130
57 91 120
59 94 125
59 93 123
58 92 129
59 93 122
60 94 136
59 93 124
59 93 118
59 93 121
58 92 129
59 93 126
59 94 127
59 93 124
59 92 129
57 91 122
58 92 129
57 90 114
59 93 131
59 94 129
59 93 124
59 93 126
58 92 125
59 93 121
57 91 117
59 93 122
58 92 120
57 91 115
59 93 130
60 94 137
58 92 117
59 94 117
59 93 131
60 94 127
59 93 127
60 94 126
58 92 117
57 90 108
59 94 130
59 93 129
59 93 125
60 94 133
58 92 120
58 92 120
59 92 124
58 91 117
59 92 124
59 92 121
60 94 129
59 93 129
58 91 111
58 91 108
57 89 113
56 89 111
56 89 115
57 90 102
56 88 110
57 90 114
55 87 113
59 92 114
57 88 99
70 97 97
90 110 70
99 117 62
101 118 36
110 125 31
105 119 0
114 128 0
111 126 0
120 135 0
103 120 0
117 133 0
117 132 0
121 135 0
126 142 0
119 134 0
106 120 0
131 146 0
126 140 0
126 142 0
121 136 0
131 147 0
128 144 0
134 151 0
127 143 0
127 144 0
123 140 0
132 149 0
132 149 0
120 134 0
127 141 0
132 148 0
127 142 0
125 139 0
131 147 0
134 151 0
135 152 0
130 146 0
133 148 0
128 145 0
135 149 0
146 163 0
138 153 0
137 154 0
129 145 0
148 165 0
140 154 0
133 149 0
135 149 0
141 159 0
127 142 0
142 159 0
143 161 0
131 144 0
131 145 0
135 148 0
140 155 0
145 159 0
133 149 0
137 152 0
136 152 0
141 156 0
132 145 0
132 148 0
143 158 0
138 152 0
146 162 0
146 163 0
142 157 0
145 161 0
143 158 0
147 162 0
142 158 0
145 160 0
140 156 0
154 169 0
144 159 0
148 165 0
147 162 0
151 165 0
136 150 0
154 170 0
149 164 0
158 174 0
144 160 0
147 162 0
147 164 0
149 164 0
146 160 0
148 160 0
147 163 0
148 161 0
147 161 0
150 166 0
151 168 0
147 162 0
154 169 0
146 159 0
152 167 0
156 171 0
150 168 0
148 165 0
151 168 0
142 156 0
153 171 0
160 174 0
159 177 0
152 169 0
144 160 0
159 174 0
153 169 0
152 168 0
158 174 0
154 170 0
150 167 0
146 160 0
159 177 0
156 171 0
155 173 0
159 178 0
157 174 0
159 178 0
161 177 0
150 167 0
156 173 0
160 175 0
160 177 0
156 173 0
157 175 0
154 171 0
159 175 0
158 175 0
159 177 0
162 179 0
162 180 0
157 175 0
162 178 0
165 183 0
160 180 0
157 174 0
167 186 0
150 165 0
161 180 0
162 181 0
155 174 0
153 171 0
164 182 0
166 185 0
163 183 0
162 182 0
163 180 0
167 187 0
161 180 0
158 177 0
164 184 0
161 180 0
163 182 0
162 180 0
162 181 0
163 183 0
162 181 0
161 182 0
171 192 0
164 183 0
167 187 0
165 185 0
160 179 0
170 194 67
171 195 88
171 195 88
174 198 84
172 196 72
170 194 62
171 195 67
170 194 88
171 195 84
168 192 57
167 191 62
172 196 84
168 192 62
167 191 57
168 193 72
166 190 62
170 194 62
166 190 67
168 192 76
166 191 76
166 190 88
168 192 51
173 196 72
166 191 92
168 192 72
167 192 84
168 193 80
168 192 76
167 191 67
164 188 76
169 193 62
167 192 67
161 186 67
168 192 67
166 191 95
161 185 67
168 192 84
167 191 72
167 190 84
165 189 76
164 188 57
166 191 80
170 193 62
167 189 51
171 195 80
166 191 76
169 193 80
163 187 72
171 195 108
164 188 84
159 183 67
164 187 92
157 180 67
163 187 62
166 190 80
163 187 67
165 189 84
168 192 99
157 180 62
158 182 88
162 187 92
168 192 80
158 182 72
158 182 76
164 186 76
157 181 80
159 182 80
161 185 88
155 179 88
159 182 84
154 176 36
156 178 67
157 181 76
161 185 88
167 190 80
146 168 62
156 179 88
153 176 80
157 179 67
154 177 67
147 169 57
159 181 80
155 177 80
152 175 57
154 177 67
145 167 62
158 180 74
156 178 76
157 178 76
148 170 88
138 160 92
119 142 100
98 123 103
83 110 113
81 108 113
91 118 136
89 116 118
87 114 124
90 116 131
90 117 138
97 122 126
92 118 129
100 127 137
107 130 139
96 122 144
90 116 127
99 125 146
90 117 130
107 131 136
101 125 150
91 118 158
102 126 139
92 119 140
95 120 141
97 123 139
91 118 128
86 114 146
86 114 135
89 116 136
86 113 137
103 128 149
92 120 134
95 122 150
82 110 137
87 115 151
86 113 147
101 124 140
79 107 142
81 108 151
75 102 135
85 110 133
79 106 143
75 104 146
75 101 123
64 97 134
68 100 140
73 103 142
78 107 142
58 92 119
63 97 141
69 99 137
65 96 124
65 97 134
66 96 115
64 96 113
62 94 114
62 94 120
60 93 122
56 90 113
58 91 120
61 93 116
58 91 111
63 95 123
55 88 111
57 91 122
58 91 131
58 91 113
59 93 126
59 93 121
58 92 124
59 94 127
58 92 118
58 93 127
59 93 125
59 94 129
59 94 125
57 91 126
59 93 126
57 91 125
59 93 129
60 94 136
59 93 125
58 92 124
59 94 121
59 93 124
59 93 127
59 93 126
58 92 124
58 92 122
59 93 125
58 92 129
59 93 124
58 92 114
58 92 125
60 94 126
58 92 121
58 91 118
59 94 130
60 95 133
60 94 134
58 91 121
58 92 118
57 91 108
58 92 126
60 94 134
59 92 117
58 91 120
56 89 113
58 92 124
58 91 105
60 94 126
59 93 127
60 94 124
57 91 113
58 91 117
57 90 117
60 94 124
59 93 125
57 90 115
58 92 108
56 89 117
58 92 118
60 95 131
58 92 125
59 93 120
59 93 126
58 92 113
59 92 115
57 90 103
57 91 113
59 93 120
55 87 99
55 88 102
56 89 103
57 90 113
57 90 95
58 92 110
57 91 113
56 89 97
56 89 108
55 87 99
55 88 105
54 85 95
72 95 83
89 111 76
102 120 51
104 119 31
114 129 18
118 132 0
110 122 0
120 136 0
111 126 0
123 137 0
120 136 0
113 129 0
112 125 0
117 129 0
126 143 0
118 133 0
108 123 0
113 129 0
126 142 0
117 132 0
125 141 0
135 152 0
123 138 0
127 144 0
127 142 0
133 148 0
119 136 0
126 139 0
127 143 0
130 146 0
129 147 0
139 156 0
117 132 0
134 150 0
128 144 0
124 140 0
134 148 0
133 147 0
126 144 0
124 139 0
139 155 0
139 155 0
138 155 0
145 164 0
141 157 0
130 148 0
135 152 0
135 149 0
131 147 0
147 166 0
139 155 0
142 159 0
134 149 0
141 158 0
140 156 0
145 160 0
136 152 0
145 162 0
138 153 0
143 159 0
146 162 0
135 149 0
134 149 0
149 167 0
139 155 0
142 157 0
150 165 0
134 150 0
139 154 0
145 162 0
151 169 0
146 159 0
149 165 0
150 168 0
151 169 0
148 164 0
142 156 0
141 156 0
145 162 0
153 168 0
140 155 0
147 163 0
142 155 0
157 176 0
148 162 0
144 160 0
151 167 0
154 171 0
149 167 0
148 165 0
151 167 0
147 164 0
152 168 0
148 162 0
147 162 0
153 169 0
154 169 0
152 168 0
148 163 0
155 172 0
151 165 0
157 174 0
155 169 0
157 174 0
149 164 0
155 171 0
155 171 0
147 163 0
156 174 0
154 169 0
150 166 0
157 175 0
156 172 0
154 173 0
159 177 0
161 178 0
154 170 0
152 169 0
163 180 0
153 169 0
165 181 0
160 175 0
153 170 0
160 177 0
159 176 0
150 167 0
159 175 0
158 175 0
153 170 0
157 174 0
158 175 0
163 180 0
157 176 0
161 178 0
158 174 0
162 177 0
157 174 0
156 174 0
163 180 0
160 179 0
157 174 0
160 180 0
159 178 0
160 179 0
162 182 0
161 178 0
161 180 0
162 180 0
160 179 0
162 181 0
166 185 0
163 184 0
167 187 0
165 183 0
166 186 0
160 179 0
164 186 0
162 181 0
168 186 0
167 185 0
160 178 0
165 186 0
163 183 0
162 178 0
166 185 0
163 183 0
166 187 0
171 195 62
173 197 76
171 194 84
172 196 92
171 196 88
169 193 72
169 193 62
172 195 62
173 197 88
166 190 80
165 189 72
166 192 76
169 193 76
171 196 62
168 192 67
172 197 84
169 192 76
169 194 88
171 196 84
171 195 51
171 195 72
172 195 84
168 193 76
168 191 67
166 191 51
166 190 62
167 192 72
167 190 76
168 192 76
166 191 76
168 192 80
167 191 51
168 193 76
166 190 84
168 191 72
160 184 51
165 189 76
165 190 84
173 197 84
172 197 99
164 188 76
161 185 67
162 185 76
167 191 76
165 190 80
166 189 72
168 192 102
163 187 76
160 184 84
165 190 84
163 187 80
166 189 80
166 190 67
165 188 67
161 185 88
161 184 76
161 185 95
161 185 76
160 184 72
165 189 92
155 177 72
154 176 44
162 185 99
162 185 88
162 185 72
161 185 84
160 183 95
157 180 72
161 184 67
158 180 92
160 184 84
159 183 84
162 185 80
156 178 67
154 177 84
156 179 88
150 173 72
152 175 72
147 169 57
147 170 76
156 178 88
156 178 57
153 175 67
146 168 51
151 173 72
153 176 76
144 166 72
153 174 62
162 183 80
151 173 62
141 163 54
132 154 103
119 143 94
90 117 121
97 123 125
96 122 129
80 108 120
96 123 129
82 109 123
92 118 118
97 123 129
91 117 129
89 115 122
110 134 137
103 128 136
93 119 129
92 118 131
88 113 123
92 119 140
85 112 137
90 116 122
85 113 133
99 124 138
99 124 141
99 124 140
83 110 116
96 123 140
94 119 129
89 117 143
99 124 143
95 120 139
90 116 129
100 124 136
88 115 137
100 125 154
89 116 142
93 119 154
86 112 152
79 108 152
74 103 138
74 103 138
82 108 136
79 105 136
80 106 135
75 102 138
71 100 132
74 102 135
74 103 140
73 103 131
67 98 127
66 99 143
72 103 135
64 96 136
72 103 130
62 94 124
63 95 126
60 94 115
61 94 107
60 93 118
61 94 124
65 98 125
61 94 125
61 94 121
59 93 129
57 90 122
57 90 114
59 93 127
60 94 133
55 87 112
58 91 114
59 93 127
57 91 129
57 91 113
57 91 117
58 92 127
58 91 114
59 93 121
57 90 121
57 91 118
58 91 124
59 94 125
59 94 132
58 91 119
58 92 120
59 93 125
58 92 124
60 95 131
59 93 121
59 94 121
59 93 129
57 91 113
57 91 114
59 94 133
57 90 124
58 92 130
60 94 124
58 93 125
58 92 120
58 92 121
60 94 134
59 93 127
58 92 126
59 93 126
58 92 127
59 93 118
59 93 124
57 91 113
59 93 133
58 92 121
59 92 118
59 93 126
57 91 121
58 91 113
57 90 105
59 93 115
58 92 111
58 91 121
58 91 122
59 93 125
58 92 115
60 94 126
58 91 118
58 92 113
58 91 124
58 91 110
59 92 120
58 91 115
58 92 122
58 92 117
56 89 102
59 93 131
57 91 105
57 90 113
56 89 108
57 90 105
56 89 107
57 90 113
57 90 103
53 85 99
56 89 108
57 89 108
64 91 92
73 97 86
99 120 78
108 125 44
106 123 54
112 127 25
115 129 0
126 142 0
113 128 0
117 133 0
116 132 0
111 128 0
126 140 0
99 113 0
123 137 0
127 143 0
118 132 0
121 137 0
124 141 0
115 129 0
126 142 0
120 136 0
128 143 0
118 133 0
130 149 0
122 136 0
127 142 0
123 140 0
140 156 0
127 140 0
130 147 0
124 140 0
128 144 0
140 156 0
131 146 0
132 151 0
136 151 0
143 161 0
124 137 0
123 135 0
127 143 0
138 154 0
145 163 0
137 154 0
130 147 0
141 155 0
137 155 0
130 145 0
141 158 0
139 154 0
129 144 0
132 148 0
144 161 0
139 156 0
145 162 0
132 149 0
137 154 0
144 161 0
137 154 0
136 152 0
151 169 0
138 153 0
146 161 0
145 161 0
143 158 0
141 157 0
144 160 0
151 170 0
144 159 0
146 162 0
146 162 0
148 166 0
138 155 0
141 158 0
145 161 0
150 169 0
139 156 0
153 173 0
144 160 0
150 168 0
141 159 0
145 160 0
139 153 0
148 164 0
151 169 0
142 158 0
148 163 0
151 168 0
155 171 0
154 170 0
147 164 0
155 171 0
146 162 0
149 167 0
144 161 0
154 170 0
154 170 0
153 168 0
154 169 0
154 170 0
141 155 0
153 172 0
152 169 0
153 170 0
155 173 0
154 170 0
145 161 0
156 172 0
146 163 0
156 172 0
162 179 0
150 167 0
154 170 0
152 171 0
150 167 0
158 175 0
155 172 0
163 181 0
159 176 0
157 174 0
159 176 0
157 176 0
154 170 0
157 177 0
158 174 0
154 172 0
161 178 0
161 181 0
158 175 0
155 173 0
160 175 0
158 176 0
156 173 0
163 180 0
159 177 0
159 178 0
160 179 0
159 178 0
161 180 0
160 178 0
162 181 0
155 174 0
160 178 0
160 178 0
156 176 0
158 176 0
163 181 0
157 176 0
162 179 0
159 179 0
167 187 0
167 187 0
164 183 0
160 178 0
159 176 0
161 178 0
163 181 0
164 182 0
164 184 0
170 190 0
165 185 0
165 184 0
166 185 0
160 177 0
158 176 0
161 181 0
165 186 0
165 185 0
162 182 0
172 196 80
171 195 57
169 192 92
170 194 76
171 196 80
169 193 76
170 195 72
169 193 84
169 194 80
173 195 72
172 196 72
168 192 57
169 192 62
166 191 72
169 193 72
170 194 72
166 190 67
164 188 62
165 190 80
167 191 57
169 194 72
168 193 84
172 196 72
167 191 36
172 196 72
165 189 76
167 191 57
169 194 80
168 192 72
171 195 80
165 189 76
169 193 76
171 194 88
172 197 125
165 189 67
168 193 76
162 186 62
169 193 88
169 192 80
168 192 76
166 189 62
167 192 88
161 184 72
169 192 76
165 189 67
168 192 88
161 184 84
167 189 72
162 187 72
166 190 95
161 184 80
162 187 72
171 194 102
165 188 95
165 188 67
165 188 88
166 190 76
165 188 88
157 181 92
165 187 95
160 184 80
159 183 95
161 184 84
163 185 88
164 187 84
157 180 67
151 175 84
158 181 84
149 173 80
160 183 95
159 181 88
154 176 76
159 182 72
160 183 88
149 172 62
158 181 80
159 181 80
156 180 67
156 179 76
149 172 72
151 174 72
153 175 57
154 177 99
149 170 62
149 171 80
148 169 72
145 167 84
148 170 62
148 170 80
145 167 62
145 166 76
135 157 70
117 140 82
107 131 92
88 115 115
80 108 113
90 116 129
97 122 129
77 105 118
97 124 127
92 117 116
96 121 125
99 124 125
97 122 119
98 124 131
91 117 137
88 114 126
101 126 134
92 118 127
95 122 118
91 117 142
91 117 129
97 123 121
93 120 128
100 125 142
107 131 144
103 127 134
90 117 134
99 126 148
91 116 140
89 117 136
95 120 138
97 123 154
82 111 131
90 115 136
80 109 141
94 118 136
89 117 149
77 106 142
98 121 146
75 103 140
71 100 133
76 105 144
70 99 134
87 111 132
81 107 143
67 98 133
71 100 130
62 93 123
68 99 135
67 98 121
69 99 134
70 100 120
62 93 117
73 103 122
66 96 115
64 95 121
64 97 131
61 93 105
62 93 116
58 91 110
59 92 120
60 93 107
58 92 118
60 94 114
58 92 115
58 90 98
57 91 107
58 92 115
57 90 120
59 93 117
58 92 121
58 92 113
58 91 126
56 89 114
57 90 115
59 93 125
59 93 126
58 92 110
59 94 130
58 92 111
59 94 118
58 92 113
58 92 122
59 93 124
58 92 120
57 90 110
58 92 120
58 92 126
59 93 125
58 92 121
58 92 122
59 93 129
59 94 127
59 93 125
59 93 126
59 93 124
58 92 122
58 92 111
60 94 131
59 93 125
58 91 113
58 92 124
59 92 115
58 92 120
57 91 113
58 92 126
58 91 122
59 93 127
58 91 114
57 91 114
59 93 121
60 95 127
57 90 120
59 93 124
58 92 122
59 93 124
58 92 118
59 93 121
60 94 121
58 91 118
58 92 111
57 91 114
59 93 125
58 92 118
57 90 114
56 89 107
59 93 120
57 90 118
58 92 108
57 90 108
54 86 100
57 90 107
56 87 97
55 87 103
56 89 103
58 91 120
58 91 125
57 91 118
61 92 113
66 94 88
71 94 78
94 113 80
83 102 47
103 116 25
114 129 18
122 139 0
104 118 0
124 139 0
104 118 0
119 131 0
120 135 0
127 143 0
115 130 0
122 136 0
110 124 0
126 143 0
109 125 0
121 135 0
125 139 0
126 142 0
119 136 0
120 135 0
119 135 0
116 131 0
113 127 0
121 136 0
125 142 0
135 154 0
117 131 0
133 149 0
116 134 0
134 147 0
126 141 0
123 139 0
135 150 0
136 154 0
124 140 0
129 145 0
142 160 0
125 138 0
132 145 0
133 148 0
129 146 0
139 156 0
140 156 0
135 151 0
138 155 0
133 151 0
133 150 0
132 148 0
130 147 0
143 159 0
136 152 0
131 147 0
144 159 0
141 156 0
149 166 0
140 156 0
139 155 0
145 162 0
137 155 0
148 164 0
147 162 0
135 154 0
137 152 0
145 162 0
145 161 0
140 157 0
143 161 0
146 162 0
139 154 0
141 157 0
141 156 0
140 153 0
144 161 0
145 161 0
139 152 0
145 161 0
139 154 0
151 168 0
140 156 0
141 156 0
152 169 0
151 168 0
144 158 0
143 158 0
151 168 0
147 164 0
148 165 0
153 168 0
147 165 0
153 171 0
148 161 0
149 167 0
149 164 0
149 166 0
151 167 0
152 168 0
151 167 0
149 164 0
143 158 0
155 173 0
154 172 0
160 178 0
155 172 0
147 163 0
151 169 0
150 167 0
156 173 0
151 167 0
148 161 0
155 173 0
161 179 0
157 174 0
150 164 0
156 174 0
161 178 0
154 171 0
155 172 0
158 174 0
160 178 0
157 173 0
155 170 0
153 171 0
161 179 0
161 180 0
159 177 0
159 176 0
157 175 0
163 183 0
158 173 0
160 179 0
162 180 0
160 179 0
163 179 0
157 175 0
163 180 0
157 176 0
164 182 0
166 186 0
164 184 0
162 181 0
162 181 0
165 185 0
163 181 0
158 179 0
161 178 0
159 178 0
161 178 0
163 183 0
160 180 0
163 181 0
162 180 0
157 175 0
165 185 0
159 178 0
163 184 0
162 181 0
163 182 0
169 190 0
165 183 0
162 182 0
163 181 0
163 183 0
166 186 0
161 179 0
163 181 0
167 186 0
169 189 0
170 194 92
170 194 92
169 193 84
169 193 44
167 190 51
170 194 57
169 193 95
170 193 72
170 195 76
172 196 95
171 196 92
168 192 92
167 191 80
169 192 62
169 194 80
166 191 67
165 188 67
171 195 67
165 188 67
168 192 62
169 193 88
167 192 80
168 192 95
169 193 76
165 190 84
167 192 76
168 193 67
167 190 67
168 193 76
167 191 72
170 194 95
169 193 84
160 184 67
170 194 76
172 196 102
165 189 62
164 187 0
166 190 95
169 193 99
165 188 84
165 190 84
168 191 92
168 193 84
170 194 84
163 187 76
170 193 88
165 188 84
171 194 92
164 188 67
167 191 92
162 186 92
167 191 84
163 186 95
167 191 99
170 194 88
165 189 99
166 189 92
166 188 88
158 182 84
169 192 99
164 187 84
158 181 95
166 188 72
161 184 62
163 186 76
160 183 67
159 182 76
162 185 88
162 185 80
160 184 76
160 182 84
153 175 67
156 179 80
154 177 76
152 175 57
162 184 92
157 181 92
156 177 84
154 176 76
151 173 80
145 167 80
148 169 84
152 174 51
159 180 80
154 175 62
152 173 88
143 165 84
157 179 95
144 166 36
151 172 57
158 180 84
138 161 82
132 153 62
125 148 102
111 133 104
92 118 110
84 110 121
91 117 122
101 126 122
82 110 130
92 118 134
94 120 134
79 106 122
80 108 127
87 114 120
87 114 121
85 113 110
96 121 127
94 119 124
101 125 131
93 119 129
93 117 118
96 122 137
93 118 134
98 125 135
106 130 143
90 117 136
95 121 135
99 125 136
93 119 141
98 123 146
87 114 131
100 126 148
90 117 140
96 122 154
95 119 145
90 118 148
81 108 142
75 105 136
75 102 142
83 108 132
97 120 136
90 111 138
76 104 133
70 99 136
74 102 136
74 103 133
72 102 133
71 100 132
65 98 133
74 103 129
75 105 133
77 103 125
69 99 122
63 96 122
61 94 122
72 102 115
60 92 117
60 93 121
62 94 105
60 93 121
61 94 124
59 93 117
61 94 120
58 91 110
58 92 123
56 89 102
56 90 110
58 92 123
58 92 130
57 91 117
58 92 113
57 90 117
59 93 130
58 92 122
58 92 127
58 92 122
59 94 114
56 88 104
60 94 131
58 92 125
58 92 126
57 91 114
58 93 121
58 91 121
59 93 124
57 91 119
57 91 103
59 92 131
58 91 120
57 91 117
58 92 126
56 89 113
59 93 115
59 93 126
58 91 118
57 91 117
58 92 117
60 94 127
59 93 124
57 91 103
58 91 121
59 94 126
57 91 114
59 93 118
58 91 120
59 93 125
59 94 126
60 94 127
58 92 117
58 91 115
58 92 120
57 91 122
57 90 114
59 93 125
56 89 102
57 91 110
56 89 114
58 92 122
58 91 117
58 91 120
57 90 120
58 91 110
58 92 117
57 90 114
56 90 113
56 89 110
57 90 118
55 87 100
56 89 103
56 90 107
56 88 107
57 89 108
55 87 100
55 87 105
57 89 108
57 90 107
57 89 111
52 84 72
64 88 76
84 106 78
97 114 54
99 117 51
93 108 31
114 129 0
112 128 0
118 134 0
110 126 0
112 128 0
107 122 0
113 129 0
122 139 0
113 128 0
110 128 0
109 125 0
110 124 0
113 129 0
119 133 0
127 141 0
112 128 0
120 134 0
109 123 0
126 143 0
121 138 0
123 141 0
124 140 0
123 137 0
136 151 0
123 138 0
123 139 0
122 137 0
129 145 0
127 142 0
134 152 0
127 145 0
131 147 0
137 155 0
134 151 0
142 158 0
140 156 0
134 150 0
139 157 0
124 141 0
135 150 0
137 153 0
128 144 0
130 147 0
133 149 0
139 156 0
135 151 0
138 157 0
134 149 0
133 148 0
129 145 0
133 150 0
145 161 0
140 157 0
132 150 0
147 164 0
139 155 0
133 149 0
143 159 0
143 160 0
139 157 0
143 160 0
143 159 0
148 166 0
157 175 0
148 164 0
146 162 0
143 159 0
143 160 0
141 157 0
145 161 0
146 162 0
141 155 0
152 169 0
145 163 0
148 166 0
149 167 0
145 161 0
153 170 0
150 166 0
154 172 0
149 165 0
145 159 0
150 168 0
151 169 0
140 155 0
146 160 0
146 163 0
155 172 0
145 162 0
151 169 0
153 170 0
150 165 0
154 171 0
148 165 0
156 171 0
153 170 0
153 170 0
146 162 0
150 168 0
152 168 0
150 167 0
156 171 0
154 171 0
157 174 0
151 167 0
155 171 0
149 166 0
150 166 0
157 174 0
159 174 0
156 174 0
159 176 0
154 172 0
153 170 0
154 171 0
153 167 0
162 178 0
148 166 0
153 171 0
157 175 0
153 172 0
157 177 0
157 174 0
159 177 0
160 178 0
164 184 0
160 182 0
158 173 0
160 176 0
159 178 0
161 180 0
156 174 0
161 181 0
159 175 0
158 178 0
162 181 0
160 178 0
162 180 0
157 176 0
159 179 0
162 180 0
154 173 0
164 182 0
160 178 0
162 181 0
162 182 0
163 183 0
157 177 0
166 186 0
166 187 0
165 185 0
166 185 0
163 181 0
164 185 0
164 183 0
168 186 0
163 185 0
163 182 0
165 185 0
166 186 0
166 187 0
163 184 0
161 181 0
162 180 0
162 182 0
157 177 0
171 195 76
169 192 67
171 195 62
173 197 67
171 195 84
170 194 44
166 190 51
172 196 51
171 196 44
173 197 80
170 194 67
168 193 76
168 192 67
170 194 57
169 193 57
165 190 76
167 191 76
168 192 67
169 192 51
165 189 67
168 192 84
165 189 57
168 192 72
163 187 72
166 191 51
168 193 72
168 191 62
168 193 102
167 192 67
172 197 102
171 195 67
170 193 88
168 192 72
168 192 80
167 192 105
165 189 84
167 190 76
163 186 67
168 192 67
165 188 80
163 187 88
166 190 76
167 190 76
162 184 92
167 191 88
165 189 95
167 189 95
164 188 80
163 186 84
166 190 80
164 187 76
161 185 92
165 188 84
172 195 102
168 191 95
167 190 84
166 188 99
167 191 72
165 189 102
163 186 88
164 187 80
161 184 72
161 184 80
164 187 95
166 189 84
156 179 57
158 181 95
154 178 62
162 184 102
160 183 99
154 177 76
157 180 80
157 180 67
151 174 67
162 184 88
154 178 76
155 178 84
155 178 80
160 182 72
157 180 92
155 178 99
153 176 95
150 173 67
147 168 76
152 174 74
149 171 72
145 167 67
138 160 67
150 172 80
140 162 67
143 165 67
147 168 76
146 167 84
130 151 74
126 148 88
107 131 114
96 121 117
100 124 122
97 122 118
96 122 126
72 98 95
74 104 124
97 123 117
91 118 131
95 121 133
91 116 129
89 115 131
82 110 128
96 121 133
99 123 127
90 116 136
88 115 139
104 128 131
95 121 144
103 127 132
82 109 124
97 121 115
106 131 137
88 113 122
92 117 133
88 115 134
104 127 142
82 110 129
90 118 140
93 119 139
99 124 153
88 113 122
91 117 145
87 113 157
75 103 134
77 103 133
79 105 129
68 96 130
90 115 150
76 101 116
84 107 135
81 104 128
74 102 136
80 105 132
71 100 121
69 101 131
65 97 122
69 100 131
70 100 122
66 97 113
70 100 114
64 96 120
67 99 127
60 92 115
64 96 130
62 94 113
58 91 114
57 90 114
56 88 110
58 91 117
61 94 110
58 91 115
56 89 100
60 93 114
57 91 107
56 90 110
57 91 116
59 93 124
57 91 112
58 92 121
58 92 130
55 88 112
57 90 123
60 95 133
58 91 124
58 91 117
59 94 125
57 91 120
59 93 121
58 92 126
59 93 127
59 94 125
57 90 118
56 88 103
58 92 117
58 91 120
59 93 130
57 90 108
57 91 120
56 88 107
58 91 124
58 92 124
59 93 124
59 93 127
58 92 111
58 92 117
57 90 111
59 93 120
58 91 110
57 91 111
60 94 127
57 91 111
56 89 113
58 91 108
58 91 111
58 91 113
58 92 115
58 91 125
59 93 124
59 92 125
57 90 105
58 92 120
60 94 125
58 92 121
56 89 102
57 90 113
58 92 115
57 90 111
57 91 114
57 91 105
56 88 99
58 91 111
57 90 111
57 91 117
56 88 110
56 89 103
57 90 115
57 90 114
59 92 118
55 88 97
54 86 94
56 89 100
64 94 102
77 102 82
86 108 95
82 101 60
99 115 57
109 125 18
112 128 0
101 117 0
109 125 0
105 121 0
106 122 0
105 123 0
106 121 0
114 131 0
107 122 0
121 138 0
127 143 0
117 133 0
123 139 0
114 130 0
119 135 0
121 138 0
128 144 0
124 140 0
111 126 0
120 135 0
125 142 0
121 138 0
122 136 0
128 144 0
125 141 0
133 150 0
132 147 0
130 147 0
134 151 0
134 149 0
137 154 0
134 151 0
134 151 0
136 153 0
131 149 0
134 153 0
136 153 0
136 152 0
132 147 0
126 141 0
136 152 0
124 140 0
135 152 0
139 156 0
132 149 0
140 156 0
134 149 0
136 154 0
143 163 0
127 143 0
141 158 0
143 161 0
140 157 0
136 150 0
149 168 0
135 152 0
139 156 0
137 152 0
146 161 0
146 163 0
137 156 0
146 164 0
143 159 0
137 152 0
146 161 0
146 164 0
144 161 0
142 160 0
149 165 0
145 161 0
144 160 0
141 159 0
140 156 0
147 162 0
139 153 0
148 163 0
139 154 0
144 162 0
146 162 0
147 165 0
150 168 0
141 156 0
148 163 0
144 162 0
151 169 0
150 165 0
151 169 0
151 169 0
150 165 0
157 173 0
147 166 0
157 174 0
154 168 0
152 170 0
149 165 0
158 176 0
151 169 0
154 171 0
154 173 0
150 167 0
155 174 0
153 170 0
153 170 0
153 170 0
156 176 0
154 171 0
159 178 0
159 176 0
152 169 0
154 169 0
156 174 0
151 169 0
160 178 0
154 173 0
149 166 0
159 176 0
159 177 0
160 176 0
160 179 0
160 178 0
159 176 0
148 163 0
155 174 0
161 179 0
161 179 0
163 180 0
157 175 0
160 179 0
158 177 0
158 175 0
160 177 0
156 173 0
150 167 0
161 181 0
158 175 0
156 171 0
161 179 0
155 175 0
158 174 0
166 185 0
157 174 0
163 182 0
163 181 0
159 177 0
159 178 0
160 178 0
165 183 0
158 178 0
165 186 0
164 184 0
161 181 0
163 183 0
164 183 0
162 180 0
167 187 0
164 182 0
164 185 0
166 186 0
165 185 0
162 183 0
161 180 0
157 176 0
165 184 0
163 182 0
162 183 0
165 186 0
167 188 0
171 195 67
173 198 99
173 197 62
170 193 62
165 189 62
167 191 76
170 194 88
169 193 80
166 189 67
171 195 88
170 195 62
166 191 76
164 189 72
168 192 51
168 192 62
166 191 57
166 191 67
167 191 57
167 191 76
166 190 57
165 189 76
169 193 92
168 192 62
167 190 57
168 192 92
168 193 84
166 191 88
168 190 76
167 191 92
167 191 67
166 190 72
166 189 62
169 192 72
167 190 51
169 193 80
167 191 88
165 189 67
167 192 80
166 190 76
162 185 72
175 199 92
166 189 67
163 187 72
166 189 84
169 192 92
166 189 76
161 184 72
168 191 92
167 191 88
158 182 72
165 189 105
167 190 80
165 189 95
166 189 114
163 187 95
168 191 84
165 189 99
162 185 76
165 188 88
156 179 80
156 179 76
161 185 99
163 187 111
157 181 88
160 183 80
161 183 88
163 186 92
158 182 84
153 175 62
159 181 88
155 177 57
165 188 102
157 181 76
153 176 88
161 183 117
166 189 102
161 183 99
158 180 105
159 181 102
154 176 102
154 176 76
144 166 67
154 176 72
155 178 92
159 181 80
147 169 36
149 171 57
156 178 80
145 166 62
145 167 51
141 162 80
143 165 67
140 162 80
139 160 65
132 152 94
101 123 82
92 116 97
89 114 111
95 121 121
85 111 125
100 125 133
83 111 120
83 110 113
100 124 124
91 117 116
98 123 133
92 119 131
106 131 134
95 120 123
84 111 122
108 132 143
85 113 132
99 123 133
111 134 134
88 115 136
92 117 124
100 124 124
88 115 126
92 118 137
102 127 141
105 130 131
86 113 138
93 119 140
87 114 149
84 112 130
96 121 142
81 108 136
96 122 145
97 119 135
86 113 151
89 114 135
81 107 137
84 108 129
79 104 123
85 107 123
80 104 131
82 108 145
68 97 130
65 96 118
76 105 136
65 96 120
68 97 117
65 97 122
66 96 120
66 98 131
64 93 105
73 102 106
59 92 120
64 96 110
55 87 113
60 93 110
59 92 114
63 95 113
61 95 126
60 93 115
57 91 111
58 91 119
60 93 114
60 93 114
58 92 117
58 91 118
54 86 97
57 91 113
60 94 126
58 91 113
58 92 125
58 92 108
58 92 117
58 92 126
58 91 103
58 92 124
57 90 102
58 91 113
58 92 123
58 91 120
58 92 120
59 93 127
58 92 121
57 90 110
60 94 133
57 91 110
58 92 124
58 91 117
58 92 115
59 93 122
57 91 115
58 92 113
57 90 117
58 92 108
58 92 114
59 94 120
58 91 125
55 89 110
58 91 124
57 90 108
56 89 107
56 89 120
57 90 111
57 90 103
56 89 107
60 95 122
56 88 102
56 89 102
57 90 107
58 92 117
58 91 120
58 92 119
57 90 111
57 90 110
58 91 110
57 91 102
56 89 103
57 91 115
57 90 114
59 93 125
56 89 115
55 87 99
56 89 105
56 89 103
55 88 97
56 89 107
58 92 111
56 88 105
56 88 108
56 88 99
54 85 94
62 90 90
79 100 74
85 105 65
81 100 44
107 123 36
106 121 18
108 124 0
114 128 0
101 116 0
112 126 0
113 127 0
111 126 0
130 146 0
112 127 0
124 140 0
121 137 0
118 135 0
110 126 0
118 134 0
126 143 0
122 139 0
125 139 0
110 125 0
113 127 0
121 137 0
129 146 0
124 142 0
121 137 0
119 136 0
121 136 0
117 132 0
124 140 0
127 146 0
125 143 0
123 140 0
127 143 0
134 150 0
134 150 0
133 148 0
129 145 0
139 158 0
132 149 0
143 161 0
142 159 0
133 148 0
131 148 0
137 153 0
133 149 0
129 145 0
128 146 0
137 154 0
135 153 0
121 138 0
149 167 0
139 156 0
139 155 0
127 143 0
143 160 0
137 155 0
139 155 0
139 156 0
138 155 0
144 162 0
149 167 0
135 150 0
137 154 0
146 163 0
139 155 0
146 164 0
148 166 0
139 157 0
144 163 0
143 158 0
143 161 0
146 161 0
144 162 0
151 171 0
148 166 0
148 164 0
146 164 0
144 164 0
144 163 0
147 164 0
150 166 0
148 163 0
143 161 0
140 156 0
147 164 0
148 164 0
153 171 0
142 158 0
156 174 0
149 167 0
149 166 0
156 173 0
146 165 0
147 163 0
153 172 0
154 171 0
154 172 0
153 170 0
155 172 0
157 176 0
153 170 0
153 173 0
153 171 0
156 173 0
156 174 0
146 162 0
156 173 0
162 180 0
156 175 0
151 167 0
153 170 0
150 170 0
157 175 0
158 173 0
160 178 0
157 174 0
148 167 0
154 170 0
159 175 0
155 172 0
158 178 0
161 180 0
151 169 0
161 179 0
158 178 0
157 174 0
161 179 0
156 171 0
165 183 0
162 181 0
157 174 0
163 181 0
160 178 0
161 180 0
155 173 0
157 174 0
162 182 0
159 178 0
156 174 0
159 179 0
157 174 0
160 179 0
160 179 0
165 184 0
159 177 0
160 180 0
165 182 0
166 184 0
160 178 0
165 184 0
163 181 0
161 179 0
167 186 0
165 184 0
165 184 0
162 181 0
166 184 0
165 183 0
163 184 0
168 188 0
165 185 0
162 183 0
162 182 0
162 182 0
162 181 0
164 182 0
164 181 0
159 178 0
170 189 0
161 180 0
165 185 0
166 191 76
173 197 88
167 191 57
168 193 44
168 193 80
168 192 76
167 191 72
166 190 72
170 194 51
169 193 95
171 195 76
174 198 72
167 191 72
170 195 84
168 191 62
171 195 84
170 195 72
162 187 84
164 187 57
169 193 57
169 193 67
169 193 84
168 192 72
168 192 76
167 191 76
166 191 88
169 192 80
171 195 92
166 190 84
168 192 105
167 191 88
172 195 72
166 190 92
171 194 88
163 187 72
171 195 80
163 187 67
165 189 76
165 190 72
170 194 105
165 189 88
164 189 99
167 191 88
171 195 84
168 191 80
165 188 92
166 188 67
167 190 88
162 184 84
163 185 95
162 185 62
169 192 84
160 183 88
162 186 92
164 188 88
164 187 92
163 186 92
161 184 95
162 185 92
165 187 102
161 184 72
165 187 88
163 186 84
164 187 102
163 186 95
161 184 95
164 187 92
155 178 88
156 179 84
167 189 111
165 187 102
160 183 102
160 184 102
163 185 88
159 182 84
154 178 92
158 180 92
155 177 72
155 177 62
159 181 88
143 165 44
152 174 102
151 173 76
156 178 88
157 179 72
150 173 76
153 175 84
154 175 111
146 167 51
150 171 62
145 166 76
141 161 76
146 167 76
146 167 72
139 160 67
127 149 84
117 138 85
95 118 90
93 118 115
94 118 114
96 121 103
93 117 99
94 119 118
84 111 113
87 114 118
86 113 113
101 125 122
80 108 105
79 105 97
75 105 130
88 112 124
88 115 127
98 123 132
90 116 131
111 135 150
95 120 131
93 117 127
86 112 127
93 119 134
104 128 129
96 121 131
109 133 149
88 115 134
84 111 124
88 115 139
88 115 142
91 117 139
84 111 141
82 108 133
87 111 133
87 111 137
86 110 130
86 109 142
94 116 134
73 99 121
81 106 134
85 108 126
71 99 121
71 99 129
73 102 125
74 101 115
62 95 113
67 97 114
78 105 121
70 99 114
66 97 113
67 98 125
67 96 105
61 93 116
58 88 103
64 95 117
63 94 111
60 93 117
56 89 114
61 94 118
56 89 111
56 89 108
58 92 113
58 89 113
58 91 115
56 89 114
57 90 111
58 92 108
58 92 118
56 89 111
58 91 115
58 92 123
58 92 114
58 92 121
58 92 127
58 91 103
58 92 110
57 91 121
56 90 106
57 91 120
57 90 110
59 93 118
58 92 117
57 90 110
58 91 123
57 91 111
58 91 121
58 92 111
58 92 108
58 92 121
58 91 117
57 91 113
57 90 117
59 93 120
59 93 120
58 92 129
57 90 113
58 91 114
60 94 124
57 91 110
57 90 100
57 90 110
56 89 102
59 92 120
58 92 115
58 92 121
58 91 113
59 92 117
57 91 108
58 91 114
59 93 120
56 90 107
58 91 110
57 90 114
57 91 108
56 88 108
59 92 120
58 92 111
57 90 103
58 92 117
56 88 103
55 87 105
58 91 117
56 89 111
56 89 113
57 90 107
56 88 100
56 88 103
56 89 95
54 85 92
68 93 90
71 94 82
76 96 54
98 116 51
103 118 40
105 121 25
97 110 0
106 121 0
114 131 0
113 128 0
118 132 0
119 134 0
122 137 0
120 136 0
118 132 0
112 127 0
109 126 0
113 126 0
115 130 0
105 121 0
123 138 0
114 131 0
109 125 0
122 138 0
122 139 0
126 141 0
125 142 0
126 142 0
132 147 0
128 145 0
127 142 0
126 143 0
131 147 0
125 142 0
134 150 0
129 145 0
120 136 0
129 146 0
121 138 0
132 148 0
132 147 0
146 161 0
134 150 0
135 151 0
136 151 0
138 155 0
125 143 0
143 160 0
141 158 0
134 151 0
137 155 0
140 157 0
133 150 0
135 153 0
137 153 0
135 153 0
142 156 0
142 160 0
139 157 0
141 159 0
139 156 0
139 156 0
133 148 0
138 154 0
146 163 0
150 167 0
143 162 0
144 161 0
141 157 0
133 149 0
136 153 0
142 160 0
152 170 0
148 164 0
142 159 0
139 156 0
132 149 0
146 163 0
150 170 0
147 164 0
138 155 0
151 166 0
147 162 0
140 159 0
141 156 0
153 170 0
146 161 0
153 171 0
145 162 0
148 163 0
144 162 0
148 164 0
143 161 0
146 161 0
143 160 0
152 169 0
148 165 0
153 170 0
142 156 0
151 167 0
151 167 0
151 168 0
151 167 0
151 170 0
157 176 0
148 165 0
156 173 0
154 171 0
154 173 0
154 170 0
151 169 0
162 180 0
152 169 0
158 175 0
157 175 0
153 168 0
158 176 0
160 178 0
156 172 0
157 173 0
156 175 0
157 175 0
152 170 0
151 168 0
158 175 0
160 176 0
151 169 0
160 179 0
156 172 0
159 177 0
155 172 0
154 173 0
158 176 0
161 180 0
159 178 0
156 173 0
157 175 0
162 180 0
165 183 0
161 181 0
162 181 0
158 175 0
165 185 0
157 174 0
162 180 0
160 177 0
159 178 0
164 183 0
164 183 0
163 182 0
155 172 0
157 175 0
164 185 0
162 182 0
166 186 0
161 182 0
161 181 0
162 182 0
164 185 0
159 178 0
159 178 0
162 181 0
158 177 0
156 174 0
169 190 0
167 186 0
163 181 0
165 183 0
165 184 0
165 185 0
166 186 0
164 186 0
167 186 0
169 189 0
166 186 0
166 190 62
169 193 67
173 198 102
170 194 67
169 193 84
169 194 80
170 194 67
167 191 57
171 195 62
170 194 80
170 194 88
169 192 57
172 196 76
168 192 76
169 194 62
171 196 72
171 194 57
170 194 80
170 194 62
168 192 95
168 193 67
172 196 88
168 192 67
167 191 62
167 191 67
166 190 92
171 195 92
164 188 62
174 197 99
171 195 111
166 189 76
167 192 80
170 194 84
170 195 108
167 190 88
174 198 108
167 190 88
168 192 88
168 192 88
163 187 84
166 189 80
167 189 80
168 191 95
168 191 95
168 191 102
167 190 80
166 189 84
165 188 88
165 188 80
161 185 88
164 187 88
159 182 76
173 195 99
165 189 92
158 181 67
167 190 99
162 184 92
170 194 105
164 186 117
161 184 72
165 188 99
165 189 99
163 186 84
160 183 92
157 179 80
161 184 88
162 185 92
166 188 95
157 180 76
157 180 84
164 187 99
157 181 111
160 182 95
157 180 80
161 184 95
147 169 80
148 170 72
154 176 84
152 174 51
154 177 80
152 174 72
156 178 92
156 178 92
151 173 76
150 172 84
151 172 84
152 172 102
147 168 84
146 167 72
148 168 80
145 166 88
140 162 80
145 167 72
147 168 72
142 163 62
133 154 76
135 156 99
108 130 95
106 130 126
95 120 124
88 115 122
82 109 103
95 120 129
83 110 122
99 124 134
92 117 117
89 115 118
94 119 114
96 119 124
91 118 118
102 127 139
100 125 126
95 120 124
89 116 123
108 131 144
100 125 122
96 121 129
98 124 126
95 119 119
100 125 140
97 122 133
90 115 128
95 121 131
90 117 135
89 115 132
87 113 124
95 120 132
83 109 131
102 125 138
90 114 139
97 121 146
75 102 135
96 117 123
77 104 115
79 104 129
91 112 128
86 107 115
65 95 128
76 100 114
77 103 114
64 96 131
78 106 134
70 100 120
64 96 120
74 103 115
71 101 122
65 97 122
62 94 121
61 93 113
63 94 117
61 94 114
62 93 114
61 93 122
57 90 110
63 96 120
60 92 113
57 90 108
55 88 102
57 91 108
59 92 118
59 93 122
58 91 107
57 90 110
58 92 115
56 89 107
57 91 115
56 90 94
57 91 100
58 92 115
58 91 117
58 93 122
57 90 113
59 92 122
57 91 103
59 94 127
57 91 117
58 91 118
59 93 129
58 92 127
58 92 120
58 91 117
57 90 107
57 90 113
58 92 122
56 89 99
58 92 122
58 92 115
57 90 110
57 91 107
58 92 129
59 93 126
58 92 120
56 90 118
57 91 124
55 88 113
58 92 118
57 90 103
57 91 118
59 92 121
59 93 117
56 89 108
59 92 115
55 88 115
56 89 110
57 91 108
56 89 108
56 89 107
56 88 107
57 90 107
56 90 102
56 89 113
57 90 115
59 93 111
56 89 108
55 88 100
57 90 114
56 89 99
56 89 115
55 87 102
54 86 100
56 88 107
54 86 110
54 85 90
64 94 90
64 89 76
89 110 70
78 99 65
99 116 54
109 125 25
117 131 18
104 118 0
100 115 0
114 129 0
118 134 0
112 125 0
115 131 0
120 135 0
106 121 0
113 127 0
119 133 0
127 144 0
108 124 0
127 144 0
126 142 0
126 142 0
116 131 0
124 141 0
115 130 0
119 136 0
128 144 0
130 146 0
119 135 0
116 132 0
117 135 0
122 140 0
127 141 0
132 149 0
124 139 0
128 143 0
128 144 0
129 147 0
130 146 0
134 151 0
134 152 0
126 143 0
135 151 0
142 161 0
125 143 0
132 149 0
127 143 0
123 138 0
139 156 0
140 158 0
133 148 0
140 156 0
139 157 0
141 160 0
128 144 0
140 158 0
140 158 0
139 156 0
143 161 0
146 164 0
137 155 0
141 158 0
133 151 0
138 152 0
136 154 0
144 161 0
142 160 0
143 161 0
147 165 0
138 154 0
150 167 0
146 163 0
139 155 0
141 158 0
142 160 0
143 160 0
145 164 0
139 158 0
151 169 0
150 168 0
146 164 0
152 169 0
149 165 0
149 166 0
148 166 0
148 164 0
150 167 0
149 168 0
145 162 0
145 162 0
154 171 0
147 165 0
151 169 0
141 158 0
157 171 0
146 164 0
149 169 0
150 166 0
147 165 0
149 167 0
153 173 0
150 169 0
152 170 0
155 173 0
145 164 0
152 171 0
157 174 0
150 166 0
152 171 0
158 176 0
155 174 0
152 171 0
149 165 0
156 171 0
156 176 0
159 176 0
154 170 0
165 183 0
151 166 0
157 174 0
155 173 0
161 178 0
151 169 0
156 173 0
160 179 0
152 171 0
155 172 0
158 176 0
162 179 0
167 186 0
156 172 0
155 173 0
160 179 0
154 173 0
158 175 0
159 177 0
157 173 0
161 180 0
160 178 0
160 180 0
165 186 0
155 171 0
159 179 0
159 178 0
161 181 0
165 185 0
162 182 0
158 176 0
161 182 0
165 183 0
162 179 0
163 183 0
157 178 0
166 185 0
159 178 0
161 180 0
162 181 0
160 181 0
159 178 0
161 180 0
160 181 0
162 182 0
165 184 0
163 181 0
160 179 0
169 188 0
168 188 0
164 183 0
164 185 0
164 183 0
168 188 0
164 184 0
165 185 0
166 185 0
166 187 0
160 179 0
167 187 0
165 190 62
168 191 72
167 191 80
169 193 67
170 193 51
169 193 67
171 195 84
170 194 51
168 192 76
171 196 88
168 193 67
169 194 62
167 191 51
168 192 88
171 195 72
170 194 67
168 193 76
171 195 76
173 197 92
169 193 62
173 197 95
167 191 62
170 194 95
172 196 84
169 193 80
165 189 80
163 187 62
170 194 80
168 192 102
169 193 62
175 198 95
167 190 84
169 194 99
171 195 92
166 190 105
164 188 88
165 189 84
171 194 88
168 191 88
169 192 92
173 196 122
168 191 92
167 190 80
165 188 92
167 190 99
167 191 76
167 189 92
170 193 92
167 189 88
166 190 92
169 192 95
161 182 72
162 185 72
163 186 99
161 183 95
162 185 80
167 189 92
158 181 95
162 185 95
160 182 88
158 181 76
162 185 94
165 188 105
162 185 88
161 183 95
155 177 72
161 184 84
165 187 111
162 185 95
157 179 88
152 174 102
162 185 105
162 185 105
161 183 105
157 179 76
155 177 99
158 181 88
154 176 80
160 182 108
153 174 72
158 180 80
143 165 76
156 178 72
159 181 95
148 170 88
143 164 76
154 175 72
156 176 92
145 166 57
145 167 80
143 164 84
139 159 67
147 167 57
143 164 80
149 170 80
134 155 67
133 154 80
123 144 78
98 121 78
104 126 125
93 119 107
86 111 110
87 114 103
86 112 100
90 115 117
85 113 115
93 118 131
92 117 124
86 112 118
95 120 122
93 118 118
70 99 101
96 120 124
94 120 135
93 119 133
89 115 127
88 114 133
93 118 125
92 118 127
94 120 118
108 131 125
99 125 150
91 117 126
88 115 141
106 130 141
85 111 122
88 115 127
94 119 112
98 121 136
81 107 112
93 116 132
83 108 133
102 120 127
96 116 118
80 107 129
81 105 125
67 95 120
82 107 119
74 100 129
71 100 119
70 99 119
71 100 119
63 95 118
65 97 121
75 105 126
69 99 108
76 103 110
66 96 103
75 104 97
57 89 103
61 93 110
69 98 125
66 97 104
62 94 110
54 87 98
59 92 107
60 93 115
61 94 100
60 92 126
58 90 106
57 90 121
57 91 105
57 91 114
56 89 115
58 92 115
58 93 120
59 93 114
57 90 117
58 92 117
58 92 121
56 89 110
56 90 95
57 90 110
57 90 114
59 93 115
58 92 121
57 90 117
59 92 114
56 88 110
58 92 114
58 91 113
55 88 100
59 93 118
58 92 122
58 92 114
57 90 111
57 91 124
58 91 115
56 89 105
57 90 110
57 91 102
58 92 117
58 91 115
57 91 115
57 90 105
56 90 102
58 91 110
58 91 113
58 92 110
57 90 105
59 92 122
57 89 107
58 92 114
56 89 107
57 91 113
57 90 114
57 90 107
57 91 107
57 90 113
58 91 110
56 89 107
57 90 114
57 89 102
58 91 114
56 89 105
56 89 99
55 88 103
56 88 103
55 87 97
54 87 94
56 88 90
55 86 95
63 91 94
72 97 80
83 105 70
87 105 54
104 120 40
103 118 0
111 125 0
123 137 0
106 120 0
109 125 0
114 127 0
118 133 0
104 121 0
106 119 0
117 132 0
92 107 0
116 132 0
111 127 0
110 124 0
113 129 0
126 141 0
122 139 0
120 137 0
119 136 0
134 152 0
120 135 0
125 143 0
119 137 0
125 141 0
131 149 0
117 132 0
118 134 0
130 146 0
126 142 0
126 143 0
138 154 0
136 155 0
117 135 0
127 144 0
128 146 0
127 142 0
140 158 0
130 146 0
136 152 0
129 147 0
135 151 0
142 158 0
139 154 0
131 149 0
135 153 0
142 161 0
139 156 0
135 150 0
127 142 0
145 164 0
132 148 0
141 159 0
135 151 0
135 153 0
147 163 0
136 152 0
140 154 0
135 153 0
147 164 0
146 164 0
139 155 0
144 162 0
136 152 0
144 160 0
142 160 0
150 170 0
146 163 0
147 165 0
139 154 0
140 157 0
143 160 0
146 163 0
148 165 0
145 163 0
142 159 0
149 167 0
137 154 0
144 161 0
152 170 0
154 173 0
145 162 0
151 167 0
156 173 0
150 169 0
150 167 0
141 157 0
156 173 0
146 164 0
151 168 0
153 171 0
148 165 0
149 167 0
145 159 0
149 166 0
149 167 0
150 168 0
153 173 0
156 174 0
156 175 0
153 171 0
156 175 0
152 168 0
154 173 0
148 166 0
157 175 0
155 174 0
157 176 0
156 173 0
157 173 0
152 172 0
152 169 0
163 181 0
161 178 0
149 167 0
159 178 0
159 177 0
158 175 0
157 175 0
159 178 0
156 175 0
158 175 0
155 172 0
153 172 0
162 180 0
156 175 0
155 172 0
158 179 0
155 174 0
154 172 0
160 178 0
158 177 0
158 176 0
160 180 0
156 173 0
159 179 0
160 179 0
159 179 0
160 180 0
158 177 0
164 185 0
161 181 0
161 180 0
154 173 0
159 178 0
159 178 0
164 182 0
161 178 0
158 177 0
161 181 0
164 182 0
159 179 0
159 180 0
162 180 0
165 183 0
162 182 0
165 183 0
162 181 0
162 181 0
162 183 0
160 179 0
163 181 0
165 185 0
167 187 0
161 180 0
164 185 0
164 184 0
166 185 0
165 185 0
163 183 0
164 183 0
164 184 0
165 185 0
170 191 0
170 193 72
174 198 84
173 197 80
172 196 62
164 189 88
169 193 44
173 197 95
172 196 67
169 193 88
170 195 76
169 194 88
170 194 36
166 190 0
167 191 72
172 196 80
168 192 76
170 195 84
169 193 80
172 196 80
169 193 57
174 198 80
172 195 76
165 189 72
167 191 95
168 192 84
171 196 108
166 191 62
172 195 108
166 191 88
164 189 76
167 191 88
171 194 67
169 193 117
172 195 92
176 198 88
168 191 102
165 189 72
170 194 88
163 186 80
161 186 84
171 195 95
169 191 99
166 190 105
167 190 88
160 184 76
166 189 88
170 194 114
170 193 76
167 191 102
170 192 84
159 183 84
161 185 92
165 188 84
158 182 76
160 184 80
169 193 111
161 183 88
164 187 95
161 183 88
162 184 99
164 187 108
161 183 99
157 180 108
160 182 88
163 186 76
165 187 102
157 180 72
156 179 92
161 184 105
158 180 76
157 179 108
153 175 67
155 178 76
162 183 99
160 183 80
153 175 92
164 186 92
163 185 114
155 177 95
153 176 67
148 170 80
160 183 67
141 163 76
153 175 95
155 176 88
152 173 95
151 173 108
153 174 72
155 176 99
156 177 88
144 165 80
144 165 99
146 167 57
137 157 95
147 166 92
145 166 88
124 144 65
131 151 88
126 147 72
105 127 74
97 121 95
90 115 113
96 121 114
80 106 107
87 112 110
85 111 118
94 121 124
101 125 122
95 121 124
93 120 131
88 115 118
95 120 120
80 108 132
88 113 110
91 117 120
97 121 119
100 123 117
84 111 120
89 115 112
107 130 121
89 114 125
87 114 113
93 119 118
90 114 115
94 119 135
106 128 134
86 113 127
77 106 125
89 114 132
98 121 133
89 112 133
92 116 117
86 109 117
78 104 133
92 115 125
87 110 125
98 118 121
84 108 125
79 103 120
64 94 111
74 101 128
61 92 113
70 98 105
67 98 122
68 100 120
71 102 134
71 99 105
69 99 111
67 97 111
65 96 107
61 93 112
62 94 107
60 91 94
59 89 93
63 95 118
65 96 103
61 93 108
59 91 103
60 93 115
57 90 111
57 90 107
57 90 114
56 89 110
56 88 102
56 88 102
58 92 122
58 91 118
58 92 127
56 89 100
57 90 110
56 88 111
58 92 118
58 92 127
58 92 115
56 88 107
59 92 127
58 92 114
57 89 113
58 92 113
57 91 125
58 91 118
58 92 124
57 91 105
57 91 108
58 92 113
58 92 113
57 90 111
59 93 124
59 93 120
56 89 107
58 92 121
58 92 117
57 90 108
57 91 103
57 91 115
57 91 111
57 90 118
57 90 108
57 90 107
56 89 114
54 87 99
58 91 110
55 88 97
55 87 92
56 88 102
57 89 107
56 89 120
55 87 99
57 90 95
57 89 115
57 91 107
55 87 99
55 87 95
56 89 114
56 89 111
55 88 99
56 88 107
53 85 88
55 87 94
59 89 95
55 83 88
65 91 76
98 117 76
87 106 57
105 123 44
95 110 18
99 112 0
108 123 0
114 129 0
111 127 0
111 127 0
117 133 0
115 132 0
117 134 0
106 121 0
113 129 0
103 118 0
117 133 0
115 130 0
115 131 0
109 126 0
112 127 0
126 144 0
121 138 0
118 137 0
120 133 0
126 143 0
122 139 0
130 146 0
132 149 0
135 154 0
124 143 0
131 148 0
124 140 0
135 153 0
125 141 0
126 143 0
129 148 0
132 149 0
130 147 0
134 151 0
126 143 0
132 149 0
136 155 0
128 146 0
137 156 0
127 145 0
135 153 0
122 138 0
135 153 0
129 145 0
141 158 0
127 146 0
137 154 0
134 151 0
136 153 0
147 165 0
149 167 0
138 154 0
148 166 0
138 155 0
148 166 0
144 161 0
141 163 0
149 169 0
146 164 0
134 150 0
138 154 0
142 161 0
138 155 0
150 168 0
136 153 0
140 155 0
139 155 0
151 169 0
149 166 0
143 161 0
156 176 0
145 160 0
142 160 0
140 155 0
143 159 0
149 166 0
149 167 0
149 166 0
151 168 0
146 164 0
147 165 0
144 160 0
151 168 0
144 161 0
148 163 0
138 154 0
145 163 0
150 167 0
152 169 0
154 172 0
156 174 0
156 174 0
156 174 0
154 172 0
154 172 0
154 171 0
150 168 0
153 172 0
152 170 0
147 162 0
152 172 0
150 168 0
158 175 0
154 172 0
155 173 0
151 169 0
157 173 0
150 168 0
157 176 0
153 171 0
154 172 0
158 176 0
152 171 0
153 172 0
158 177 0
155 173 0
157 175 0
159 178 0
159 178 0
152 171 0
156 174 0
166 184 0
159 178 0
161 178 0
160 179 0
158 176 0
160 180 0
157 177 0
160 177 0
158 176 0
159 177 0
155 173 0
161 179 0
155 174 0
164 183 0
160 177 0
163 183 0
157 176 0
160 180 0
161 180 0
161 181 0
156 173 0
161 180 0
159 178 0
165 185 0
158 178 0
159 178 0
160 179 0
164 182 0
164 182 0
164 184 0
160 178 0
166 184 0
160 179 0
163 183 0
159 176 0
163 183 0
164 185 0
158 178 0
160 178 0
163 185 0
161 181 0
164 183 0
164 182 0
165 186 0
162 183 0
165 185 0
165 186 0
163 183 0
165 185 0
162 183 0
171 192 0
165 185 0
172 196 76
170 194 57
169 193 72
167 191 76
173 197 88
169 194 72
170 193 51
171 194 57
169 194 84
166 191 72
172 196 62
165 189 80
166 190 44
168 193 72
169 193 72
173 197 88
169 193 57
168 192 62
177 201 105
171 195 99
169 193 72
167 190 88
170 194 120
166 189 80
162 187 76
168 192 92
170 192 76
169 192 72
172 196 92
166 189 88
162 185 76
167 190 108
169 193 95
167 191 84
170 194 102
167 190 102
168 191 95
167 190 95
169 191 99
173 196 99
166 189 99
171 195 102
163 185 84
164 187 99
168 190 99
168 191 102
165 188 111
169 193 105
163 186 99
166 190 92
167 191 95
171 194 108
155 178 80
168 192 80
160 184 95
165 189 102
169 193 84
165 187 88
165 188 84
160 183 114
161 185 95
161 184 105
161 184 88
162 184 76
168 191 114
165 188 95
162 184 107
163 185 102
166 188 95
159 181 92
156 179 88
161 184 99
158 181 95
151 174 88
142 165 72
157 179 95
159 182 99
160 183 99
156 178 108
157 178 92
150 173 88
152 172 92
161 183 92
150 171 67
155 176 95
144 165 84
152 173 95
146 168 72
153 175 88
140 161 84
140 162 51
149 170 80
147 168 92
143 164 57
147 168 92
147 167 88
136 155 84
135 155 74
123 142 94
108 129 72
115 136 92
90 114 101
96 120 111
77 104 99
89 114 111
93 117 124
86 112 113
92 118 130
112 136 140
79 107 105
89 115 131
84 111 127
80 107 107
101 124 127
86 113 111
92 118 127
108 131 136
95 120 122
97 122 124
87 114 120
93 120 122
83 109 120
90 117 135
93 119 122
110 133 128
97 122 130
85 111 134
77 107 134
95 119 123
90 113 130
87 113 132
92 116 121
86 110 120
90 113 121
103 121 120
82 108 115
96 118 122
85 108 110
83 107 123
88 112 125
85 108 117
79 105 121
78 105 100
81 108 117
71 102 121
70 99 113
66 97 114
65 95 95
68 98 113
65 96 109
72 101 103
69 99 100
63 94 108
63 94 107
63 92 95
61 93 114
68 97 107
57 89 100
58 90 114
54 87 95
56 90 99
55 87 107
56 89 111
57 91 110
58 91 109
56 90 107
56 89 96
57 91 110
58 92 114
57 91 118
56 89 108
58 91 117
58 91 117
59 93 118
58 92 113
55 88 113
56 89 105
58 92 111
56 90 107
58 92 118
56 89 100
56 89 113
57 91 118
58 92 118
57 90 111
55 88 110
57 89 116
58 91 121
57 89 110
56 89 108
58 91 107
58 93 120
56 90 103
56 90 102
57 90 111
57 90 113
58 91 115
57 90 105
57 90 113
58 92 115
57 91 111
56 89 97
56 89 102
57 90 111
57 90 111
54 87 102
56 89 108
56 89 99
55 88 99
56 89 103
55 87 84
51 82 97
58 92 114
56 88 100
53 85 80
51 82 80
55 87 102
52 82 94
53 82 76
68 93 74
58 81 62
85 104 54
96 113 36
88 106 44
117 133 36
104 118 0
108 124 0
112 128 0
103 118 0
103 119 0
103 119 0
114 130 0
115 129 0
107 121 0
113 128 0
118 134 0
112 128 0
118 136 0
117 135 0
129 146 0
115 131 0
120 137 0
130 147 0
119 135 0
119 136 0
116 131 0
120 136 0
114 130 0
126 143 0
137 154 0
130 146 0
120 135 0
115 133 0
130 148 0
129 146 0
121 137 0
128 144 0
138 157 0
136 154 0
138 155 0
133 150 0
138 155 0
126 143 0
142 160 0
132 148 0
134 150 0
132 150 0
135 151 0
136 153 0
142 159 0
138 156 0
135 152 0
139 157 0
136 151 0
138 156 0
136 152 0
134 151 0
145 163 0
142 162 0
137 155 0
136 153 0
142 159 0
141 160 0
142 160 0
133 149 0
131 148 0
136 153 0
141 157 0
141 160 0
143 160 0
140 157 0
147 165 0
150 169 0
147 165 0
141 159 0
145 162 0
145 163 0
147 165 0
148 167 0
138 156 0
140 156 0
150 168 0
152 168 0
143 163 0
148 165 0
146 163 0
156 171 0
144 161 0
148 165 0
159 180 0
150 168 0
152 168 0
146 165 0
140 158 0
147 163 0
158 178 0
152 170 0
155 171 0
146 163 0
156 174 0
151 170 0
155 172 0
151 168 0
149 166 0
154 172 0
157 173 0
150 170 0
159 179 0
151 170 0
159 178 0
142 157 0
156 173 0
152 170 0
155 173 0
153 172 0
149 167 0
155 175 0
157 175 0
157 175 0
156 175 0
156 175 0
154 171 0
151 169 0
158 177 0
154 172 0
160 179 0
163 182 0
156 175 0
154 173 0
162 180 0
157 174 0
153 173 0
155 173 0
152 169 0
151 171 0
160 180 0
161 179 0
157 176 0
157 176 0
154 172 0
153 173 0
165 183 0
168 188 0
163 182 0
163 183 0
161 180 0
160 179 0
164 185 0
165 183 0
164 183 0
156 174 0
155 175 0
164 184 0
162 182 0
160 179 0
159 177 0
163 182 0
162 182 0
166 186 0
160 179 0
160 181 0
160 179 0
163 182 0
163 183 0
163 182 0
163 183 0
164 183 0
162 183 0
167 185 0
165 186 0
169 188 0
165 187 0
163 182 0
161 182 0
164 184 0
162 182 0
162 184 0
164 184 0
167 187 0
164 182 0
170 194 76
173 196 80
172 195 84
171 195 72
169 193 44
171 195 72
169 193 67
171 195 67
170 194 92
171 195 72
168 192 88
171 195 80
172 195 72
165 190 76
170 192 72
173 197 102
169 192 80
172 196 92
169 194 72
167 190 88
171 195 88
166 191 88
170 194 80
172 195 92
163 188 84
172 196 99
169 193 92
172 196 95
167 190 92
175 198 105
166 190 84
169 192 36
166 189 88
171 194 84
170 193 111
165 189 80
167 190 76
171 194 108
170 194 111
165 187 99
163 187 67
169 192 84
172 194 105
173 195 92
164 187 80
168 190 88
167 191 99
167 190 92
166 189 95
165 188 99
170 193 88
164 187 108
166 189 105
168 192 105
161 184 95
168 191 92
160 183 114
165 188 111
155 177 76
170 193 122
167 190 117
166 189 114
168 191 111
161 183 105
161 184 95
165 187 95
161 183 111
164 186 120
162 184 102
157 179 80
154 177 76
158 180 99
162 184 99
160 184 99
161 183 111
163 185 88
149 171 76
158 178 102
162 184 92
153 176 105
148 170 88
159 180 102
146 166 92
148 170 57
157 179 95
149 170 80
152 174 99
149 170 92
151 172 95
143 163 88
156 177 76
145 166 57
155 176 92
141 161 88
140 162 84
152 173 99
138 157 84
135 154 76
134 152 76
124 144 76
119 139 65
112 133 99
100 122 90
81 106 88
94 118 125
84 109 90
95 119 122
86 112 107
90 116 121
78 105 108
87 113 117
99 122 117
81 108 110
89 114 130
98 124 129
100 125 121
100 125 126
98 122 119
94 117 109
105 129 130
100 123 119
98 123 124
86 112 134
109 132 131
107 131 135
103 127 135
83 110 130
96 120 129
100 119 126
90 113 129
100 120 107
102 122 121
92 114 115
104 124 129
96 116 120
98 118 118
87 110 114
85 110 124
79 106 113
88 113 125
83 108 113
71 98 118
69 98 107
80 105 95
72 101 114
60 91 110
72 101 107
66 96 114
68 98 103
69 97 110
58 90 107
63 93 103
63 93 108
56 87 97
70 100 103
59 90 100
59 92 100
55 88 102
58 90 94
56 90 103
57 91 111
56 90 107
56 89 118
58 91 118
57 91 113
56 89 117
56 89 99
57 90 114
54 86 99
57 91 110
57 90 97
58 91 113
58 91 117
56 88 102
54 86 100
57 90 124
56 89 102
56 88 100
58 91 115
57 90 111
56 89 115
58 92 118
57 90 111
56 89 102
54 85 100
56 90 97
56 90 105
56 90 107
57 91 115
57 89 111
56 89 108
56 88 105
56 89 105
55 87 100
55 88 103
58 91 117
56 89 103
57 90 120
54 86 94
59 93 118
58 91 114
54 87 99
57 91 111
57 90 110
57 90 107
56 89 105
56 89 108
55 87 105
57 89 110
52 83 86
55 87 102
55 87 99
56 88 103
55 87 100
54 86 103
55 88 102
54 86 95
57 86 84
64 89 88
73 93 67
85 104 60
93 109 31
106 122 36
93 111 0
103 118 0
111 125 0
112 127 0
107 122 0
110 127 0
110 125 0
106 121 0
123 139 0
117 133 0
115 131 0
116 132 0
114 131 0
109 125 0
110 126 0
113 128 0
119 133 0
113 129 0
120 139 0
120 138 0
117 133 0
119 135 0
127 145 0
127 144 0
124 142 0
127 143 0
133 151 0
124 143 0
135 154 0
124 141 0
121 139 0
121 139 0
125 144 0
130 148 0
124 141 0
129 145 0
135 153 0
131 149 0
136 154 0
142 162 0
143 159 0
137 156 0
131 150 0
126 146 0
139 156 0
136 153 0
140 159 0
140 157 0
134 151 0
133 150 0
137 155 0
137 154 0
143 162 0
139 157 0
142 159 0
137 155 0
141 160 0
142 161 0
131 146 0
139 155 0
139 157 0
139 156 0
140 157 0
141 156 0
135 152 0
145 162 0
147 166 0
142 161 0
140 157 0
149 167 0
146 164 0
147 166 0
142 160 0
146 165 0
145 162 0
146 164 0
148 166 0
147 165 0
143 161 0
143 161 0
144 161 0
142 159 0
159 177 0
152 172 0
148 167 0
153 170 0
147 164 0
151 170 0
149 168 0
141 158 0
141 158 0
150 168 0
152 172 0
150 168 0
158 178 0
150 167 0
148 165 0
151 168 0
145 165 0
152 169 0
157 176 0
146 164 0
154 172 0
155 173 0
151 168 0
156 174 0
152 171 0
151 168 0
148 167 0
144 162 0
158 177 0
155 172 0
155 173 0
158 176 0
153 170 0
157 175 0
155 175 0
153 170 0
155 175 0
152 172 0
161 180 0
157 175 0
158 176 0
162 178 0
161 180 0
153 171 0
163 182 0
157 176 0
154 172 0
158 179 0
160 180 0
163 181 0
155 173 0
160 179 0
153 172 0
157 176 0
155 174 0
158 177 0
161 182 0
160 180 0
160 179 0
162 183 0
156 176 0
165 184 0
162 182 0
157 175 0
157 175 0
161 180 0
166 186 0
160 180 0
158 178 0
162 182 0
162 180 0
158 178 0
160 180 0
165 183 0
162 183 0
158 178 0
160 177 0
161 181 0
166 186 0
163 186 0
163 182 0
157 176 0
161 181 0
164 184 0
164 185 0
165 185 0
168 190 0
160 181 0
165 185 0
165 186 0
166 186 0
171 193 0
165 183 0
170 190 0
165 185 0
168 192 62
174 199 76
174 198 105
168 192 44
170 194 76
170 195 67
169 193 99
172 195 88
171 194 84
168 191 80
170 194 76
169 192 44
172 194 76
171 195 62
170 194 88
173 196 72
166 190 84
164 189 84
172 195 111
169 193 80
169 192 84
172 195 84
170 193 102
171 195 102
163 187 76
168 191 84
172 196 92
169 193 92
168 192 88
168 192 92
168 190 88
167 191 99
164 188 88
168 192 95
167 190 76
166 189 102
171 194 108
167 191 102
171 195 95
170 194 102
166 190 84
168 191 102
173 196 92
168 192 117
167 190 84
163 186 67
171 193 108
163 186 95
168 192 117
164 186 102
168 190 97
165 188 95
163 185 92
168 191 114
166 188 122
165 188 99
171 193 95
165 187 67
156 179 105
162 184 92
164 188 102
167 189 111
161 184 92
160 183 72
164 186 92
158 181 92
158 181 120
155 178 95
161 183 95
160 183 80
156 178 111
160 182 114
162 184 99
164 185 107
155 177 108
159 182 105
160 181 95
163 185 80
162 184 84
154 175 92
154 175 111
156 178 88
147 169 67
156 178 92
161 183 111
156 177 99
153 175 108
137 159 57
149 170 84
144 165 80
149 170 84
145 166 84
145 165 84
145 166 67
132 153 67
139 158 57
140 160 105
133 152 72
138 158 76
137 157 84
131 149 80
115 135 84
108 129 114
93 116 92
93 117 100
81 108 97
99 124 127
93 118 108
91 115 108
94 118 122
93 119 115
97 121 122
82 110 102
91 116 117
98 122 134
90 116 122
101 125 125
94 118 128
109 132 134
93 118 117
91 116 120
85 111 110
83 111 108
98 123 129
87 114 131
100 124 135
86 111 126
104 126 107
103 126 123
94 116 124
99 123 124
95 117 127
96 119 116
94 116 115
87 111 115
93 111 101
88 110 109
91 117 122
92 115 106
88 113 113
85 110 110
84 109 102
79 105 114
86 110 98
79 108 105
67 98 114
71 100 110
64 93 88
70 99 108
61 93 90
73 100 86
58 88 94
68 97 103
63 95 116
65 95 76
60 93 105
60 90 96
59 92 111
57 90 114
58 90 109
55 87 100
55 87 94
55 88 107
59 93 120
56 90 105
57 90 97
55 88 99
56 89 110
57 90 111
57 89 108
59 93 118
58 91 108
57 89 115
57 90 110
55 88 110
57 90 115
58 91 117
55 88 102
58 92 117
56 89 102
55 88 99
57 89 108
57 89 111
58 91 115
58 91 115
57 89 114
56 89 102
57 91 117
55 88 105
56 90 102
55 88 103
57 90 113
56 89 99
56 89 99
57 90 108
55 88 100
57 90 114
56 89 103
56 88 99
57 89 99
56 88 88
56 89 102
55 86 107
55 88 107
57 89 107
55 87 97
54 86 97
55 87 102
54 86 90
56 89 110
54 86 95
56 89 99
53 84 88
51 81 88
55 86 110
63 90 92
74 95 65
78 98 65
102 119 54
91 110 54
100 117 36
107 121 18
92 107 0
98 115 0
103 119 0
102 118 0
109 123 0
99 116 0
122 138 0
105 119 0
118 133 0
112 128 0
117 133 0
106 121 0
127 145 0
118 136 0
127 144 0
127 144 0
118 135 0
124 142 0
118 135 0
115 131 0
110 127 0
123 140 0
122 140 0
125 142 0
121 136 0
122 137 0
120 137 0
113 128 0
132 150 0
117 132 0
137 156 0
118 137 0
129 147 0
121 139 0
123 141 0
127 145 0
128 146 0
131 150 0
129 149 0
128 145 0
125 144 0
128 146 0
134 152 0
128 145 0
134 153 0
121 137 0
137 158 0
133 151 0
145 163 0
144 161 0
134 150 0
132 150 0
121 139 0
143 162 0
137 154 0
140 159 0
129 146 0
139 158 0
133 152 0
138 157 0
131 148 0
135 154 0
147 164 0
141 159 0
142 158 0
145 162 0
137 154 0
142 162 0
141 159 0
144 161 0
145 162 0
147 164 0
146 164 0
145 164 0
151 168 0
147 167 0
149 167 0
152 170 0
148 165 0
152 171 0
146 165 0
142 160 0
152 169 0
149 168 0
146 163 0
160 179 0
149 166 0
150 168 0
147 165 0
149 167 0
150 168 0
152 169 0
148 167 0
143 161 0
155 175 0
152 170 0
154 172 0
154 172 0
151 169 0
151 167 0
159 180 0
162 181 0
152 172 0
156 175 0
153 170 0
155 173 0
143 161 0
157 175 0
154 172 0
151 170 0
151 169 0
157 172 0
161 177 0
151 171 0
155 173 0
163 184 0
147 167 0
159 176 0
156 176 0
152 170 0
151 171 0
160 181 0
159 178 0
154 174 0
159 176 0
156 176 0
157 177 0
155 173 0
164 184 0
159 177 0
157 177 0
152 170 0
155 175 0
157 174 0
161 180 0
158 177 0
157 175 0
155 173 0
166 186 0
156 174 0
164 183 0
153 171 0
161 182 0
158 177 0
158 177 0
157 177 0
159 177 0
162 182 0
165 186 0
156 172 0
164 183 0
166 183 0
165 183 0
162 184 0
163 181 0
161 181 0
167 189 0
159 180 0
161 182 0
160 179 0
157 176 0
163 184 0
164 185 0
166 186 0
163 182 0
163 184 0
160 181 0
160 183 0
169 191 0
163 183 0
159 179 0
165 186 0
166 187 0
166 187 0
159 180 0
165 186 0
166 185 0
167 188 0
173 196 80
171 195 84
168 192 88
171 195 80
170 194 76
170 194 72
169 192 76
174 198 88
168 193 95
167 191 72
171 195 80
170 193 72
168 191 76
172 196 95
173 196 95
169 193 84
172 195 67
169 193 108
168 192 95
170 193 92
175 198 105
167 191 92
166 190 92
170 194 67
167 190 88
168 192 99
172 195 102
170 194 88
174 197 111
169 193 84
172 196 105
169 193 80
170 194 84
166 190 84
171 194 102
163 186 84
168 193 95
168 192 111
162 185 88
162 184 84
164 188 111
165 188 99
171 193 92
161 183 84
168 192 117
166 189 99
171 194 95
170 194 105
168 191 99
162 185 76
163 187 88
165 187 92
164 187 108
166 191 108
155 179 80
161 183 95
168 191 99
160 183 76
161 183 92
166 189 105
169 191 108
165 187 105
158 180 107
152 174 94
170 193 111
157 180 88
159 182 92
163 186 92
158 180 92
155 177 108
159 179 88
159 181 99
162 185 102
163 184 95
159 181 95
156 178 92
157 179 105
154 175 92
163 184 114
156 177 76
158 179 99
157 178 105
152 172 95
151 173 80
156 176 80
150 173 90
149 169 88
153 175 102
140 160 84
154 174 99
150 171 92
154 175 114
149 169 84
142 162 72
142 162 76
143 163 84
136 156 84
136 157 76
139 160 80
145 164 92
141 159 88
134 153 95
120 139 100
98 119 80
108 129 111
95 120 113
83 108 103
101 123 112
90 115 113
97 121 114
85 112 120
85 111 106
95 120 115
98 122 127
97 120 104
95 119 120
90 115 119
99 122 120
92 118 133
90 114 110
113 135 124
104 128 120
89 115 134
107 130 127
95 120 120
83 109 113
96 120 123
110 132 130
102 122 124
87 112 120
96 118 109
89 112 106
95 115 117
102 123 122
91 116 112
92 116 111
97 120 99
96 119 110
99 122 116
90 115 117
84 110 113
83 107 107
76 103 103
76 104 110
70 100 111
74 101 105
81 108 90
70 99 113
75 103 103
72 103 117
70 98 90
67 98 103
62 92 103
65 96 108
62 93 92
64 93 86
65 95 86
57 91 100
57 88 90
55 88 102
56 89 102
57 90 106
55 87 102
57 90 103
56 89 103
56 89 102
57 90 115
56 89 107
55 88 102
58 91 113
56 88 102
58 92 120
57 91 117
57 90 110
57 91 99
54 86 102
54 85 92
56 89 107
55 87 110
56 89 105
58 91 114
56 89 111
55 87 90
54 87 88
57 89 114
55 88 86
56 89 95
57 89 110
57 90 111
57 91 114
56 89 105
56 89 110
55 87 90
54 86 99
58 91 103
52 83 84
55 88 99
55 88 97
53 85 92
56 89 95
56 88 107
56 89 107
54 87 102
55 87 97
54 86 94
56 88 105
56 89 105
53 85 95
56 89 108
54 85 92
53 84 97
53 85 92
56 86 74
58 86 78
57 84 86
74 97 62
69 89 51
89 107 44
100 117 51
90 106 25
110 125 18
107 119 0
109 123 0
104 120 0
110 124 0
100 115 0
102 118 0
101 116 0
103 120 0
116 133 0
115 132 0
106 123 0
117 134 0
119 136 0
131 146 0
115 132 0
112 130 0
111 128 0
124 138 0
129 147 0
118 134 0
114 131 0
126 144 0
123 139 0
118 136 0
117 134 0
122 140 0
121 136 0
125 144 0
127 143 0
127 143 0
131 150 0
125 144 0
129 146 0
127 143 0
131 149 0
125 143 0
129 145 0
129 145 0
135 153 0
130 147 0
131 148 0
134 152 0
131 149 0
133 152 0
135 154 0
134 151 0
137 155 0
128 144 0
142 160 0
137 154 0
140 158 0
145 164 0
137 154 0
136 154 0
142 160 0
143 161 0
139 156 0
136 154 0
139 156 0
143 162 0
142 159 0
141 160 0
149 167 0
148 167 0
142 160 0
145 162 0
152 170 0
138 156 0
144 162 0
146 166 0
147 163 0
154 172 0
138 157 0
144 163 0
142 160 0
157 177 0
140 158 0
148 168 0
146 165 0
157 174 0
148 167 0
149 166 0
136 152 0
144 164 0
152 170 0
145 163 0
141 159 0
151 169 0
154 171 0
149 167 0
150 166 0
150 168 0
149 165 0
149 168 0
150 168 0
149 167 0
148 165 0
152 171 0
154 172 0
155 174 0
141 158 0
154 173 0
151 170 0
155 175 0
153 174 0
157 175 0
154 172 0
160 179 0
155 174 0
159 176 0
153 172 0
158 177 0
149 169 0
156 173 0
163 182 0
158 179 0
156 175 0
157 175 0
157 177 0
152 172 0
156 175 0
159 178 0
153 174 0
154 172 0
157 175 0
152 170 0
153 173 0
158 178 0
158 178 0
158 179 0
154 175 0
158 178 0
156 175 0
157 174 0
151 171 0
162 182 0
164 184 0
153 174 0
158 180 0
158 177 0
156 175 0
162 181 0
161 183 0
162 181 0
163 184 0
163 181 0
161 181 0
158 176 0
159 177 0
166 187 0
160 179 0
160 180 0
165 186 0
163 184 0
160 180 0
165 185 0
163 183 0
160 177 0
159 178 0
167 184 0
155 174 0
167 188 0
161 180 0
165 186 0
163 182 0
159 179 0
163 183 0
161 181 0
163 184 0
160 181 0
163 182 0
166 187 0
167 186 0
166 186 0
168 188 0
162 183 0
164 185 0
167 188 0
162 181 0
170 194 84
167 192 57
173 197 84
176 199 67
170 193 67
175 199 88
170 195 102
170 194 62
173 196 67
169 193 72
172 196 84
172 195 102
170 194 57
169 193 84
169 192 67
174 198 92
167 192 111
169 192 80
169 193 76
170 194 114
172 195 95
166 190 99
166 189 72
166 189 92
166 189 76
170 193 88
172 195 92
171 194 84
173 196 102
172 196 92
170 194 99
166 190 84
170 193 92
170 193 88
161 184 80
169 193 76
172 195 122
166 189 95
168 192 95
168 191 105
169 192 80
161 184 80
165 189 114
171 194 105
166 189 95
164 187 76
166 189 114
162 185 80
160 183 80
164 187 80
161 184 84
165 189 92
164 187 100
164 187 92
165 187 97
167 191 102
162 184 100
158 182 88
164 187 88
165 187 88
170 193 102
162 185 105
162 184 76
152 175 70
156 179 97
159 180 92
162 184 92
164 187 95
159 181 99
159 181 95
154 176 95
150 173 108
155 178 88
165 187 114
157 180 105
156 178 72
155 177 108
164 185 99
167 187 105
161 182 117
155 177 111
154 176 102
150 171 84
151 171 88
154 175 80
150 171 80
155 176 102
154 175 108
157 179 95
155 176 95
152 173 80
144 164 88
150 171 88
144 165 76
142 162 80
143 163 80
134 154 72
136 157 92
142 161 88
135 155 80
122 141 51
132 151 76
124 143 86
116 135 90
113 134 95
98 120 105
97 120 117
83 108 107
90 114 102
86 112 107
94 118 105
94 119 110
91 116 120
89 114 110
89 114 122
73 101 108
93 118 117
95 119 122
100 124 122
99 123 132
109 133 125
105 128 121
99 123 115
96 121 121
99 123 125
85 111 115
92 115 120
99 123 132
93 117 115
107 129 120
95 120 103
102 126 133
103 124 119
104 124 96
106 126 114
107 127 87
95 115 105
96 119 94
92 114 105
103 123 107
88 112 103
83 108 103
82 108 103
79 107 117
82 107 100
80 108 97
78 104 90
65 95 113
71 99 99
67 94 95
71 100 97
65 95 102
66 95 86
71 99 97
66 96 97
58 91 117
62 92 101
62 92 87
60 91 97
56 88 94
56 87 95
54 85 99
54 86 98
57 89 108
56 89 94
57 90 108
57 90 110
57 90 107
55 88 94
56 89 103
58 92 117
54 85 103
56 88 95
57 91 110
56 89 97
55 88 92
56 89 100
57 90 107
55 88 99
56 89 105
57 91 110
55 87 95
57 90 110
54 86 92
58 91 103
58 92 111
56 88 107
57 90 90
58 91 111
52 83 88
56 89 110
55 88 94
54 87 82
56 88 99
57 90 99
56 88 97
52 83 94
54 87 98
54 85 92
54 85 95
54 87 82
56 89 97
56 88 102
56 89 107
55 87 103
56 89 105
55 87 95
56 88 107
56 88 107
54 86 99
55 86 82
57 85 80
79 103 74
75 98 88
84 102 57
92 111 54
96 113 36
90 106 25
105 121 0
94 110 0
98 113 0
93 108 0
103 118 0
114 128 0
98 112 0
104 119 0
114 130 0
103 116 0
96 110 0
114 130 0
102 117 0
128 146 0
118 135 0
103 119 0
121 137 0
107 124 0
110 126 0
117 134 0
115 130 0
118 134 0
121 139 0
124 139 0
109 125 0
116 131 0
125 142 0
127 143 0
133 151 0
126 144 0
129 148 0
128 146 0
134 152 0
133 151 0
127 145 0
127 144 0
131 148 0
139 158 0
131 148 0
129 149 0
124 143 0
144 161 0
132 149 0
138 156 0
122 141 0
138 157 0
143 162 0
147 165 0
134 152 0
141 160 0
129 147 0
137 155 0
139 159 0
130 148 0
131 149 0
135 152 0
139 157 0
142 160 0
143 161 0
135 151 0
142 162 0
142 162 0
146 166 0
141 159 0
140 159 0
142 159 0
138 157 0
148 168 0
144 162 0
134 149 0
133 150 0
152 171 0
143 160 0
140 158 0
149 169 0
144 163 0
148 167 0
152 171 0
139 155 0
149 169 0
148 166 0
144 161 0
145 164 0
154 174 0
144 162 0
146 165 0
145 163 0
145 161 0
141 159 0
149 170 0
148 165 0
161 181 0
153 172 0
150 167 0
155 172 0
152 169 0
155 173 0
150 168 0
148 168 0
152 173 0
154 173 0
153 171 0
151 168 0
148 167 0
157 177 0
150 168 0
153 173 0
153 170 0
155 175 0
154 174 0
151 170 0
155 173 0
159 177 0
150 168 0
151 172 0
158 178 0
156 175 0
154 173 0
152 171 0
155 175 0
155 174 0
152 170 0
152 169 0
159 178 0
161 178 0
162 180 0
154 171 0
158 176 0
154 173 0
162 181 0
153 169 0
161 181 0
161 179 0
157 176 0
158 178 0
157 177 0
161 182 0
158 176 0
160 177 0
154 173 0
158 177 0
162 180 0
162 182 0
160 179 0
166 186 0
160 178 0
160 179 0
163 183 0
162 181 0
161 181 0
158 178 0
161 181 0
165 184 0
165 184 0
162 182 0
158 179 0
162 181 0
164 185 0
162 183 0
158 178 0
161 182 0
166 183 0
160 179 0
160 179 0
159 178 0
160 178 0
159 180 0
166 187 0
169 188 0
168 188 0
168 189 0
165 187 0
166 188 0
165 184 0
165 184 0
164 184 0
160 180 0
159 180 0
164 185 0
166 187 0
168 188 0
167 189 0
170 194 84
169 192 62
171 195 76
168 193 62
169 192 62
167 191 76
170 193 76
174 197 76
171 194 72
165 189 88
173 196 88
170 192 88
171 194 84
171 195 88
173 196 76
168 194 102
175 198 99
170 194 80
168 191 72
171 194 92
168 190 99
168 192 95
170 194 84
170 194 102
170 193 88
173 196 108
165 189 92
169 192 92
166 190 95
168 192 108
165 188 88
164 187 88
168 191 111
170 193 88
172 195 92
170 193 111
161 184 92
172 195 108
168 191 92
172 196 102
169 192 99
163 187 80
169 192 105
173 196 92
167 191 102
161 185 108
172 194 92
169 192 99
159 183 105
170 193 108
166 189 60
164 187 84
168 191 99
162 186 88
163 185 102
161 184 84
169 192 108
168 191 102
162 185 99
168 190 121
165 188 105
161 183 117
167 189 111
164 188 94
157 180 105
159 181 102
160 183 105
162 184 102
159 181 120
160 183 108
160 182 95
160 182 102
153 175 95
157 179 99
156 179 99
156 178 99
152 174 95
160 182 102
156 178 92
160 182 125
157 178 95
153 174 80
162 185 114
153 174 88
158 180 114
147 169 99
151 171 105
153 173 105
160 180 108
143 163 88
146 167 84
150 171 105
154 175 95
149 169 84
135 156 95
134 154 72
139 159 76
139 158 92
145 164 99
131 150 72
139 157 84
139 159 88
121 140 76
122 142 62
108 127 80
103 124 76
100 122 103
103 125 118
81 106 96
95 118 110
88 113 108
92 116 114
107 131 120
89 113 116
97 120 124
91 116 121
93 119 118
100 124 113
88 114 103
94 118 123
104 128 126
90 116 101
96 121 125
103 126 130
88 113 120
89 114 112
105 126 125
92 116 115
109 129 104
104 124 108
102 123 121
96 120 120
95 117 117
112 131 103
103 124 86
104 126 105
109 132 105
98 119 98
90 113 80
95 118 104
88 115 118
75 104 92
83 108 96
82 108 97
66 95 94
76 102 94
82 109 95
68 97 92
75 103 84
74 102 88
68 94 93
67 95 94
76 100 80
62 92 94
61 92 97
60 90 94
62 92 94
54 86 90
57 88 88
54 85 78
59 91 108
56 88 102
55 88 94
55 87 110
55 87 108
57 89 108
54 86 95
51 82 82
56 90 103
55 88 95
57 89 114
56 89 103
57 90 113
55 88 103
57 90 108
55 87 90
53 85 95
56 89 103
57 89 102
56 89 113
55 87 95
56 89 108
56 89 103
56 89 113
54 86 100
57 90 102
55 88 100
54 86 102
57 90 113
53 86 88
56 89 100
56 89 108
53 84 97
55 87 95
55 86 100
55 87 102
56 88 114
56 89 111
53 85 84
53 85 92
52 83 82
54 86 95
55 88 86
53 84 97
53 85 94
54 85 97
53 84 90
51 82 76
58 87 90
70 94 67
65 89 60
85 108 70
84 103 47
89 108 47
99 117 0
108 123 25
97 112 0
112 127 0
102 117 0
111 126 0
98 113 0
103 116 0
109 124 0
114 129 0
100 116 0
106 121 0
108 124 0
113 128 0
114 128 0
101 117 0
118 132 0
106 122 0
124 141 0
118 135 0
116 133 0
122 138 0
118 133 0
122 137 0
111 126 0
121 137 0
110 127 0
124 142 0
125 142 0
122 139 0
129 146 0
114 132 0
133 150 0
125 142 0
126 144 0
138 156 0
128 145 0
127 145 0
134 151 0
134 153 0
129 147 0
130 148 0
135 151 0
131 151 0
135 153 0
129 147 0
126 142 0
128 146 0
131 150 0
147 167 0
127 143 0
133 151 0
144 163 0
134 153 0
132 150 0
137 156 0
134 154 0
140 160 0
134 152 0
142 160 0
143 161 0
142 159 0
144 161 0
142 160 0
148 167 0
142 161 0
141 159 0
151 169 0
143 162 0
136 156 0
147 164 0
144 160 0
134 153 0
149 169 0
141 156 0
149 168 0
136 156 0
139 156 0
144 163 0
146 166 0
141 158 0
147 166 0
144 161 0
152 172 0
149 169 0
145 163 0
151 169 0
151 167 0
138 156 0
147 167 0
153 172 0
151 171 0
150 170 0
150 169 0
148 168 0
145 162 0
143 160 0
147 167 0
148 169 0
146 164 0
145 165 0
152 170 0
151 168 0
149 168 0
146 162 0
145 165 0
147 166 0
158 176 0
154 172 0
153 172 0
162 181 0
161 180 0
158 176 0
156 175 0
160 178 0
152 169 0
154 171 0
156 176 0
157 174 0
158 177 0
154 174 0
155 174 0
161 179 0
158 176 0
163 180 0
150 169 0
161 181 0
158 178 0
162 181 0
158 175 0
160 180 0
159 178 0
153 172 0
156 172 0
158 175 0
165 184 0
153 173 0
164 183 0
161 180 0
158 177 0
160 178 0
155 174 0
157 175 0
156 174 0
153 172 0
159 178 0
154 172 0
163 184 0
161 181 0
164 183 0
166 185 0
165 186 0
164 184 0
161 179 0
163 182 0
162 182 0
162 183 0
160 181 0
165 185 0
165 185 0
161 180 0
164 183 0
163 184 0
159 178 0
157 178 0
165 185 0
166 186 0
162 182 0
167 185 0
161 183 0
164 185 0
168 189 0
162 182 0
167 187 0
168 189 0
166 186 0
166 186 0
165 186 0
161 181 0
165 185 0
162 183 0
165 186 0
163 183 0
164 183 0
164 182 0
167 187 0
170 194 67
172 195 84
170 194 80
175 198 76
171 194 76
170 194 95
172 196 88
173 196 76
175 199 88
173 197 76
166 190 67
175 199 102
173 197 92
170 193 80
171 195 88
173 197 95
175 196 102
164 188 57
170 194 76
172 195 114
171 195 105
172 196 102
168 191 84
172 195 88
169 192 105
167 191 76
169 193 88
173 196 95
171 194 102
168 191 99
167 190 95
169 193 76
170 193 111
168 191 111
171 195 99
170 193 72
171 195 125
167 190 95
166 190 80
169 191 105
171 194 114
164 187 111
169 193 80
167 190 102
165 187 80
164 188 108
155 178 76
166 189 95
166 189 99
165 188 76
165 188 95
168 191 99
166 191 97
163 186 102
160 184 76
163 185 90
163 187 92
158 181 84
161 185 88
160 183 95
163 185 88
167 190 99
165 189 88
156 179 105
161 184 88
158 180 88
162 185 102
167 190 92
163 185 82
161 184 92
154 176 95
159 181 92
164 186 92
154 175 76
162 183 99
166 187 122
159 181 99
149 171 88
160 181 125
154 177 105
152 174 88
156 179 105
153 175 102
151 172 88
158 179 92
148 169 99
152 174 88
143 164 80
151 171 111
146 166 84
152 173 95
153 173 105
149 169 99
149 169 95
148 169 105
130 149 72
145 165 80
143 162 84
146 166 88
135 154 80
125 144 72
121 139 95
132 150 80
126 144 78
122 142 90
117 136 84
108 127 95
107 129 94
108 130 113
101 124 118
99 122 107
102 124 113
86 111 111
101 123 118
88 114 109
98 123 112
85 112 108
84 109 107
82 108 120
96 121 113
103 127 113
104 127 119
94 120 109
90 117 125
98 121 116
94 117 110
93 118 108
96 119 116
107 127 113
106 126 117
102 123 108
110 128 109
108 129 98
112 133 93
101 122 108
102 123 86
113 133 105
103 126 99
103 125 84
93 117 105
99 121 97
85 111 103
85 111 101
83 107 94
93 116 80
82 109 99
73 100 94
76 104 105
71 98 90
79 106 92
63 91 88
68 97 93
66 93 80
71 99 102
66 94 99
68 98 99
62 91 94
57 88 90
60 90 84
53 86 78
54 85 95
54 86 88
56 88 102
55 88 99
55 87 100
55 87 94
54 86 99
57 90 102
54 85 97
55 88 107
55 87 103
54 86 95
57 90 103
55 87 100
56 89 102
55 88 92
55 88 107
57 90 107
55 87 90
56 88 100
58 91 108
54 86 99
54 86 103
56 89 100
53 84 92
56 89 103
55 87 88
56 89 103
53 84 95
56 89 105
54 86 88
52 83 90
57 90 114
58 91 107
54 86 88
53 84 82
53 83 97
53 84 86
53 83 95
54 86 94
52 82 94
54 86 100
54 86 102
54 86 99
53 85 82
57 88 84
62 89 76
76 100 76
71 92 65
66 91 67
89 108 51
90 107 36
90 106 18
90 107 36
97 112 0
100 115 0
105 120 0
100 116 0
97 113 0
102 118 0
113 129 0
108 123 0
114 130 0
104 121 0
101 116 0
98 114 0
111 127 0
117 133 0
120 136 0
119 135 0
115 130 0
109 126 0
110 126 0
114 131 0
114 130 0
115 133 0
130 148 0
112 130 0
116 132 0
118 135 0
129 147 0
121 137 0
127 145 0
112 128 0
122 141 0
136 154 0
129 146 0
134 152 0
132 149 0
127 144 0
137 158 0
139 159 0
131 149 0
123 140 0
123 141 0
126 144 0
131 149 0
142 160 0
128 145 0
124 141 0
137 157 0
133 153 0
134 152 0
118 135 0
143 162 0
139 158 0
142 161 0
135 153 0
144 161 0
134 151 0
140 158 0
136 157 0
146 164 0
133 152 0
143 162 0
141 158 0
140 158 0
136 156 0
142 162 0
142 160 0
143 162 0
141 161 0
140 158 0
143 163 0
140 159 0
145 165 0
142 160 0
142 159 0
148 166 0
142 161 0
148 169 0
143 162 0
154 175 0
152 172 0
149 167 0
157 174 0
149 168 0
148 168 0
150 168 0
145 163 0
149 168 0
155 172 0
149 166 0
152 172 0
151 171 0
147 165 0
146 164 0
152 172 0
153 173 0
147 165 0
149 168 0
151 172 0
145 163 0
151 170 0
148 165 0
151 170 0
151 168 0
144 161 0
153 172 0
152 168 0
148 168 0
151 168 0
157 174 0
155 174 0
150 168 0
158 176 0
155 176 0
158 177 0
151 171 0
151 170 0
155 174 0
159 176 0
154 174 0
158 179 0
161 181 0
153 173 0
153 172 0
156 176 0
156 175 0
162 181 0
160 179 0
162 183 0
152 171 0
161 182 0
150 167 0
152 172 0
157 178 0
156 176 0
154 172 0
156 175 0
160 181 0
158 176 0
154 174 0
155 173 0
157 176 0
161 180 0
158 178 0
154 173 0
159 177 0
163 183 0
163 184 0
164 183 0
163 184 0
162 182 0
163 184 0
154 172 0
162 182 0
166 187 0
165 186 0
161 180 0
156 177 0
165 184 0
165 185 0
163 181 0
155 173 0
160 181 0
164 184 0
155 175 0
159 179 0
166 186 0
165 186 0
165 185 0
162 182 0
166 185 0
159 180 0
163 184 0
168 189 0
164 184 0
168 187 0
161 182 0
163 183 0
165 186 0
164 183 0
166 188 0
162 182 0
163 183 0
163 182 0
161 181 0
164 184 0
169 192 0
171 194 62
166 190 80
172 197 95
171 195 84
171 194 84
168 193 80
170 194 57
169 193 88
174 198 88
171 195 92
173 196 95
167 190 80
175 198 111
169 193 84
171 194 99
174 196 102
172 196 95
172 196 99
170 194 92
170 193 111
173 197 99
169 193 88
167 191 84
170 194 102
174 198 102
168 192 88
166 190 105
169 192 105
173 196 105
167 191 84
175 198 117
175 198 117
165 189 92
166 189 99
167 190 108
166 190 102
167 191 80
164 187 95
166 189 92
166 189 99
168 191 76
162 185 88
171 195 95
164 188 108
167 190 102
167 190 84
164 188 95
170 194 95
172 195 105
167 189 105
170 193 95
162 187 82
159 183 102
161 183 76
162 186 99
157 179 90
165 188 124
163 187 74
167 190 105
156 178 88
161 184 95
154 177 72
160 183 108
158 180 84
165 187 102
164 187 117
158 181 92
160 182 95
165 187 117
160 183 84
162 184 103
153 175 62
150 173 82
162 184 102
154 176 108
155 177 92
150 172 102
146 168 76
155 177 92
150 171 92
153 174 99
159 182 114
157 179 88
159 180 95
160 181 114
152 172 102
155 176 108
154 173 92
144 165 99
149 170 102
145 166 80
149 169 92
151 171 102
137 156 88
150 169 111
154 173 102
142 161 88
138 156 88
142 162 84
147 166 99
132 152 88
132 150 80
131 149 62
123 142 67
131 150 90
125 143 90
114 133 80
106 126 94
100 123 99
81 105 74
100 123 122
95 120 113
89 113 107
92 116 113
91 116 114
105 129 127
90 115 113
94 118 126
102 125 115
95 119 117
101 125 108
93 117 113
95 116 108
91 114 110
100 122 110
106 129 117
96 120 107
106 127 107
107 125 99
104 127 125
110 131 110
108 128 103
98 117 107
102 124 99
110 129 89
108 129 99
109 128 90
116 137 84
108 129 92
100 122 102
95 119 97
93 116 86
90 110 82
80 106 102
94 119 92
85 108 67
80 106 88
78 103 80
71 97 72
74 101 84
74 100 80
74 102 95
68 97 82
74 101 97
62 89 80
69 96 84
60 90 84
68 98 82
51 82 85
56 89 95
56 88 90
56 89 104
53 85 90
55 88 100
54 87 99
54 86 84
56 88 103
56 89 95
56 89 95
55 87 100
57 90 108
55 88 92
53 85 76
54 86 95
55 87 94
56 89 111
54 87 88
58 91 113
56 89 99
55 88 86
57 90 100
55 88 96
53 84 74
55 88 86
54 86 100
55 87 99
55 87 97
54 86 95
57 90 105
53 85 90
52 83 82
53 85 90
54 86 90
53 85 94
55 88 100
54 86 95
55 87 95
55 87 102
55 88 90
54 85 78
54 86 97
51 82 88
55 85 76
55 85 82
66 90 72
67 90 62
72 94 65
75 95 60
89 107 40
104 119 25
91 108 31
68 81 0
110 125 0
82 96 0
106 121 0
100 116 0
97 112 0
107 122 0
97 113 0
104 119 0
110 125 0
110 126 0
113 129 0
117 133 0
102 117 0
107 125 0
108 124 0
114 131 0
123 141 0
114 131 0
104 122 0
107 125 0
119 137 0
114 131 0
116 133 0
112 130 0
108 126 0
120 140 0
117 133 0
128 144 0
115 132 0
128 146 0
125 143 0
125 143 0
121 138 0
114 132 0
116 133 0
133 150 0
118 137 0
136 154 0
128 146 0
132 151 0
131 149 0
132 151 0
137 155 0
133 150 0
127 144 0
127 145 0
135 154 0
140 158 0
133 153 0
136 155 0
145 163 0
141 162 0
144 163 0
132 149 0
138 159 0
136 154 0
137 154 0
140 159 0
137 153 0
139 158 0
142 161 0
135 151 0
140 157 0
140 158 0
140 158 0
136 153 0
143 161 0
128 145 0
140 161 0
144 164 0
149 169 0
146 164 0
137 157 0
140 157 0
141 158 0
141 159 0
153 171 0
146 164 0
147 166 0
149 168 0
136 153 0
149 170 0
149 169 0
145 164 0
146 166 0
149 168 0
154 173 0
147 165 0
149 168 0
148 166 0
154 173 0
147 163 0
151 171 0
153 172 0
150 167 0
148 168 0
154 171 0
152 171 0
153 172 0
160 180 0
151 170 0
157 178 0
155 174 0
157 175 0
150 171 0
156 175 0
158 177 0
162 182 0
153 173 0
155 174 0
149 166 0
157 177 0
154 174 0
150 171 0
163 183 0
156 176 0
150 165 0
158 177 0
156 175 0
156 174 0
157 176 0
156 176 0
152 172 0
161 180 0
161 181 0
154 172 0
147 165 0
151 171 0
158 176 0
160 179 0
159 179 0
149 167 0
156 174 0
159 180 0
160 180 0
157 176 0
157 177 0
160 180 0
166 187 0
162 180 0
163 181 0
163 183 0
157 176 0
164 187 0
163 183 0
162 183 0
160 179 0
156 174 0
164 185 0
164 184 0
161 182 0
161 181 0
159 178 0
156 174 0
156 174 0
166 185 0
160 179 0
161 181 0
164 183 0
167 188 0
159 178 0
163 182 0
158 175 0
163 182 0
167 190 0
165 185 0
163 181 0
165 184 0
163 183 0
165 186 0
167 188 0
168 189 0
167 189 0
163 183 0
164 185 0
163 184 0
164 183 0
162 182 0
162 182 0
170 191 0
166 187 0
165 186 0
166 188 0
167 189 0
167 189 0
167 187 0
161 180 0
163 183 0
172 196 72
174 198 80
174 198 84
171 195 76
173 196 57
173 196 88
170 194 76
171 195 84
175 198 80
169 193 72
166 191 99
168 191 84
168 192 51
174 197 84
169 193 102
170 194 92
175 199 111
170 194 88
170 193 92
174 197 99
174 198 105
164 189 84
174 196 108
169 193 76
173 196 80
175 198 108
167 190 84
170 193 99
168 192 88
164 189 92
164 187 67
172 195 95
168 192 92
165 189 92
173 196 84
169 193 95
172 194 92
169 192 105
167 191 95
172 195 114
169 193 92
169 192 99
167 189 102
172 195 99
161 184 92
167 189 88
170 193 114
158 181 80
169 192 99
165 188 76
164 187 95
164 187 72
167 189 115
166 188 72
161 185 76
169 193 108
160 182 95
160 184 121
161 184 95
156 179 102
170 193 111
163 187 95
157 179 80
158 180 92
156 179 84
167 190 120
157 179 95
153 175 97
166 188 125
161 183 99
167 189 108
158 181 95
158 179 95
152 175 67
150 172 99
163 184 117
151 173 105
150 172 76
153 176 102
151 173 99
157 179 92
155 176 105
147 168 88
161 182 120
152 173 102
150 171 84
150 172 105
153 174 117
143 164 92
150 171 114
155 175 99
141 162 80
146 166 99
148 167 99
143 162 95
139 159 99
144 164 99
133 153 92
133 153 62
140 160 67
135 154 88
131 149 102
141 160 84
130 149 67
133 151 99
128 147 92
122 140 67
114 132 84
118 137 82
93 115 100
108 130 102
92 113 97
98 121 122
91 116 97
98 122 111
90 114 115
91 116 110
80 106 113
93 117 114
98 121 94
101 125 121
99 124 113
96 121 121
85 111 94
108 132 122
105 127 118
108 131 107
87 112 113
113 135 113
96 119 115
110 131 102
110 133 107
105 126 94
111 131 95
108 130 97
115 136 79
111 133 94
111 129 83
98 117 84
116 137 67
91 115 86
85 108 84
88 112 102
97 118 82
91 114 65
87 111 90
84 109 95
78 104 90
60 91 108
82 107 94
69 95 71
68 96 99
74 102 100
59 88 86
60 89 86
67 96 95
60 91 92
53 84 82
57 88 88
56 86 88
58 89 74
55 88 95
52 84 80
56 88 95
54 85 86
54 85 99
53 85 90
55 87 100
53 85 100
53 85 88
54 85 100
53 84 84
56 88 106
54 86 100
54 86 92
54 86 92
55 88 100
54 86 97
55 87 92
55 88 100
54 86 95
54 86 90
57 90 110
53 84 97
55 88 100
55 87 88
54 87 97
56 89 97
53 85 88
54 86 90
53 85 90
54 86 80
52 83 82
53 84 86
54 85 82
55 88 92
51 81 76
52 83 84
52 83 78
54 84 94
66 94 86
61 88 72
76 98 67
70 92 60
68 89 72
80 99 60
83 100 57
89 106 25
85 100 18
102 117 18
110 125 0
85 101 0
83 98 0
110 124 0
81 97 0
107 123 0
99 115 0
93 109 0
96 112 0
107 122 0
108 126 0
112 128 0
94 110 0
93 108 0
112 129 0
114 130 0
109 126 0
106 124 0
108 124 0
117 135 0
111 127 0
117 133 0
124 140 0
120 136 0
123 140 0
114 132 0
124 142 0
120 137 0
131 150 0
124 141 0
125 144 0
124 141 0
123 141 0
120 138 0
137 155 0
127 143 0
131 150 0
124 141 0
122 140 0
122 140 0
132 151 0
127 145 0
127 143 0
137 152 0
140 157 0
131 151 0
136 155 0
122 139 0
131 152 0
138 157 0
135 152 0
132 150 0
140 158 0
139 158 0
135 153 0
134 153 0
138 155 0
126 144 0
135 153 0
135 153 0
143 162 0
148 169 0
132 151 0
133 152 0
137 158 0
138 157 0
133 151 0
139 158 0
143 162 0
137 156 0
144 162 0
141 161 0
147 167 0
141 159 0
146 165 0
148 167 0
155 175 0
146 163 0
145 165 0
147 164 0
141 162 0
151 171 0
143 162 0
146 166 0
150 168 0
148 168 0
154 171 0
153 174 0
145 164 0
151 170 0
153 174 0
148 168 0
150 169 0
147 164 0
146 165 0
141 160 0
155 175 0
148 167 0
145 163 0
155 175 0
158 178 0
143 159 0
157 176 0
146 166 0
153 172 0
157 175 0
152 170 0
151 170 0
153 174 0
153 171 0
150 169 0
156 175 0
155 175 0
155 176 0
149 167 0
159 180 0
151 170 0
154 173 0
154 174 0
152 170 0
151 169 0
151 171 0
154 174 0
155 176 0
157 176 0
156 175 0
158 177 0
164 184 0
160 179 0
158 178 0
150 169 0
159 177 0
154 173 0
160 179 0
163 181 0
159 179 0
155 175 0
162 183 0
164 183 0
160 179 0
153 171 0
164 184 0
162 181 0
163 181 0
158 177 0
162 180 0
157 177 0
158 176 0
159 179 0
164 183 0
157 177 0
154 174 0
164 183 0
166 186 0
161 182 0
162 181 0
163 184 0
157 177 0
156 175 0
162 184 0
159 177 0
163 183 0
157 177 0
161 181 0
153 172 0
167 188 0
164 186 0
163 182 0
165 186 0
163 182 0
164 185 0
162 181 0
164 183 0
163 184 0
164 185 0
162 182 0
164 185 0
160 180 0
165 185 0
166 187 0
159 180 0
165 186 0
166 186 0
166 186 0
161 182 0
160 179 0
164 186 0
162 182 0
165 186 0
161 181 0
170 194 99
173 196 72
172 196 76
167 190 51
171 195 80
167 190 88
170 193 99
176 200 102
171 195 84
173 197 92
168 192 92
168 192 92
172 196 99
171 195 76
174 197 95
172 196 102
172 196 108
171 195 99
168 193 99
170 193 95
168 191 102
170 193 80
169 192 95
171 195 92
171 195 108
167 189 72
170 194 102
167 191 92
171 195 114
170 193 92
173 196 88
166 189 80
174 198 105
165 188 88
168 191 99
174 197 117
172 195 114
168 191 88
172 195 108
167 190 111
167 190 67
169 192 95
171 195 127
171 194 108
164 187 88
166 189 102
165 189 111
171 193 99
164 188 88
163 186 105
162 185 92
162 185 92
161 184 90
172 195 99
171 193 92
165 188 97
157 180 90
161 184 102
161 184 72
157 180 72
165 187 92
163 187 95
165 187 97
162 185 95
164 186 105
165 187 114
156 178 80
168 191 108
152 175 99
160 183 80
156 178 95
162 184 88
153 176 84
151 173 80
160 183 95
164 186 114
161 184 95
151 173 72
153 176 88
142 164 76
160 182 80
151 172 84
155 176 80
162 183 95
152 174 111
146 166 80
156 177 99
157 178 92
155 175 99
151 171 102
148 169 88
147 168 92
163 184 108
133 153 92
147 167 95
152 172 111
139 158 84
137 156 80
151 171 108
127 146 80
148 167 92
134 153 72
131 149 72
137 156 80
135 153 92
125 142 88
132 149 88
121 139 84
115 133 82
103 121 51
95 115 78
106 126 94
106 127 115
95 118 107
90 113 91
98 121 124
86 112 107
87 112 108
95 118 107
93 117 107
100 123 112
98 121 112
111 133 122
102 124 117
102 124 94
98 120 97
105 126 102
112 132 90
111 131 107
112 131 99
101 121 103
115 136 113
108 130 88
108 130 88
110 130 92
120 137 76
109 130 99
114 134 90
123 142 92
106 126 78
105 125 88
98 119 92
102 123 82
92 117 95
88 112 86
87 110 80
77 103 82
84 107 76
69 95 67
78 102 82
71 95 80
72 97 72
73 100 76
70 96 70
66 94 88
62 91 88
71 98 86
62 90 88
59 89 88
56 87 86
53 84 80
53 84 95
53 84 85
54 85 90
55 88 90
53 84 88
54 86 100
54 86 90
52 84 90
53 84 92
53 84 90
52 84 90
53 85 84
54 85 95
56 88 94
54 85 94
54 86 86
53 84 99
53 84 86
52 83 88
54 85 92
52 84 78
52 83 94
54 85 97
55 87 88
54 86 88
52 84 97
53 85 90
54 86 92
54 86 90
55 87 103
53 85 90
53 84 88
53 85 90
53 84 86
52 83 95
59 87 80
67 93 84
57 84 67
60 84 62
71 93 54
70 93 72
78 95 40
78 94 18
96 111 25
82 99 44
78 93 0
100 116 0
102 117 0
97 113 0
94 108 0
99 114 0
99 116 0
98 113 0
98 111 0
117 133 0
94 111 0
97 112 0
99 115 0
109 126 0
105 121 0
103 120 0
121 137 0
109 125 0
97 115 0
107 123 0
117 133 0
104 120 0
103 118 0
106 120 0
114 130 0
122 140 0
119 135 0
128 145 0
123 140 0
102 118 0
114 131 0
125 142 0
125 144 0
121 137 0
121 137 0
134 151 0
133 152 0
128 145 0
128 145 0
131 148 0
128 146 0
140 157 0
134 152 0
139 157 0
123 141 0
133 152 0
135 153 0
131 149 0
135 153 0
122 141 0
125 144 0
137 157 0
133 151 0
132 151 0
137 154 0
140 158 0
140 159 0
140 158 0
132 150 0
142 160 0
138 156 0
142 161 0
140 159 0
137 155 0
141 160 0
138 158 0
138 156 0
137 156 0
134 152 0
144 161 0
142 161 0
130 151 0
140 159 0
135 153 0
138 157 0
147 165 0
144 163 0
149 169 0
149 167 0
151 170 0
148 166 0
149 169 0
145 162 0
148 166 0
148 168 0
147 167 0
145 163 0
150 169 0
153 173 0
145 165 0
149 168 0
153 172 0
146 164 0
151 170 0
150 169 0
150 169 0
153 173 0
156 174 0
145 164 0
156 174 0
145 162 0
157 176 0
151 169 0
153 173 0
146 164 0
153 173 0
162 182 0
151 171 0
150 168 0
148 166 0
156 174 0
156 175 0
159 178 0
161 183 0
145 163 0
151 170 0
157 177 0
153 173 0
152 171 0
150 169 0
157 176 0
152 171 0
155 174 0
155 173 0
159 180 0
160 180 0
155 176 0
155 174 0
153 171 0
149 168 0
162 183 0
156 178 0
158 177 0
158 178 0
155 173 0
159 180 0
157 176 0
159 179 0
158 177 0
159 178 0
164 183 0
157 178 0
147 167 0
160 179 0
157 177 0
157 176 0
162 183 0
163 182 0
160 179 0
155 175 0
158 177 0
161 181 0
159 178 0
157 176 0
161 182 0
162 181 0
156 177 0
166 185 0
162 182 0
163 183 0
164 184 0
163 182 0
157 177 0
157 178 0
160 181 0
161 182 0
164 185 0
160 180 0
160 180 0
161 181 0
163 184 0
163 183 0
168 188 0
163 184 0
163 182 0
164 184 0
165 185 0
167 187 0
165 186 0
163 184 0
167 188 0
163 183 0
166 187 0
170 191 0
162 182 0
160 181 0
167 187 0
168 189 0
165 186 0
160 179 0
161 182 0
164 185 0
168 189 0
165 186 0
170 193 84
169 193 67
174 198 99
169 193 92
174 197 88
172 195 72
169 194 99
169 193 80
169 192 72
167 190 80
173 196 92
173 196 95
174 197 120
174 197 105
170 193 95
175 198 102
169 192 88
170 193 88
170 193 84
174 196 76
173 196 84
172 196 84
170 193 105
171 195 88
176 199 111
165 189 84
168 192 72
163 187 95
168 192 99
173 196 120
169 192 84
171 195 105
165 189 95
169 192 88
171 195 127
168 191 92
171 194 105
169 193 102
162 185 88
167 191 117
164 188 80
167 190 114
163 187 108
171 194 92
167 190 102
169 192 92
167 190 84
166 189 92
164 187 99
165 189 99
168 191 107
166 189 88
161 184 97
163 187 114
168 191 120
159 182 92
164 187 102
166 189 95
155 178 90
169 192 105
161 185 90
158 182 102
165 188 108
157 180 78
163 185 99
157 179 86
164 187 115
157 179 88
156 179 95
160 183 108
162 183 99
157 178 90
154 176 92
157 179 110
158 181 76
159 182 76
158 180 88
156 177 88
158 179 102
158 179 92
156 177 92
148 168 95
154 175 105
149 171 84
153 174 92
162 184 95
146 167 99
144 164 105
152 173 76
161 182 105
154 175 88
149 169 99
146 166 95
154 174 114
150 169 105
143 163 102
153 173 114
151 171 80
140 160 88
143 161 95
135 153 84
140 159 92
124 142 84
127 145 76
120 137 76
131 149 92
127 145 76
122 139 80
107 124 51
107 126 67
100 119 74
108 128 100
95 115 88
87 110 84
79 104 84
92 116 114
94 118 115
102 124 110
101 124 115
100 124 115
97 121 118
90 116 104
86 111 99
89 113 90
98 121 115
107 129 80
112 133 102
112 133 95
115 135 103
104 124 90
107 128 95
123 141 95
96 118 99
108 128 79
107 128 80
125 144 94
109 128 80
119 138 82
118 139 86
110 133 80
99 121 72
105 126 82
100 122 94
90 111 80
97 119 92
89 113 86
90 112 88
83 106 92
87 109 82
82 105 65
86 109 65
80 102 65
79 102 74
75 98 72
71 95 67
74 97 70
64 92 78
61 91 67
57 86 88
56 86 78
52 84 70
54 86 94
53 85 78
51 82 78
51 81 76
53 85 97
53 85 95
51 81 86
53 84 84
54 87 78
54 85 90
55 88 92
54 85 88
52 83 84
54 86 92
53 84 88
54 85 92
53 85 84
54 85 100
54 85 78
55 86 103
53 84 81
52 82 80
53 85 82
52 83 82
50 80 80
53 85 76
50 81 82
53 85 80
56 87 88
61 91 88
53 82 78
59 86 78
63 90 80
64 90 70
53 79 65
78 101 72
64 87 57
72 93 47
71 90 40
85 103 40
87 103 18
87 103 31
89 105 18
91 107 0
98 112 0
96 110 0
100 115 0
94 108 0
101 115 0
88 104 0
96 111 0
99 115 0
96 113 0
84 99 0
107 123 0
112 128 0
114 130 0
97 112 0
116 131 0
112 129 0
107 124 0
109 126 0
112 131 0
125 143 0
109 126 0
118 135 0
108 126 0
113 130 0
119 138 0
127 145 0
112 130 0
111 127 0
112 130 0
114 129 0
114 132 0
121 138 0
122 139 0
121 139 0
123 143 0
130 148 0
123 140 0
121 139 0
110 129 0
130 149 0
116 134 0
129 145 0
127 145 0
135 154 0
136 154 0
130 149 0
125 142 0
124 141 0
138 157 0
135 154 0
137 156 0
124 142 0
132 150 0
134 152 0
141 160 0
138 157 0
139 159 0
129 150 0
120 138 0
134 153 0
135 153 0
139 158 0
137 155 0
138 156 0
138 158 0
137 155 0
137 156 0
145 165 0
139 158 0
141 159 0
151 170 0
143 161 0
136 154 0
148 167 0
153 173 0
139 159 0
139 157 0
154 174 0
141 161 0
147 166 0
145 166 0
140 157 0
144 162 0
137 155 0
148 166 0
149 169 0
139 159 0
141 159 0
151 172 0
137 156 0
151 169 0
139 157 0
148 166 0
160 181 0
152 172 0
149 169 0
150 170 0
152 171 0
150 170 0
153 173 0
154 174 0
153 172 0
149 168 0
150 167 0
157 174 0
149 168 0
149 168 0
159 177 0
155 175 0
150 172 0
159 180 0
159 179 0
160 180 0
151 169 0
155 173 0
156 176 0
152 168 0
158 178 0
153 171 0
156 175 0
153 169 0
157 178 0
161 180 0
153 173 0
149 167 0
156 175 0
152 171 0
154 173 0
151 171 0
158 177 0
158 177 0
148 165 0
156 176 0
163 183 0
155 172 0
157 177 0
153 172 0
160 180 0
158 177 0
155 174 0
165 184 0
156 177 0
162 183 0
152 173 0
159 179 0
157 175 0
161 184 0
157 178 0
159 178 0
165 185 0
162 182 0
160 179 0
166 185 0
163 183 0
159 179 0
159 177 0
160 181 0
160 180 0
160 180 0
160 179 0
159 179 0
155 173 0
163 184 0
160 181 0
163 183 0
164 183 0
162 182 0
166 187 0
162 182 0
160 181 0
161 181 0
167 186 0
164 186 0
164 185 0
165 184 0
161 181 0
166 188 0
162 182 0
161 181 0
166 187 0
162 183 0
162 182 0
165 185 0
164 185 0
164 184 0
166 186 0
168 189 0
162 183 0
160 181 0
169 191 0
170 191 0
167 189 0
168 189 0
162 182 0
166 188 0
167 192 51
173 197 88
170 194 80
171 194 92
168 191 80
170 193 80
170 193 80
171 193 67
172 195 99
169 194 88
166 189 95
170 194 84
164 188 76
167 190 76
171 193 76
172 195 88
163 186 88
175 198 105
169 193 99
168 192 95
176 199 114
173 197 111
165 188 80
171 194 105
171 194 117
171 194 76
167 191 95
169 192 92
168 191 102
170 194 105
168 191 108
173 196 111
168 192 80
164 187 105
168 192 95
167 190 76
172 195 92
169 193 80
167 190 84
171 194 102
167 191 102
165 189 92
170 193 99
169 192 102
172 196 80
161 185 105
165 188 108
162 187 95
166 190 99
161 184 95
169 193 88
162 185 122
163 186 99
160 182 105
168 191 102
168 191 99
156 179 84
167 190 108
172 194 110
166 188 100
167 189 105
157 179 105
165 187 102
160 182 76
155 178 84
156 180 86
166 189 110
162 185 88
163 186 88
156 178 67
164 187 102
158 180 99
167 190 102
155 177 88
163 185 105
157 179 88
156 177 114
162 185 84
158 180 92
156 178 92
158 180 84
153 175 120
151 173 76
150 170 84
154 175 72
147 167 76
151 172 92
151 171 99
159 180 117
145 166 99
149 168 102
150 171 102
151 170 99
158 178 88
152 172 105
149 168 92
139 158 102
137 157 88
146 166 95
152 171 102
145 165 95
134 153 84
141 160 84
135 154 76
127 145 80
134 152 80
131 149 80
122 139 80
130 147 88
110 127 72
119 137 80
111 129 90
112 133 97
88 110 76
105 126 114
94 116 103
90 113 94
88 112 102
90 114 95
95 119 103
94 117 88
96 120 111
92 117 103
93 118 107
100 123 115
101 125 108
101 123 99
110 132 97
108 131 102
110 130 110
107 127 99
110 130 90
116 136 84
120 141 84
110 130 99
127 147 72
118 136 86
118 139 80
109 132 88
108 128 72
102 123 86
100 120 76
106 127 82
100 122 78
91 115 70
98 120 74
94 116 70
87 111 67
90 114 70
90 112 72
95 116 78
78 100 65
88 110 72
89 108 44
90 110 57
82 101 51
88 108 57
70 93 57
67 92 62
64 89 67
54 83 80
49 79 78
54 83 67
48 78 54
50 81 78
56 87 88
53 84 77
52 83 80
53 85 92
50 80 70
54 85 74
53 85 72
53 85 84
50 80 90
52 83 84
54 85 84
54 86 94
52 83 78
54 85 95
52 83 74
52 83 76
51 81 74
51 82 86
51 82 76
58 87 84
50 80 78
58 87 84
60 89 82
61 88 76
64 89 76
66 91 70
70 93 62
77 99 60
69 87 40
78 96 36
78 97 57
78 97 47
73 89 36
85 100 31
92 109 36
80 95 0
91 106 25
95 108 0
97 112 0
93 107 0
95 109 0
93 107 0
95 110 0
92 107 0
87 102 0
90 106 0
97 113 0
96 113 0
107 122 0
106 121 0
106 123 0
101 117 0
91 107 0
111 126 0
92 109 0
114 132 0
105 120 0
108 126 0
113 129 0
121 139 0
112 129 0
124 142 0
110 128 0
119 137 0
124 141 0
123 139 0
123 140 0
130 149 0
124 143 0
120 138 0
123 141 0
125 144 0
129 146 0
124 142 0
117 135 0
129 148 0
130 148 0
111 129 0
135 154 0
116 133 0
125 142 0
121 139 0
128 144 0
137 156 0
127 145 0
130 149 0
129 147 0
134 154 0
140 158 0
124 143 0
141 160 0
131 149 0
130 148 0
139 157 0
141 158 0
133 152 0
137 156 0
144 163 0
142 160 0
142 161 0
140 160 0
128 146 0
138 157 0
130 148 0
137 155 0
131 151 0
142 163 0
145 166 0
140 158 0
140 158 0
143 162 0
146 164 0
157 178 0
136 155 0
140 158 0
145 165 0
146 165 0
141 159 0
144 162 0
146 166 0
140 160 0
145 164 0
147 167 0
145 164 0
151 170 0
142 160 0
139 158 0
153 173 0
155 174 0
156 175 0
153 172 0
148 168 0
152 172 0
157 176 0
150 168 0
154 173 0
149 168 0
153 173 0
157 176 0
149 168 0
163 183 0
156 176 0
153 173 0
150 169 0
150 170 0
151 171 0
146 164 0
158 176 0
151 170 0
156 176 0
150 170 0
157 175 0
159 179 0
151 170 0
151 172 0
150 170 0
155 174 0
157 175 0
158 177 0
159 177 0
155 176 0
158 178 0
153 171 0
149 169 0
157 178 0
155 175 0
153 171 0
155 174 0
151 171 0
160 180 0
161 183 0
155 175 0
161 182 0
164 185 0
155 175 0
163 182 0
164 185 0
156 177 0
159 179 0
157 176 0
156 174 0
155 173 0
161 180 0
161 180 0
156 175 0
158 178 0
163 183 0
163 183 0
160 179 0
164 185 0
150 167 0
160 177 0
157 177 0
163 184 0
161 180 0
159 179 0
160 182 0
156 173 0
160 180 0
157 177 0
160 182 0
159 179 0
165 186 0
165 185 0
166 186 0
164 184 0
162 182 0
163 184 0
162 183 0
162 183 0
166 188 0
161 183 0
161 181 0
158 176 0
161 182 0
161 183 0
160 180 0
165 186 0
161 180 0
163 185 0
168 188 0
165 186 0
165 185 0
166 188 0
165 185 0
168 188 0
163 184 0
164 185 0
166 187 0
162 183 0
166 185 0
164 185 0
167 186 0
167 187 0
163 183 0
174 199 102
174 197 92
176 199 95
171 194 99
169 193 84
172 195 57
172 195 80
175 198 95
170 194 88
170 193 80
175 198 105
176 200 111
172 195 88
172 196 105
170 192 88
171 195 114
165 189 92
174 197 105
172 195 108
175 198 108
165 188 80
169 193 95
170 193 80
171 195 84
166 189 95
169 193 111
168 191 92
169 193 102
166 190 80
172 195 99
164 187 88
165 189 76
169 192 95
170 194 111
167 190 92
169 192 99
163 186 95
169 192 92
165 190 105
163 187 99
162 185 92
172 195 99
168 191 95
162 186 102
161 184 92
164 189 94
165 187 95
163 186 84
174 196 117
165 188 95
163 187 105
167 190 92
166 190 105
165 188 72
171 194 117
157 180 90
172 195 99
167 190 102
161 184 99
161 184 103
164 187 94
163 186 92
168 191 117
161 184 82
163 185 108
160 184 105
159 181 100
164 186 102
157 179 88
157 179 99
163 186 95
160 182 95
156 178 103
160 182 95
158 180 108
157 179 76
160 181 105
155 177 108
156 179 95
156 177 114
146 167 80
156 178 102
155 176 99
151 172 102
149 171 102
146 168 95
156 177 95
145 166 92
160 180 114
150 170 95
155 176 95
150 171 88
145 165 88
140 161 92
153 172 108
146 166 88
146 166 95
159 178 117
136 154 80
142 161 92
140 158 95
142 160 84
144 161 88
142 161 92
123 141 62
125 143 84
134 152 72
123 140 84
133 149 102
118 135 47
123 140 95
113 129 67
110 129 76
116 134 99
76 98 91
89 111 86
104 125 117
91 114 100
82 108 102
84 107 91
86 112 88
89 113 95
116 138 127
87 111 100
96 120 99
112 133 107
107 128 90
122 141 74
108 127 86
121 141 84
120 138 74
117 137 72
115 135 70
127 145 82
103 124 74
119 138 67
115 133 78
121 141 70
122 141 70
101 120 84
105 126 78
102 122 70
96 118 84
88 111 80
95 116 84
97 119 72
97 118 57
85 107 74
89 110 62
87 107 65
99 120 62
93 112 47
94 113 54
93 112 47
81 100 51
84 104 44
91 109 44
89 108 36
85 105 25
79 98 54
73 94 51
61 82 47
65 88 70
57 81 57
61 84 51
71 96 74
55 83 72
62 86 60
57 85 78
59 86 86
52 81 72
54 81 82
53 83 82
64 91 74
52 81 65
53 82 74
69 95 70
61 87 67
56 82 70
60 87 67
54 83 82
58 84 60
66 91 62
61 89 88
59 83 62
58 81 65
69 90 57
65 85 44
59 80 51
71 90 54
84 102 65
78 95 25
78 95 40
86 103 31
76 93 51
92 108 25
86 101 18
90 104 0
107 123 0
93 108 0
93 108 0
83 97 0
90 106 0
99 115 0
96 111 0
96 111 0
102 117 0
90 104 0
99 116 0
104 119 0
97 115 0
98 114 0
97 112 0
96 113 0
107 123 0
102 119 0
111 128 0
108 124 0
109 126 0
101 118 0
112 128 0
114 128 0
117 133 0
106 121 0
100 117 0
113 130 0
112 130 0
123 140 0
117 133 0
115 134 0
116 133 0
125 143 0
125 144 0
124 142 0
129 148 0
122 140 0
119 137 0
135 152 0
133 152 0
119 138 0
123 141 0
133 152 0
126 144 0
137 156 0
127 146 0
139 158 0
131 149 0
133 151 0
132 150 0
133 153 0
135 154 0
122 139 0
129 146 0
133 151 0
133 151 0
138 157 0
136 154 0
137 155 0
128 145 0
141 160 0
133 151 0
137 157 0
128 146 0
138 157 0
137 157 0
129 147 0
137 157 0
149 169 0
140 158 0
141 158 0
138 157 0
145 163 0
141 161 0
139 158 0
136 154 0
135 154 0
149 169 0
144 163 0
141 159 0
138 156 0
137 155 0
138 157 0
142 162 0
138 155 0
144 162 0
148 169 0
148 169 0
147 166 0
151 168 0
156 175 0
149 168 0
147 167 0
147 166 0
148 167 0
146 166 0
148 167 0
146 166 0
150 169 0
153 172 0
149 169 0
152 173 0
150 168 0
151 169 0
153 171 0
157 176 0
151 170 0
149 169 0
152 174 0
153 173 0
155 174 0
153 173 0
156 176 0
150 168 0
157 178 0
158 177 0
155 175 0
156 176 0
156 176 0
159 180 0
156 175 0
156 174 0
157 178 0
155 174 0
153 171 0
146 164 0
160 180 0
161 181 0
157 178 0
153 171 0
158 179 0
158 176 0
156 176 0
162 180 0
156 176 0
157 179 0
162 182 0
161 181 0
155 175 0
157 177 0
156 174 0
158 177 0
161 181 0
157 177 0
159 179 0
160 178 0
158 179 0
159 179 0
164 184 0
156 174 0
160 180 0
160 178 0
160 181 0
160 180 0
162 182 0
159 180 0
162 183 0
165 186 0
163 182 0
158 178 0
160 178 0
164 185 0
163 185 0
160 180 0
159 180 0
157 179 0
163 184 0
164 183 0
166 186 0
165 185 0
161 183 0
163 181 0
161 182 0
165 185 0
163 183 0
166 187 0
162 181 0
165 184 0
163 184 0
160 180 0
164 184 0
163 183 0
165 185 0
165 183 0
168 188 0
164 186 0
170 190 0
163 185 0
166 188 0
165 185 0
162 183 0
168 189 0
167 187 0
166 188 0
164 185 0
169 189 0
170 191 0
162 184 0
167 188 0
161 182 0
166 187 0
176 199 92
174 197 88
174 197 105
175 199 99
173 196 99
174 197 102
174 197 95
171 194 88
174 197 105
170 194 99
170 194 102
168 191 95
175 198 105
173 196 105
170 193 84
171 194 102
172 195 114
168 192 80
173 196 92
170 194 76
175 199 102
168 191 105
172 195 99
168 191 80
173 197 102
168 191 99
164 187 88
175 199 108
162 185 99
168 191 80
170 193 80
167 190 84
162 185 72
167 191 92
172 195 84
170 194 84
167 191 102
171 194 102
171 194 105
162 185 102
165 188 99
164 188 92
166 189 84
167 189 62
168 191 111
165 189 80
167 190 99
159 183 84
165 188 111
164 187 92
164 187 95
168 191 99
160 183 86
168 192 108
164 187 88
162 185 120
157 180 105
157 180 86
163 186 105
162 185 92
158 181 84
163 185 95
156 179 76
159 182 88
158 181 110
159 181 99
164 187 99
164 187 114
155 177 84
160 182 80
163 185 111
160 181 99
155 176 92
157 179 114
156 178 99
161 184 92
164 186 102
157 178 99
153 175 95
168 190 122
144 164 80
152 174 76
153 175 105
151 172 99
149 171 99
158 178 84
160 182 92
153 174 95
147 168 99
152 171 105
156 177 102
157 178 84
136 157 72
144 164 84
139 160 76
148 167 95
139 159 88
151 170 99
145 164 108
143 162 102
151 170 113
135 154 80
146 163 102
139 157 92
134 152 72
138 155 88
126 142 99
134 151 84
127 143 80
117 136 67
128 145 76
122 140 76
121 137 70
118 134 103
111 130 80
106 125 82
94 116 74
98 120 76
107 128 114
101 123 117
87 113 100
89 112 92
99 122 96
96 119 107
90 114 102
108 130 80
107 128 97
100 121 99
114 135 88
115 136 72
112 132 72
116 135 86
127 147 76
122 139 72
114 135 60
116 136 70
119 139 72
131 150 65
129 148 60
120 140 72
122 141 51
118 136 70
99 119 51
113 133 72
101 123 74
102 122 57
94 113 67
98 121 72
90 110 65
100 119 62
90 109 57
96 115 47
93 111 51
87 107 51
98 115 44
100 118 40
98 115 31
78 95 44
98 115 18
85 104 31
79 98 36
90 106 18
88 106 36
66 84 31
72 91 40
74 94 51
66 84 40
92 111 36
71 93 51
78 97 47
71 92 47
76 96 47
71 92 67
65 87 60
72 91 51
71 93 60
69 92 72
73 93 62
75 94 51
65 86 65
65 86 51
80 99 40
78 96 40
78 97 57
75 92 47
61 80 44
84 101 36
79 95 31
82 99 25
94 111 31
79 95 0
89 104 25
93 108 0
84 99 0
94 108 0
107 122 0
84 99 0
91 106 0
89 105 0
97 113 0
110 126 0
86 101 0
87 103 0
95 110 0
101 117 0
88 104 0
104 119 0
96 110 0
102 117 0
108 121 0
88 105 0
97 112 0
107 124 0
117 133 0
104 120 0
113 130 0
100 117 0
108 124 0
110 127 0
115 131 0
108 124 0
101 117 0
111 129 0
107 124 0
125 144 0
127 144 0
114 131 0
118 134 0
118 135 0
127 144 0
134 154 0
121 140 0
116 135 0
121 138 0
128 145 0
118 135 0
130 149 0
127 144 0
120 137 0
132 151 0
120 138 0
128 145 0
125 144 0
128 147 0
131 149 0
121 139 0
136 156 0
133 151 0
127 145 0
131 150 0
123 141 0
132 150 0
142 162 0
129 149 0
138 157 0
131 149 0
139 159 0
144 162 0
145 164 0
138 157 0
144 164 0
148 169 0
130 148 0
134 154 0
143 162 0
140 159 0
141 160 0
139 157 0
147 167 0
144 164 0
146 167 0
142 161 0
140 159 0
135 155 0
144 165 0
141 161 0
145 165 0
142 161 0
145 164 0
150 169 0
142 161 0
143 162 0
145 164 0
138 156 0
146 166 0
147 168 0
145 165 0
150 171 0
150 170 0
153 172 0
143 163 0
155 174 0
146 167 0
149 169 0
153 171 0
148 167 0
150 170 0
156 176 0
154 175 0
150 170 0
142 161 0
153 172 0
148 170 0
156 176 0
154 171 0
156 175 0
157 177 0
152 171 0
153 172 0
155 174 0
148 168 0
146 165 0
152 172 0
155 174 0
151 171 0
150 169 0
150 170 0
157 178 0
150 171 0
147 166 0
152 171 0
159 177 0
158 179 0
160 179 0
156 176 0
157 177 0
155 174 0
158 179 0
153 172 0
156 176 0
160 180 0
154 175 0
160 180 0
157 176 0
157 177 0
154 173 0
154 173 0
159 178 0
153 172 0
155 177 0
158 179 0
158 177 0
150 172 0
150 169 0
158 179 0
162 183 0
161 180 0
157 176 0
157 178 0
154 173 0
164 185 0
160 181 0
160 180 0
158 179 0
161 181 0
161 181 0
161 182 0
165 185 0
161 182 0
165 185 0
164 184 0
164 184 0
156 174 0
159 180 0
165 185 0
157 174 0
166 187 0
161 182 0
160 179 0
162 182 0
167 187 0
157 177 0
162 184 0
163 183 0
164 185 0
158 178 0
164 186 0
161 179 0
164 185 0
160 182 0
163 183 0
161 182 0
164 185 0
162 183 0
164 186 0
166 186 0
158 179 0
162 181 0
166 186 0
159 181 0
164 186 0
169 190 0
162 182 0
166 186 0
163 184 0
166 186 0
165 188 0
165 186 0
164 185 0
167 188 0
175 198 111
172 196 88
175 199 117
171 194 84
176 199 95
174 197 88
174 198 88
172 196 88
169 192 88
171 195 99
170 193 99
173 196 95
172 195 108
172 195 99
176 199 99
163 188 76
172 195 84
172 195 95
173 196 92
175 199 105
164 187 80
169 193 95
170 192 88
174 197 117
170 194 111
172 195 105
170 193 95
171 195 80
174 198 102
171 194 92
172 195 95
165 189 84
168 191 111
167 190 84
167 191 92
170 192 88
171 194 95
167 190 99
168 191 92
165 188 105
162 185 99
168 191 92
163 187 95
168 191 111
167 190 80
168 191 88
159 183 108
159 181 84
164 187 102
165 189 108
171 193 92
164 187 76
162 185 108
169 192 105
161 185 88
161 184 99
166 189 102
162 185 99
157 180 94
160 183 100
164 186 102
158 182 95
159 181 95
158 180 84
157 179 88
160 183 88
162 184 95
162 185 76
155 178 80
144 165 76
164 186 99
150 171 95
165 187 102
153 175 95
160 182 88
154 176 86
153 175 76
158 180 102
152 173 88
152 172 76
156 177 92
155 176 105
163 184 88
152 173 80
152 174 95
153 175 105
155 176 80
151 172 102
150 171 95
162 182 122
152 173 84
144 164 92
158 178 122
159 179 108
153 173 105
140 160 105
144 164 92
141 160 80
149 167 108
138 157 84
147 166 88
130 147 88
142 162 62
142 160 84
127 145 76
141 160 92
124 141 76
140 158 108
125 143 84
143 161 95
131 147 72
110 128 62
111 126 72
137 154 86
114 132 99
94 111 65
99 117 97
108 127 86
109 128 102
114 133 113
95 119 99
87 111 94
83 110 100
96 118 99
97 120 84
92 116 88
101 124 81
111 131 86
108 126 88
116 136 74
126 145 80
125 146 62
115 137 78
124 144 74
119 139 76
123 141 57
120 140 65
121 140 54
117 136 57
115 135 70
115 134 57
107 127 70
111 129 47
107 127 51
112 132 54
100 121 62
97 117 62
84 105 62
105 126 62
107 126 62
100 121 51
106 124 25
97 116 36
94 112 25
91 108 36
100 117 25
91 106 36
105 121 0
93 109 25
104 119 31
85 99 18
98 114 0
95 110 25
88 102 25
86 103 36
84 98 18
86 103 25
78 94 25
95 111 44
80 96 18
67 84 40
75 91 44
84 100 25
84 102 36
81 96 25
89 107 18
70 89 36
90 106 25
78 96 31
79 95 40
89 106 36
69 87 36
93 110 36
88 103 18
76 90 0
78 93 25
87 102 0
86 101 18
90 105 18
94 109 0
89 104 0
95 110 0
80 94 0
99 114 0
102 116 0
108 124 0
94 107 0
109 124 0
87 103 0
105 121 0
103 119 0
89 105 0
95 112 0
101 118 0
87 103 0
102 118 0
86 99 0
96 113 0
102 117 0
92 107 0
113 130 0
104 121 0
102 119 0
109 125 0
115 131 0
105 121 0
97 114 0
104 121 0
104 120 0
124 143 0
108 124 0
113 130 0
104 121 0
109 127 0
113 130 0
118 136 0
126 144 0
129 147 0
114 133 0
119 137 0
118 137 0
120 139 0
122 140 0
129 148 0
125 143 0
124 142 0
122 139 0
125 144 0
135 153 0
129 147 0
130 150 0
136 154 0
122 139 0
131 151 0
132 151 0
127 146 0
132 150 0
127 145 0
132 151 0
137 154 0
132 151 0
131 150 0
138 156 0
140 158 0
137 156 0
139 160 0
138 159 0
139 158 0
138 158 0
140 158 0
139 159 0
143 161 0
140 160 0
138 156 0
145 165 0
133 152 0
140 159 0
138 158 0
139 157 0
138 157 0
143 162 0
140 160 0
139 160 0
138 157 0
143 162 0
145 163 0
144 164 0
145 165 0
149 170 0
150 170 0
145 165 0
147 166 0
143 163 0
148 167 0
142 160 0
147 166 0
152 171 0
144 165 0
146 164 0
150 169 0
136 156 0
148 168 0
150 168 0
155 175 0
153 173 0
152 172 0
153 172 0
150 169 0
141 161 0
151 172 0
155 175 0
155 173 0
152 172 0
147 166 0
152 172 0
151 171 0
149 166 0
154 173 0
150 170 0
156 176 0
149 171 0
153 173 0
148 168 0
151 171 0
154 174 0
153 173 0
153 174 0
153 171 0
158 176 0
157 176 0
157 177 0
158 179 0
158 178 0
155 174 0
159 181 0
152 171 0
159 179 0
159 180 0
155 175 0
159 180 0
150 170 0
159 179 0
153 173 0
157 177 0
156 177 0
157 178 0
160 178 0
158 176 0
157 175 0
158 177 0
156 177 0
156 175 0
157 178 0
156 177 0
159 179 0
161 181 0
161 183 0
160 179 0
162 182 0
164 185 0
159 180 0
160 180 0
161 180 0
161 182 0
162 182 0
167 188 0
162 182 0
160 180 0
158 178 0
163 182 0
160 178 0
164 185 0
165 186 0
159 178 0
163 184 0
161 183 0
164 186 0
158 179 0
166 186 0
159 180 0
163 184 0
164 185 0
161 179 0
164 185 0
165 186 0
161 181 0
161 183 0
161 183 0
161 181 0
163 185 0
161 181 0
166 186 0
164 185 0
167 190 0
165 186 0
166 187 0
157 177 0
165 186 0
167 188 0
164 185 0
163 183 0
158 177 0
161 180 0
167 188 0
167 187 0
167 188 0
161 181 0
165 187 0
164 187 0
163 183 0
169 193 84
177 200 120
170 194 88
174 197 95
171 194 92
178 201 105
175 198 111
173 197 105
171 194 84
171 194 102
174 198 99
174 197 108
172 196 99
169 193 95
168 192 95
176 199 111
173 196 99
171 193 92
164 188 88
176 199 117
164 188 80
175 197 108
170 194 99
173 197 122
168 191 84
164 188 72
168 192 108
171 194 105
170 194 120
170 193 108
171 195 108
169 192 92
168 191 111
166 189 102
173 196 108
163 187 99
168 192 99
160 184 92
167 190 92
168 191 111
164 188 92
161 185 76
165 188 105
169 192 95
163 187 92
172 195 92
167 191 80
168 191 95
160 183 92
170 192 114
167 190 105
159 183 99
162 185 105
168 191 111
166 190 92
162 185 95
166 189 108
163 186 88
162 184 99
154 177 84
168 192 88
162 185 95
170 193 105
163 186 95
166 188 108
166 188 99
157 180 84
157 180 72
164 186 111
158 181 99
159 181 105
156 179 95
159 182 114
159 182 114
158 180 108
157 180 84
160 182 102
144 165 99
158 180 84
156 178 92
156 177 108
149 171 99
147 169 92
151 171 92
146 167 80
160 181 92
159 181 88
149 170 95
156 177 92
148 169 111
145 165 99
147 167 95
149 170 92
149 170 92
145 165 108
151 171 111
143 162 88
142 162 84
149 169 92
134 152 88
149 168 99
141 159 99
135 154 88
136 155 88
134 152 80
135 152 95
128 146 84
131 149 76
127 144 88
120 139 67
123 140 67
121 137 84
114 129 76
128 145 74
127 145 92
110 128 84
120 137 90
101 118 76
100 120 82
98 119 75
80 103 88
101 122 99
88 111 82
100 124 102
105 128 94
89 113 67
105 126 72
100 123 88
106 127 80
114 134 76
110 129 70
119 138 67
124 142 51
133 153 74
126 144 67
136 156 54
127 146 67
130 149 65
117 134 51
125 145 62
112 130 62
119 138 47
121 139 47
114 134 44
98 118 60
95 115 40
95 116 57
96 114 40
92 112 60
85 106 54
106 124 36
107 126 40
101 120 36
100 117 36
107 124 18
99 115 18
84 101 25
84 100 0
106 122 0
96 112 25
103 119 0
98 113 0
87 102 0
94 108 0
100 114 0
93 107 0
94 108 18
105 119 0
83 98 18
93 109 0
88 103 0
73 88 0
82 96 0
92 106 0
87 101 0
88 102 0
77 93 18
70 85 0
85 99 0
87 100 18
95 110 0
80 94 0
93 109 0
87 101 0
80 96 0
93 107 0
84 100 0
92 106 0
83 97 0
89 104 0
99 114 0
97 111 0
94 109 0
98 113 0
96 110 0
107 121 0
94 110 0
107 122 0
87 103 0
91 106 0
85 100 0
105 121 0
109 125 0
97 115 0
116 132 0
112 130 0
104 119 0
111 129 0
106 121 0
102 118 0
94 109 0
111 127 0
104 121 0
98 114 0
115 130 0
110 128 0
116 133 0
103 120 0
122 140 0
104 120 0
108 126 0
112 130 0
113 132 0
125 142 0
114 130 0
123 140 0
120 138 0
123 140 0
122 139 0
122 140 0
122 139 0
123 140 0
119 135 0
125 143 0
126 144 0
117 135 0
130 148 0
126 144 0
124 141 0
127 146 0
142 162 0
138 156 0
125 145 0
127 145 0
116 134 0
137 156 0
134 153 0
138 158 0
123 140 0
132 148 0
138 156 0
138 157 0
130 149 0
138 157 0
134 153 0
133 151 0
134 154 0
138 158 0
141 160 0
134 153 0
129 149 0
138 156 0
140 160 0
144 164 0
141 160 0
136 155 0
138 157 0
139 158 0
143 162 0
147 166 0
132 151 0
149 170 0
140 158 0
144 162 0
141 162 0
147 167 0
142 163 0
149 170 0
148 168 0
134 154 0
139 157 0
144 162 0
146 166 0
152 172 0
149 169 0
150 170 0
140 160 0
149 169 0
148 169 0
155 175 0
147 168 0
151 173 0
145 164 0
144 163 0
145 164 0
147 166 0
154 175 0
150 171 0
154 173 0
147 168 0
154 172 0
151 171 0
148 168 0
149 169 0
158 179 0
151 170 0
151 170 0
149 169 0
159 179 0
144 162 0
142 161 0
154 175 0
156 177 0
160 180 0
148 168 0
159 180 0
158 178 0
148 165 0
156 176 0
154 175 0
150 169 0
156 177 0
160 180 0
158 178 0
163 182 0
153 171 0
156 177 0
154 172 0
154 172 0
160 180 0
162 182 0
162 182 0
157 176 0
159 180 0
158 178 0
156 177 0
155 175 0
157 178 0
156 177 0
160 179 0
159 179 0
153 174 0
166 184 0
152 171 0
161 180 0
155 174 0
159 178 0
160 181 0
154 174 0
159 178 0
160 181 0
157 177 0
159 180 0
161 181 0
167 187 0
157 178 0
162 182 0
162 181 0
162 182 0
162 181 0
165 183 0
162 184 0
166 186 0
164 185 0
160 181 0
164 183 0
160 178 0
167 187 0
157 177 0
164 184 0
165 188 0
161 183 0
161 183 0
163 184 0
165 187 0
162 181 0
162 182 0
158 180 0
162 183 0
164 185 0
162 183 0
162 183 0
167 188 0
168 189 0
164 184 0
169 189 0
163 185 0
164 185 0
165 184 0
167 187 0
163 184 0
161 181 0
164 185 0
165 187 0
163 184 0
162 185 0
170 191 0
167 187 0
168 189 0
164 186 0
175 198 95
174 197 105
173 196 95
176 199 111
171 195 84
174 198 114
179 202 114
173 196 95
168 192 84
174 196 111
173 196 95
174 197 102
172 196 84
175 197 95
172 194 92
177 199 84
173 195 99
170 194 99
167 190 120
173 197 117
168 191 95
167 190 92
171 195 105
172 196 102
171 194 111
168 191 92
171 194 88
167 190 88
170 195 111
168 192 111
167 190 95
166 190 92
170 194 117
166 189 99
166 190 102
162 186 105
172 195 92
173 196 117
165 188 62
170 194 102
164 187 92
169 193 120
170 194 105
164 188 99
170 193 102
170 193 99
163 186 92
167 190 105
165 188 76
157 180 88
165 189 108
164 188 110
162 185 102
162 186 118
162 186 105
168 191 111
160 184 102
162 185 95
160 183 92
168 191 117
161 184 107
163 186 108
162 184 84
154 178 88
158 181 100
163 185 108
159 182 76
160 183 92
164 187 100
161 184 115
164 186 122
158 180 100
160 183 84
152 174 92
157 180 92
156 178 105
164 185 108
147 168 67
149 171 76
159 181 105
157 179 111
145 168 84
162 183 92
153 174 111
151 172 108
145 166 84
151 172 120
154 176 84
148 168 84
155 176 84
143 164 76
162 182 122
150 170 80
152 172 99
153 172 95
151 171 95
148 168 92
146 165 84
147 167 99
149 169 95
142 162 88
143 162 108
148 167 95
133 152 76
127 145 76
143 161 99
141 159 105
133 151 76
132 148 92
128 145 84
122 140 76
124 140 76
130 148 76
108 123 67
111 128 76
114 131 76
102 118 62
110 127 74
120 138 67
100 118 62
105 123 103
103 123 86
92 113 84
93 116 82
100 123 67
90 112 82
115 135 99
121 143 78
106 126 51
121 140 67
118 137 82
120 140 65
126 143 44
137 156 51
128 145 40
125 142 57
138 156 25
131 148 31
130 148 46
120 137 44
126 144 40
121 136 25
114 131 40
121 139 40
127 145 44
107 126 47
107 125 25
103 121 31
110 129 31
101 118 0
114 133 18
100 117 31
108 125 31
116 133 18
105 121 0
98 115 0
105 121 18
98 114 0
107 123 0
107 123 0
93 108 0
99 114 0
89 105 0
98 112 0
72 86 0
84 99 0
102 117 0
101 115 0
85 100 0
93 106 0
88 103 0
82 95 0
89 104 0
94 109 0
98 112 0
88 105 0
89 103 0
92 106 0
91 105 0
84 98 0
96 112 0
77 92 0
75 91 0
76 89 0
91 106 0
93 107 0
82 98 0
94 108 0
90 104 0
100 114 0
92 108 0
96 113 0
87 102 0
95 109 0
89 103 0
108 125 0
99 114 0
97 112 0
79 94 0
120 136 0
102 118 0
99 115 0
109 124 0
103 120 0
96 114 0
107 124 0
101 116 0
105 121 0
114 132 0
96 112 0
109 126 0
108 124 0
111 128 0
110 127 0
114 131 0
105 123 0
117 133 0
105 123 0
114 132 0
113 129 0
112 131 0
106 124 0
122 140 0
110 126 0
108 125 0
119 138 0
130 149 0
112 129 0
114 130 0
137 156 0
113 129 0
133 152 0
132 150 0
119 137 0
127 145 0
130 147 0
135 153 0
126 143 0
124 141 0
129 145 0
134 153 0
123 141 0
126 144 0
130 148 0
133 153 0
135 154 0
131 149 0
135 154 0
139 159 0
138 157 0
146 165 0
133 151 0
137 156 0
127 146 0
134 152 0
144 163 0
134 153 0
138 156 0
132 153 0
134 153 0
142 161 0
134 153 0
132 152 0
130 148 0
139 158 0
148 169 0
140 158 0
141 160 0
139 159 0
148 167 0
136 155 0
137 155 0
128 148 0
142 162 0
145 164 0
147 167 0
154 175 0
144 165 0
144 165 0
144 166 0
150 172 0
146 166 0
147 166 0
133 153 0
147 168 0
147 168 0
151 173 0
148 168 0
150 170 0
149 169 0
146 165 0
154 174 0
155 176 0
146 164 0
151 169 0
155 175 0
149 168 0
153 173 0
149 168 0
158 178 0
146 165 0
148 167 0
152 173 0
156 176 0
151 169 0
153 174 0
152 172 0
149 170 0
151 169 0
147 168 0
156 177 0
145 164 0
154 173 0
159 178 0
158 178 0
152 172 0
152 172 0
151 168 0
157 177 0
155 176 0
158 177 0
152 172 0
156 177 0
157 178 0
160 181 0
158 177 0
158 177 0
158 178 0
161 184 0
158 177 0
161 182 0
160 181 0
159 180 0
154 174 0
156 177 0
165 186 0
162 183 0
162 182 0
160 180 0
162 181 0
156 176 0
158 179 0
166 189 0
151 172 0
163 183 0
161 181 0
157 176 0
160 183 0
162 182 0
163 183 0
162 184 0
161 182 0
161 184 0
155 175 0
163 185 0
159 178 0
166 186 0
161 181 0
161 179 0
159 180 0
168 189 0
161 182 0
168 189 0
165 187 0
161 182 0
162 183 0
164 186 0
163 182 0
161 181 0
160 180 0
171 193 0
166 187 0
158 177 0
162 182 0
158 179 0
163 184 0
163 184 0
160 181 0
164 184 0
163 183 0
162 184 0
167 189 0
163 186 0
165 187 0
162 182 0
165 186 0
165 186 0
158 177 0
169 191 0
164 186 0
165 186 0
165 187 0
168 190 0
164 187 0
166 186 0
162 182 0
164 185 0
169 190 0
164 185 0
169 190 0
171 194 99
171 195 92
171 194 88
170 193 92
176 200 95
177 200 114
172 195 88
168 191 76
171 194 92
171 194 95
172 195 95
170 194 88
175 198 120
173 196 114
172 196 102
169 191 84
167 190 95
169 193 80
168 191 84
169 192 99
168 191 92
170 193 99
165 189 99
171 195 88
173 196 84
168 192 95
170 194 92
169 193 108
167 191 102
170 193 95
169 192 99
169 193 114
170 193 72
170 194 102
167 190 84
172 196 105
164 187 95
171 194 114
164 187 88
162 186 84
167 190 105
165 189 102
164 187 80
167 190 102
168 191 84
166 189 105
163 186 88
169 193 122
164 187 99
166 190 92
164 187 88
162 185 99
166 189 102
168 191 92
167 190 95
161 184 108
163 187 102
159 182 97
161 185 120
157 180 100
166 189 105
162 185 102
166 189 84
164 188 111
156 178 107
164 187 114
161 183 84
162 185 88
160 183 92
158 180 84
163 186 90
163 185 90
158 181 95
155 177 80
154 175 82
163 185 95
154 177 84
164 187 99
146 167 84
155 177 105
154 176 95
149 170 92
160 181 114
148 169 76
160 181 88
145 166 84
153 174 84
150 171 80
156 177 120
153 174 92
155 175 108
148 169 84
149 170 99
146 166 105
149 169 102
146 165 111
150 170 102
151 171 108
151 170 95
147 166 105
140 158 99
142 160 95
144 163 92
139 157 99
148 167 99
137 155 92
132 150 72
137 155 92
122 140 51
133 150 102
131 150 67
119 137 62
121 138 76
130 146 95
114 131 76
124 141 88
120 135 76
120 136 92
104 121 70
103 120 67
104 122 60
104 121 90
111 129 95
106 125 80
111 131 76
106 124 95
105 123 76
108 129 62
118 139 76
130 149 62
126 145 60
123 142 60
124 143 62
132 152 65
130 150 47
139 156 36
133 150 31
123 139 31
133 151 57
128 145 25
125 143 36
109 126 31
118 136 31
128 146 18
109 125 18
110 127 0
113 129 0
108 124 25
106 122 25
119 137 0
98 114 0
109 126 0
100 115 0
109 126 0
105 123 0
100 117 0
103 119 0
96 113 0
107 123 0
99 116 0
100 116 0
93 109 0
98 113 0
92 108 0
99 113 0
93 107 0
88 103 0
102 119 0
94 109 0
99 113 0
91 106 0
90 104 0
80 94 0
87 102 0
83 98 0
87 103 0
83 99 0
91 106 0
81 95 0
101 116 0
83 97 0
90 105 0
91 105 0
91 106 0
82 97 0
106 121 0
102 117 0
91 107 0
94 108 0
105 121 0
106 121 0
99 115 0
85 102 0
106 122 0
85 101 0
113 129 0
93 109 0
108 124 0
99 115 0
109 125 0
111 129 0
112 127 0
102 118 0
114 131 0
101 118 0
102 118 0
108 125 0
97 113 0
112 129 0
120 138 0
113 129 0
117 134 0
109 126 0
98 114 0
112 130 0
107 125 0
105 123 0
110 128 0
110 128 0
124 140 0
107 123 0
113 131 0
114 131 0
117 136 0
112 131 0
118 135 0
126 146 0
117 135 0
121 139 0
124 141 0
122 140 0
125 143 0
115 134 0
126 143 0
126 145 0
127 147 0
124 143 0
133 151 0
129 147 0
138 157 0
136 157 0
123 142 0
127 144 0
125 143 0
129 148 0
123 140 0
137 156 0
133 152 0
132 150 0
130 148 0
136 157 0
137 155 0
135 153 0
140 160 0
146 165 0
134 154 0
138 157 0
141 160 0
141 158 0
127 146 0
144 163 0
127 147 0
146 166 0
148 167 0
144 162 0
144 165 0
138 158 0
136 155 0
144 163 0
127 146 0
140 158 0
133 152 0
140 160 0
143 163 0
141 161 0
147 168 0
140 160 0
139 158 0
140 160 0
147 167 0
144 163 0
149 168 0
145 166 0
146 167 0
150 170 0
143 164 0
144 164 0
154 175 0
152 172 0
147 164 0
153 173 0
152 171 0
146 166 0
146 167 0
156 176 0
153 174 0
146 167 0
154 174 0
155 175 0
151 171 0
151 173 0
150 171 0
152 171 0
149 169 0
155 174 0
152 172 0
158 179 0
158 178 0
157 176 0
150 169 0
152 172 0
150 170 0
156 176 0
160 181 0
160 182 0
160 180 0
156 175 0
157 177 0
161 183 0
159 177 0
158 179 0
158 179 0
155 173 0
152 173 0
159 181 0
152 170 0
156 174 0
159 179 0
155 172 0
158 177 0
161 183 0
155 175 0
159 178 0
157 177 0
155 176 0
161 183 0
161 180 0
160 180 0
155 174 0
163 183 0
160 179 0
160 179 0
154 174 0
161 182 0
155 174 0
162 184 0
157 175 0
158 177 0
158 178 0
162 183 0
162 182 0
159 180 0
161 182 0
160 180 0
162 183 0
161 181 0
154 173 0
167 187 0
163 185 0
165 186 0
159 179 0
160 182 0
168 188 0
159 182 0
163 184 0
158 177 0
165 188 0
162 182 0
164 186 0
163 184 0
160 180 0
166 187 0
164 185 0
162 183 0
159 182 0
167 187 0
165 185 0
169 190 0
165 187 0
166 187 0
166 187 0
164 185 0
167 188 0
162 180 0
168 189 0
163 183 0
164 186 0
166 189 0
163 186 0
164 185 0
161 183 0
164 186 0
166 188 0
167 187 0
165 186 0
163 184 0
163 185 0
164 185 0
166 187 0
164 184 0
174 197 114
171 195 99
173 197 95
168 191 80
171 195 99
171 194 99
168 192 67
173 197 99
171 194 80
171 194 92
172 196 108
172 195 99
176 200 111
170 193 114
169 192 95
174 197 95
172 195 95
168 192 92
172 196 108
167 190 99
168 191 114
174 197 111
169 192 95
173 196 102
165 189 95
171 194 72
169 193 95
175 199 95
166 190 76
172 196 84
169 193 95
169 193 122
166 190 92
167 191 102
171 194 117
169 192 105
165 189 95
169 191 108
170 193 88
169 193 84
166 190 84
161 185 88
171 195 99
168 191 92
164 186 95
166 189 105
163 186 84
156 179 67
171 194 92
163 186 102
163 186 111
163 186 80
166 189 88
160 183 80
159 182 84
165 186 88
163 186 92
165 187 102
162 185 99
159 183 95
157 179 74
163 185 105
160 183 108
167 190 111
162 185 88
158 181 82
157 180 94
163 186 111
155 177 80
157 180 90
159 182 95
157 180 80
160 183 114
148 170 99
169 191 102
152 174 84
157 179 88
157 179 84
153 175 72
157 179 120
153 175 102
158 180 111
148 170 80
155 177 105
157 178 88
153 173 111
153 174 76
152 174 102
147 168 99
162 183 124
144 163 92
144 164 102
152 172 95
151 171 88
156 177 92
144 164 108
144 164 92
150 170 102
148 168 88
152 170 108
144 162 95
149 167 102
144 164 92
138 156 84
140 158 102
145 164 80
143 162 80
129 147 84
143 161 88
143 160 99
132 150 80
119 136 67
116 133 62
131 149 72
122 138 76
129 144 84
109 125 67
124 139 82
109 127 80
114 131 70
120 136 92
101 121 54
103 122 70
102 120 60
115 135 65
107 126 67
115 134 36
120 139 80
104 122 54
119 136 60
116 132 36
127 145 47
133 152 0
130 145 44
138 156 44
127 146 40
134 153 31
133 153 25
128 145 18
132 150 18
125 143 0
119 136 25
137 156 0
125 142 31
119 134 0
112 130 18
123 140 0
117 134 0
98 112 0
116 134 0
119 135 0
113 130 0
111 127 0
104 120 0
114 131 0
94 110 0
111 127 0
102 120 0
114 130 0
98 113 0
115 131 0
105 122 0
103 119 0
98 114 0
101 117 0
99 115 0
105 121 0
100 116 0
80 95 0
108 124 0
109 123 0
103 120 0
100 115 0
95 110 0
103 119 0
106 122 0
103 118 0
104 121 0
92 107 0
106 122 0
94 109 0
97 112 0
97 113 0
88 103 0
88 102 0
90 106 0
109 124 0
97 115 0
98 111 0
79 96 0
113 129 0
105 119 0
99 115 0
99 115 0
104 122 0
103 120 0
103 119 0
95 112 0
108 125 0
99 116 0
99 114 0
108 124 0
101 117 0
108 123 0
100 117 0
108 126 0
104 122 0
92 108 0
105 122 0
95 113 0
117 133 0
115 131 0
115 131 0
112 128 0
105 124 0
115 131 0
118 135 0
114 131 0
103 122 0
121 139 0
111 128 0
126 146 0
125 143 0
117 135 0
122 140 0
122 141 0
121 140 0
113 134 0
118 137 0
122 141 0
128 148 0
119 137 0
132 151 0
124 144 0
118 136 0
124 144 0
125 142 0
125 142 0
138 157 0
126 145 0
133 152 0
128 147 0
131 151 0
129 148 0
131 150 0
129 149 0
131 150 0
143 163 0
145 165 0
137 154 0
124 142 0
134 153 0
132 152 0
136 154 0
137 156 0
135 154 0
138 159 0
136 154 0
139 159 0
137 157 0
138 158 0
141 160 0
143 162 0
139 159 0
141 159 0
141 160 0
142 160 0
138 157 0
135 155 0
147 167 0
146 166 0
150 169 0
136 156 0
148 168 0
147 167 0
138 157 0
142 162 0
142 161 0
143 163 0
141 159 0
136 155 0
147 168 0
148 166 0
148 167 0
146 166 0
147 168 0
144 163 0
147 168 0
148 169 0
155 176 0
147 166 0
148 169 0
149 169 0
154 176 0
150 168 0
153 172 0
153 174 0
150 170 0
146 166 0
150 169 0
151 172 0
149 168 0
154 175 0
151 170 0
152 173 0
152 171 0
148 167 0
152 172 0
158 179 0
153 174 0
154 175 0
152 172 0
151 171 0
153 173 0
150 170 0
159 179 0
156 176 0
154 175 0
155 175 0
156 179 0
161 182 0
158 179 0
162 182 0
162 183 0
155 174 0
153 173 0
157 178 0
153 174 0
163 182 0
159 179 0
151 173 0
158 179 0
157 178 0
160 181 0
159 180 0
161 183 0
164 184 0
160 181 0
161 181 0
163 183 0
161 181 0
155 176 0
159 179 0
155 175 0
161 182 0
153 173 0
158 177 0
158 178 0
157 179 0
158 179 0
166 187 0
161 181 0
158 177 0
160 180 0
165 186 0
159 178 0
159 181 0
159 179 0
163 186 0
165 186 0
158 178 0
163 185 0
163 185 0
160 182 0
161 181 0
157 177 0
159 180 0
162 183 0
161 180 0
167 186 0
159 179 0
163 185 0
164 184 0
166 187 0
165 186 0
164 184 0
166 186 0
165 185 0
165 186 0
166 187 0
163 185 0
164 183 0
166 187 0
167 188 0
164 186 0
165 187 0
160 181 0
168 188 0
162 184 0
168 191 0
166 187 0
164 185 0
160 182 0
168 190 0
162 182 0
164 187 0
166 186 0
165 188 0
166 188 0
165 187 0
175 199 111
172 195 105
172 195 95
175 197 105
175 198 111
173 196 92
172 196 92
169 191 84
173 196 99
178 201 108
171 193 95
166 189 67
171 195 95
174 197 95
173 197 102
168 191 105
169 192 102
169 192 105
171 194 117
167 190 102
167 191 76
169 193 99
166 189 88
166 189 95
172 195 105
169 193 117
171 193 102
171 194 108
168 191 92
168 191 80
168 191 105
163 186 80
169 193 99
169 192 88
169 192 108
172 196 95
168 192 92
167 190 76
158 180 80
171 195 99
166 190 111
162 185 88
164 188 76
168 191 80
166 190 92
161 183 99
163 186 76
163 187 92
157 180 86
167 190 105
164 188 84
167 191 84
162 186 99
163 186 105
166 189 105
161 185 84
161 185 84
169 192 135
159 182 99
170 193 111
156 180 76
158 180 105
164 187 94
168 191 114
154 176 108
163 186 90
162 185 107
161 183 108
158 180 108
161 184 92
159 181 108
158 181 99
165 187 95
163 185 86
164 186 80
161 183 102
152 173 72
167 188 114
160 183 99
156 178 111
148 169 88
163 185 120
155 177 95
158 180 105
146 167 84
152 172 99
149 170 76
157 177 111
151 172 80
147 167 99
149 169 99
155 176 105
157 178 114
144 165 76
137 157 88
145 165 80
148 168 95
150 170 95
147 166 95
139 158 67
136 155 76
142 162 88
142 162 88
141 160 92
137 155 99
138 157 88
146 163 88
151 171 105
136 155 80
140 157 92
137 154 99
132 150 84
127 145 62
133 150 92
132 150 67
119 134 72
118 134 62
124 141 67
110 125 67
124 142 54
104 121 62
116 132 88
96 113 40
115 131 65
113 131 70
114 133 65
111 128 67
120 138 67
139 156 65
134 153 60
134 152 31
123 140 25
139 158 25
123 139 31
138 156 62
135 153 31
140 157 18
131 147 0
126 145 31
125 143 0
128 146 0
121 139 0
121 138 0
114 130 0
123 141 0
117 134 0
119 136 0
109 125 0
114 131 0
99 116 0
112 130 0
105 122 0
111 129 0
116 133 0
106 122 0
93 112 0
107 124 0
100 117 0
103 118 0
102 119 0
108 125 0
92 109 0
103 119 0
92 107 0
103 119 0
106 123 0
90 106 0
87 103 0
106 122 0
104 120 0
87 102 0
91 106 0
103 118 0
105 120 0
96 112 0
100 117 0
98 114 0
94 110 0
102 118 0
92 108 0
102 119 0
102 117 0
89 105 0
92 109 0
100 117 0
100 116 0
100 116 0
106 122 0
96 113 0
102 119 0
101 117 0
98 115 0
97 113 0
89 105 0
90 106 0
105 121 0
110 126 0
105 121 0
111 128 0
107 122 0
111 127 0
105 120 0
109 124 0
108 123 0
101 118 0
107 124 0
114 132 0
94 111 0
104 120 0
106 124 0
111 126 0
107 126 0
118 136 0
121 138 0
110 128 0
107 124 0
112 130 0
114 131 0
118 136 0
113 128 0
114 133 0
118 135 0
124 141 0
111 129 0
123 141 0
120 137 0
127 146 0
111 130 0
122 141 0
128 146 0
122 141 0
135 153 0
122 141 0
133 152 0
127 147 0
116 133 0
127 146 0
134 154 0
128 147 0
125 142 0
126 146 0
125 143 0
130 149 0
127 146 0
143 162 0
132 151 0
141 159 0
130 150 0
129 148 0
132 151 0
133 153 0
134 153 0
132 151 0
131 151 0
135 155 0
133 152 0
134 153 0
130 148 0
145 164 0
138 158 0
141 159 0
149 167 0
136 154 0
141 161 0
135 154 0
143 163 0
135 154 0
142 161 0
145 164 0
147 167 0
147 167 0
145 167 0
135 154 0
146 166 0
150 170 0
145 165 0
139 159 0
148 167 0
142 162 0
144 163 0
152 171 0
147 168 0
153 173 0
148 168 0
145 164 0
143 163 0
138 158 0
149 168 0
146 167 0
153 173 0
150 170 0
141 161 0
150 170 0
150 170 0
149 169 0
148 169 0
145 163 0
144 165 0
154 174 0
155 177 0
147 167 0
146 165 0
152 172 0
151 170 0
154 174 0
152 174 0
156 177 0
153 174 0
151 173 0
155 174 0
157 177 0
151 171 0
155 176 0
152 175 0
159 178 0
157 177 0
155 176 0
155 175 0
159 179 0
159 181 0
150 172 0
154 176 0
152 170 0
157 178 0
160 180 0
158 181 0
157 178 0
159 180 0
161 180 0
155 175 0
155 175 0
158 177 0
156 177 0
165 186 0
161 181 0
155 176 0
158 178 0
161 182 0
161 181 0
163 185 0
155 174 0
161 182 0
149 169 0
165 185 0
155 175 0
159 181 0
156 176 0
155 174 0
158 180 0
162 183 0
165 186 0
164 185 0
160 181 0
151 172 0
160 181 0
160 181 0
160 181 0
150 170 0
167 188 0
163 184 0
166 188 0
160 181 0
162 183 0
158 179 0
162 181 0
159 178 0
161 181 0
166 186 0
162 183 0
169 191 0
162 182 0
164 184 0
168 191 0
165 187 0
167 189 0
161 182 0
163 184 0
164 186 0
165 184 0
165 185 0
164 184 0
164 184 0
166 188 0
161 181 0
161 181 0
158 179 0
168 189 0
166 186 0
165 185 0
165 186 0
167 189 0
169 192 0
166 187 0
167 187 0
168 189 0
164 184 0
165 186 0
167 189 0
164 187 0
164 186 0
171 195 99
172 195 84
173 195 102
170 194 95
172 195 102
170 194 67
179 202 111
173 197 76
168 191 102
175 198 92
172 195 108
174 197 111
175 197 92
172 195 111
169 192 105
167 190 111
164 187 84
168 191 108
170 194 105
168 192 84
173 196 117
168 191 84
170 193 88
163 187 84
170 193 117
167 191 80
173 196 111
172 195 99
173 196 111
173 196 95
165 189 111
170 193 105
168 191 84
172 195 92
164 187 111
170 193 122
163 186 84
170 193 99
172 195 108
162 185 99
171 195 95
169 193 105
171 194 102
167 190 92
160 183 102
169 192 88
168 191 102
162 185 76
165 189 105
158 181 102
158 180 80
158 181 92
160 184 84
159 182 62
161 184 88
165 188 95
170 193 95
166 189 99
169 192 120
171 195 117
170 193 99
167 190 95
167 190 118
165 188 111
159 182 82
157 179 92
156 179 84
162 184 99
159 182 95
161 184 84
162 184 100
163 186 84
157 178 99
161 183 114
159 182 107
157 179 95
161 183 108
156 178 114
163 185 105
156 177 84
158 179 95
147 168 76
160 182 99
149 170 95
154 175 95
152 173 80
159 181 114
153 174 99
154 175 99
153 174 92
152 172 84
158 178 114
158 178 114
160 180 111
153 172 111
153 173 99
152 171 108
146 165 76
153 171 105
148 169 92
142 160 102
140 160 92
150 168 92
141 162 95
149 168 88
135 154 80
136 154 67
141 158 108
136 154 76
133 152 72
128 145 92
133 151 72
136 154 84
115 132 51
125 142 88
108 125 51
124 140 76
125 142 76
116 132 76
118 133 67
124 140 74
127 145 60
116 132 65
98 116 57
119 136 65
121 138 70
121 138 67
116 134 40
121 139 54
128 146 54
124 142 31
125 142 25
125 144 44
140 158 44
142 161 0
136 153 0
135 153 0
140 160 0
138 158 0
139 158 0
144 163 0
137 155 0
131 150 0
126 144 0
123 141 0
124 141 0
123 140 0
113 130 0
118 135 0
114 130 0
115 133 0
117 136 0
108 127 0
107 123 0
111 129 0
113 130 0
99 117 0
122 139 0
96 113 0
104 121 0
96 112 0
101 118 0
109 125 0
104 119 0
97 112 0
103 118 0
88 104 0
106 124 0
103 119 0
89 105 0
101 119 0
108 123 0
105 122 0
101 118 0
105 122 0
97 113 0
115 131 0
89 103 0
97 113 0
90 105 0
86 102 0
101 118 0
101 118 0
112 128 0
104 120 0
107 123 0
100 115 0
116 131 0
101 117 0
99 115 0
95 111 0
111 129 0
100 116 0
94 110 0
108 124 0
113 131 0
98 114 0
102 118 0
109 126 0
106 123 0
123 142 0
96 112 0
103 121 0
111 128 0
131 147 0
111 127 0
111 129 0
93 110 0
107 125 0
117 135 0
117 134 0
107 126 0
122 140 0
124 142 0
118 135 0
118 136 0
123 140 0
128 146 0
122 142 0
108 125 0
133 151 0
111 130 0
117 137 0
132 150 0
134 153 0
103 120 0
128 145 0
121 141 0
127 145 0
128 147 0
122 138 0
121 141 0
127 144 0
126 145 0
134 153 0
131 151 0
135 155 0
133 150 0
127 145 0
130 148 0
129 147 0
128 148 0
128 149 0
128 148 0
132 153 0
138 157 0
135 155 0
135 153 0
137 157 0
135 153 0
139 158 0
127 148 0
139 159 0
135 155 0
138 156 0
143 163 0
136 155 0
144 163 0
132 153 0
127 144 0
138 159 0
142 162 0
141 162 0
142 163 0
142 162 0
134 153 0
144 163 0
137 155 0
146 167 0
149 169 0
143 162 0
146 166 0
140 161 0
140 158 0
146 167 0
145 166 0
137 157 0
151 172 0
144 164 0
152 174 0
146 166 0
147 169 0
150 170 0
147 168 0
150 171 0
144 164 0
150 170 0
150 172 0
142 163 0
152 171 0
150 170 0
151 173 0
151 170 0
147 165 0
150 169 0
148 167 0
152 173 0
154 175 0
149 167 0
159 180 0
146 166 0
153 173 0
157 179 0
154 174 0
145 164 0
150 171 0
157 176 0
154 174 0
158 178 0
154 176 0
155 174 0
152 172 0
152 171 0
160 181 0
154 175 0
155 176 0
145 165 0
160 181 0
152 173 0
157 177 0
152 173 0
162 183 0
159 179 0
155 176 0
160 179 0
153 173 0
161 182 0
161 183 0
155 176 0
150 171 0
161 182 0
155 173 0
159 182 0
159 179 0
159 179 0
158 177 0
159 180 0
159 179 0
161 181 0
162 181 0
162 182 0
160 180 0
165 185 0
154 175 0
154 175 0
158 178 0
155 177 0
163 184 0
167 188 0
164 184 0
167 189 0
162 183 0
158 177 0
160 183 0
159 180 0
160 181 0
165 186 0
165 184 0
159 180 0
164 186 0
164 184 0
162 182 0
162 182 0
163 184 0
166 187 0
161 182 0
165 187 0
162 183 0
168 189 0
162 183 0
156 175 0
158 178 0
168 189 0
161 183 0
165 187 0
162 183 0
161 183 0
166 186 0
163 185 0
163 184 0
168 189 0
167 187 0
161 181 0
163 184 0
161 183 0
160 180 0
169 191 0
164 184 0
168 191 0
169 191 0
164 185 0
167 186 0
167 189 0
164 185 0
162 182 0
165 186 0
168 188 0
164 186 0
163 184 0
164 185 0
167 189 95
173 196 92
175 198 92
176 198 117
173 196 99
178 201 102
175 198 92
175 199 92
175 198 102
171 195 105
168 192 88
174 196 105
172 195 80
171 196 88
166 189 84
170 195 80
170 194 92
171 194 84
174 197 92
170 194 108
165 187 80
169 192 95
167 191 76
167 191 84
169 192 84
171 194 102
173 196 84
171 195 108
167 190 99
172 196 108
167 191 102
167 190 105
170 194 99
171 195 95
163 186 72
167 190 99
166 190 95
165 188 88
166 189 102
171 194 120
166 189 92
168 190 92
165 189 92
158 181 80
168 191 92
162 186 92
165 188 88
170 194 102
162 186 80
166 188 88
166 188 62
172 195 114
170 193 117
163 187 100
164 187 114
165 187 88
158 179 88
165 188 88
165 189 114
160 183 102
161 184 88
162 185 84
161 184 99
163 186 95
156 179 76
157 179 88
161 184 92
158 181 84
165 188 107
165 187 125
157 180 95
154 176 72
157 179 92
154 177 99
159 182 102
157 179 95
160 182 92
165 188 117
159 181 105
159 181 102
148 169 67
150 171 102
157 179 105
148 169 95
160 180 114
144 165 76
146 167 99
158 178 92
145 166 76
159 180 117
153 173 95
155 175 117
158 179 99
150 170 80
152 171 99
147 167 111
148 167 111
154 174 92
150 170 102
149 168 102
136 156 95
146 165 99
151 169 99
151 169 108
143 161 92
132 150 80
153 171 125
147 165 99
146 164 102
136 154 95
144 162 80
133 151 84
128 145 67
127 146 72
130 147 72
130 147 80
126 142 72
125 141 76
123 140 51
126 142 72
110 126 44
113 129 57
119 135 72
122 137 62
115 131 54
125 141 62
108 125 36
134 150 40
121 139 31
126 143 36
131 147 47
142 160 51
137 155 36
136 154 0
139 158 0
141 158 25
133 151 0
139 158 0
136 154 0
138 157 0
129 147 0
130 149 0
140 159 0
122 139 0
119 136 0
130 149 0
116 132 0
122 140 0
109 127 0
112 130 0
113 130 0
108 125 0
109 127 0
115 133 0
99 117 0
119 136 0
101 119 0
118 136 0
110 126 0
95 112 0
107 124 0
114 131 0
110 126 0
109 126 0
109 125 0
103 120 0
101 117 0
95 111 0
118 136 0
93 109 0
116 132 0
94 109 0
104 122 0
100 116 0
110 127 0
86 101 0
105 121 0
98 112 0
103 119 0
101 117 0
99 116 0
110 126 0
112 129 0
100 116 0
89 106 0
114 130 0
102 119 0
98 115 0
114 131 0
98 114 0
103 119 0
102 120 0
105 122 0
103 121 0
107 124 0
100 116 0
102 118 0
124 142 0
112 129 0
110 127 0
110 127 0
107 125 0
109 126 0
112 131 0
118 134 0
112 131 0
118 136 0
110 126 0
116 133 0
115 133 0
115 132 0
114 132 0
124 141 0
112 131 0
116 134 0
113 131 0
114 131 0
123 141 0
118 137 0
124 142 0
128 145 0
119 137 0
115 132 0
119 138 0
121 141 0
123 141 0
129 149 0
131 150 0
119 138 0
125 146 0
124 142 0
130 150 0
110 129 0
127 146 0
142 162 0
140 159 0
125 142 0
127 146 0
135 155 0
145 165 0
129 148 0
135 155 0
126 144 0
129 148 0
127 147 0
127 147 0
128 146 0
131 151 0
139 158 0
130 148 0
147 167 0
136 154 0
132 153 0
148 168 0
137 157 0
143 164 0
135 155 0
140 161 0
139 159 0
143 162 0
134 153 0
144 163 0
140 159 0
153 174 0
139 158 0
146 167 0
153 172 0
134 153 0
147 167 0
141 161 0
149 171 0
149 169 0
145 165 0
145 164 0
150 171 0
148 168 0
151 171 0
146 166 0
153 174 0
152 172 0
147 167 0
147 167 0
149 170 0
137 157 0
148 168 0
149 168 0
156 176 0
154 174 0
151 171 0
149 170 0
153 175 0
154 175 0
155 175 0
158 179 0
142 161 0
152 173 0
154 174 0
151 171 0
150 169 0
157 175 0
153 174 0
154 176 0
155 176 0
150 172 0
146 166 0
156 174 0
158 178 0
156 176 0
154 173 0
150 169 0
150 172 0
156 175 0
155 175 0
153 174 0
158 178 0
150 169 0
149 169 0
157 180 0
162 184 0
154 175 0
153 173 0
147 168 0
154 172 0
155 175 0
158 179 0
156 177 0
154 175 0
156 177 0
154 174 0
161 181 0
158 179 0
155 175 0
164 184 0
159 179 0
162 183 0
161 178 0
159 178 0
163 183 0
153 173 0
160 181 0
162 183 0
163 184 0
158 178 0
157 178 0
163 183 0
163 183 0
158 179 0
161 180 0
162 183 0
161 182 0
161 181 0
162 182 0
159 179 0
163 185 0
166 186 0
157 178 0
167 187 0
165 186 0
164 186 0
157 178 0
162 183 0
166 186 0
160 180 0
162 181 0
163 183 0
166 187 0
160 180 0
165 185 0
159 180 0
164 183 0
163 185 0
163 184 0
162 182 0
161 182 0
165 187 0
162 182 0
168 190 0
167 188 0
164 188 0
166 187 0
164 184 0
163 185 0
168 191 0
164 186 0
162 183 0
162 182 0
166 187 0
164 186 0
161 181 0
166 187 0
164 186 0
165 188 0
161 181 0
162 183 0
164 187 0
166 187 0
163 184 0
167 186 0
166 188 0
166 187 0
169 192 88
176 199 102
177 200 122
172 195 120
169 191 76
172 195 84
172 196 88
169 193 88
173 195 102
174 197 95
166 190 72
171 195 102
165 189 84
168 191 99
170 194 95
167 190 80
169 193 92
171 194 88
169 192 88
171 194 95
167 190 99
166 189 95
171 194 88
163 187 80
162 186 88
169 193 102
172 196 99
166 190 105
170 194 95
169 192 80
169 192 99
168 191 95
168 191 95
168 191 76
169 192 80
170 194 114
169 193 99
170 193 102
164 189 95
163 187 72
167 190 99
169 192 88
169 192 95
167 190 99
170 193 125
171 193 99
159 182 102
167 191 95
164 187 95
166 189 114
167 190 99
171 194 105
164 187 84
166 189 95
165 188 95
162 185 84
159 182 94
159 182 80
169 192 84
160 182 102
159 181 84
153 174 67
163 185 88
159 182 92
160 182 88
156 179 84
167 190 102
164 187 92
160 182 95
155 178 76
156 178 80
159 180 102
158 180 88
167 189 122
158 181 92
157 179 111
153 175 95
157 179 95
161 183 105
160 182 88
162 183 92
156 178 80
162 183 102
153 174 84
151 172 80
159 180 111
162 184 125
146 167 80
162 184 108
140 160 67
153 175 99
154 174 99
141 161 84
153 173 95
154 175 102
153 174 99
152 172 102
150 169 99
136 156 76
146 165 99
149 168 102
156 176 114
140 159 88
147 165 102
142 161 88
135 154 95
134 153 62
148 166 111
145 164 84
147 165 84
133 152 84
134 151 80
133 151 76
133 150 84
144 162 76
127 144 62
123 141 57
120 138 62
126 143 62
115 131 62
118 135 57
121 138 51
113 128 62
114 130 57
113 130 44
123 139 57
126 142 44
118 134 44
111 129 18
129 148 60
130 149 25
137 155 25
131 148 36
134 151 36
135 153 25
135 152 0
134 151 0
140 160 0
137 156 25
136 156 0
127 145 0
135 152 0
117 135 0
128 148 0
128 146 0
126 144 0
113 131 0
123 140 0
138 156 0
119 138 0
115 133 0
114 133 0
121 139 0
117 135 0
113 130 0
114 131 0
107 123 0
122 140 0
117 136 0
98 114 0
102 120 0
106 122 0
103 120 0
100 116 0
108 125 0
110 127 0
111 127 0
114 131 0
101 119 0
107 125 0
101 119 0
109 125 0
93 109 0
97 113 0
103 120 0
104 122 0
97 115 0
93 110 0
105 121 0
107 124 0
103 120 0
95 111 0
101 119 0
91 107 0
101 119 0
116 133 0
113 130 0
112 129 0
119 136 0
116 132 0
102 118 0
107 124 0
111 127 0
108 126 0
109 126 0
100 117 0
112 130 0
110 127 0
105 121 0
112 128 0
117 134 0
114 131 0
89 105 0
105 122 0
111 129 0
119 138 0
125 144 0
124 143 0
110 128 0
118 134 0
117 135 0
107 125 0
109 127 0
119 136 0
112 131 0
117 134 0
124 144 0
128 147 0
125 144 0
120 139 0
120 139 0
127 144 0
122 141 0
116 135 0
120 139 0
124 143 0
121 139 0
131 150 0
120 138 0
125 145 0
123 142 0
132 151 0
118 136 0
137 157 0
135 155 0
128 147 0
130 150 0
122 141 0
133 153 0
142 160 0
126 144 0
128 147 0
130 150 0
125 143 0
133 154 0
131 148 0
134 154 0
134 155 0
137 155 0
130 149 0
138 158 0
144 164 0
138 156 0
138 159 0
136 155 0
140 158 0
140 160 0
140 161 0
135 154 0
142 162 0
137 157 0
138 158 0
140 159 0
143 163 0
143 165 0
144 164 0
142 162 0
140 159 0
153 172 0
137 157 0
143 164 0
139 160 0
144 165 0
140 160 0
146 164 0
149 170 0
149 170 0
151 169 0
143 161 0
150 172 0
143 164 0
148 166 0
146 167 0
141 160 0
147 167 0
153 174 0
148 169 0
149 169 0
152 172 0
149 169 0
155 175 0
153 175 0
155 176 0
153 172 0
149 169 0
154 173 0
152 172 0
153 172 0
149 170 0
156 177 0
157 177 0
157 178 0
155 175 0
156 177 0
152 174 0
157 177 0
154 175 0
157 178 0
153 174 0
153 174 0
151 172 0
151 173 0
157 178 0
157 178 0
149 167 0
154 176 0
162 184 0
155 175 0
156 178 0
153 174 0
158 180 0
157 176 0
158 178 0
152 170 0
156 177 0
160 181 0
160 179 0
160 184 0
156 177 0
155 176 0
154 175 0
156 178 0
162 183 0
154 175 0
158 179 0
157 177 0
159 179 0
157 178 0
155 177 0
164 185 0
155 175 0
157 178 0
157 177 0
157 178 0
163 182 0
160 182 0
159 181 0
162 181 0
163 182 0
158 179 0
163 184 0
159 180 0
164 185 0
164 187 0
162 184 0
164 185 0
162 183 0
156 176 0
162 183 0
161 181 0
158 178 0
163 185 0
159 179 0
158 178 0
167 189 0
158 181 0
163 184 0
165 187 0
160 181 0
163 184 0
163 183 0
162 185 0
162 182 0
165 186 0
158 178 0
166 187 0
160 180 0
164 185 0
162 184 0
164 184 0
164 184 0
167 187 0
163 184 0
164 185 0
165 186 0
166 185 0
165 188 0
162 183 0
167 188 0
163 184 0
170 190 0
162 183 0
166 189 0
168 190 0
162 182 0
160 182 0
160 182 0
165 188 0
164 185 0
169 191 0
170 193 99
167 190 76
171 194 84
167 190 88
173 197 102
171 194 72
173 197 80
170 192 92
167 190 84
171 195 84
172 195 105
174 197 95
172 195 102
174 197 117
170 194 102
167 190 72
171 195 99
172 195 99
170 192 84
170 193 95
169 192 120
172 195 102
168 192 95
164 186 80
166 189 80
169 193 88
171 194 114
168 191 84
166 190 84
168 191 114
167 191 88
170 193 102
171 195 102
164 188 99
170 192 99
167 190 88
174 197 102
168 191 95
165 188 88
163 186 84
170 193 102
164 188 72
166 189 105
166 189 99
167 190 92
167 191 80
167 190 92
165 189 105
162 186 92
166 189 105
162 185 111
160 183 105
164 187 108
162 185 84
163 187 99
165 188 88
166 189 92
168 192 99
160 182 94
161 184 95
162 185 111
162 185 111
166 189 108
154 176 108
165 188 105
163 186 107
164 187 92
157 179 105
164 185 95
156 179 107
161 184 99
155 178 102
158 181 108
157 180 95
165 188 117
152 174 92
154 176 92
160 182 99
157 180 88
148 170 92
154 176 84
148 169 92
146 168 88
156 178 92
151 173 95
152 173 88
149 171 76
158 178 105
156 177 95
159 180 111
156 176 88
150 170 102
150 171 84
165 185 122
160 181 95
149 169 88
152 172 99
150 170 95
157 177 108
142 161 72
151 171 95
151 169 84
132 151 76
148 167 92
152 171 95
148 167 92
152 170 114
136 156 88
143 161 95
143 161 80
137 157 76
132 150 84
131 149 67
134 152 76
126 144 57
124 142 67
118 135 57
140 157 76
123 141 57
120 136 57
117 134 57
135 153 67
125 142 57
120 136 44
113 130 36
128 146 44
128 147 57
132 150 44
125 142 25
125 143 44
139 156 36
130 147 0
140 159 36
146 165 25
129 147 36
141 161 0
136 154 0
128 146 25
138 158 25
126 145 0
140 157 0
135 154 0
125 143 0
135 153 0
132 151 0
132 150 0
122 140 0
126 144 0
126 144 0
120 138 0
118 135 0
114 133 0
119 137 0
118 135 0
115 134 0
120 137 0
118 137 0
112 129 0
106 124 0
116 133 0
112 130 0
113 131 0
114 132 0
113 130 0
109 127 0
120 137 0
108 125 0
115 133 0
104 119 0
103 119 0
111 129 0
103 122 0
101 117 0
104 121 0
104 121 0
95 111 0
100 118 0
106 123 0
114 130 0
102 118 0
96 112 0
110 128 0
107 124 0
111 129 0
111 127 0
102 119 0
102 119 0
102 119 0
117 133 0
115 133 0
118 134 0
102 119 0
113 130 0
106 123 0
106 124 0
107 126 0
126 144 0
105 123 0
107 125 0
120 139 0
110 127 0
108 127 0
108 125 0
111 129 0
110 127 0
115 133 0
116 134 0
121 139 0
119 136 0
114 132 0
103 121 0
119 136 0
122 140 0
113 130 0
104 124 0
120 140 0
132 151 0
107 125 0
116 134 0
120 138 0
120 138 0
128 149 0
129 147 0
114 131 0
131 149 0
129 146 0
128 147 0
129 149 0
134 153 0
131 150 0
128 149 0
136 155 0
129 148 0
125 145 0
137 155 0
132 151 0
130 149 0
129 148 0
134 153 0
124 143 0
138 158 0
127 147 0
141 162 0
143 163 0
139 159 0
137 157 0
132 151 0
136 156 0
135 155 0
145 166 0
149 169 0
145 165 0
137 156 0
143 164 0
136 155 0
147 165 0
139 158 0
139 160 0
135 154 0
134 154 0
144 164 0
148 168 0
141 162 0
139 159 0
143 162 0
142 163 0
149 170 0
142 162 0
144 164 0
148 168 0
146 167 0
140 160 0
149 171 0
148 168 0
152 172 0
151 170 0
155 176 0
150 171 0
148 168 0
143 163 0
145 166 0
149 169 0
149 171 0
147 166 0
146 166 0
148 169 0
145 166 0
148 170 0
145 165 0
152 171 0
150 171 0
152 173 0
145 164 0
151 173 0
155 177 0
153 174 0
155 177 0
154 172 0
152 171 0
156 175 0
158 177 0
156 177 0
159 178 0
149 170 0
153 173 0
161 182 0
154 175 0
154 175 0
156 176 0
148 169 0
155 174 0
157 178 0
158 178 0
162 182 0
158 180 0
157 177 0
160 180 0
155 177 0
164 185 0
159 180 0
158 178 0
156 176 0
159 179 0
154 174 0
160 179 0
152 172 0
155 174 0
155 177 0
156 177 0
162 182 0
157 178 0
156 177 0
158 177 0
150 169 0
160 181 0
159 180 0
159 179 0
154 175 0
155 175 0
157 175 0
159 181 0
154 173 0
160 180 0
153 174 0
166 187 0
156 178 0
162 183 0
160 179 0
160 179 0
163 183 0
158 178 0
159 180 0
159 179 0
160 182 0
159 180 0
165 186 0
161 182 0
159 181 0
160 181 0
163 184 0
163 184 0
165 186 0
165 184 0
162 183 0
164 185 0
165 187 0
169 190 0
162 183 0
162 184 0
167 188 0
162 183 0
164 183 0
159 180 0
167 187 0
163 185 0
162 182 0
167 189 0
169 191 0
168 191 0
159 181 0
164 185 0
171 194 0
162 182 0
163 184 0
166 187 0
165 186 0
167 190 0
168 189 0
169 190 0
165 185 0
164 186 0
165 187 0
170 193 0
166 187 0
164 186 0
167 188 0
164 186 0
167 188 0
162 182 0
167 187 0
173 196 92
175 198 111
172 196 95
171 195 84
177 199 105
177 200 105
171 193 92
170 194 84
165 188 95
172 195 80
173 196 84
171 194 80
170 193 84
168 191 95
169 193 105
172 195 102
172 194 114
173 195 80
173 196 120
170 193 95
171 195 105
171 194 92
176 199 102
167 190 99
163 186 84
168 191 92
171 195 120
165 189 57
168 192 111
168 192 76
164 188 76
170 193 92
165 189 99
165 188 67
167 190 95
168 192 95
174 197 120
165 189 88
163 186 88
168 192 92
165 188 105
168 192 114
155 179 67
165 188 84
170 194 105
162 185 88
167 190 95
161 185 99
166 189 88
166 190 95
167 191 99
162 186 88
162 186 72
158 182 84
165 188 120
162 184 88
162 184 84
165 188 88
163 186 99
159 182 88
161 185 111
164 187 95
153 175 72
153 176 67
158 180 88
158 180 92
164 186 115
162 185 111
164 187 108
163 185 95
158 180 102
158 179 95
158 179 99
163 185 80
162 185 111
147 168 72
150 171 72
159 181 92
158 180 108
152 174 88
156 177 105
156 178 111
157 179 95
159 180 95
159 180 84
156 177 99
154 176 108
151 171 88
153 174 105
152 173 92
150 172 76
155 175 114
147 167 67
161 181 92
140 161 92
152 172 95
150 171 108
144 164 102
156 176 102
143 163 84
145 164 108
155 175 102
143 162 92
145 165 102
153 172 102
139 158 99
146 165 72
151 170 95
136 157 88
143 160 105
148 166 92
135 152 80
130 148 80
141 160 92
140 158 84
133 150 67
128 146 51
131 149 72
124 142 67
126 144 67
120 137 57
117 134 25
132 150 51
120 138 51
123 141 44
126 144 44
121 139 44
130 148 51
133 150 36
132 151 25
137 156 36
133 151 25
141 159 25
141 160 25
137 156 0
134 154 0
138 158 0
133 153 0
139 157 0
137 157 0
138 157 0
143 163 0
130 149 0
137 157 0
132 151 0
119 137 0
117 135 0
110 128 0
131 150 0
124 142 0
122 141 0
126 145 0
120 138 0
112 129 0
114 133 0
121 138 0
123 141 0
101 117 0
110 129 0
114 132 0
109 125 0
112 130 0
107 125 0
110 128 0
115 132 0
91 107 0
106 123 0
106 123 0
117 135 0
108 125 0
106 123 0
105 122 0
100 118 0
100 117 0
93 110 0
114 131 0
109 127 0
105 122 0
115 132 0
102 119 0
101 117 0
107 122 0
109 125 0
111 128 0
107 124 0
123 141 0
116 134 0
118 137 0
110 129 0
101 119 0
120 137 0
105 122 0
100 119 0
116 133 0
113 130 0
114 131 0
115 133 0
122 141 0
108 126 0
106 123 0
116 134 0
106 124 0
111 130 0
120 138 0
113 132 0
104 122 0
125 143 0
124 143 0
123 142 0
114 132 0
114 131 0
126 144 0
119 137 0
123 143 0
125 142 0
127 145 0
120 139 0
122 142 0
125 144 0
133 153 0
133 152 0
117 136 0
116 134 0
126 143 0
123 142 0
126 145 0
135 154 0
122 139 0
128 147 0
126 145 0
119 138 0
126 145 0
124 143 0
141 162 0
140 161 0
141 160 0
131 150 0
145 165 0
129 149 0
127 146 0
133 152 0
134 152 0
133 152 0
132 151 0
137 157 0
133 153 0
137 159 0
142 162 0
136 157 0
136 156 0
142 163 0
137 157 0
137 156 0
142 161 0
142 162 0
151 171 0
141 162 0
137 158 0
137 158 0
142 162 0
144 165 0
139 159 0
136 156 0
140 160 0
153 174 0
146 167 0
145 166 0
144 164 0
145 164 0
148 169 0
142 163 0
146 167 0
146 166 0
139 157 0
145 165 0
155 175 0
140 161 0
144 164 0
156 176 0
134 155 0
150 171 0
150 172 0
144 163 0
152 172 0
154 175 0
149 170 0
150 172 0
151 173 0
143 163 0
152 172 0
156 177 0
150 170 0
154 174 0
155 176 0
154 174 0
157 176 0
153 174 0
153 173 0
152 173 0
151 172 0
161 182 0
150 171 0
149 171 0
158 177 0
155 175 0
146 166 0
158 179 0
156 177 0
157 178 0
159 181 0
157 178 0
153 175 0
151 170 0
163 184 0
163 184 0
155 175 0
154 173 0
152 173 0
149 168 0
152 173 0
152 175 0
158 178 0
160 182 0
157 177 0
156 178 0
158 178 0
161 182 0
160 179 0
157 177 0
158 179 0
156 176 0
158 180 0
159 179 0
166 187 0
156 177 0
159 181 0
163 185 0
157 178 0
160 180 0
165 187 0
153 172 0
162 183 0
157 178 0
160 181 0
160 180 0
162 182 0
159 180 0
163 184 0
162 184 0
164 186 0
161 184 0
160 180 0
162 182 0
157 178 0
164 186 0
165 186 0
162 183 0
159 179 0
157 177 0
166 187 0
162 183 0
166 187 0
164 185 0
164 184 0
165 186 0
166 187 0
165 186 0
165 186 0
164 185 0
160 181 0
170 192 0
158 179 0
163 183 0
161 183 0
164 185 0
162 183 0
165 186 0
162 183 0
165 188 0
162 184 0
167 189 0
166 187 0
165 186 0
164 185 0
159 180 0
162 183 0
166 188 0
165 186 0
167 187 0
163 183 0
159 179 0
166 187 0
166 187 0
165 186 0
165 186 0
166 188 0
162 183 0
160 182 0
164 186 0
162 184 0
174 197 105
177 199 117
176 198 108
176 198 122
170 193 99
168 191 108
170 194 95
174 198 95
173 197 114
172 196 105
177 200 114
175 197 120
171 194 88
169 193 92
173 197 108
170 194 88
171 194 92
171 195 108
168 191 95
169 193 95
166 189 76
171 194 105
175 198 99
170 193 114
169 192 76
170 193 102
171 194 108
169 193 76
169 191 99
166 189 92
167 190 99
169 191 99
166 190 99
168 192 95
168 192 122
169 193 95
166 189 102
167 190 105
168 192 125
169 192 95
170 193 99
170 193 99
159 182 84
170 194 108
165 188 80
167 190 111
166 190 105
169 192 99
165 188 114
162 185 88
161 184 76
162 185 95
157 179 67
162 185 88
165 188 105
168 191 92
161 184 88
167 190 120
162 185 102
167 190 95
164 187 84
161 184 88
157 179 99
163 187 92
166 189 108
163 186 95
157 180 97
157 179 80
165 188 105
162 185 67
151 174 88
153 176 95
167 189 95
158 180 95
159 180 88
150 172 88
160 182 111
162 184 84
155 176 88
152 173 84
157 179 92
163 185 120
155 176 88
160 181 88
162 184 114
155 176 108
156 178 72
159 180 105
161 181 120
152 172 114
149 170 80
163 183 111
156 177 105
150 171 95
147 167 92
156 176 108
160 179 130
137 158 72
157 177 99
140 160 62
149 169 99
145 165 88
140 159 92
148 168 88
151 170 99
141 161 92
145 163 108
153 172 95
142 160 102
140 158 95
136 155 80
139 157 80
125 144 67
121 138 62
133 152 80
135 152 67
128 146 72
147 166 72
117 134 67
127 145 72
128 145 67
123 141 51
136 153 62
110 128 44
127 145 36
119 137 25
129 147 51
140 160 51
128 146 0
138 158 44
140 158 57
137 156 44
140 160 25
142 161 44
141 160 25
137 157 25
142 161 0
148 167 25
138 158 0
140 161 0
122 140 0
136 155 0
135 154 0
128 146 0
125 144 0
134 153 0
124 142 0
131 150 0
118 135 0
127 146 0
114 133 0
131 149 0
123 142 0
106 124 0
121 140 0
113 132 0
110 127 0
118 136 0
110 129 0
110 127 0
118 136 0
114 132 0
118 136 0
114 132 0
115 133 0
111 128 0
113 131 0
115 133 0
106 122 0
105 123 0
122 139 0
107 124 0
111 128 0
100 117 0
110 128 0
101 119 0
107 122 0
122 139 0
112 130 0
114 132 0
113 130 0
109 126 0
110 127 0
105 121 0
118 136 0
117 135 0
117 135 0
124 142 0
117 135 0
115 133 0
117 134 0
108 126 0
113 130 0
112 129 0
110 127 0
119 137 0
102 119 0
124 142 0
107 125 0
119 138 0
115 133 0
115 134 0
108 127 0
111 128 0
109 128 0
123 142 0
119 137 0
121 139 0
121 139 0
120 138 0
121 141 0
131 150 0
130 148 0
122 142 0
126 144 0
124 141 0
118 136 0
126 144 0
121 140 0
129 149 0
131 151 0
125 144 0
127 147 0
123 142 0
140 160 0
127 146 0
128 147 0
123 144 0
127 147 0
125 145 0
125 145 0
131 150 0
137 156 0
138 158 0
136 155 0
141 161 0
124 144 0
129 149 0
133 151 0
129 148 0
127 145 0
134 153 0
124 144 0
131 151 0
141 160 0
142 162 0
135 154 0
128 148 0
131 151 0
139 158 0
139 158 0
143 163 0
142 161 0
136 155 0
136 155 0
144 163 0
145 166 0
141 160 0
144 164 0
144 164 0
135 154 0
138 157 0
133 152 0
136 156 0
141 161 0
141 161 0
139 158 0
145 163 0
146 167 0
144 164 0
137 157 0
143 161 0
144 163 0
151 172 0
148 170 0
151 172 0
146 165 0
143 163 0
146 165 0
139 160 0
146 167 0
139 160 0
150 169 0
152 173 0
145 166 0
147 165 0
144 165 0
153 173 0
144 165 0
155 176 0
160 182 0
151 171 0
155 176 0
150 170 0
152 174 0
148 168 0
153 175 0
148 169 0
155 175 0
155 176 0
154 173 0
149 171 0
155 175 0
158 179 0
154 174 0
154 174 0
147 168 0
157 178 0
154 175 0
157 178 0
155 176 0
157 177 0
155 176 0
152 171 0
161 182 0
152 172 0
159 180 0
159 181 0
159 181 0
161 182 0
162 184 0
158 180 0
162 184 0
154 174 0
158 178 0
160 180 0
156 176 0
160 179 0
155 177 0
162 183 0
162 183 0
158 179 0
160 180 0
161 181 0
156 176 0
162 183 0
157 177 0
158 181 0
160 182 0
153 175 0
156 178 0
162 183 0
161 181 0
160 181 0
155 177 0
162 183 0
157 177 0
156 175 0
164 186 0
162 182 0
158 179 0
158 179 0
165 187 0
165 185 0
164 184 0
160 182 0
161 181 0
163 185 0
166 185 0
156 177 0
161 182 0
162 183 0
162 184 0
164 186 0
163 183 0
166 189 0
165 187 0
166 188 0
162 183 0
164 187 0
164 186 0
163 186 0
166 187 0
160 182 0
161 183 0
161 181 0
166 187 0
164 184 0
161 182 0
164 185 0
167 187 0
166 187 0
168 189 0
165 186 0
163 183 0
164 184 0
168 190 0
165 186 0
166 187 0
166 189 0
168 190 0
166 189 0
167 189 0
166 189 0
162 183 0
163 184 0
168 190 0
163 184 0
167 189 0
165 186 0
171 194 102
169 192 62
173 195 102
177 200 114
175 199 114
175 199 105
169 192 108
173 197 99
172 195 99
172 195 114
173 196 108
168 192 62
170 193 102
173 195 108
172 196 120
170 194 88
167 190 76
173 196 111
169 193 80
168 192 108
175 199 125
167 190 88
171 194 111
170 193 111
172 195 76
169 192 102
166 189 92
167 189 105
170 194 114
167 192 76
166 189 80
167 191 92
168 191 105
167 191 105
166 190 80
167 191 95
169 192 88
170 193 88
164 186 84
163 186 76
168 192 108
166 189 92
171 195 117
167 190 108
167 191 114
161 184 72
165 188 102
164 188 88
166 189 99
158 181 76
167 190 72
167 190 92
162 185 111
169 192 117
158 182 95
165 187 99
159 182 95
165 189 114
165 189 122
168 190 114
158 181 95
162 184 72
160 183 102
159 181 92
155 178 76
161 185 92
160 183 108
156 179 80
166 189 99
162 184 95
156 179 80
169 191 99
156 178 95
163 185 88
161 184 102
164 186 102
159 181 92
163 184 108
157 179 108
160 181 102
157 178 108
165 188 111
152 173 84
156 178 99
156 177 92
150 170 88
162 183 105
158 179 105
159 179 84
149 170 80
154 175 99
154 175 105
160 181 99
144 165 76
149 170 95
154 174 105
155 174 114
155 175 80
152 171 95
149 169 114
146 167 95
150 169 105
153 173 92
150 169 105
144 162 114
154 172 105
153 173 105
148 166 102
147 166 88
133 152 51
123 140 57
135 154 84
129 147 67
131 150 80
128 147 44
136 155 80
137 156 62
130 149 44
138 156 57
129 147 67
135 154 67
151 169 84
129 147 62
128 147 51
128 145 57
132 150 36
108 127 25
137 156 36
137 157 0
135 153 44
136 156 25
143 163 25
133 152 0
138 157 25
140 160 25
129 147 0
137 157 0
141 160 0
147 167 0
140 159 0
136 155 0
136 154 0
137 157 0
133 152 0
127 146 0
134 153 0
135 153 0
133 153 0
129 150 0
113 131 0
115 134 0
128 146 0
122 143 0
116 135 0
122 140 0
111 128 0
125 143 0
122 141 0
120 138 0
107 126 0
122 140 0
121 139 0
117 135 0
112 131 0
119 138 0
105 124 0
111 129 0
121 139 0
108 125 0
100 118 0
120 138 0
105 123 0
113 130 0
108 127 0
111 130 0
119 137 0
117 134 0
129 148 0
110 127 0
115 133 0
109 127 0
108 126 0
109 126 0
113 130 0
97 115 0
108 126 0
111 129 0
123 141 0
123 142 0
115 133 0
122 141 0
108 126 0
110 128 0
120 137 0
109 128 0
130 148 0
114 133 0
123 142 0
119 137 0
114 132 0
123 142 0
112 130 0
120 138 0
127 145 0
103 121 0
118 138 0
129 148 0
130 149 0
121 139 0
112 130 0
138 158 0
122 141 0
111 130 0
127 147 0
114 134 0
114 133 0
124 144 0
121 140 0
122 141 0
132 151 0
129 149 0
131 151 0
120 140 0
111 128 0
132 150 0
124 144 0
130 150 0
133 153 0
130 150 0
140 160 0
123 143 0
144 163 0
133 154 0
138 156 0
134 153 0
131 151 0
118 137 0
134 152 0
139 158 0
139 159 0
132 152 0
130 150 0
131 151 0
133 152 0
131 149 0
146 166 0
140 159 0
136 155 0
142 162 0
133 153 0
140 161 0
137 156 0
139 159 0
142 164 0
148 168 0
135 155 0
136 156 0
137 156 0
142 162 0
146 166 0
143 162 0
144 164 0
141 162 0
151 172 0
149 169 0
149 171 0
141 162 0
149 170 0
150 171 0
146 164 0
149 170 0
149 168 0
150 170 0
153 173 0
151 173 0
143 163 0
150 172 0
157 177 0
144 165 0
148 168 0
155 176 0
150 171 0
150 170 0
155 176 0
149 169 0
143 164 0
147 168 0
156 176 0
147 166 0
153 174 0
155 175 0
160 182 0
150 170 0
151 170 0
148 168 0
152 172 0
150 171 0
151 172 0
151 173 0
159 181 0
155 177 0
151 171 0
147 167 0
158 180 0
158 179 0
157 179 0
158 178 0
158 178 0
151 173 0
156 176 0
156 178 0
158 180 0
157 178 0
160 181 0
157 177 0
154 176 0
159 181 0
152 172 0
159 182 0
158 180 0
158 180 0
159 180 0
158 178 0
159 181 0
164 186 0
155 174 0
154 174 0
155 175 0
160 181 0
152 171 0
160 180 0
162 182 0
152 173 0
163 185 0
162 184 0
162 183 0
160 182 0
166 187 0
157 179 0
152 172 0
156 177 0
156 175 0
160 181 0
164 185 0
159 180 0
162 183 0
161 182 0
163 185 0
159 181 0
171 193 0
161 182 0
163 184 0
160 181 0
163 185 0
161 182 0
158 178 0
159 181 0
160 182 0
165 186 0
159 179 0
163 183 0
165 184 0
157 179 0
164 185 0
164 186 0
163 183 0
167 188 0
164 186 0
166 186 0
165 187 0
166 187 0
166 187 0
155 176 0
162 183 0
167 188 0
164 184 0
168 190 0
162 182 0
163 185 0
164 185 0
166 187 0
162 184 0
156 178 0
160 182 0
164 186 0
166 187 0
166 187 0
168 190 0
162 184 0
161 182 0
169 191 0
162 184 0
166 187 0
168 189 0
161 182 0
164 186 0
167 189 0
167 188 0
166 188 0
167 188 0
177 199 95
176 198 114
176 199 111
172 195 95
171 195 88
168 190 76
170 193 92
171 194 76
171 194 92
175 198 99
168 191 95
172 195 114
173 196 99
166 190 72
167 190 84
178 200 102
174 197 99
167 191 92
170 193 92
166 189 102
172 196 114
166 190 88
166 190 108
168 191 99
172 195 120
166 189 76
167 191 88
167 190 92
167 189 84
168 192 95
167 190 88
168 191 84
160 183 80
168 192 102
171 194 99
170 193 84
175 198 105
170 193 122
166 190 92
173 196 108
164 186 80
166 189 105
171 195 133
166 189 84
160 183 80
160 183 95
162 186 102
161 185 95
165 189 122
160 184 117
167 190 108
157 180 80
165 189 111
159 183 95
165 186 76
164 187 84
158 180 92
165 187 102
157 180 72
167 190 105
161 184 95
160 183 92
166 189 95
160 183 102
164 187 118
161 184 111
158 181 80
165 188 114
158 181 99
157 181 88
156 178 62
152 174 84
158 181 92
165 188 117
159 181 80
160 182 92
162 184 102
159 181 95
161 183 117
162 184 102
163 185 125
157 179 84
158 180 108
161 182 99
163 186 120
151 173 92
162 184 108
161 182 88
148 170 95
145 166 92
149 170 88
147 168 84
157 179 95
155 175 99
151 172 99
154 174 95
154 175 105
152 171 114
146 166 88
143 163 99
148 169 95
152 172 111
145 163 95
143 163 99
142 161 92
150 169 95
147 166 105
154 173 88
144 162 102
139 157 80
139 158 62
149 168 84
136 155 57
147 166 95
128 146 51
134 152 88
127 146 57
125 144 72
145 164 62
124 142 36
134 152 62
129 148 51
138 157 62
131 149 51
134 152 44
118 136 36
134 151 25
136 157 44
133 152 25
132 151 51
144 164 36
129 148 0
145 165 36
142 162 0
143 163 0
139 159 0
145 164 25
132 152 0
143 163 0
131 151 0
141 161 0
134 153 0
132 152 0
126 146 0
135 153 0
138 158 0
136 156 0
133 151 0
132 152 0
125 144 0
133 152 0
128 147 0
121 140 0
116 135 0
122 140 0
117 136 0
114 131 0
127 145 0
123 142 0
133 151 0
118 138 0
120 138 0
101 119 0
120 137 0
111 129 0
113 131 0
114 134 0
127 145 0
107 125 0
124 142 0
118 137 0
126 145 0
115 132 0
113 131 0
117 135 0
120 137 0
116 133 0
114 131 0
102 117 0
105 124 0
107 124 0
106 125 0
132 150 0
126 144 0
119 137 0
113 130 0
118 136 0
107 125 0
115 134 0
112 130 0
118 137 0
119 137 0
127 145 0
127 146 0
122 141 0
116 134 0
121 139 0
112 132 0
113 132 0
120 140 0
120 138 0
109 127 0
119 136 0
121 140 0
111 131 0
125 144 0
127 145 0
131 150 0
120 138 0
113 131 0
123 142 0
123 142 0
128 147 0
126 146 0
128 147 0
134 154 0
131 150 0
118 136 0
130 149 0
130 150 0
126 145 0
136 155 0
122 141 0
130 149 0
130 149 0
130 149 0
133 152 0
130 150 0
137 157 0
137 157 0
131 151 0
134 152 0
141 162 0
137 156 0
128 147 0
133 153 0
133 154 0
132 151 0
135 155 0
140 160 0
127 148 0
143 162 0
132 152 0
142 163 0
136 156 0
128 147 0
133 152 0
144 163 0
133 152 0
143 163 0
134 154 0
147 168 0
141 162 0
143 164 0
140 160 0
137 159 0
139 159 0
144 163 0
147 168 0
142 163 0
145 166 0
135 155 0
150 171 0
139 158 0
139 159 0
147 168 0
146 166 0
146 167 0
154 176 0
144 163 0
153 174 0
142 164 0
145 165 0
152 173 0
152 171 0
143 164 0
144 165 0
150 170 0
147 167 0
148 166 0
152 172 0
148 169 0
150 172 0
150 169 0
152 173 0
154 175 0
147 167 0
151 173 0
155 176 0
152 174 0
147 169 0
157 178 0
160 180 0
155 176 0
152 172 0
147 167 0
153 173 0
148 169 0
156 177 0
150 171 0
156 177 0
152 171 0
155 176 0
154 174 0
145 165 0
152 171 0
157 179 0
147 166 0
154 174 0
159 180 0
159 179 0
157 178 0
160 182 0
157 179 0
158 178 0
157 178 0
149 169 0
155 176 0
160 180 0
160 181 0
157 178 0
155 177 0
154 174 0
153 173 0
162 182 0
157 178 0
160 179 0
164 185 0
158 179 0
156 177 0
164 186 0
156 178 0
162 183 0
157 178 0
163 184 0
157 178 0
158 179 0
160 181 0
157 177 0
161 183 0
159 179 0
157 177 0
159 181 0
165 186 0
163 183 0
162 182 0
159 180 0
161 182 0
163 185 0
158 179 0
159 181 0
160 182 0
164 186 0
156 178 0
162 182 0
160 182 0
162 182 0
162 184 0
163 184 0
161 182 0
159 179 0
165 187 0
156 176 0
165 186 0
159 178 0
162 183 0
164 186 0
163 185 0
164 185 0
169 191 0
161 183 0
166 187 0
163 184 0
159 178 0
166 187 0
167 189 0
163 186 0
165 186 0
166 187 0
165 186 0
161 183 0
167 190 0
167 188 0
163 184 0
165 185 0
168 191 0
158 180 0
169 190 0
166 187 0
165 187 0
163 184 0
160 181 0
165 186 0
162 183 0
167 190 0
168 189 0
166 187 0
168 190 0
170 191 0
167 189 0
172 195 108
171 194 95
176 199 102
171 194 102
177 200 99
162 186 80
168 191 102
172 195 99
174 197 114
175 198 105
168 191 99
169 192 92
176 200 122
173 196 92
169 192 84
169 192 72
174 197 114
169 192 99
172 195 95
166 189 76
172 195 99
171 194 102
172 195 102
169 192 84
171 195 108
170 193 102
176 199 102
167 190 67
165 189 84
170 194 111
175 198 122
170 193 95
168 191 76
169 193 122
169 192 88
171 194 111
172 195 92
166 190 88
168 190 99
166 190 108
172 195 105
167 191 88
162 185 92
163 188 99
165 188 92
171 195 108
164 187 88
165 188 102
169 192 108
163 186 95
162 185 105
166 189 108
162 185 88
167 190 111
163 185 99
166 188 92
164 187 108
163 185 95
160 183 95
159 181 88
156 179 95
163 186 95
167 189 117
168 190 105
161 183 88
159 181 80
161 184 120
162 184 88
163 186 108
162 183 95
155 177 105
158 181 99
164 186 114
156 178 92
160 182 102
163 185 108
158 180 92
155 176 102
157 179 92
163 185 114
149 171 84
161 183 92
159 181 111
163 184 114
153 174 88
155 176 84
158 180 105
161 182 95
158 180 108
155 175 108
153 173 92
158 179 102
152 173 105
147 168 99
154 174 95
150 170 111
155 176 99
147 168 99
150 171 111
137 157 80
152 172 111
149 169 92
158 178 95
152 173 80
149 167 88
148 167 111
154 173 114
153 171 120
152 172 102
137 158 62
143 163 80
145 164 80
143 162 92
140 159 88
129 149 51
122 141 36
137 156 67
139 157 76
121 140 62
134 153 57
137 156 62
131 149 57
122 141 36
127 145 36
136 155 36
133 151 51
133 152 36
130 147 36
127 145 36
135 155 25
136 156 36
146 168 25
148 168 0
145 165 25
155 177 0
151 171 25
141 161 25
141 162 0
139 158 0
134 153 0
142 162 0
134 153 0
138 159 0
139 160 0
138 157 0
138 157 0
139 160 0
123 141 0
124 143 0
111 130 0
122 141 0
125 143 0
110 129 0
127 145 0
129 148 0
122 142 0
123 143 0
125 144 0
118 136 0
132 152 0
119 138 0
119 137 0
115 133 0
110 128 0
126 144 0
117 136 0
113 132 0
116 134 0
115 133 0
112 131 0
102 121 0
123 141 0
102 120 0
112 130 0
109 127 0
122 139 0
114 133 0
115 133 0
117 135 0
110 128 0
121 139 0
115 134 0
121 138 0
120 138 0
111 128 0
116 135 0
107 126 0
115 133 0
124 143 0
111 129 0
129 148 0
118 137 0
121 140 0
109 127 0
125 143 0
119 138 0
101 117 0
111 129 0
115 135 0
119 139 0
121 140 0
127 146 0
135 155 0
115 134 0
126 143 0
127 146 0
114 132 0
124 143 0
121 141 0
124 143 0
121 140 0
125 145 0
130 150 0
123 143 0
119 137 0
133 152 0
121 139 0
120 138 0
121 142 0
130 150 0
138 157 0
120 140 0
126 146 0
121 141 0
130 150 0
121 141 0
133 152 0
134 154 0
134 153 0
136 157 0
132 152 0
137 156 0
125 145 0
132 153 0
126 144 0
126 146 0
130 150 0
142 162 0
138 158 0
137 157 0
133 153 0
146 165 0
138 157 0
134 154 0
134 154 0
142 164 0
133 153 0
138 158 0
147 168 0
131 152 0
147 168 0
140 161 0
141 161 0
141 163 0
134 154 0
148 169 0
149 170 0
144 162 0
151 172 0
143 164 0
153 174 0
147 170 0
142 163 0
147 168 0
152 173 0
148 168 0
145 166 0
143 163 0
142 162 0
150 170 0
152 172 0
144 162 0
148 170 0
148 168 0
144 166 0
154 175 0
147 169 0
157 178 0
148 168 0
149 170 0
149 168 0
148 169 0
144 165 0
154 176 0
150 171 0
162 184 0
147 168 0
151 171 0
151 171 0
147 167 0
147 168 0
151 174 0
154 173 0
157 178 0
153 174 0
151 173 0
155 176 0
147 168 0
148 169 0
154 176 0
157 177 0
152 172 0
154 174 0
153 172 0
156 176 0
158 178 0
161 181 0
159 179 0
148 170 0
157 178 0
153 173 0
157 179 0
156 175 0
152 173 0
160 182 0
156 178 0
153 173 0
160 180 0
156 177 0
155 176 0
158 179 0
155 176 0
157 177 0
158 178 0
159 181 0
160 180 0
154 174 0
162 183 0
158 180 0
155 173 0
161 182 0
159 180 0
158 180 0
161 182 0
157 178 0
159 180 0
160 182 0
167 189 0
156 177 0
157 178 0
158 179 0
161 184 0
164 185 0
163 184 0
164 186 0
157 178 0
165 187 0
162 184 0
162 182 0
164 187 0
162 183 0
159 181 0
167 187 0
166 188 0
164 185 0
164 185 0
164 188 0
158 179 0
163 181 0
163 183 0
164 184 0
160 181 0
161 182 0
155 177 0
161 181 0
162 183 0
164 186 0
166 190 0
167 188 0
159 179 0
163 185 0
166 187 0
165 188 0
165 188 0
162 181 0
165 185 0
166 188 0
168 190 0
168 190 0
164 185 0
164 186 0
171 194 0
164 186 0
163 183 0
169 189 0
161 183 0
168 188 0
161 182 0
166 188 0
161 180 0
166 187 0
163 185 0
168 190 0
169 191 0
164 186 0
164 184 0
163 185 0
162 183 0
166 188 0
168 190 0
169 192 92
172 195 88
170 193 72
171 195 88
173 196 95
176 199 108
172 195 88
173 196 99
173 197 84
170 194 111
173 197 95
165 188 72
168 191 80
172 195 111
169 192 88
164 187 105
168 191 105
176 199 99
165 189 92
173 197 111
168 191 99
171 194 102
174 196 88
172 195 102
168 192 102
171 195 108
165 189 102
171 194 114
168 192 99
167 191 114
172 195 111
169 193 114
169 193 105
168 191 99
168 192 92
168 191 111
170 193 88
171 194 99
169 192 105
169 192 92
171 193 95
165 189 108
164 188 102
166 189 88
168 192 92
166 190 84
166 189 99
167 191 102
161 183 105
166 189 92
163 186 95
167 190 72
167 190 114
167 190 108
163 185 84
165 188 120
161 184 102
168 192 95
164 188 99
164 186 102
159 181 102
160 182 95
172 195 114
163 185 99
159 181 99
160 182 99
161 183 92
155 178 99
161 184 84
162 185 95
159 182 99
156 179 76
156 178 99
164 185 114
161 182 88
156 178 105
154 175 114
164 186 111
160 182 99
151 174 80
157 179 105
156 178 92
155 177 95
154 176 80
158 179 88
158 180 108
146 167 57
159 180 111
155 177 95
147 169 92
159 180 117
153 175 92
157 178 92
145 167 76
149 170 88
147 168 88
144 163 88
158 178 111
153 173 99
161 181 108
153 174 92
157 176 108
156 175 111
153 172 99
150 169 108
158 177 99
142 162 88
157 176 105
156 176 84
147 166 80
145 163 80
132 152 72
153 171 102
141 160 57
150 169 57
141 159 67
137 156 80
146 165 72
135 154 36
122 139 51
133 151 67
126 146 51
127 146 36
128 147 44
119 139 25
144 164 67
128 147 44
130 151 0
130 150 36
138 159 25
138 158 25
132 151 25
139 158 0
137 159 36
141 163 25
134 155 0
134 153 36
146 166 0
143 163 0
147 168 0
133 153 0
137 157 0
142 162 0
132 152 0
142 162 0
133 152 0
130 150 0
125 145 0
130 151 0
127 145 0
135 155 0
130 149 0
133 153 0
124 143 0
123 143 0
129 149 0
110 129 0
127 145 0
115 135 0
118 137 0
124 142 0
130 148 0
128 147 0
114 131 0
109 128 0
118 135 0
116 134 0
107 124 0
121 140 0
117 135 0
115 134 0
129 148 0
116 135 0
123 142 0
121 140 0
113 131 0
123 140 0
96 114 0
113 132 0
116 134 0
110 128 0
110 129 0
107 126 0
125 144 0
115 133 0
118 137 0
112 130 0
124 142 0
117 136 0
116 135 0
118 136 0
117 136 0
108 126 0
118 134 0
127 147 0
126 144 0
115 134 0
127 144 0
123 142 0
118 138 0
118 136 0
132 151 0
125 142 0
130 149 0
115 135 0
121 138 0
132 152 0
121 140 0
136 156 0
126 145 0
130 150 0
115 134 0
135 155 0
127 148 0
133 152 0
127 146 0
129 148 0
115 134 0
137 157 0
124 143 0
130 149 0
132 152 0
129 150 0
138 157 0
137 157 0
136 156 0
123 142 0
130 150 0
140 161 0
128 149 0
132 153 0
137 156 0
131 151 0
132 152 0
123 144 0
134 154 0
134 154 0
134 153 0
139 158 0
149 170 0
138 158 0
142 163 0
131 153 0
144 165 0
134 152 0
138 158 0
140 161 0
138 158 0
153 174 0
141 163 0
144 163 0
144 165 0
146 166 0
144 164 0
147 165 0
144 165 0
142 162 0
143 165 0
142 161 0
144 165 0
148 167 0
147 168 0
145 166 0
144 165 0
151 171 0
137 157 0
150 171 0
141 162 0
146 164 0
147 168 0
149 171 0
150 171 0
152 173 0
148 169 0
145 165 0
155 176 0
154 174 0
142 162 0
152 173 0
150 169 0
150 172 0
146 167 0
150 171 0
152 174 0
145 165 0
154 176 0
160 181 0
157 177 0
157 178 0
149 171 0
151 171 0
150 172 0
152 172 0
155 176 0
149 171 0
159 182 0
152 173 0
152 173 0
154 174 0
149 171 0
160 182 0
159 180 0
156 177 0
160 180 0
156 179 0
143 164 0
148 169 0
156 177 0
158 179 0
159 181 0
156 176 0
156 177 0
163 185 0
159 180 0
152 172 0
156 178 0
160 183 0
160 182 0
155 175 0
159 181 0
156 177 0
158 180 0
156 177 0
162 182 0
153 174 0
160 181 0
165 186 0
155 175 0
155 177 0
163 183 0
158 178 0
155 176 0
158 179 0
162 183 0
160 181 0
158 179 0
159 180 0
163 184 0
158 179 0
156 176 0
161 181 0
164 185 0
160 182 0
164 185 0
157 179 0
162 182 0
162 182 0
167 187 0
158 177 0
162 184 0
162 182 0
163 184 0
157 177 0
162 184 0
161 179 0
162 182 0
164 184 0
162 185 0
162 183 0
166 188 0
161 180 0
165 188 0
165 186 0
160 182 0
165 185 0
163 183 0
163 185 0
166 188 0
163 184 0
160 181 0
165 188 0
164 185 0
166 188 0
164 187 0
169 190 0
161 183 0
167 189 0
165 186 0
166 188 0
166 187 0
164 186 0
168 191 0
162 185 0
165 187 0
167 188 0
165 186 0
163 184 0
164 186 0
170 191 0
169 192 0
165 186 0
165 187 0
165 188 0
162 184 0
164 186 0
170 193 0
166 188 0
168 190 0
162 183 0
161 182 0
176 198 111
176 199 95
173 196 84
172 195 88
168 190 99
174 197 95
175 198 114
173 196 92
173 196 95
171 194 114
174 196 88
168 190 80
173 195 95
170 193 95
172 194 114
171 194 117
176 199 125
170 194 111
171 194 105
168 192 95
171 194 99
169 193 92
168 191 92
169 192 92
164 187 95
167 190 105
163 186 105
165 189 95
167 191 80
169 192 92
165 189 99
165 188 99
163 186 92
170 193 92
170 193 95
168 191 92
165 189 88
169 193 80
165 189 88
169 193 92
168 191 105
163 186 88
166 189 92
163 186 76
168 192 95
163 186 108
169 192 102
169 192 99
167 189 108
173 196 114
164 187 92
165 189 117
159 182 76
162 186 99
170 193 102
163 187 92
168 190 76
164 186 76
167 190 117
158 180 105
155 178 102
161 184 80
161 183 84
162 185 108
162 185 92
166 189 102
163 186 99
160 183 102
168 190 108
161 184 84
163 186 122
160 182 95
155 178 67
161 183 99
168 190 95
160 183 84
159 180 114
153 175 95
160 182 95
155 178 92
163 184 95
158 180 95
145 166 72
157 178 95
173 194 108
166 188 117
153 174 105
154 174 95
152 173 88
152 174 84
150 171 99
153 174 84
149 170 84
157 177 105
150 170 92
152 172 105
150 170 88
164 184 114
148 167 102
152 172 105
147 168 72
139 160 76
156 176 102
159 179 102
151 171 102
148 167 95
157 178 95
139 159 76
151 171 99
155 174 102
141 160 72
151 170 76
148 167 88
139 159 57
130 149 62
142 160 88
139 159 44
142 161 76
142 161 62
127 146 25
129 148 51
141 161 57
137 157 51
131 150 44
136 155 44
136 156 0
131 150 25
139 160 44
133 154 0
142 162 44
129 149 36
141 160 51
147 167 25
142 163 25
143 163 36
141 161 0
138 158 0
150 170 0
145 166 0
138 160 0
142 162 0
150 171 0
143 162 0
131 149 0
137 157 0
130 149 0
136 155 0
129 150 0
116 136 0
137 157 0
118 137 0
140 160 0
122 142 0
131 151 0
116 134 0
124 143 0
118 137 0
122 141 0
112 130 0
126 146 0
120 138 0
118 136 0
117 136 0
113 133 0
123 143 0
118 136 0
127 145 0
120 137 0
128 147 0
130 149 0
117 136 0
120 140 0
108 126 0
102 121 0
111 131 0
124 143 0
115 133 0
124 143 0
110 129 0
122 140 0
123 141 0
123 140 0
125 143 0
120 139 0
123 142 0
121 140 0
118 137 0
113 132 0
108 126 0
127 146 0
122 139 0
115 134 0
128 148 0
118 138 0
115 134 0
125 144 0
113 132 0
131 150 0
113 132 0
126 145 0
121 141 0
126 145 0
127 147 0
132 151 0
129 148 0
111 130 0
117 137 0
133 152 0
136 156 0
124 143 0
124 145 0
119 137 0
118 137 0
131 149 0
122 141 0
133 154 0
129 149 0
131 150 0
128 148 0
120 139 0
129 147 0
128 147 0
136 155 0
128 147 0
136 155 0
138 156 0
131 151 0
130 151 0
140 159 0
137 157 0
138 157 0
136 157 0
138 158 0
131 151 0
144 165 0
134 153 0
137 157 0
132 154 0
134 155 0
138 158 0
137 158 0
130 148 0
142 162 0
137 157 0
135 155 0
135 156 0
139 159 0
150 170 0
145 166 0
139 159 0
143 163 0
143 164 0
139 161 0
150 171 0
142 163 0
146 168 0
144 165 0
150 170 0
143 163 0
142 163 0
143 163 0
129 149 0
137 157 0
157 178 0
147 166 0
148 168 0
146 168 0
154 176 0
150 171 0
149 170 0
147 167 0
152 172 0
147 169 0
148 170 0
150 170 0
149 169 0
153 176 0
153 174 0
140 164 0
151 173 0
147 169 0
149 170 0
149 170 0
151 171 0
147 168 0
148 169 0
151 172 0
148 170 0
144 166 0
156 177 0
160 182 0
150 171 0
149 171 0
149 169 0
157 179 0
154 175 0
160 181 0
153 173 0
153 174 0
158 179 0
151 171 0
147 167 0
165 187 0
154 176 0
156 177 0
153 174 0
154 175 0
158 179 0
162 184 0
152 172 0
155 177 0
155 175 0
157 178 0
155 176 0
161 182 0
150 169 0
164 186 0
165 187 0
156 178 0
163 185 0
160 181 0
149 170 0
156 176 0
153 173 0
163 184 0
159 181 0
158 179 0
157 178 0
157 178 0
163 182 0
156 177 0
163 184 0
156 178 0
159 182 0
167 189 0
165 187 0
165 187 0
164 185 0
162 184 0
162 185 0
163 183 0
159 181 0
160 181 0
159 182 0
161 182 0
163 183 0
162 183 0
164 185 0
160 181 0
159 180 0
163 185 0
159 181 0
159 180 0
158 179 0
161 182 0
164 185 0
161 182 0
162 184 0
162 184 0
171 193 0
158 179 0
164 186 0
163 184 0
163 186 0
163 183 0
163 183 0
161 183 0
164 185 0
162 183 0
162 184 0
165 186 0
162 184 0
167 189 0
162 183 0
167 188 0
165 187 0
162 184 0
165 187 0
164 185 0
162 185 0
165 185 0
167 188 0
170 194 0
166 187 0
161 184 0
162 184 0
167 190 0
165 186 0
166 188 0
167 191 0
169 189 0
159 179 0
167 190 0
162 183 0
169 191 0
163 183 0
161 183 0
168 190 0
166 189 0
168 190 0
174 197 114
170 192 92
173 195 84
176 198 105
177 200 108
170 194 95
174 197 102
173 196 92
177 200 114
172 195 92
167 190 84
166 189 80
172 196 99
173 196 102
172 194 88
165 188 88
170 193 92
173 196 80
172 196 99
171 195 105
170 194 102
166 190 92
167 190 92
171 195 95
169 194 102
163 186 88
171 194 99
167 190 105
168 192 62
168 191 88
169 192 92
168 193 114
163 185 99
171 193 105
170 194 105
166 189 108
167 189 99
162 185 92
167 191 99
168 191 99
170 194 108
163 187 88
167 190 76
160 184 88
168 191 108
164 186 105
159 183 99
166 190 99
161 184 92
165 189 105
160 184 88
158 181 92
168 191 111
163 186 88
163 187 99
163 186 105
164 188 88
161 184 102
166 189 117
161 184 92
158 180 84
156 178 80
163 185 84
164 187 105
161 185 108
158 179 90
165 188 114
161 183 111
159 181 84
163 186 108
159 181 95
162 184 102
159 180 88
161 184 88
164 186 108
158 180 67
162 184 88
155 177 76
154 177 80
162 184 105
162 184 84
164 186 108
162 185 117
152 173 88
157 180 111
155 177 108
151 172 88
157 178 92
155 175 114
159 180 102
155 175 99
155 175 102
154 174 114
147 166 108
160 180 108
145 165 92
148 169 102
151 171 84
149 168 84
144 165 62
153 172 88
155 175 108
154 174 84
144 163 99
154 173 114
162 181 108
148 167 102
138 157 51
155 174 88
143 163 62
149 168 88
147 166 84
133 153 72
148 168 76
147 168 67
141 160 76
138 157 67
138 158 51
126 146 36
132 153 57
128 148 36
136 155 57
133 153 0
143 164 44
131 151 36
127 147 44
146 166 36
135 155 51
132 151 25
142 161 0
144 165 51
133 155 0
143 163 36
149 169 44
140 160 0
155 177 0
141 161 0
146 167 0
142 162 25
143 164 0
150 171 0
141 162 0
133 153 0
141 161 0
135 156 0
135 155 0
134 154 0
126 146 0
135 155 0
121 140 0
138 158 0
127 147 0
133 153 0
125 144 0
133 153 0
125 145 0
128 148 0
116 136 0
128 148 0
127 145 0
119 138 0
110 129 0
116 135 0
123 143 0
121 141 0
124 142 0
118 136 0
123 142 0
127 146 0
123 142 0
121 139 0
123 142 0
121 142 0
128 147 0
114 133 0
109 128 0
123 143 0
127 146 0
112 130 0
123 140 0
118 136 0
125 144 0
116 134 0
120 139 0
126 145 0
119 138 0
121 139 0
111 130 0
121 140 0
124 144 0
114 133 0
135 154 0
119 137 0
129 148 0
118 137 0
129 149 0
129 149 0
114 134 0
121 140 0
121 141 0
122 141 0
130 151 0
133 153 0
120 139 0
117 136 0
116 135 0
128 147 0
121 140 0
126 146 0
116 136 0
137 156 0
121 141 0
125 144 0
127 146 0
127 147 0
121 141 0
128 148 0
131 151 0
125 145 0
135 153 0
125 144 0
125 145 0
119 138 0
131 151 0
135 154 0
129 149 0
134 154 0
125 146 0
132 151 0
128 150 0
135 155 0
140 162 0
137 157 0
143 164 0
132 152 0
148 170 0
148 169 0
143 165 0
141 161 0
137 156 0
139 158 0
139 160 0
134 155 0
152 173 0
145 164 0
139 159 0
143 163 0
146 168 0
141 160 0
141 160 0
130 149 0
144 165 0
139 159 0
150 171 0
136 156 0
146 166 0
145 165 0
144 164 0
143 164 0
149 169 0
141 163 0
147 168 0
150 172 0
144 164 0
148 170 0
141 162 0
146 165 0
143 165 0
150 171 0
147 169 0
142 163 0
147 167 0
145 166 0
148 168 0
148 168 0
153 173 0
150 170 0
144 165 0
157 178 0
154 176 0
147 167 0
148 168 0
151 172 0
152 174 0
147 167 0
154 175 0
143 165 0
153 173 0
151 172 0
155 177 0
152 174 0
143 164 0
154 175 0
149 170 0
157 178 0
153 174 0
145 167 0
155 176 0
149 171 0
154 174 0
160 182 0
153 175 0
158 180 0
158 178 0
154 176 0
159 179 0
152 174 0
150 172 0
152 172 0
159 181 0
151 173 0
158 179 0
158 180 0
158 180 0
161 182 0
158 180 0
160 180 0
161 182 0
161 184 0
161 183 0
161 183 0
156 176 0
162 183 0
159 181 0
160 182 0
160 182 0
157 178 0
162 184 0
157 178 0
159 180 0
160 181 0
154 174 0
161 183 0
162 183 0
162 184 0
159 180 0
161 182 0
156 179 0
161 182 0
160 181 0
159 182 0
161 182 0
158 178 0
160 181 0
163 184 0
159 181 0
159 180 0
164 185 0
160 181 0
160 181 0
162 184 0
163 184 0
162 182 0
164 187 0
163 185 0
171 194 0
161 183 0
155 177 0
161 183 0
161 181 0
164 186 0
170 192 0
158 180 0
166 188 0
164 186 0
166 187 0
160 180 0
163 183 0
166 189 0
161 184 0
169 191 0
167 189 0
161 184 0
168 188 0
164 184 0
161 180 0
167 189 0
163 185 0
169 189 0
167 189 0
160 181 0
165 187 0
166 187 0
168 191 0
165 188 0
168 190 0
166 187 0
161 182 0
163 186 0
166 188 0
166 188 0
169 190 0
163 185 0
170 190 0
167 188 0
169 191 0
168 190 0
163 187 0
165 187 0
165 187 0
172 195 84
178 201 117
178 202 122
175 198 108
169 193 76
173 196 102
173 196 99
174 197 102
172 195 99
172 195 88
172 195 105
174 198 92
167 190 95
174 198 84
171 195 108
172 195 88
173 197 111
169 192 105
166 190 102
170 193 80
169 193 105
164 187 92
168 191 92
169 192 105
169 193 92
167 189 88
167 190 92
171 195 114
169 192 76
175 198 99
167 191 88
169 192 76
168 191 111
170 193 108
169 193 108
163 186 84
165 189 92
170 193 102
168 192 84
169 193 102
165 189 108
166 189 102
161 185 88
168 191 102
166 189 99
165 188 88
168 192 92
161 185 92
168 191 117
159 182 88
164 187 99
164 187 105
162 184 84
167 190 92
165 188 95
164 188 105
152 174 57
164 187 92
166 188 84
167 191 102
159 182 99
162 184 105
163 186 102
165 188 111
158 181 80
165 187 105
160 183 84
158 181 105
161 183 111
161 184 95
155 177 88
162 185 102
156 178 84
166 188 102
164 186 95
155 177 84
155 176 92
159 180 76
157 180 92
160 182 92
161 182 105
159 181 84
161 183 102
159 181 72
156 178 76
150 171 105
157 178 102
165 186 120
150 171 88
155 176 102
156 177 99
147 168 92
150 170 92
162 183 111
151 172 102
150 171 80
152 171 114
156 175 108
157 177 108
160 180 99
150 170 92
148 167 88
146 167 99
161 181 95
148 168 95
157 177 108
151 171 88
148 168 72
147 167 84
151 170 62
146 165 84
145 164 76
155 175 76
145 165 92
144 164 67
152 172 51
136 156 62
149 169 62
146 166 76
131 150 44
133 152 62
140 160 51
139 159 36
133 154 36
145 166 44
131 151 44
143 162 57
127 146 0
142 164 25
138 159 36
145 166 44
139 159 51
148 168 25
148 170 0
143 165 0
136 158 25
146 166 25
146 167 0
143 163 0
137 157 0
146 165 0
137 156 0
143 165 0
140 161 0
145 166 0
129 148 0
126 145 0
143 163 0
129 148 0
133 153 0
125 145 0
124 143 0
124 144 0
127 147 0
130 149 0
128 147 0
123 143 0
132 150 0
132 150 0
128 148 0
121 140 0
130 149 0
130 148 0
127 147 0
119 138 0
120 138 0
117 136 0
124 143 0
118 136 0
126 146 0
111 129 0
125 144 0
127 146 0
113 132 0
123 142 0
121 139 0
124 143 0
127 146 0
118 137 0
113 133 0
119 137 0
117 136 0
109 129 0
120 139 0
119 139 0
124 143 0
129 149 0
120 139 0
113 132 0
113 131 0
118 136 0
128 147 0
117 138 0
123 144 0
113 134 0
123 141 0
120 138 0
120 140 0
130 150 0
128 149 0
116 136 0
123 143 0
117 136 0
124 144 0
130 150 0
117 136 0
123 142 0
127 146 0
126 146 0
137 156 0
129 148 0
127 147 0
126 146 0
129 149 0
139 158 0
127 145 0
120 139 0
137 157 0
136 156 0
138 158 0
137 158 0
134 155 0
138 157 0
123 143 0
124 142 0
131 151 0
135 155 0
134 155 0
130 150 0
128 148 0
137 159 0
130 149 0
140 160 0
141 162 0
139 160 0
129 149 0
139 158 0
130 150 0
139 161 0
135 156 0
139 160 0
144 164 0
143 164 0
142 164 0
140 162 0
143 163 0
146 166 0
141 161 0
140 161 0
146 169 0
148 168 0
139 159 0
140 158 0
145 167 0
149 170 0
150 170 0
146 167 0
146 167 0
148 168 0
151 172 0
151 172 0
147 168 0
146 169 0
147 169 0
147 168 0
149 169 0
144 164 0
152 174 0
150 172 0
148 169 0
152 172 0
152 174 0
152 172 0
156 178 0
150 168 0
145 166 0
154 175 0
151 173 0
154 175 0
153 174 0
149 171 0
147 169 0
149 170 0
155 175 0
140 160 0
143 164 0
153 174 0
156 178 0
145 166 0
150 171 0
156 177 0
155 178 0
147 169 0
157 179 0
153 173 0
158 179 0
153 173 0
161 181 0
160 181 0
149 169 0
153 174 0
155 176 0
153 174 0
155 176 0
153 174 0
156 178 0
160 182 0
156 178 0
155 175 0
155 175 0
158 180 0
156 176 0
155 175 0
160 181 0
160 181 0
153 175 0
154 174 0
162 183 0
154 174 0
156 179 0
161 184 0
160 180 0
155 177 0
156 176 0
159 180 0
160 181 0
157 179 0
155 176 0
161 183 0
163 184 0
161 183 0
163 185 0
158 179 0
163 182 0
164 186 0
164 186 0
160 180 0
154 175 0
163 185 0
156 177 0
163 186 0
156 177 0
165 186 0
160 182 0
160 181 0
162 183 0
162 184 0
156 178 0
155 177 0
165 184 0
163 186 0
166 186 0
165 186 0
165 188 0
163 185 0
165 186 0
162 184 0
162 184 0
163 184 0
164 186 0
168 188 0
166 187 0
168 188 0
159 180 0
162 183 0
166 187 0
169 190 0
165 187 0
157 178 0
167 188 0
162 182 0
166 187 0
163 185 0
166 188 0
169 191 0
162 183 0
160 181 0
163 186 0
163 184 0
166 187 0
165 187 0
166 187 0
166 187 0
165 185 0
162 184 0
163 185 0
166 187 0
164 185 0
163 185 0
158 181 0
169 192 0
164 184 0
167 188 0
168 188 0
169 191 0
163 184 0
166 189 0
165 186 0
162 184 0
164 186 0
172 195 95
173 196 99
178 200 114
174 197 102
172 195 102
172 196 99
170 193 76
173 195 76
176 199 105
170 193 76
178 200 127
172 195 114
164 188 102
172 195 117
172 196 108
171 194 76
166 190 72
175 198 108
166 189 80
166 189 76
166 189 84
170 194 95
167 190 62
168 191 102
169 193 88
168 191 108
172 194 108
165 188 80
166 189 102
168 192 95
166 188 92
172 195 88
167 190 99
162 186 84
167 190 105
168 192 105
163 187 99
167 190 95
163 186 88
166 190 95
164 187 92
163 186 67
164 188 99
167 191 92
161 185 88
167 190 84
165 189 92
166 189 102
164 187 95
163 187 102
160 183 67
163 186 80
172 194 114
168 192 111
166 189 111
161 184 108
165 188 99
160 182 102
170 194 114
161 183 92
161 184 92
161 184 88
162 185 99
159 181 99
162 184 114
157 179 80
163 185 88
158 180 99
163 186 95
157 179 88
163 185 92
158 181 117
161 183 102
162 185 114
166 188 114
158 180 92
156 178 84
159 181 99
158 180 76
164 186 108
162 183 120
157 179 92
159 181 99
163 184 114
164 185 95
157 178 102
155 177 88
153 174 102
154 176 102
151 171 84
154 176 80
155 176 92
152 172 99
154 176 88
154 174 72
157 178 111
159 180 99
153 173 95
152 173 88
161 180 111
164 183 120
163 183 105
155 176 108
151 171 95
162 181 108
161 180 114
153 173 99
150 170 88
152 172 76
151 170 84
148 166 95
139 159 62
147 166 84
147 167 76
147 168 62
144 164 57
144 164 57
159 179 92
142 161 57
144 164 51
141 160 57
134 155 51
145 166 36
141 161 51
145 166 51
144 165 36
152 173 36
133 153 25
142 163 36
145 165 25
142 162 0
152 174 25
141 162 0
139 158 25
150 172 0
152 173 0
147 168 0
134 155 0
144 166 0
155 178 0
136 156 0
135 156 0
147 167 0
145 164 0
145 166 0
135 155 0
119 139 0
140 160 0
127 147 0
135 155 0
131 151 0
121 142 0
118 139 0
130 150 0
130 151 0
136 156 0
128 148 0
126 146 0
125 144 0
117 137 0
121 141 0
116 135 0
121 140 0
124 143 0
117 136 0
129 148 0
114 132 0
114 134 0
121 141 0
133 151 0
130 149 0
120 138 0
122 141 0
121 140 0
119 138 0
119 140 0
111 130 0
121 140 0
124 144 0
126 145 0
127 146 0
125 144 0
122 142 0
122 142 0
122 141 0
127 147 0
124 143 0
129 149 0
136 156 0
130 149 0
129 148 0
121 139 0
131 151 0
118 138 0
124 145 0
128 148 0
125 143 0
119 139 0
119 139 0
121 140 0
124 144 0
128 148 0
125 145 0
127 147 0
129 148 0
130 149 0
124 144 0
128 147 0
133 153 0
139 158 0
131 151 0
129 150 0
126 145 0
121 140 0
131 150 0
132 152 0
133 153 0
133 153 0
138 158 0
134 154 0
138 157 0
138 159 0
132 151 0
134 154 0
133 153 0
139 159 0
132 153 0
129 151 0
134 155 0
136 156 0
135 155 0
148 167 0
136 156 0
134 154 0
123 145 0
135 154 0
146 167 0
128 149 0
144 164 0
135 156 0
136 157 0
142 163 0
137 158 0
149 171 0
130 152 0
146 167 0
144 165 0
141 161 0
136 156 0
141 162 0
138 158 0
145 166 0
143 164 0
142 163 0
149 170 0
149 171 0
150 171 0
147 168 0
150 171 0
141 162 0
148 170 0
148 168 0
146 167 0
150 171 0
145 165 0
143 163 0
153 175 0
152 175 0
145 167 0
153 174 0
141 162 0
156 177 0
159 180 0
152 174 0
146 166 0
151 173 0
147 169 0
150 171 0
152 173 0
145 165 0
149 169 0
152 172 0
149 169 0
153 174 0
151 173 0
155 177 0
153 175 0
160 182 0
156 178 0
152 173 0
152 173 0
150 170 0
149 171 0
155 176 0
156 177 0
152 174 0
155 176 0
152 173 0
153 174 0
156 177 0
152 173 0
157 179 0
159 180 0
153 177 0
151 171 0
153 173 0
152 172 0
155 177 0
154 175 0
156 177 0
159 180 0
161 182 0
161 182 0
157 178 0
151 172 0
152 172 0
152 174 0
162 184 0
160 183 0
157 177 0
161 182 0
158 180 0
158 178 0
159 179 0
157 179 0
161 181 0
160 182 0
162 183 0
161 184 0
154 176 0
164 183 0
165 186 0
159 181 0
161 183 0
156 178 0
163 185 0
162 185 0
165 184 0
155 176 0
162 182 0
161 183 0
164 186 0
162 183 0
158 179 0
159 179 0
163 183 0
162 185 0
159 178 0
162 183 0
166 188 0
168 189 0
160 182 0
157 179 0
169 191 0
164 186 0
161 184 0
162 183 0
162 184 0
165 187 0
161 182 0
167 189 0
165 186 0
165 188 0
156 177 0
162 185 0
167 190 0
162 183 0
157 177 0
163 185 0
169 191 0
162 183 0
166 189 0
162 183 0
169 190 0
163 184 0
159 179 0
164 187 0
165 188 0
164 186 0
163 184 0
165 187 0
168 188 0
166 189 0
163 185 0
168 189 0
168 189 0
165 187 0
162 182 0
160 181 0
166 189 0
166 187 0
162 184 0
168 190 0
166 187 0
167 189 0
168 191 0
163 185 0
168 191 0
164 187 0
166 188 0
172 195 88
175 197 105
171 194 102
174 198 95
169 192 88
170 194 111
172 196 102
169 191 62
174 196 108
172 195 99
173 196 108
174 198 99
169 192 88
167 191 84
169 191 67
172 195 88
167 190 84
173 196 114
171 194 99
170 193 102
168 192 99
166 190 80
170 193 88
168 191 99
172 196 108
168 191 84
162 186 57
171 194 102
167 189 95
163 185 84
169 193 105
171 194 92
169 193 99
167 190 105
175 198 95
170 193 88
167 189 92
171 195 108
171 194 99
163 186 76
170 193 111
168 192 95
161 183 80
169 193 95
166 190 99
167 190 84
164 187 114
169 192 84
159 183 88
164 187 92
165 188 108
166 188 105
163 186 88
165 188 111
165 186 114
167 190 80
164 187 88
169 192 108
166 189 102
162 186 84
167 189 99
165 188 95
162 184 99
163 186 76
161 183 76
159 181 99
165 188 80
166 188 95
164 186 92
163 186 88
162 185 99
160 182 111
158 180 99
160 181 95
154 176 80
159 181 111
153 175 99
166 188 108
167 189 120
157 179 99
159 181 95
161 183 88
150 170 67
162 184 108
155 175 92
151 172 76
158 178 108
156 177 95
153 174 105
156 177 92
159 180 102
154 175 92
152 173 102
154 176 88
153 173 95
144 165 80
154 174 105
161 181 108
155 175 84
155 176 99
155 174 92
158 178 102
153 173 99
158 178 111
149 169 92
154 174 111
145 164 80
151 171 84
153 173 99
143 162 72
161 181 84
145 165 88
148 168 57
152 171 92
144 164 62
148 168 84
148 168 67
146 166 44
149 168 57
134 154 62
138 158 36
136 156 51
138 157 51
143 164 44
136 157 36
137 157 44
141 161 36
142 164 36
145 167 25
144 165 0
149 170 25
151 173 25
149 170 0
147 169 25
145 166 25
136 155 0
148 167 0
145 166 0
143 165 0
145 166 0
140 160 0
151 172 0
137 159 0
132 154 0
142 163 0
146 165 0
137 157 0
130 150 0
135 155 0
130 149 0
131 151 0
134 154 0
143 164 0
124 144 0
138 157 0
124 144 0
122 141 0
134 155 0
133 154 0
131 150 0
133 152 0
130 150 0
117 135 0
118 138 0
129 149 0
114 134 0
127 147 0
122 142 0
129 148 0
127 148 0
124 143 0
130 150 0
125 144 0
125 144 0
123 143 0
130 149 0
130 149 0
118 137 0
127 147 0
128 148 0
129 147 0
131 150 0
118 137 0
119 138 0
113 133 0
117 137 0
120 140 0
126 145 0
121 140 0
123 143 0
128 148 0
115 135 0
131 150 0
122 141 0
134 153 0
125 145 0
127 147 0
120 139 0
120 140 0
125 144 0
128 147 0
132 151 0
139 159 0
142 162 0
133 153 0
133 154 0
128 146 0
134 153 0
128 148 0
129 149 0
132 151 0
134 154 0
124 143 0
135 156 0
125 145 0
140 161 0
129 149 0
137 156 0
134 155 0
135 156 0
139 157 0
138 158 0
143 163 0
136 157 0
127 148 0
143 163 0
144 164 0
137 159 0
138 158 0
134 153 0
142 161 0
134 154 0
138 160 0
130 149 0
144 165 0
135 155 0
133 154 0
139 159 0
137 156 0
144 166 0
147 168 0
145 165 0
148 169 0
137 158 0
144 164 0
136 157 0
144 164 0
139 160 0
149 169 0
138 158 0
155 177 0
143 165 0
144 165 0
146 168 0
144 163 0
148 170 0
150 171 0
141 161 0
146 167 0
143 165 0
151 172 0
142 164 0
147 168 0
151 172 0
153 175 0
145 165 0
154 175 0
147 167 0
142 164 0
144 164 0
151 172 0
153 175 0
146 166 0
143 163 0
149 172 0
147 169 0
156 177 0
144 165 0
155 176 0
146 167 0
156 178 0
157 178 0
160 181 0
144 164 0
149 171 0
148 170 0
145 166 0
155 177 0
149 171 0
155 176 0
157 178 0
150 171 0
156 178 0
156 176 0
147 167 0
157 180 0
157 179 0
156 177 0
157 179 0
160 182 0
158 180 0
154 175 0
158 180 0
157 178 0
152 173 0
157 178 0
153 174 0
153 175 0
151 171 0
149 171 0
151 172 0
157 178 0
158 179 0
155 177 0
158 179 0
149 170 0
158 180 0
160 182 0
156 177 0
153 174 0
160 180 0
156 177 0
162 184 0
160 182 0
157 176 0
162 182 0
157 178 0
164 185 0
162 183 0
164 186 0
160 181 0
153 174 0
163 184 0
159 180 0
161 183 0
163 184 0
158 179 0
154 175 0
162 183 0
161 182 0
158 177 0
159 180 0
159 180 0
160 181 0
163 184 0
162 185 0
165 186 0
162 184 0
161 182 0
162 184 0
160 182 0
167 188 0
163 185 0
167 189 0
158 179 0
159 181 0
160 181 0
163 186 0
166 189 0
162 184 0
165 187 0
161 182 0
168 189 0
166 188 0
163 183 0
159 181 0
163 185 0
166 189 0
164 185 0
163 185 0
162 184 0
165 186 0
166 189 0
167 190 0
166 187 0
167 190 0
162 185 0
167 188 0
169 190 0
165 185 0
171 194 0
168 191 0
168 189 0
162 183 0
165 187 0
165 187 0
162 183 0
161 183 0
169 190 0
167 189 0
168 189 0
162 183 0
167 188 0
169 189 0
163 184 0
166 189 0
165 187 0
167 189 0
166 188 0
164 185 0
171 194 95
173 196 111
165 189 92
173 195 99
174 197 95
174 196 105
171 195 105
170 193 95
167 190 105
169 192 102
168 192 72
176 199 99
171 195 84
174 197 102
170 193 88
169 192 102
174 196 102
166 189 99
172 195 84
168 191 99
166 190 80
173 196 111
172 195 108
169 193 92
175 198 111
170 193 92
170 194 80
168 191 105
166 190 99
167 190 102
170 194 99
161 184 84
164 187 80
168 192 88
167 191 105
172 195 88
165 189 99
168 191 99
168 191 92
166 190 88
157 181 80
164 187 92
161 185 95
161 184 76
164 186 105
170 192 102
165 188 88
168 191 95
167 190 99
175 198 122
159 183 76
170 192 92
166 188 84
170 192 114
158 181 88
162 185 102
169 192 114
163 185 99
166 190 84
164 187 114
160 183 95
166 189 99
163 186 92
167 190 105
164 186 84
162 185 88
164 186 105
163 185 92
156 179 92
163 185 99
160 183 102
164 187 108
162 185 111
163 184 95
156 177 95
162 184 84
161 183 88
164 187 102
162 184 95
160 180 117
160 182 114
162 183 88
156 178 92
157 178 92
155 176 92
153 174 84
153 173 88
155 176 84
163 184 111
154 175 92
155 176 84
157 177 95
155 176 105
149 170 88
158 179 99
159 180 114
152 172 102
150 170 88
150 170 80
155 175 95
158 179 102
151 170 88
150 170 76
146 166 72
156 176 105
146 166 76
157 178 88
156 176 76
160 179 95
144 164 67
153 172 80
152 172 76
153 173 92
162 182 76
146 167 67
146 167 36
139 160 57
150 169 67
141 161 57
136 157 25
143 162 57
149 169 51
146 167 57
142 162 44
131 152 0
144 165 51
147 168 51
139 160 0
147 167 36
147 167 0
151 173 0
152 174 25
151 171 0
144 166 0
141 162 0
144 164 0
149 170 25
140 161 25
148 169 0
140 159 0
146 169 0
142 162 0
142 163 0
140 160 0
140 161 0
133 154 0
138 160 0
135 156 0
142 162 0
138 158 0
140 161 0
134 155 0
123 143 0
130 149 0
143 163 0
123 143 0
123 142 0
125 145 0
143 163 0
125 145 0
133 153 0
121 141 0
126 145 0
126 147 0
133 153 0
124 143 0
111 131 0
126 145 0
136 157 0
122 140 0
125 145 0
124 143 0
123 142 0
130 151 0
128 148 0
115 134 0
124 144 0
125 144 0
118 136 0
129 148 0
132 151 0
132 151 0
128 147 0
130 150 0
132 152 0
117 137 0
133 153 0
125 144 0
134 154 0
119 139 0
122 142 0
134 154 0
133 154 0
128 147 0
132 152 0
131 152 0
125 144 0
126 147 0
127 146 0
131 150 0
118 138 0
116 137 0
126 146 0
135 155 0
132 151 0
133 153 0
131 151 0
140 159 0
135 154 0
129 149 0
144 164 0
128 148 0
138 159 0
148 170 0
140 160 0
128 148 0
130 150 0
133 153 0
145 165 0
141 161 0
137 158 0
132 153 0
137 157 0
141 161 0
129 150 0
129 149 0
129 151 0
140 161 0
142 162 0
139 159 0
145 165 0
135 155 0
144 165 0
130 150 0
141 160 0
145 165 0
145 165 0
135 154 0
139 160 0
134 153 0
147 167 0
141 162 0
134 154 0
153 174 0
143 165 0
143 163 0
140 160 0
140 161 0
138 158 0
152 172 0
145 166 0
142 162 0
153 175 0
139 160 0
136 155 0
146 166 0
157 178 0
143 164 0
144 165 0
143 165 0
148 169 0
137 157 0
145 166 0
150 172 0
156 177 0
145 166 0
143 165 0
145 167 0
151 171 0
140 160 0
151 173 0
145 166 0
138 158 0
151 172 0
156 177 0
151 173 0
149 171 0
150 172 0
153 174 0
148 168 0
152 173 0
150 171 0
153 175 0
154 177 0
151 173 0
150 171 0
153 175 0
146 167 0
143 165 0
157 179 0
156 178 0
155 176 0
157 178 0
157 179 0
154 176 0
159 179 0
152 174 0
151 173 0
155 175 0
158 179 0
158 181 0
153 176 0
155 177 0
160 181 0
155 175 0
159 181 0
163 185 0
152 173 0
155 176 0
160 182 0
158 179 0
154 176 0
160 182 0
153 175 0
163 186 0
156 177 0
157 178 0
162 184 0
161 183 0
162 184 0
156 177 0
156 179 0
157 178 0
161 184 0
159 181 0
162 184 0
156 178 0
158 178 0
166 187 0
159 181 0
162 184 0
157 180 0
162 184 0
160 183 0
164 184 0
159 181 0
167 189 0
163 184 0
158 180 0
159 180 0
163 185 0
161 181 0
158 181 0
164 186 0
160 180 0
166 188 0
164 185 0
162 182 0
161 181 0
164 185 0
160 180 0
164 186 0
164 184 0
164 184 0
161 184 0
164 186 0
162 183 0
163 183 0
162 184 0
160 183 0
164 185 0
162 183 0
161 181 0
167 187 0
163 184 0
165 187 0
164 186 0
163 186 0
165 188 0
164 187 0
163 184 0
162 184 0
164 185 0
165 186 0
166 188 0
165 187 0
165 187 0
163 185 0
162 185 0
166 189 0
163 185 0
164 185 0
170 192 0
164 187 0
160 181 0
164 184 0
168 190 0
170 190 0
164 185 0
164 184 0
166 189 0
168 190 0
165 188 0
165 187 0
165 187 0
165 187 0
162 184 0
170 193 0
160 180 0
167 190 0
175 198 95
169 192 88
173 197 99
171 194 72
175 198 114
172 195 84
175 198 95
172 195 105
168 191 88
173 196 108
170 194 108
176 199 95
174 198 88
174 197 102
168 191 80
169 192 88
170 193 117
176 200 105
174 197 108
165 188 88
163 187 99
169 192 92
168 191 76
170 193 95
167 191 80
164 187 95
169 192 92
170 194 95
166 188 88
174 196 80
169 192 99
169 192 99
168 191 102
168 192 76
168 192 102
159 182 80
171 194 95
166 189 114
165 188 88
164 186 88
165 189 92
168 191 99
162 184 99
166 189 99
167 190 99
167 191 72
163 186 92
168 191 92
163 186 92
166 189 99
166 190 108
163 186 88
164 187 99
167 190 76
163 186 92
165 188 84
165 188 88
166 188 88
165 187 72
167 189 102
163 187 102
160 182 88
165 188 88
163 186 99
157 180 80
159 182 80
161 184 88
159 181 88
162 184 99
159 181 99
157 178 67
160 183 108
162 184 88
159 182 95
159 181 95
163 185 105
159 180 99
165 188 99
167 190 95
160 183 105
159 181 92
165 186 105
159 182 84
160 182 92
156 178 99
162 182 117
164 186 92
163 184 114
158 179 105
153 174 99
151 172 88
161 183 105
170 190 111
157 178 88
155 177 99
161 182 92
147 168 99
152 172 102
156 177 92
156 177 88
154 175 88
154 173 80
160 181 99
155 175 102
152 172 95
155 175 95
156 175 80
159 179 99
156 176 92
147 167 62
152 172 84
154 174 92
146 166 44
146 165 67
138 157 62
150 171 51
156 177 62
140 160 67
142 163 57
142 162 51
145 165 62
151 171 36
144 165 36
148 169 62
141 162 44
142 162 36
139 159 0
145 165 51
148 169 25
147 167 62
140 161 25
141 163 36
149 169 0
135 156 0
150 172 25
148 170 0
159 181 0
138 159 0
148 169 0
143 166 0
143 165 0
140 161 0
152 174 0
139 159 0
137 157 0
138 158 0
145 166 0
137 159 0
136 157 0
133 154 0
134 155 0
133 153 0
138 159 0
131 151 0
136 156 0
129 149 0
132 152 0
132 152 0
114 133 0
137 156 0
127 146 0
128 148 0
123 144 0
129 149 0
138 158 0
130 149 0
118 137 0
126 146 0
128 149 0
129 149 0
134 154 0
136 155 0
117 137 0
123 142 0
130 149 0
127 147 0
127 147 0
126 145 0
129 148 0
130 151 0
133 154 0
127 147 0
130 150 0
120 139 0
131 151 0
129 150 0
129 148 0
136 156 0
123 141 0
130 151 0
128 146 0
127 144 0
121 141 0
127 147 0
130 150 0
132 152 0
127 147 0
133 153 0
125 144 0
127 148 0
126 146 0
130 150 0
138 158 0
139 160 0
130 149 0
130 150 0
124 145 0
128 148 0
128 149 0
144 166 0
125 145 0
133 154 0
132 151 0
136 155 0
118 138 0
132 151 0
133 153 0
140 160 0
132 152 0
137 158 0
131 151 0
132 150 0
137 158 0
145 166 0
140 161 0
144 164 0
135 157 0
142 163 0
137 158 0
127 148 0
135 154 0
136 157 0
143 164 0
137 156 0
146 167 0
130 149 0
140 159 0
139 159 0
136 156 0
136 156 0
142 165 0
143 163 0
134 155 0
140 161 0
140 162 0
140 160 0
142 164 0
147 168 0
141 161 0
143 164 0
149 169 0
146 168 0
150 170 0
145 165 0
142 163 0
155 177 0
140 160 0
151 172 0
148 169 0
149 171 0
140 161 0
151 172 0
144 166 0
152 173 0
146 166 0
140 162 0
146 167 0
140 161 0
144 166 0
141 162 0
150 172 0
151 173 0
155 177 0
148 170 0
148 169 0
159 181 0
157 178 0
155 176 0
157 178 0
155 176 0
150 173 0
150 171 0
156 179 0
147 168 0
147 169 0
147 167 0
158 179 0
153 175 0
156 177 0
154 175 0
153 173 0
155 175 0
155 176 0
153 174 0
159 180 0
155 176 0
155 175 0
160 183 0
160 182 0
157 178 0
157 179 0
153 174 0
156 177 0
152 173 0
157 180 0
162 185 0
154 174 0
160 183 0
152 174 0
160 182 0
153 175 0
154 176 0
155 176 0
155 177 0
158 180 0
157 179 0
153 173 0
153 174 0
163 185 0
158 179 0
157 180 0
158 179 0
157 178 0
160 179 0
164 187 0
157 177 0
157 178 0
161 182 0
158 180 0
158 179 0
163 185 0
160 181 0
158 178 0
161 182 0
164 186 0
160 183 0
157 179 0
162 184 0
158 179 0
162 185 0
163 184 0
164 185 0
159 180 0
159 180 0
165 186 0
163 184 0
163 185 0
160 181 0
160 182 0
167 188 0
163 184 0
163 185 0
160 181 0
166 188 0
162 184 0
162 184 0
161 183 0
162 185 0
167 188 0
158 180 0
161 182 0
169 190 0
162 182 0
164 186 0
166 188 0
165 187 0
162 185 0
163 185 0
162 184 0
167 188 0
165 188 0
166 188 0
162 183 0
160 181 0
162 183 0
168 189 0
166 188 0
161 182 0
169 191 0
165 188 0
168 190 0
163 185 0
166 189 0
167 190 0
165 187 0
162 185 0
159 181 0
169 190 0
165 187 0
165 186 0
166 189 0
170 194 0
167 189 0
167 190 0
169 191 0
167 189 0
168 190 0
170 192 0
167 190 0
166 187 0
174 197 76
168 192 88
168 191 72
173 196 105
168 191 95
175 199 111
169 192 84
175 198 117
171 194 88
174 197 99
169 193 80
173 196 108
173 196 105
171 194 80
172 195 108
166 190 84
174 197 95
171 194 102
172 196 80
170 194 84
172 196 95
177 200 120
172 196 117
172 195 92
170 193 88
171 194 88
164 188 88
165 189 105
167 190 99
163 186 72
175 198 122
167 191 105
173 196 108
166 189 76
165 187 67
166 189 84
167 191 111
163 186 95
171 194 99
169 192 111
168 191 80
169 191 72
161 185 111
162 185 88
167 190 99
167 191 88
164 186 102
170 193 102
162 184 84
162 185 92
168 191 102
161 183 92
170 193 105
164 187 102
171 193 99
162 184 92
166 188 88
160 182 72
162 184 99
164 186 88
160 182 76
166 188 120
169 191 88
165 187 92
159 182 95
166 189 105
164 186 95
167 190 102
159 181 80
159 181 99
165 187 102
159 181 76
163 185 84
166 188 92
164 186 102
161 183 105
161 184 92
163 185 111
163 185 105
162 185 105
162 184 111
163 184 99
161 183 111
155 176 80
164 186 108
159 181 99
162 183 114
156 178 80
156 178 80
159 180 105
152 174 76
158 179 105
158 178 88
155 175 108
158 178 84
157 177 99
162 183 80
149 169 62
167 188 108
160 180 102
157 177 102
158 178 108
156 176 84
162 181 99
155 175 80
145 166 80
153 174 80
149 168 92
148 169 80
151 171 80
150 170 88
137 157 76
135 155 62
145 167 57
142 162 67
142 162 62
151 171 57
140 160 62
154 174 57
143 164 25
140 159 62
136 158 0
140 160 36
151 172 25
143 165 36
142 163 36
142 162 36
136 158 0
141 162 0
148 169 25
145 167 0
148 170 36
148 169 36
161 181 0
145 166 36
145 165 0
153 174 25
143 164 0
146 167 0
142 163 0
138 161 0
150 171 0
146 168 0
145 167 0
148 170 0
133 153 0
146 168 0
141 162 0
133 154 0
135 155 0
130 151 0
133 153 0
131 152 0
136 156 0
121 141 0
126 147 0
138 159 0
136 157 0
131 151 0
132 152 0
121 141 0
136 156 0
124 144 0
137 157 0
135 155 0
127 147 0
131 151 0
121 141 0
117 137 0
122 141 0
130 149 0
131 150 0
123 143 0
127 147 0
119 139 0
131 150 0
135 155 0
126 145 0
134 153 0
122 142 0
126 145 0
123 144 0
128 147 0
122 141 0
129 150 0
134 153 0
131 150 0
132 152 0
125 144 0
127 146 0
140 160 0
131 151 0
126 147 0
142 162 0
122 142 0
129 150 0
133 153 0
129 150 0
125 144 0
139 159 0
127 147 0
131 150 0
137 157 0
130 150 0
127 147 0
133 154 0
142 163 0
142 162 0
136 155 0
146 166 0
130 149 0
136 157 0
122 142 0
145 166 0
131 151 0
132 151 0
132 154 0
140 159 0
136 156 0
135 154 0
131 153 0
137 157 0
130 150 0
138 158 0
134 154 0
135 155 0
131 151 0
134 154 0
132 152 0
140 160 0
144 164 0
148 169 0
137 158 0
136 156 0
136 156 0
131 152 0
142 163 0
141 159 0
137 157 0
147 168 0
138 159 0
137 159 0
146 166 0
135 155 0
149 171 0
140 161 0
142 162 0
151 172 0
144 166 0
136 156 0
143 165 0
142 163 0
144 164 0
147 168 0
148 168 0
145 166 0
148 168 0
147 170 0
143 163 0
146 169 0
150 171 0
143 165 0
152 174 0
147 167 0
139 159 0
151 172 0
152 174 0
152 174 0
153 175 0
154 175 0
152 174 0
146 168 0
149 171 0
157 178 0
154 177 0
149 170 0
148 170 0
157 179 0
145 167 0
153 175 0
149 170 0
151 172 0
154 176 0
150 169 0
153 175 0
148 169 0
151 173 0
153 175 0
155 177 0
154 177 0
155 176 0
154 175 0
156 178 0
158 179 0
152 173 0
152 173 0
156 176 0
152 174 0
161 183 0
157 177 0
153 175 0
156 177 0
149 170 0
167 188 0
158 180 0
157 179 0
154 176 0
156 177 0
163 185 0
159 180 0
156 179 0
154 175 0
160 181 0
158 180 0
157 179 0
154 175 0
148 170 0
158 179 0
154 175 0
155 176 0
162 184 0
164 187 0
162 183 0
159 181 0
159 181 0
163 185 0
159 182 0
158 179 0
162 184 0
161 184 0
161 182 0
158 177 0
162 184 0
158 180 0
161 182 0
160 183 0
157 178 0
159 179 0
163 184 0
153 175 0
159 178 0
162 184 0
158 180 0
164 186 0
156 177 0
161 182 0
161 182 0
166 189 0
164 185 0
163 185 0
163 185 0
163 185 0
163 184 0
162 183 0
162 184 0
162 183 0
163 184 0
163 185 0
159 180 0
164 186 0
161 181 0
160 182 0
165 185 0
161 183 0
166 187 0
166 188 0
164 185 0
159 179 0
166 188 0
167 189 0
167 188 0
165 186 0
166 190 0
167 187 0
162 185 0
166 188 0
164 184 0
163 186 0
166 187 0
167 189 0
168 192 0
165 187 0
159 180 0
167 190 0
167 190 0
165 186 0
167 189 0
160 181 0
168 192 0
164 186 0
168 191 0
162 183 0
166 188 0
166 187 0
164 184 0
166 187 0
161 182 0
171 192 0
165 187 0
164 187 0
176 199 105
169 192 72
173 195 102
174 196 111
170 193 88
175 198 102
167 191 95
176 199 108
173 197 102
173 196 108
171 195 84
171 195 114
169 192 92
170 193 111
174 198 102
173 196 99
167 190 117
173 196 102
175 198 95
175 199 108
168 191 108
166 190 88
163 187 88
169 193 76
170 193 105
160 183 88
163 187 88
165 189 92
168 191 84
169 193 108
166 189 99
159 182 80
171 194 62
168 192 114
167 191 95
162 185 88
169 191 84
168 191 102
173 197 105
169 192 111
167 189 76
167 190 92
162 185 99
164 188 95
168 190 92
170 192 95
164 188 102
165 189 102
164 187 99
162 185 92
171 194 102
160 183 84
166 190 122
168 192 120
166 188 102
168 191 88
163 185 84
165 188 88
159 182 95
160 183 111
154 177 95
164 186 84
164 187 108
167 189 99
166 188 117
159 181 84
160 182 108
164 186 111
155 177 67
163 185 92
169 192 122
165 187 84
162 184 72
158 180 99
164 186 95
168 189 102
159 180 105
164 185 105
165 186 95
154 176 95
158 180 102
163 185 108
156 177 80
160 181 102
157 179 105
165 186 111
159 180 84
150 171 72
151 173 76
155 176 114
155 176 95
160 180 92
160 181 95
158 178 105
155 175 84
158 178 88
157 178 95
157 178 67
159 179 114
163 183 108
147 167 80
158 178 111
155 175 102
156 176 117
156 175 80
148 169 99
153 173 102
154 173 76
148 168 76
149 169 76
148 169 84
152 172 72
156 176 72
152 173 51
151 171 88
158 178 51
147 167 44
148 168 57
149 171 25
150 172 57
157 177 57
140 161 25
146 167 51
137 159 44
145 166 36
155 176 25
152 172 44
139 160 0
153 174 44
151 173 25
150 173 25
153 174 0
155 176 25
149 171 0
153 175 0
147 169 0
150 171 0
145 166 0
139 160 0
144 164 0
139 160 0
156 177 0
147 167 0
140 161 0
142 162 0
142 162 0
142 162 0
142 163 0
142 163 0
137 158 0
135 156 0
136 156 0
128 147 0
140 161 0
127 146 0
132 153 0
131 150 0
135 155 0
131 150 0
128 147 0
138 158 0
128 149 0
118 139 0
130 151 0
128 147 0
127 147 0
127 148 0
131 151 0
137 157 0
134 153 0
130 150 0
136 156 0
135 154 0
132 152 0
123 143 0
129 149 0
123 141 0
119 139 0
134 153 0
132 153 0
138 160 0
128 149 0
135 153 0
138 156 0
124 144 0
126 145 0
127 146 0
118 138 0
133 153 0
137 158 0
119 139 0
124 143 0
135 156 0
128 148 0
112 130 0
129 148 0
129 149 0
129 149 0
124 144 0
139 159 0
127 147 0
132 151 0
132 152 0
127 148 0
138 159 0
140 160 0
130 150 0
134 155 0
126 147 0
130 151 0
138 158 0
137 158 0
143 164 0
136 157 0
134 154 0
124 144 0
141 161 0
131 151 0
141 162 0
127 147 0
128 148 0
137 158 0
144 164 0
145 166 0
146 167 0
135 156 0
146 167 0
144 164 0
135 157 0
143 165 0
139 159 0
136 158 0
145 166 0
140 161 0
144 166 0
136 157 0
132 151 0
134 156 0
133 154 0
138 160 0
143 165 0
145 167 0
144 165 0
132 152 0
142 163 0
144 167 0
142 164 0
148 170 0
141 161 0
147 168 0
145 167 0
144 164 0
148 169 0
146 167 0
141 162 0
147 169 0
143 164 0
144 164 0
142 163 0
136 156 0
142 164 0
152 174 0
147 169 0
151 172 0
151 172 0
146 168 0
149 171 0
149 170 0
158 179 0
147 168 0
153 174 0
148 170 0
152 174 0
155 177 0
148 170 0
159 181 0
153 174 0
148 170 0
162 183 0
156 177 0
155 176 0
154 175 0
156 178 0
155 177 0
161 183 0
150 172 0
148 170 0
148 168 0
156 177 0
153 175 0
153 173 0
154 175 0
157 180 0
158 180 0
149 169 0
161 183 0
160 180 0
156 178 0
161 182 0
161 182 0
157 180 0
162 184 0
147 168 0
164 186 0
155 177 0
156 178 0
156 178 0
156 178 0
157 180 0
154 175 0
155 176 0
150 173 0
155 177 0
165 187 0
161 181 0
161 182 0
160 182 0
164 186 0
157 178 0
155 176 0
159 181 0
163 185 0
166 189 0
163 186 0
156 178 0
158 181 0
161 183 0
152 174 0
152 173 0
160 183 0
161 183 0
168 191 0
163 184 0
154 175 0
158 180 0
158 180 0
164 186 0
163 186 0
165 185 0
169 191 0
161 184 0
165 187 0
162 183 0
157 179 0
163 183 0
160 181 0
161 183 0
166 188 0
160 183 0
162 184 0
166 189 0
159 180 0
166 187 0
164 185 0
163 184 0
159 181 0
161 183 0
161 182 0
164 185 0
166 189 0
163 184 0
158 179 0
161 182 0
163 184 0
166 188 0
163 185 0
170 193 0
161 183 0
168 190 0
164 185 0
164 187 0
167 189 0
165 186 0
164 186 0
165 187 0
168 190 0
161 182 0
164 186 0
167 190 0
165 186 0
163 185 0
163 184 0
170 191 0
167 187 0
166 189 0
165 187 0
163 186 0
165 186 0
164 186 0
162 184 0
169 190 0
164 187 0
167 190 0
168 191 0
166 187 0
168 188 0
167 189 0
165 186 0
165 188 0
167 188 0
177 199 99
171 194 108
172 195 105
172 195 72
172 195 88
174 197 80
174 197 105
171 194 99
169 192 84
172 194 92
168 191 72
172 195 99
176 198 88
174 196 102
175 197 99
171 194 102
165 187 67
171 194 99
164 187 88
168 191 92
173 196 102
170 193 92
172 195 111
169 192 84
172 196 118
168 191 84
167 190 95
172 194 105
169 192 80
169 192 99
167 190 80
167 191 102
169 193 95
170 193 95
163 187 95
165 188 111
171 194 88
166 189 102
162 186 102
169 192 95
163 186 92
163 186 92
165 187 80
168 191 88
166 189 95
168 191 102
163 186 99
166 189 88
167 191 125
170 192 105
160 183 114
162 184 67
164 187 105
165 187 95
161 185 117
164 186 84
160 183 84
163 185 76
162 185 108
157 179 80
169 190 92
168 190 114
158 180 80
163 186 99
165 188 111
164 187 105
156 179 95
161 184 92
163 186 105
161 182 99
162 184 95
167 189 92
165 187 99
161 184 88
152 174 102
164 186 88
162 184 95
159 180 99
164 185 88
163 185 108
157 179 102
155 177 76
162 184 102
167 189 102
156 178 99
164 185 102
166 188 99
163 185 105
161 182 102
157 179 88
154 175 88
150 172 84
156 177 102
160 180 108
161 181 120
154 175 95
157 179 88
156 177 95
152 173 111
158 178 92
161 182 99
159 179 102
161 181 111
158 179 105
152 172 80
148 168 88
152 172 72
151 171 80
153 174 80
161 181 99
136 156 67
153 173 95
159 179 84
161 182 72
157 179 80
146 166 62
152 172 44
148 168 62
145 165 44
137 157 0
148 169 57
150 171 62
149 169 57
139 159 36
152 173 51
146 167 44
143 165 25
151 173 0
141 163 0
142 164 0
150 172 36
146 168 0
144 164 25
147 169 0
142 163 0
150 173 25
150 172 0
146 167 0
146 167 0
144 165 0
149 170 0
142 162 0
146 167 0
141 162 0
146 167 0
124 144 0
135 157 0
141 161 0
137 158 0
145 165 0
140 161 0
137 159 0
136 157 0
128 147 0
135 154 0
133 153 0
132 154 0
131 151 0
125 146 0
133 153 0
136 157 0
123 142 0
131 150 0
131 151 0
139 159 0
131 151 0
127 148 0
134 153 0
139 159 0
130 150 0
130 151 0
121 141 0
132 152 0
131 149 0
136 157 0
126 144 0
131 153 0
130 151 0
119 138 0
136 157 0
123 143 0
140 161 0
125 144 0
136 157 0
128 149 0
120 140 0
132 153 0
134 154 0
136 156 0
135 155 0
129 150 0
126 147 0
138 160 0
134 154 0
131 151 0
133 153 0
128 149 0
134 153 0
146 167 0
138 158 0
133 155 0
139 159 0
138 159 0
133 153 0
130 149 0
136 156 0
139 160 0
133 152 0
135 155 0
128 148 0
135 156 0
137 158 0
133 153 0
143 162 0
127 146 0
144 164 0
135 155 0
132 153 0
135 156 0
136 156 0
138 158 0
128 147 0
138 160 0
132 153 0
130 151 0
138 159 0
132 153 0
140 161 0
147 168 0
141 162 0
148 168 0
134 154 0
144 165 0
144 165 0
144 165 0
142 162 0
137 157 0
141 162 0
146 167 0
148 167 0
140 161 0
146 166 0
139 161 0
142 163 0
140 161 0
143 163 0
146 168 0
148 167 0
149 169 0
144 166 0
145 165 0
145 165 0
137 157 0
147 169 0
141 162 0
149 169 0
145 167 0
145 166 0
150 172 0
148 170 0
137 157 0
139 158 0
148 169 0
149 171 0
152 173 0
139 160 0
150 171 0
147 169 0
150 172 0
151 173 0
152 172 0
152 173 0
153 175 0
150 172 0
152 175 0
149 171 0
155 176 0
153 175 0
155 177 0
154 176 0
152 173 0
152 174 0
153 175 0
153 174 0
151 173 0
159 181 0
152 175 0
152 173 0
153 173 0
147 169 0
160 182 0
157 181 0
157 178 0
157 178 0
152 174 0
156 177 0
158 179 0
162 184 0
156 177 0
157 180 0
155 176 0
153 175 0
162 183 0
157 179 0
158 179 0
160 184 0
158 180 0
162 181 0
154 176 0
157 178 0
155 177 0
153 174 0
159 180 0
163 186 0
153 174 0
160 182 0
155 178 0
159 180 0
160 181 0
154 176 0
162 184 0
157 179 0
160 182 0
163 185 0
156 179 0
162 184 0
161 183 0
157 177 0
160 181 0
160 183 0
165 186 0
158 179 0
159 181 0
160 181 0
163 186 0
161 181 0
162 184 0
161 181 0
161 183 0
160 182 0
164 185 0
166 187 0
155 176 0
166 186 0
153 173 0
166 188 0
164 186 0
163 185 0
164 186 0
167 189 0
165 187 0
163 182 0
167 189 0
166 189 0
161 182 0
163 185 0
166 186 0
160 183 0
162 183 0
166 189 0
164 185 0
161 183 0
165 186 0
164 185 0
166 187 0
161 184 0
161 182 0
164 185 0
161 183 0
166 188 0
162 184 0
167 189 0
165 187 0
164 185 0
169 190 0
167 189 0
164 185 0
166 187 0
163 185 0
164 187 0
165 186 0
163 185 0
165 187 0
165 186 0
165 186 0
165 187 0
164 185 0
163 186 0
165 185 0
160 182 0
167 190 0
167 189 0
165 187 0
163 185 0
161 183 0
166 188 0
162 184 0
166 188 0
166 188 0
165 187 0
170 192 80
171 193 108
171 194 92
172 195 108
172 196 105
175 197 88
178 200 114
170 193 92
173 197 95
170 194 80
168 191 88
174 197 120
173 196 122
170 193 84
164 187 76
175 197 92
174 197 92
176 199 105
171 194 105
169 192 95
176 199 111
167 191 102
175 198 125
172 195 95
171 194 88
170 193 114
168 191 92
173 196 111
172 195 99
169 192 105
171 195 99
168 192 114
163 186 92
169 192 102
163 187 88
166 188 84
164 186 80
169 192 105
170 193 102
166 190 88
169 192 99
168 190 92
165 188 95
168 190 88
170 193 105
161 184 88
161 184 95
168 190 95
169 191 92
167 189 84
167 190 108
166 189 80
168 191 114
161 184 102
168 192 95
165 187 99
164 188 84
168 191 108
166 189 105
161 183 80
167 189 105
164 186 99
165 188 95
164 187 92
161 183 99
165 187 67
156 179 95
162 185 95
156 179 92
162 184 95
163 185 92
157 179 88
157 179 92
158 180 105
158 180 92
162 184 99
157 179 95
164 186 92
159 181 102
168 190 108
154 175 95
162 184 105
156 179 95
159 181 84
165 186 99
153 174 76
157 179 92
160 181 95
158 180 92
158 179 105
157 177 84
158 179 105
159 180 95
158 179 102
158 178 105
157 177 102
157 179 99
166 186 99
154 174 88
155 175 102
156 176 99
153 174 92
155 174 102
153 174 88
163 182 117
147 167 80
157 177 92
165 185 92
141 161 67
167 189 84
147 168 76
159 180 88
154 174 67
146 166 67
149 171 44
148 168 62
148 169 62
149 169 57
142 164 44
146 167 36
136 156 25
156 177 25
151 172 44
139 161 51
137 158 25
147 168 25
146 167 25
144 165 25
142 163 25
148 170 0
150 171 25
146 167 0
148 171 0
156 178 25
154 177 0
148 169 25
152 172 0
150 171 0
148 168 0
141 162 0
152 173 0
147 169 0
142 163 0
140 161 0
137 157 0
144 166 0
142 163 0
145 166 0
142 162 0
131 152 0
134 155 0
139 159 0
127 147 0
144 165 0
145 165 0
133 154 0
135 155 0
133 153 0
130 151 0
137 157 0
138 159 0
139 159 0
130 150 0
131 152 0
130 151 0
142 163 0
128 148 0
137 158 0
136 157 0
137 157 0
137 157 0
127 147 0
128 148 0
138 159 0
127 147 0
132 152 0
131 151 0
135 156 0
124 145 0
137 159 0
125 145 0
132 153 0
140 161 0
129 149 0
131 151 0
135 155 0
124 144 0
124 144 0
126 147 0
140 161 0
133 153 0
133 153 0
132 153 0
126 147 0
116 136 0
139 159 0
146 167 0
138 158 0
135 155 0
140 161 0
139 159 0
126 145 0
139 160 0
122 142 0
136 157 0
134 154 0
139 159 0
130 150 0
127 147 0
133 153 0
131 151 0
139 160 0
137 157 0
126 145 0
140 160 0
134 155 0
133 154 0
134 155 0
141 162 0
134 154 0
131 152 0
132 152 0
137 157 0
143 163 0
143 164 0
135 155 0
144 165 0
142 164 0
133 154 0
148 169 0
140 161 0
149 170 0
152 173 0
147 168 0
148 171 0
144 165 0
146 167 0
137 156 0
149 170 0
146 168 0
148 169 0
141 164 0
144 164 0
147 168 0
137 158 0
149 170 0
152 174 0
150 172 0
146 167 0
139 159 0
149 171 0
137 160 0
148 169 0
146 167 0
148 170 0
139 161 0
141 161 0
143 164 0
148 170 0
145 166 0
154 176 0
147 167 0
148 170 0
153 174 0
150 171 0
148 170 0
153 174 0
145 167 0
151 173 0
141 163 0
146 167 0
158 180 0
151 171 0
150 170 0
156 179 0
154 176 0
149 170 0
156 178 0
148 169 0
152 174 0
156 178 0
153 174 0
154 176 0
156 178 0
155 176 0
157 179 0
153 174 0
155 177 0
154 176 0
152 174 0
157 178 0
156 176 0
152 174 0
156 178 0
159 179 0
151 173 0
154 176 0
157 178 0
146 167 0
159 180 0
156 178 0
153 174 0
155 176 0
155 176 0
153 174 0
165 187 0
160 182 0
160 182 0
160 182 0
155 177 0
156 177 0
162 183 0
150 172 0
158 179 0
160 182 0
161 183 0
159 180 0
155 176 0
165 188 0
160 181 0
159 181 0
152 175 0
159 181 0
159 181 0
158 180 0
153 174 0
161 182 0
155 176 0
162 184 0
155 176 0
164 185 0
162 184 0
162 184 0
161 182 0
160 182 0
158 179 0
159 182 0
161 184 0
161 182 0
160 181 0
160 181 0
160 181 0
165 187 0
161 182 0
159 181 0
165 187 0
163 183 0
167 189 0
156 177 0
167 191 0
159 181 0
160 181 0
165 187 0
160 182 0
167 189 0
160 183 0
164 186 0
162 185 0
163 184 0
167 188 0
164 185 0
163 184 0
163 184 0
159 179 0
164 187 0
167 190 0
164 186 0
170 193 0
168 189 0
158 180 0
167 189 0
168 189 0
164 186 0
165 186 0
164 185 0
169 190 0
167 188 0
162 183 0
168 192 0
165 187 0
165 188 0
163 185 0
171 191 0
163 185 0
167 189 0
166 188 0
165 188 0
166 188 0
163 185 0
164 186 0
169 191 0
168 190 0
168 190 0
168 190 0
167 190 0
164 187 0
167 190 0
167 189 0
169 191 0
162 184 0
172 195 78
177 200 105
176 199 117
176 198 76
165 188 92
177 200 117
172 195 88
171 194 80
180 202 122
174 195 92
176 198 102
178 201 120
169 193 111
172 195 88
165 188 72
171 194 111
172 196 108
170 194 80
164 187 76
172 195 114
172 196 102
172 196 99
165 189 92
168 192 92
171 195 105
174 197 105
169 193 95
168 191 84
166 190 84
168 193 105
164 188 88
167 190 99
169 192 99
163 187 95
169 192 99
165 189 102
170 194 120
166 190 92
162 185 84
164 187 108
171 195 84
165 188 99
169 192 84
162 185 51
165 188 102
167 189 99
166 189 102
167 190 88
166 189 80
166 189 108
166 188 99
167 189 102
161 183 92
169 191 102
163 185 95
167 189 108
171 194 108
163 186 105
163 186 99
161 184 102
160 183 80
159 181 88
164 186 99
159 181 80
165 187 92
166 188 117
163 186 108
157 179 72
162 184 92
170 192 95
155 177 92
155 177 72
156 179 84
162 184 95
161 183 92
165 187 102
167 189 105
158 180 88
157 179 92
169 191 120
165 187 114
152 173 99
168 190 120
165 186 92
160 181 102
164 185 95
160 182 92
166 187 99
160 181 105
161 182 125
164 185 80
152 172 95
160 181 105
152 174 76
159 180 88
159 179 108
171 192 88
153 174 80
146 167 76
150 171 76
158 179 67
162 183 99
160 180 92
146 166 76
157 177 105
154 174 80
152 172 84
154 174 84
142 163 72
147 168 72
156 177 72
148 168 80
144 165 44
149 170 51
139 160 51
152 172 72
147 167 51
146 166 44
139 160 0
145 166 36
150 172 25
147 168 44
144 165 36
149 171 36
149 170 44
152 174 25
151 172 36
154 176 25
145 167 36
156 177 0
151 174 25
154 176 25
152 172 0
149 172 0
146 167 0
144 165 0
156 179 0
142 163 0
147 168 0
147 169 0
147 169 0
151 173 0
146 167 0
147 167 0
143 164 0
144 166 0
141 163 0
135 157 0
142 163 0
134 154 0
146 168 0
137 158 0
126 148 0
143 164 0
136 157 0
137 159 0
128 149 0
139 159 0
134 154 0
132 153 0
139 161 0
130 150 0
135 155 0
137 158 0
124 145 0
124 143 0
133 153 0
124 145 0
125 146 0
140 160 0
138 158 0
130 150 0
133 152 0
134 154 0
136 156 0
134 153 0
120 140 0
136 156 0
139 160 0
135 154 0
135 155 0
135 155 0
129 149 0
141 162 0
140 161 0
138 159 0
133 154 0
136 156 0
131 152 0
121 141 0
141 162 0
138 159 0
137 157 0
136 156 0
133 154 0
140 161 0
131 150 0
135 155 0
137 157 0
141 162 0
137 158 0
132 154 0
131 150 0
128 149 0
132 154 0
138 158 0
143 163 0
134 154 0
134 154 0
142 162 0
136 157 0
140 161 0
134 154 0
130 150 0
133 153 0
143 164 0
136 157 0
136 156 0
138 158 0
147 168 0
146 166 0
141 161 0
137 158 0
132 153 0
142 163 0
141 160 0
129 151 0
134 155 0
141 162 0
147 168 0
147 167 0
133 153 0
141 162 0
147 169 0
136 157 0
144 165 0
147 168 0
144 166 0
149 171 0
136 156 0
140 162 0
147 170 0
139 161 0
147 169 0
138 158 0
150 171 0
150 171 0
144 164 0
149 170 0
149 171 0
150 172 0
151 173 0
147 168 0
148 171 0
141 161 0
155 177 0
151 172 0
151 171 0
154 176 0
150 170 0
148 170 0
145 166 0
153 175 0
152 173 0
143 164 0
147 167 0
141 161 0
148 170 0
152 174 0
146 168 0
153 175 0
154 176 0
149 171 0
148 169 0
153 174 0
150 172 0
158 177 0
149 169 0
153 173 0
155 177 0
151 172 0
147 169 0
157 178 0
147 169 0
160 182 0
147 168 0
153 176 0
159 181 0
157 179 0
152 173 0
153 175 0
156 176 0
160 181 0
149 170 0
161 181 0
159 182 0
156 179 0
152 174 0
156 178 0
159 180 0
161 184 0
153 175 0
151 173 0
157 179 0
159 182 0
156 177 0
147 168 0
158 180 0
161 182 0
162 184 0
165 188 0
160 182 0
161 182 0
158 180 0
152 174 0
163 184 0
157 179 0
159 180 0
158 179 0
157 180 0
161 182 0
154 177 0
157 179 0
164 186 0
158 180 0
158 180 0
159 181 0
153 175 0
162 183 0
161 182 0
161 183 0
161 183 0
163 184 0
159 182 0
162 183 0
165 188 0
156 176 0
161 183 0
156 176 0
165 187 0
165 188 0
160 181 0
168 190 0
157 179 0
162 184 0
166 189 0
163 186 0
154 175 0
163 184 0
163 183 0
161 183 0
159 182 0
165 187 0
163 184 0
163 184 0
165 186 0
167 189 0
160 183 0
166 188 0
168 191 0
166 189 0
165 186 0
161 184 0
163 184 0
167 188 0
160 183 0
159 181 0
166 188 0
165 185 0
167 187 0
165 186 0
168 189 0
159 182 0
166 188 0
162 184 0
165 187 0
166 188 0
164 185 0
166 189 0
163 185 0
164 185 0
165 187 0
165 187 0
165 187 0
163 184 0
166 190 0
167 189 0
168 190 0
163 186 0
160 182 0
166 188 0
168 191 0
165 186 0
165 187 0
166 189 0
169 191 0
163 185 0
163 184 0
168 190 0
162 184 0
174 196 105
175 198 120
169 192 80
170 192 95
170 193 76
174 196 95
171 195 99
174 197 76
171 193 105
169 193 108
177 199 95
176 199 105
167 190 95
171 193 84
176 199 117
171 194 92
171 193 95
169 191 114
175 197 102
168 192 108
163 186 88
174 198 99
173 197 105
170 194 108
164 188 95
168 191 92
168 191 111
167 191 92
169 192 92
173 196 108
165 188 95
176 198 105
169 192 108
176 199 99
167 190 80
169 193 99
168 191 105
167 189 80
166 189 88
158 180 67
167 190 108
166 188 99
161 186 80
169 192 95
170 193 111
170 194 105
171 194 108
169 192 108
164 187 88
164 185 92
166 188 88
163 187 95
167 189 117
165 188 95
166 188 88
160 183 88
161 183 72
163 186 105
159 182 108
169 192 105
161 184 95
165 187 95
168 189 84
163 185 105
156 179 102
162 184 105
158 180 95
160 183 105
162 183 92
165 187 111
162 184 88
168 189 108
160 182 80
166 188 84
165 187 84
162 183 88
164 187 84
164 187 105
156 178 80
153 173 80
163 184 99
157 178 108
162 183 108
165 186 127
166 187 105
161 182 105
164 186 108
158 178 80
159 181 102
155 176 92
156 177 67
161 182 92
164 184 92
165 186 111
156 177 88
153 174 84
163 184 88
162 184 99
154 175 67
163 183 108
155 176 72
160 180 84
162 183 99
151 170 95
155 175 80
154 175 80
152 171 88
155 175 92
153 173 80
153 173 72
163 183 84
147 167 57
153 174 67
159 180 80
146 166 67
149 169 57
150 171 36
155 177 44
146 167 0
148 168 51
157 178 44
153 173 44
147 169 0
140 162 0
143 164 25
144 166 25
150 171 36
145 166 25
149 171 25
155 178 0
151 173 25
160 182 0
152 175 0
152 174 25
154 175 25
153 175 0
154 177 0
148 169 0
150 171 0
144 165 0
151 173 0
151 172 0
150 172 0
144 165 0
147 169 0
143 163 0
138 158 0
141 163 0
144 165 0
141 162 0
140 161 0
150 171 0
136 158 0
147 168 0
134 153 0
139 160 0
144 164 0
146 166 0
131 151 0
137 158 0
142 163 0
130 150 0
123 143 0
135 155 0
131 152 0
138 158 0
132 154 0
114 135 0
126 146 0
141 161 0
130 151 0
138 158 0
132 152 0
132 152 0
129 151 0
136 157 0
136 157 0
127 148 0
132 153 0
133 154 0
133 152 0
116 136 0
140 160 0
139 160 0
133 153 0
143 163 0
135 156 0
130 150 0
139 160 0
139 159 0
126 146 0
134 155 0
125 145 0
130 151 0
127 148 0
146 168 0
138 158 0
140 160 0
137 157 0
139 161 0
125 146 0
132 153 0
145 167 0
137 158 0
138 159 0
131 152 0
136 157 0
133 154 0
132 152 0
140 161 0
141 162 0
142 162 0
134 154 0
145 167 0
140 161 0
146 167 0
141 163 0
145 168 0
142 162 0
133 153 0
140 161 0
130 151 0
151 172 0
144 165 0
141 162 0
137 158 0
145 166 0
143 165 0
138 159 0
142 162 0
143 164 0
138 159 0
143 162 0
142 164 0
134 154 0
142 164 0
143 164 0
152 174 0
145 166 0
145 165 0
146 168 0
146 168 0
147 168 0
146 166 0
150 173 0
141 161 0
145 166 0
152 173 0
142 161 0
156 178 0
155 177 0
152 173 0
140 160 0
146 167 0
151 173 0
152 175 0
153 174 0
144 166 0
145 166 0
148 171 0
155 176 0
155 176 0
149 169 0
151 174 0
150 170 0
151 172 0
153 174 0
151 174 0
152 174 0
152 174 0
140 160 0
157 180 0
150 171 0
152 174 0
152 175 0
154 175 0
156 179 0
147 169 0
162 183 0
159 180 0
151 173 0
156 175 0
155 177 0
152 174 0
158 178 0
162 184 0
160 180 0
151 174 0
160 182 0
155 177 0
156 178 0
151 173 0
159 181 0
157 179 0
148 169 0
159 181 0
158 179 0
161 183 0
158 180 0
155 177 0
158 180 0
158 180 0
158 180 0
157 179 0
161 183 0
154 177 0
153 175 0
163 184 0
153 175 0
161 183 0
160 182 0
156 178 0
157 178 0
158 179 0
155 177 0
159 180 0
156 179 0
158 179 0
160 183 0
159 181 0
164 188 0
160 183 0
166 189 0
164 186 0
161 183 0
159 180 0
165 188 0
161 182 0
161 183 0
154 176 0
164 186 0
161 183 0
164 184 0
164 186 0
157 178 0
159 181 0
166 187 0
166 187 0
157 177 0
166 189 0
159 182 0
164 187 0
166 188 0
161 181 0
167 188 0
164 185 0
163 187 0
166 190 0
165 186 0
164 186 0
164 185 0
167 188 0
162 184 0
165 187 0
165 186 0
160 182 0
164 185 0
161 183 0
161 183 0
166 188 0
167 189 0
166 189 0
162 185 0
166 188 0
161 183 0
159 181 0
165 187 0
164 184 0
168 190 0
166 188 0
168 189 0
167 190 0
171 194 0
167 188 0
163 184 0
161 183 0
164 186 0
162 183 0
162 185 0
162 184 0
167 188 0
168 191 0
170 192 0
165 187 0
169 192 0
164 186 0
164 187 0
162 184 0
164 188 0
165 187 0
165 187 0
167 188 0
161 183 0
165 186 0
169 191 0
170 192 0
167 189 0
167 189 0
171 194 0
167 188 0
173 195 105
172 195 95
174 197 125
173 196 92
173 196 102
178 201 111
172 195 105
170 193 95
167 190 80
170 192 102
175 198 92
178 201 92
168 191 95
175 199 105
172 196 84
171 195 105
170 194 88
171 194 95
173 196 102
169 191 72
166 189 92
169 193 99
167 191 84
167 190 84
166 189 95
169 192 117
168 192 88
168 191 102
164 187 80
170 193 120
171 194 111
175 197 111
164 187 80
170 192 99
171 194 99
163 186 102
164 187 84
169 192 105
167 190 95
163 186 92
169 192 117
172 194 92
165 188 102
168 190 92
175 198 114
167 190 92
171 194 99
167 189 99
166 188 76
161 185 95
167 190 84
169 192 108
162 184 80
161 184 88
163 187 120
163 185 84
159 182 95
164 186 84
167 189 99
163 185 117
164 186 99
161 183 88
164 185 62
166 187 84
165 188 105
162 184 105
162 183 62
155 177 99
159 181 88
156 178 76
161 183 88
161 181 88
162 183 88
161 181 95
161 183 84
160 182 95
169 191 130
158 181 88
151 172 84
160 182 99
162 183 92
162 184 105
158 178 99
159 180 88
156 178 102
157 178 99
167 188 95
156 178 99
161 182 95
152 173 88
160 180 95
158 179 99
158 178 99
151 172 76
165 185 102
154 174 92
153 174 88
149 170 84
153 174 76
165 185 99
156 177 84
157 177 84
156 177 92
159 179 76
157 178 57
163 183 102
158 178 88
153 173 80
158 178 92
155 176 80
158 178 80
156 177 76
150 171 72
155 175 80
150 171 57
153 173 62
150 172 36
160 181 72
151 173 25
150 170 36
158 180 0
142 163 25
150 173 51
144 166 25
151 173 0
150 172 36
148 169 44
152 173 36
145 167 0
153 175 0
155 177 0
158 180 25
157 179 0
147 167 36
155 177 0
155 176 0
153 174 0
149 171 0
148 169 0
151 173 0
149 170 0
152 175 0
139 160 0
134 155 0
144 165 0
144 166 0
143 165 0
143 164 0
141 163 0
142 163 0
144 165 0
141 161 0
127 148 0
149 170 0
142 163 0
143 164 0
146 167 0
131 152 0
138 158 0
135 156 0
133 153 0
144 166 0
138 159 0
126 146 0
129 150 0
128 149 0
131 152 0
134 155 0
134 155 0
127 147 0
126 147 0
137 158 0
142 162 0
132 152 0
123 143 0
133 154 0
123 144 0
133 153 0
128 150 0
123 144 0
130 150 0
127 148 0
135 155 0
146 167 0
132 153 0
123 143 0
140 161 0
135 156 0
132 151 0
134 155 0
137 158 0
141 162 0
139 160 0
131 152 0
130 151 0
143 164 0
126 145 0
126 148 0
143 163 0
129 149 0
140 161 0
136 156 0
141 160 0
132 155 0
132 153 0
139 159 0
141 161 0
142 161 0
132 152 0
138 158 0
136 157 0
132 152 0
144 166 0
128 148 0
140 161 0
140 161 0
142 162 0
142 163 0
145 166 0
137 158 0
134 155 0
143 163 0
143 166 0
144 165 0
132 153 0
139 160 0
139 160 0
142 164 0
148 169 0
139 160 0
149 171 0
145 166 0
141 163 0
150 171 0
137 159 0
142 163 0
135 156 0
150 171 0
145 166 0
147 168 0
151 171 0
146 167 0
145 167 0
144 165 0
146 168 0
140 162 0
143 164 0
145 167 0
143 165 0
148 170 0
146 166 0
142 163 0
141 162 0
158 180 0
143 166 0
152 173 0
149 170 0
151 172 0
148 170 0
150 171 0
148 169 0
150 173 0
152 173 0
149 171 0
150 173 0
149 170 0
149 169 0
152 173 0
150 171 0
159 181 0
154 175 0
153 175 0
148 168 0
155 177 0
157 177 0
152 174 0
155 177 0
157 179 0
156 178 0
157 181 0
152 173 0
154 177 0
154 176 0
150 171 0
154 175 0
150 172 0
152 174 0
158 179 0
162 183 0
151 173 0
159 180 0
155 177 0
157 180 0
156 178 0
152 172 0
155 177 0
160 181 0
153 174 0
161 182 0
160 181 0
149 170 0
160 180 0
159 181 0
159 181 0
157 180 0
165 186 0
159 181 0
158 180 0
159 180 0
159 181 0
163 184 0
156 178 0
162 184 0
152 173 0
161 183 0
161 183 0
161 184 0
166 188 0
154 176 0
157 179 0
165 186 0
162 183 0
167 189 0
162 184 0
158 178 0
159 181 0
161 182 0
163 184 0
163 186 0
160 182 0
157 180 0
161 183 0
165 188 0
163 185 0
159 182 0
159 180 0
161 182 0
162 182 0
159 181 0
166 189 0
157 179 0
169 192 0
165 187 0
161 184 0
161 183 0
165 187 0
163 185 0
164 187 0
164 185 0
165 186 0
159 181 0
160 182 0
160 183 0
160 181 0
164 187 0
164 185 0
162 185 0
162 183 0
167 190 0
162 185 0
162 184 0
162 183 0
166 187 0
166 189 0
162 182 0
167 190 0
166 188 0
163 184 0
166 188 0
164 187 0
166 189 0
164 185 0
167 189 0
165 186 0
164 186 0
165 187 0
166 187 0
166 190 0
168 191 0
166 189 0
167 188 0
165 186 0
166 187 0
167 189 0
167 189 0
165 188 0
162 185 0
166 188 0
162 182 0
170 192 0
167 189 0
165 187 0
170 192 0
167 188 0
171 193 0
168 190 0
161 184 0
165 187 0
169 191 0
165 187 0
173 197 76
171 194 84
175 197 95
175 197 122
167 190 88
171 195 88
174 197 92
173 197 105
175 198 120
167 190 88
174 197 102
172 195 84
173 196 99
171 194 88
170 193 92
168 192 92
169 191 102
169 191 95
171 193 102
167 190 84
171 194 88
171 194 117
168 190 95
166 189 84
170 193 95
170 193 76
171 194 95
165 189 99
168 191 102
168 191 92
173 195 95
163 187 76
165 188 67
167 191 84
170 193 99
170 193 108
167 190 99
168 191 99
163 186 108
165 188 76
172 195 117
167 190 80
168 192 120
172 196 111
163 187 102
171 193 92
177 199 105
170 193 122
166 189 114
166 189 84
164 186 84
166 189 76
164 187 84
161 183 102
164 186 102
161 184 84
163 186 57
165 187 80
166 189 99
163 186 114
165 188 84
163 186 108
162 184 62
158 180 84
159 181 80
168 190 108
164 187 105
164 186 111
154 177 84
160 182 95
165 186 99
161 183 67
163 185 80
168 188 102
163 184 95
159 181 76
163 185 108
166 188 102
163 185 105
161 182 92
156 178 84
160 181 92
158 179 111
169 190 88
161 182 92
164 185 88
157 179 105
164 186 92
158 179 102
162 182 105
154 176 84
157 178 99
159 180 95
160 181 95
154 174 99
161 181 80
156 177 84
158 179 80
156 176 92
163 183 80
154 175 67
165 185 108
168 189 111
151 172 72
154 174 84
154 175 72
150 170 57
152 173 76
164 183 80
156 177 95
158 179 92
151 171 76
156 177 67
151 171 67
152 173 67
152 172 51
154 175 51
152 173 51
149 170 36
156 177 36
141 162 36
153 174 44
150 171 36
151 173 36
149 171 36
155 176 44
151 173 25
153 174 36
154 176 25
155 176 0
157 178 25
151 171 0
155 177 25
160 181 0
150 172 0
157 179 0
155 177 0
151 174 0
151 173 0
159 180 0
153 174 0
145 167 0
146 167 0
148 169 0
150 170 0
143 164 0
146 168 0
146 167 0
146 168 0
132 153 0
141 163 0
144 165 0
137 158 0
146 168 0
137 159 0
146 167 0
143 164 0
138 160 0
139 161 0
138 158 0
132 153 0
140 162 0
128 148 0
136 156 0
129 150 0
141 161 0
132 153 0
143 164 0
143 164 0
132 153 0
132 153 0
140 161 0
134 155 0
135 156 0
134 155 0
138 158 0
143 164 0
134 154 0
130 151 0
134 154 0
145 166 0
138 158 0
142 162 0
133 154 0
138 159 0
132 153 0
149 170 0
135 155 0
141 161 0
132 153 0
129 150 0
132 152 0
133 152 0
138 159 0
132 153 0
140 160 0
135 156 0
132 153 0
137 159 0
144 164 0
138 157 0
141 161 0
140 160 0
143 165 0
145 165 0
142 164 0
138 158 0
137 157 0
144 166 0
140 160 0
134 154 0
141 163 0
145 167 0
143 163 0
139 161 0
135 156 0
136 158 0
138 159 0
139 161 0
140 160 0
145 166 0
144 165 0
143 165 0
139 160 0
139 162 0
148 169 0
142 163 0
143 164 0
154 173 0
148 168 0
135 156 0
142 163 0
154 176 0
147 170 0
143 166 0
139 161 0
145 167 0
138 160 0
151 172 0
145 167 0
144 166 0
138 159 0
150 173 0
149 171 0
144 165 0
140 162 0
142 163 0
147 170 0
149 172 0
154 176 0
140 160 0
147 168 0
145 166 0
156 178 0
147 168 0
138 160 0
147 168 0
146 167 0
155 176 0
147 169 0
150 171 0
147 167 0
150 172 0
156 179 0
148 169 0
155 177 0
142 164 0
158 179 0
153 174 0
153 174 0
150 172 0
153 174 0
157 179 0
161 182 0
161 184 0
154 175 0
159 181 0
154 176 0
156 179 0
150 171 0
156 178 0
158 180 0
145 166 0
156 177 0
155 177 0
152 174 0
154 176 0
151 172 0
151 172 0
153 173 0
155 177 0
158 179 0
159 180 0
160 183 0
160 182 0
161 183 0
151 173 0
157 178 0
156 177 0
157 179 0
157 179 0
152 174 0
154 173 0
161 183 0
164 186 0
161 182 0
160 180 0
156 176 0
161 184 0
166 187 0
159 180 0
155 177 0
159 180 0
156 176 0
160 183 0
157 179 0
159 181 0
155 177 0
157 178 0
164 185 0
160 181 0
160 181 0
164 186 0
160 182 0
161 184 0
156 177 0
169 190 0
162 185 0
160 181 0
161 184 0
161 183 0
160 180 0
165 187 0
162 185 0
156 179 0
158 180 0
162 182 0
166 187 0
160 181 0
163 184 0
162 183 0
163 184 0
163 185 0
164 186 0
161 183 0
165 187 0
163 184 0
166 188 0
155 176 0
163 184 0
163 185 0
165 187 0
165 187 0
162 184 0
165 186 0
164 188 0
162 184 0
162 184 0
167 189 0
162 183 0
165 188 0
163 186 0
162 184 0
165 187 0
163 186 0
168 190 0
161 183 0
171 192 0
167 190 0
162 183 0
165 187 0
169 191 0
168 189 0
166 188 0
156 176 0
162 184 0
170 192 0
164 185 0
167 188 0
165 187 0
168 191 0
167 189 0
161 182 0
163 185 0
162 184 0
168 190 0
171 193 0
166 189 0
164 185 0
163 186 0
166 188 0
166 187 0
171 194 0
163 184 0
169 191 0
165 186 0
164 186 0
168 190 0
165 188 0
166 188 0
177 199 99
175 197 95
177 200 108
167 190 80
168 192 95
175 199 111
173 195 92
169 193 72
174 196 108
172 195 99
173 196 105
171 193 84
173 196 88
171 194 84
172 195 99
167 190 88
173 196 108
167 190 88
169 193 76
173 195 95
171 194 105
165 187 84
175 197 92
175 198 102
170 193 84
169 192 105
167 190 99
170 193 99
168 190 92
166 188 95
166 188 88
163 187 76
168 192 80
162 185 111
169 193 92
173 197 108
170 193 102
164 188 92
163 186 92
165 189 99
168 192 102
173 195 114
161 184 102
165 187 95
169 192 105
165 187 95
170 192 102
166 189 99
164 186 102
171 194 105
167 190 84
163 186 111
155 178 57
165 188 72
165 189 105
163 186 102
163 186 102
163 185 92
172 194 99
170 192 102
159 182 88
168 191 105
158 182 99
164 185 102
160 182 102
163 184 95
164 186 99
161 184 99
161 183 80
168 191 80
168 190 95
162 183 92
161 184 80
166 188 105
164 185 80
162 183 92
161 183 76
156 177 88
167 187 102
157 179 99
160 182 99
158 180 102
151 172 84
169 190 133
164 186 102
152 174 80
163 185 102
163 183 92
165 186 99
162 183 111
152 173 84
161 181 88
156 177 102
158 179 92
158 178 111
158 179 99
154 176 72
160 181 92
160 181 92
163 184 102
159 179 84
160 180 88
159 179 99
156 177 88
158 177 99
161 180 95
152 173 72
160 180 62
157 177 95
149 170 72
150 171 62
161 181 80
151 172 67
149 171 57
152 173 51
145 167 51
153 174 51
157 178 72
151 172 44
153 175 51
156 178 36
143 164 0
152 173 44
161 183 36
153 175 25
158 180 0
146 168 44
154 177 25
156 178 0
152 174 0
151 171 36
148 169 25
152 175 0
153 175 0
149 170 0
145 167 0
160 182 0
153 175 0
153 175 0
150 173 0
146 168 0
154 176 0
147 169 0
148 169 0
151 172 0
148 169 0
140 163 0
139 161 0
146 167 0
144 166 0
142 164 0
135 156 0
136 158 0
143 164 0
147 167 0
137 157 0
141 162 0
144 164 0
141 162 0
134 155 0
137 159 0
134 156 0
141 162 0
132 153 0
143 163 0
137 157 0
127 148 0
146 167 0
133 154 0
144 165 0
143 163 0
143 164 0
136 157 0
143 163 0
138 158 0
129 149 0
137 157 0
135 156 0
137 156 0
133 155 0
138 159 0
133 153 0
145 166 0
139 160 0
146 167 0
132 152 0
135 156 0
138 157 0
141 163 0
140 161 0
141 161 0
126 146 0
141 163 0
142 163 0
143 163 0
142 163 0
135 156 0
130 151 0
135 156 0
139 161 0
149 169 0
144 166 0
153 175 0
143 164 0
145 167 0
131 152 0
134 154 0
140 161 0
142 164 0
138 160 0
139 160 0
137 159 0
147 169 0
130 152 0
141 161 0
129 149 0
148 170 0
150 171 0
144 165 0
143 165 0
141 161 0
134 155 0
140 161 0
142 164 0
144 165 0
145 167 0
147 168 0
145 165 0
137 157 0
146 169 0
147 169 0
139 160 0
143 164 0
145 166 0
138 159 0
147 169 0
148 170 0
145 165 0
152 174 0
144 164 0
141 161 0
140 160 0
151 173 0
147 168 0
152 173 0
150 171 0
148 170 0
155 177 0
157 179 0
155 177 0
144 166 0
142 163 0
148 171 0
150 172 0
144 164 0
143 164 0
151 173 0
153 176 0
146 166 0
147 169 0
156 178 0
159 180 0
156 178 0
148 170 0
145 167 0
153 174 0
151 173 0
154 175 0
149 171 0
151 174 0
148 169 0
156 178 0
160 183 0
150 170 0
159 180 0
158 180 0
153 175 0
158 180 0
151 173 0
153 174 0
158 180 0
154 175 0
161 183 0
157 180 0
155 178 0
155 176 0
152 174 0
157 177 0
154 176 0
155 176 0
157 178 0
159 180 0
149 170 0
161 183 0
156 179 0
159 181 0
162 183 0
157 179 0
158 177 0
161 184 0
159 180 0
159 182 0
160 182 0
158 181 0
160 183 0
159 180 0
154 176 0
159 181 0
156 177 0
160 182 0
150 173 0
160 180 0
157 180 0
165 188 0
165 187 0
164 185 0
160 182 0
160 181 0
160 183 0
157 177 0
157 178 0
163 185 0
157 179 0
160 181 0
159 181 0
154 177 0
170 191 0
159 181 0
157 178 0
167 189 0
165 189 0
162 184 0
162 184 0
162 184 0
161 182 0
164 185 0
166 188 0
153 173 0
159 180 0
157 180 0
164 185 0
165 187 0
165 189 0
165 187 0
164 186 0
167 188 0
166 188 0
167 188 0
160 182 0
157 180 0
166 188 0
169 191 0
165 187 0
165 187 0
165 186 0
169 189 0
161 183 0
166 187 0
162 184 0
162 186 0
161 184 0
163 185 0
162 183 0
164 187 0
167 190 0
166 187 0
170 192 0
169 192 0
168 191 0
167 188 0
161 182 0
162 185 0
169 191 0
163 183 0
168 190 0
166 188 0
167 189 0
168 191 0
167 190 0
166 187 0
166 189 0
168 190 0
168 190 0
168 190 0
167 189 0
167 190 0
167 189 0
166 188 0
166 189 0
167 189 0
164 187 0
166 188 0
163 185 0
172 194 0
171 194 0
166 189 0
168 191 0
168 191 0
167 190 0
167 189 0
172 195 105
171 194 72
174 196 102
172 194 95
175 197 117
171 194 84
168 190 88
171 193 92
178 200 114
176 199 105
169 192 99
174 198 99
169 193 105
175 198 99
173 195 95
172 196 92
173 197 114
171 193 84
172 195 88
172 195 111
167 191 80
171 193 84
173 195 105
173 197 92
172 194 105
171 194 99
168 191 114
167 190 67
168 192 88
163 186 76
170 193 72
166 189 95
166 189 95
166 189 76
169 192 99
169 193 114
170 193 105
167 190 80
165 187 94
169 191 72
164 188 84
166 189 84
164 187 95
169 191 105
170 192 108
165 188 99
162 186 117
170 192 108
162 185 88
164 186 84
162 185 88
156 178 88
163 184 99
164 187 114
168 190 102
168 191 99
167 188 102
171 195 114
159 181 88
163 185 88
164 186 108
167 189 108
162 184 88
165 187 84
160 181 84
158 181 92
158 180 92
162 185 108
171 194 108
160 181 99
167 189 99
164 186 102
156 178 84
156 178 67
167 189 95
160 182 80
162 183 105
164 185 111
161 181 92
160 181 92
161 182 105
164 186 92
169 191 117
164 185 108
168 189 92
149 170 76
153 174 95
166 186 92
161 182 95
158 179 102
156 177 76
160 181 95
154 175 95
159 180 99
159 180 95
157 178 80
169 190 105
157 177 95
159 180 99
161 182 80
159 180 95
156 177 80
160 180 95
164 184 105
160 180 92
162 183 102
165 186 99
150 171 57
140 160 51
156 177 62
159 180 76
148 170 44
157 178 84
160 181 51
154 175 67
160 181 51
154 176 25
150 171 76
158 180 62
152 173 36
151 173 44
157 178 25
147 169 0
145 167 25
147 169 0
144 165 25
154 176 25
152 175 36
152 174 36
155 177 25
149 172 0
156 179 25
162 184 0
158 179 0
153 176 0
160 184 0
150 172 0
153 176 0
156 179 0
151 172 0
152 174 0
154 176 0
147 168 0
150 171 0
142 163 0
142 164 0
148 170 0
148 168 0
141 163 0
145 165 0
144 167 0
140 162 0
151 172 0
143 164 0
139 160 0
126 146 0
142 164 0
139 160 0
138 159 0
136 157 0
127 148 0
127 148 0
143 165 0
145 167 0
137 158 0
135 156 0
143 165 0
142 163 0
128 149 0
138 158 0
139 159 0
139 159 0
147 168 0
140 160 0
137 157 0
139 162 0
135 156 0
139 159 0
137 158 0
135 154 0
136 156 0
139 160 0
139 160 0
138 158 0
133 154 0
131 153 0
147 169 0
131 153 0
138 159 0
135 155 0
142 163 0
138 159 0
142 163 0
141 162 0
138 158 0
133 154 0
155 176 0
135 156 0
132 154 0
147 168 0
137 159 0
137 158 0
145 165 0
133 153 0
132 154 0
143 165 0
140 161 0
136 157 0
136 156 0
134 154 0
138 160 0
143 163 0
131 151 0
140 162 0
143 165 0
133 153 0
139 161 0
143 164 0
151 173 0
137 160 0
149 171 0
139 160 0
149 169 0
146 168 0
141 163 0
145 166 0
142 162 0
153 174 0
141 162 0
144 166 0
147 167 0
140 161 0
151 172 0
144 166 0
142 162 0
145 168 0
149 170 0
147 168 0
144 165 0
150 172 0
155 176 0
151 173 0
147 169 0
144 165 0
151 171 0
149 172 0
140 160 0
150 170 0
138 159 0
147 169 0
143 164 0
153 176 0
149 169 0
149 172 0
155 177 0
151 170 0
148 171 0
150 173 0
149 171 0
144 165 0
149 171 0
148 170 0
158 180 0
157 179 0
157 178 0
152 174 0
150 172 0
151 172 0
161 180 0
157 179 0
149 171 0
148 169 0
157 179 0
147 169 0
147 168 0
161 182 0
155 177 0
147 169 0
157 179 0
156 176 0
152 172 0
160 181 0
152 175 0
154 177 0
159 182 0
155 175 0
143 164 0
158 179 0
156 178 0
148 170 0
154 177 0
158 179 0
159 180 0
156 177 0
153 175 0
158 179 0
163 185 0
155 177 0
147 169 0
156 177 0
160 183 0
156 177 0
162 182 0
158 181 0
159 182 0
158 179 0
161 184 0
155 179 0
159 180 0
158 179 0
164 186 0
164 186 0
160 181 0
153 175 0
158 181 0
162 185 0
160 182 0
159 182 0
160 182 0
161 184 0
162 183 0
164 186 0
165 186 0
164 187 0
156 178 0
162 184 0
162 184 0
162 185 0
160 181 0
156 178 0
165 188 0
160 181 0
167 189 0
161 181 0
159 181 0
159 180 0
160 182 0
161 183 0
163 186 0
163 185 0
162 185 0
163 186 0
162 184 0
165 189 0
164 185 0
163 184 0
162 185 0
158 180 0
161 183 0
162 184 0
167 190 0
166 188 0
164 186 0
165 187 0
167 189 0
166 187 0
161 182 0
166 189 0
166 186 0
164 185 0
163 184 0
168 190 0
166 189 0
165 188 0
163 185 0
162 183 0
166 187 0
164 186 0
168 190 0
167 190 0
168 190 0
164 185 0
165 185 0
169 190 0
168 190 0
168 190 0
166 188 0
168 191 0
164 186 0
166 188 0
166 188 0
170 194 0
166 187 0
165 187 0
168 190 0
161 183 0
165 187 0
170 192 0
164 186 0
168 189 0
165 186 0
167 190 0
169 191 0
168 190 0
166 189 0
165 188 0
168 188 0
167 189 0
169 192 0
167 190 0
175 198 99
167 190 99
176 199 99
173 195 99
169 192 95
175 197 108
170 192 84
182 204 111
171 193 84
178 200 122
166 188 99
174 196 92
177 200 114
174 197 99
170 192 84
165 188 80
171 194 108
174 197 111
169 192 99
173 196 102
173 196 122
176 198 111
168 190 80
172 195 108
170 193 102
167 191 80
174 197 105
170 193 102
172 195 99
166 189 92
169 192 102
170 193 108
172 195 122
168 191 95
161 183 92
169 192 84
167 191 88
165 188 102
171 194 88
164 187 99
167 191 99
168 190 102
168 190 80
168 190 95
166 189 120
163 185 92
168 190 88
167 189 88
169 191 102
173 196 105
175 198 111
161 183 84
162 185 114
166 189 105
167 189 99
166 187 76
163 185 99
172 194 117
165 187 84
165 186 92
166 188 92
162 185 95
167 189 105
164 186 102
165 187 105
166 188 99
165 187 99
173 195 127
167 189 102
164 187 95
165 187 88
164 186 102
160 182 88
162 183 108
159 181 76
164 186 108
150 170 84
162 184 111
155 177 84
152 174 95
160 181 95
162 182 92
165 185 117
157 179 84
166 187 99
168 189 99
167 189 111
159 179 95
170 190 92
154 177 99
157 179 95
166 187 88
159 181 88
165 187 88
158 179 117
158 179 99
152 173 80
163 184 80
156 177 99
157 178 95
162 184 88
156 177 92
163 183 95
159 180 62
169 189 88
160 180 95
155 176 84
152 172 62
157 178 67
148 168 67
151 172 80
152 173 72
159 181 88
157 177 80
155 177 25
148 169 44
144 165 25
155 177 36
155 177 62
145 167 36
147 167 0
151 172 62
147 167 36
144 167 0
157 179 44
158 180 25
150 172 0
153 175 44
149 172 25
146 168 0
157 180 0
155 177 0
146 167 25
156 178 0
148 170 0
158 180 25
154 176 0
149 172 0
154 177 0
151 172 0
153 176 0
149 170 0
143 165 0
143 165 0
151 173 0
137 158 0
144 166 0
143 164 0
150 172 0
147 168 0
144 166 0
134 155 0
129 151 0
146 165 0
137 158 0
139 160 0
137 158 0
134 155 0
134 155 0
146 167 0
145 165 0
137 158 0
137 158 0
135 155 0
137 158 0
136 157 0
133 154 0
134 155 0
143 164 0
146 167 0
150 171 0
141 161 0
139 160 0
132 153 0
145 167 0
142 163 0
134 155 0
138 159 0
138 159 0
145 167 0
137 158 0
146 168 0
141 162 0
148 169 0
139 159 0
129 150 0
136 157 0
139 159 0
139 160 0
135 155 0
141 160 0
136 157 0
142 162 0
135 157 0
141 161 0
135 155 0
144 167 0
130 151 0
143 163 0
148 169 0
137 159 0
143 164 0
141 162 0
134 157 0
145 165 0
137 158 0
139 159 0
144 165 0
140 162 0
147 168 0
146 167 0
141 162 0
136 158 0
143 165 0
144 166 0
147 168 0
136 158 0
142 163 0
146 168 0
145 167 0
144 166 0
140 161 0
149 170 0
144 166 0
142 164 0
143 164 0
143 163 0
141 163 0
145 166 0
139 161 0
145 167 0
142 164 0
151 173 0
143 165 0
145 167 0
141 161 0
147 169 0
148 170 0
140 161 0
148 168 0
140 162 0
146 168 0
148 170 0
147 167 0
145 166 0
152 173 0
151 173 0
148 169 0
146 168 0
150 171 0
151 173 0
145 167 0
152 173 0
153 175 0
146 166 0
145 168 0
153 175 0
148 169 0
148 171 0
148 170 0
155 177 0
150 172 0
157 179 0
140 162 0
149 171 0
155 177 0
154 175 0
149 170 0
144 166 0
147 168 0
160 182 0
153 175 0
154 175 0
153 174 0
154 174 0
157 180 0
152 174 0
154 177 0
148 169 0
153 175 0
155 176 0
153 174 0
156 177 0
161 183 0
156 177 0
157 180 0
158 180 0
162 184 0
155 177 0
151 174 0
161 183 0
154 176 0
147 168 0
156 179 0
159 181 0
151 172 0
151 172 0
158 180 0
152 175 0
159 180 0
158 180 0
160 181 0
159 181 0
161 185 0
162 183 0
166 189 0
155 177 0
158 180 0
158 179 0
162 184 0
160 181 0
161 183 0
157 179 0
162 182 0
166 187 0
159 180 0
154 176 0
158 180 0
158 180 0
156 178 0
165 188 0
161 184 0
155 177 0
159 182 0
160 181 0
159 180 0
156 178 0
160 182 0
161 182 0
157 179 0
162 183 0
163 184 0
161 181 0
165 187 0
162 183 0
165 188 0
166 188 0
168 190 0
160 183 0
164 185 0
162 184 0
162 182 0
164 187 0
162 184 0
159 181 0
165 188 0
161 182 0
163 186 0
166 187 0
161 183 0
167 187 0
163 185 0
163 186 0
163 184 0
164 186 0
160 181 0
165 187 0
165 187 0
163 186 0
161 183 0
167 189 0
162 184 0
163 185 0
164 186 0
170 191 0
165 187 0
164 186 0
160 182 0
166 188 0
167 188 0
165 188 0
160 182 0
165 187 0
164 187 0
162 183 0
159 181 0
166 188 0
162 182 0
170 190 0
168 192 0
168 187 0
166 188 0
169 191 0
168 189 0
167 189 0
163 186 0
169 191 0
167 190 0
167 189 0
168 191 0
164 186 0
168 190 0
166 187 0
164 188 0
166 188 0
161 182 0
169 192 0
167 190 0
165 188 0
166 188 0
176 199 84
174 197 88
173 196 84
170 193 80
172 195 102
169 192 90
176 198 114
173 196 95
170 192 88
177 200 105
175 198 111
168 190 67
171 194 99
177 199 114
171 194 88
169 191 95
174 196 92
174 197 84
173 196 72
175 198 122
171 193 102
170 192 117
171 194 88
173 195 108
171 194 111
171 194 95
162 185 84
167 190 76
163 185 62
169 191 95
174 197 120
166 189 92
168 192 111
169 191 92
167 191 95
163 184 62
165 188 95
172 195 95
172 195 92
169 192 88
168 191 108
171 193 111
169 191 92
174 197 111
165 188 95
169 192 92
163 185 80
167 189 84
168 191 95
167 189 102
162 185 92
170 192 105
165 188 99
166 189 92
170 192 95
159 181 92
164 186 105
168 191 95
167 190 88
167 190 92
162 185 95
166 188 92
161 182 72
168 190 102
163 185 105
165 186 92
170 191 111
162 183 108
160 183 88
160 182 92
170 192 99
159 181 99
151 173 80
167 189 114
165 186 80
163 185 80
169 190 95
166 187 92
169 190 99
157 178 92
158 179 80
164 185 111
167 188 111
159 180 99
167 188 102
165 187 122
163 184 95
162 183 102
164 185 95
160 181 95
159 181 67
157 177 92
164 185 99
164 185 95
159 180 99
158 180 84
162 183 95
158 179 99
153 174 80
156 177 76
165 185 99
152 173 72
160 180 111
158 178 92
162 183 84
162 182 84
160 181 80
156 176 95
162 182 76
156 176 76
156 177 80
153 174 62
148 169 51
157 178 80
149 169 67
149 171 57
158 180 57
154 176 25
148 170 44
151 173 0
151 173 25
155 177 51
155 177 25
146 168 0
147 168 25
147 168 36
154 177 0
151 174 0
154 177 25
151 173 25
157 179 25
161 183 25
156 179 0
148 170 0
156 179 0
157 179 0
151 173 25
152 174 0
148 169 0
149 171 0
149 171 0
153 174 0
155 177 0
148 170 0
151 173 0
148 170 0
148 170 0
143 164 0
141 163 0
138 159 0
143 165 0
150 171 0
143 165 0
143 165 0
144 164 0
137 159 0
141 162 0
131 152 0
147 169 0
146 167 0
137 159 0
144 165 0
146 168 0
149 171 0
137 159 0
133 154 0
134 155 0
142 162 0
136 157 0
141 161 0
137 157 0
138 159 0
144 165 0
141 162 0
137 157 0
139 160 0
133 153 0
138 159 0
135 156 0
152 174 0
143 165 0
143 165 0
147 168 0
145 167 0
145 166 0
141 161 0
143 165 0
140 162 0
145 166 0
135 157 0
140 161 0
144 164 0
136 157 0
137 157 0
140 162 0
144 165 0
142 162 0
139 159 0
141 161 0
129 151 0
138 160 0
142 164 0
140 161 0
134 155 0
138 158 0
148 170 0
139 160 0
137 159 0
140 162 0
139 159 0
146 167 0
149 171 0
142 163 0
144 166 0
146 168 0
143 165 0
134 154 0
135 157 0
143 164 0
142 163 0
145 167 0
145 167 0
151 172 0
140 161 0
138 160 0
147 168 0
148 171 0
151 172 0
141 163 0
147 170 0
145 167 0
149 171 0
139 160 0
149 170 0
143 164 0
152 174 0
150 171 0
142 164 0
154 174 0
152 173 0
144 165 0
159 182 0
146 168 0
154 176 0
151 173 0
155 177 0
146 166 0
153 174 0
148 171 0
153 175 0
150 173 0
149 171 0
146 166 0
148 170 0
147 168 0
148 169 0
155 177 0
152 175 0
150 170 0
154 175 0
147 169 0
151 173 0
150 173 0
160 182 0
148 169 0
150 172 0
159 182 0
152 173 0
149 169 0
155 177 0
152 174 0
152 173 0
156 178 0
159 182 0
150 172 0
149 172 0
155 177 0
162 184 0
152 173 0
148 169 0
147 168 0
154 174 0
161 184 0
152 174 0
158 180 0
156 179 0
158 178 0
153 174 0
156 178 0
156 177 0
157 179 0
157 178 0
162 184 0
158 180 0
160 182 0
160 182 0
161 184 0
158 180 0
161 182 0
160 181 0
154 176 0
159 179 0
156 177 0
162 184 0
156 178 0
157 179 0
167 189 0
160 183 0
159 182 0
164 186 0
161 183 0
157 178 0
160 182 0
150 173 0
157 178 0
161 183 0
164 187 0
158 180 0
159 180 0
158 179 0
161 183 0
156 177 0
160 185 0
161 182 0
156 177 0
165 186 0
161 185 0
162 185 0
158 181 0
163 186 0
162 183 0
159 181 0
166 188 0
160 183 0
165 187 0
165 186 0
163 185 0
162 184 0
164 186 0
164 186 0
162 185 0
156 177 0
163 185 0
165 187 0
160 182 0
166 188 0
163 185 0
163 186 0
164 187 0
163 185 0
159 178 0
167 187 0
159 181 0
167 189 0
161 184 0
169 190 0
163 183 0
161 184 0
164 185 0
170 192 0
162 183 0
160 182 0
168 191 0
164 186 0
165 187 0
168 189 0
166 188 0
163 184 0
165 187 0
166 187 0
163 183 0
166 188 0
167 189 0
163 185 0
169 191 0
167 188 0
168 190 0
165 188 0
165 188 0
166 189 0
166 189 0
164 187 0
164 188 0
165 187 0
162 185 0
170 191 0
165 188 0
167 189 0
167 191 0
168 191 0
163 185 0
165 187 0
162 182 0
169 191 0
169 191 0
168 190 0
166 189 0
169 191 0
168 191 0
166 187 0
176 198 127
172 195 92
170 193 76
175 198 97
173 196 118
167 190 72
175 197 120
172 196 88
167 189 88
179 201 108
173 195 88
164 187 80
175 197 102
165 188 57
169 192 102
169 192 92
171 195 114
172 195 88
170 194 95
170 193 76
172 194 102
166 189 88
173 196 92
173 195 108
168 191 99
168 192 92
167 190 76
173 195 99
165 187 88
172 196 108
167 190 88
167 190 114
171 194 108
168 192 102
164 186 95
166 189 99
170 192 92
166 188 84
172 194 105
168 191 88
160 183 76
167 190 84
165 188 95
158 181 72
172 195 102
172 194 88
165 188 72
171 193 88
162 184 95
168 190 92
172 195 105
168 190 102
169 192 120
168 190 92
169 191 92
161 184 95
168 190 114
168 190 102
162 184 88
168 191 92
159 181 88
164 186 102
162 185 111
166 188 95
158 181 95
155 178 88
171 192 99
164 185 72
157 180 88
162 184 120
162 183 76
169 190 95
168 189 111
161 183 88
158 179 80
158 180 72
168 189 108
168 190 105
159 181 92
158 180 80
161 183 80
163 184 108
165 186 84
155 176 80
158 179 80
165 186 108
164 185 105
162 183 95
162 182 95
158 178 72
158 178 80
156 177 80
156 176 88
163 183 62
160 181 92
158 179 84
164 186 67
162 183 88
162 183 108
156 177 67
160 181 108
163 184 80
155 175 92
158 178 95
156 176 72
158 178 102
158 178 92
161 182 80
163 184 88
160 182 76
157 178 67
162 182 80
158 180 51
156 178 57
152 174 51
152 173 36
156 177 62
154 176 51
158 179 36
151 172 36
155 177 0
157 177 44
155 177 36
146 168 44
156 178 25
154 176 36
161 183 0
158 179 0
155 177 25
160 181 0
145 167 0
153 175 0
158 181 0
158 180 25
152 174 0
150 172 0
148 170 0
159 182 0
152 174 0
158 181 0
148 170 0
147 170 0
155 176 0
150 173 0
149 172 0
154 175 0
145 168 0
138 160 0
147 169 0
142 163 0
139 161 0
146 167 0
133 155 0
144 166 0
150 170 0
142 164 0
145 165 0
143 164 0
138 159 0
146 167 0
145 166 0
136 157 0
143 163 0
149 170 0
146 168 0
131 152 0
141 162 0
138 159 0
140 161 0
135 156 0
138 158 0
146 167 0
135 157 0
139 160 0
130 150 0
135 155 0
137 158 0
142 163 0
146 168 0
136 158 0
142 164 0
142 164 0
141 162 0
143 165 0
150 173 0
138 158 0
143 164 0
140 160 0
145 167 0
153 173 0
137 158 0
146 167 0
146 167 0
135 155 0
142 162 0
138 158 0
141 163 0
142 163 0
137 157 0
141 164 0
140 162 0
142 164 0
135 156 0
150 172 0
139 159 0
141 162 0
143 163 0
137 158 0
132 152 0
144 165 0
141 162 0
147 169 0
143 165 0
144 166 0
145 167 0
148 170 0
143 164 0
144 164 0
141 162 0
140 160 0
135 157 0
142 164 0
140 161 0
145 167 0
148 170 0
150 171 0
146 168 0
142 164 0
141 162 0
142 164 0
144 166 0
149 171 0
141 161 0
147 168 0
144 166 0
150 173 0
146 165 0
142 164 0
144 166 0
158 180 0
140 161 0
149 169 0
140 160 0
151 173 0
147 168 0
145 166 0
156 177 0
148 170 0
151 172 0
146 168 0
156 177 0
144 166 0
143 165 0
150 172 0
153 175 0
154 175 0
148 170 0
154 177 0
147 169 0
161 183 0
152 172 0
159 181 0
152 174 0
155 176 0
151 174 0
150 172 0
157 178 0
154 176 0
147 168 0
162 183 0
158 179 0
153 175 0
153 176 0
156 177 0
152 173 0
153 174 0
151 174 0
157 179 0
161 183 0
150 171 0
158 181 0
157 178 0
161 184 0
157 179 0
153 175 0
162 185 0
156 177 0
154 177 0
160 182 0
161 184 0
157 178 0
156 179 0
153 175 0
160 183 0
153 176 0
157 179 0
156 178 0
157 179 0
154 174 0
154 176 0
162 183 0
160 182 0
154 176 0
164 184 0
159 181 0
156 178 0
159 181 0
164 187 0
159 181 0
160 181 0
156 179 0
157 178 0
155 178 0
156 179 0
159 181 0
161 184 0
160 182 0
162 185 0
161 183 0
161 183 0
166 188 0
164 186 0
158 181 0
153 176 0
163 185 0
166 188 0
155 175 0
163 186 0
154 176 0
163 185 0
162 183 0
159 181 0
162 184 0
164 186 0
161 182 0
165 188 0
158 182 0
165 188 0
160 183 0
166 188 0
168 191 0
167 188 0
160 183 0
161 183 0
161 183 0
162 184 0
163 181 0
160 181 0
161 183 0
164 186 0
168 190 0
164 185 0
165 187 0
161 184 0
162 184 0
165 186 0
164 187 0
165 187 0
159 181 0
163 185 0
165 187 0
162 184 0
166 188 0
168 190 0
164 186 0
163 184 0
160 183 0
165 187 0
166 188 0
167 190 0
165 187 0
166 190 0
168 190 0
167 189 0
166 188 0
164 186 0
167 189 0
167 190 0
167 191 0
166 188 0
166 188 0
168 189 0
172 194 0
164 186 0
166 188 0
168 190 0
166 186 0
166 189 0
166 188 0
167 189 0
168 191 0
166 187 0
169 192 0
164 186 0
166 187 0
165 187 0
170 192 0
167 189 0
164 186 0
168 191 0
173 196 78
169 192 80
176 199 110
176 198 108
175 197 76
171 195 100
172 195 82
170 192 102
172 195 76
170 192 57
171 194 88
175 198 105
175 197 120
175 197 127
170 193 95
170 192 76
172 194 72
171 194 80
174 197 108
173 196 108
174 197 114
174 196 114
173 196 105
168 191 105
171 193 80
162 184 88
171 194 92
174 196 120
170 193 105
176 198 99
171 194 88
164 187 76
170 191 102
168 191 84
171 193 95
168 191 99
169 192 117
168 191 92
173 195 105
166 188 108
171 194 117
167 190 102
174 196 95
166 189 92
170 193 99
162 185 95
161 184 88
173 195 99
162 184 51
163 186 92
172 193 95
165 188 102
165 187 102
163 185 84
165 188 114
165 187 102
160 183 88
162 184 95
165 187 88
172 194 95
166 188 105
166 188 92
170 192 99
160 182 95
163 184 105
157 179 99
164 186 80
161 183 84
161 183 72
156 178 84
164 187 102
162 184 99
159 181 84
156 177 95
164 185 105
160 181 80
166 188 102
156 177 76
162 184 88
162 184 99
159 181 99
161 183 111
166 188 99
157 179 84
160 182 88
155 176 67
160 182 102
153 174 67
165 185 84
147 168 80
157 178 76
168 189 99
163 184 99
157 177 80
162 184 76
153 174 76
163 183 88
154 175 76
161 182 102
166 186 108
158 179 76
153 175 72
167 187 76
164 184 95
162 183 72
161 182 76
157 178 84
154 175 72
157 178 44
163 183 88
157 178 67
155 177 51
151 172 57
157 177 62
151 174 36
150 171 44
152 174 44
153 175 25
147 168 36
153 175 44
156 178 36
156 178 44
155 177 25
157 179 0
153 175 25
148 171 0
151 174 25
154 176 36
152 174 0
151 172 0
157 179 0
158 179 25
157 179 0
160 181 0
154 175 25
155 178 0
157 179 0
154 177 0
152 173 0
157 179 0
151 173 0
150 173 0
144 166 0
150 172 0
147 169 0
149 172 0
142 163 0
136 158 0
151 171 0
146 167 0
148 168 0
146 168 0
143 164 0
143 164 0
142 163 0
141 163 0
144 166 0
143 164 0
143 164 0
141 163 0
144 166 0
143 165 0
150 172 0
143 164 0
145 166 0
145 166 0
143 165 0
141 161 0
135 156 0
137 158 0
137 158 0
129 149 0
144 164 0
136 158 0
146 167 0
142 162 0
137 158 0
137 158 0
132 153 0
140 161 0
144 165 0
140 163 0
140 161 0
140 161 0
133 153 0
140 161 0
139 160 0
133 154 0
141 163 0
146 168 0
144 165 0
143 166 0
141 162 0
131 151 0
141 162 0
141 163 0
141 163 0
147 169 0
131 151 0
145 166 0
136 156 0
136 158 0
147 169 0
145 166 0
133 154 0
145 167 0
146 168 0
148 169 0
137 158 0
137 159 0
133 155 0
140 161 0
141 163 0
139 160 0
138 159 0
140 162 0
144 166 0
142 163 0
138 159 0
139 161 0
140 162 0
148 169 0
145 167 0
144 165 0
142 163 0
142 163 0
141 161 0
140 160 0
145 166 0
148 169 0
145 166 0
146 167 0
144 165 0
149 171 0
145 167 0
143 164 0
155 176 0
151 173 0
141 163 0
146 167 0
147 169 0
140 162 0
155 177 0
148 169 0
144 165 0
153 175 0
147 167 0
148 171 0
154 176 0
152 174 0
146 167 0
158 180 0
141 163 0
153 175 0
146 167 0
155 176 0
150 172 0
152 173 0
152 175 0
151 173 0
150 172 0
151 172 0
154 174 0
153 175 0
155 178 0
153 174 0
152 173 0
152 174 0
154 176 0
156 178 0
155 178 0
157 178 0
153 176 0
157 179 0
155 178 0
158 179 0
152 174 0
153 174 0
153 175 0
154 176 0
152 173 0
159 181 0
153 175 0
153 176 0
162 184 0
154 175 0
155 176 0
157 179 0
149 171 0
153 174 0
158 181 0
159 181 0
160 182 0
163 185 0
158 179 0
164 187 0
162 184 0
156 178 0
156 177 0
153 176 0
159 181 0
157 179 0
158 180 0
158 180 0
157 179 0
158 179 0
154 176 0
158 179 0
158 179 0
161 183 0
161 184 0
166 189 0
158 180 0
159 183 0
157 180 0
162 185 0
165 187 0
155 177 0
165 186 0
162 183 0
156 177 0
160 181 0
155 177 0
164 186 0
162 184 0
162 185 0
159 180 0
160 183 0
160 182 0
164 186 0
162 185 0
164 185 0
161 183 0
166 187 0
160 182 0
166 188 0
162 184 0
160 181 0
156 178 0
164 186 0
163 185 0
162 184 0
164 187 0
160 183 0
164 186 0
166 187 0
162 184 0
159 182 0
168 190 0
166 190 0
166 188 0
168 190 0
164 187 0
170 192 0
169 191 0
166 187 0
164 187 0
166 188 0
163 187 0
164 186 0
169 191 0
165 189 0
164 186 0
166 188 0
165 188 0
167 190 0
168 190 0
166 187 0
163 185 0
163 184 0
170 190 0
164 185 0
162 184 0
164 187 0
164 186 0
165 187 0
168 189 0
170 192 0
163 185 0
167 189 0
165 187 0
168 190 0
168 189 0
169 191 0
169 192 0
164 186 0
163 184 0
169 190 0
168 191 0
164 187 0
164 186 0
168 190 0
164 187 0
168 190 0
168 191 0
167 188 0
169 192 0
167 188 0
167 190 0
158 181 0
