P3
400 225
255
220 235 255
220 235 255
220 235 255
220 235 255
220 235 255
220 235 255
220 235 255
220 235 255
220 235 255
220 235 255
220 235 255
220 235 255
220 235 255
220 235 255
220 235 255
220 235 255
220 235 255
220 235 255
220 235 255
220 235 255
220 235 255
220 235 255
220 235 255
220 235 255
220 235 255
220 235 255
220 235 255
220 235 255
220 235 255
220 235 255
220 235 255
220 235 255
220 235 255
220 235 255
220 235 255
220 235 255
220 235 255
220 235 255
220 235 255
220 235 255
220 235 255
220 235 255
220 235 255
220 235 255
220 235 255
220 235 255
220 235 255
220 235 255
220 235 255
220 235 255
220 235 255
220 235 255
220 235 255
220 235 255
220 235 255
220 235 255
220 235 255
220 235 255
220 235 255
220 235 255
220 235 255
220 235 255
220 235 255
220 235 255
220 235 255
220 235 255
220 235 255
220 235 255
220 235 255
220 235 255
220 235 255
220 235 255
220 235 255
220 235 255
220 235 255
220 235 255
220 235 255
220 235 255
220 235 255
220 235 255
220 235 255
220 235 255
220 235 255
220 235 255
220 235 255
220 235 255
220 235 255
220 235 255
220 235 255
220 235 255
220 235 255
220 235 255
220 235 255
220 235 255
220 235 255
220 235 255
220 235 255
220 235 255
220 235 255
220 235 255
220 235 255
220 235 255
220 235 255
164 180 201
127 141 160
41 45 51
88 98 112
112 125 141
61 68 77
23 26 30
18 20 23
31 35 39
69 77 88
107 119 135
133 148 168
147 164 186
167 186 211
177 197 223
180 201 227
181 201 228
179 199 226
181 201 228
182 202 229
180 201 228
179 199 225
174 193 219
157 175 199
155 172 196
147 163 185
151 168 191
155 172 195
144 160 182
134 149 170
127 142 161
137 152 173
136 151 172
136 151 172
129 143 163
104 116 131
118 132 149
121 135 153
135 150 170
137 153 173
143 159 181
145 161 183
151 168 190
156 174 197
154 172 195
150 167 190
147 164 186
144 160 182
139 154 175
137 152 173
120 134 152
111 123 140
98 109 124
97 108 122
96 107 122
88 98 111
61 68 77
49 55 62
40 45 51
31 35 39
15 16 19
13 15 17
33 37 42
43 48 54
47 52 59
51 57 65
57 63 71
63 70 80
80 89 101
86 96 109
82 91 103
85 95 107
98 109 124
101 112 127
104 115 131
104 116 132
111 124 140
103 114 130
109 121 137
115 127 145
134 149 169
140 156 177
137 152 172
128 143 162
127 142 161
131 146 165
139 155 176
153 170 192
162 180 204
169 188 213
171 190 215
170 188 214
162 180 204
164 182 206
159 177 200
160 177 201
163 181 205
168 187 212
174 194 220
180 200 227
181 202 229
177 197 223
173 192 218
171 190 216
166 185 210
163 181 206
159 176 200
152 169 192
142 157 178
118 132 149
115 128 145
104 115 131
93 104 118
83 92 105
75 83 94
58 65 73
46 51 58
51 57 64
66 73 83
91 101 114
116 129 146
135 150 171
142 158 179
155 172 195
169 188 213
171 190 216
169 188 213
173 193 219
177 197 223
180 201 227
181 202 229
181 201 228
181 201 228
181 201 228
181 201 228
178 198 224
176 195 221
172 191 217
165 183 208
156 174 197
147 164 186
136 152 172
110 122 138
88 98 111
42 47 53
12 14 16
10 11 13
22 25 28
50 56 64
66 74 84
81 91 103
105 116 132
124 138 156
132 147 167
133 148 168
138 153 174
135 150 171
126 141 160
117 130 147
100 112 126
82 91 103
80 89 101
92 102 116
105 116 132
117 130 148
102 113 129
84 93 106
68 76 86
48 53 60
11 12 14
7 8 9
19 21 24
54 60 68
84 93 105
88 98 111
69 77 87
35 39 45
38 42 48
65 73 82
51 57 65
22 24 28
7 8 9
19 21 24
56 62 71
113 126 143
159 177 201
180 200 227
176 196 222
170 189 214
168 187 212
153 171 194
142 157 179
170 189 215
186 204 229
220 235 255
220 235 255
220 235 255
220 235 255
220 235 255
220 235 255
220 235 255
220 235 255
220 235 255
220 235 255
220 235 255
220 235 255
220 235 255
220 235 255
220 235 255
220 235 255
220 235 255
220 235 255
220 235 255
220 235 255
220 235 255
220 235 255
220 235 255
220 235 255
220 235 255
220 235 255
220 235 255
220 235 255
220 235 255
220 235 255
220 235 255
220 235 255
220 235 255
220 235 255
220 235 255
220 235 255
220 235 255
220 235 255
220 235 255
220 235 255
220 235 255
220 235 255
220 235 255
220 235 255
220 235 255
220 235 255
220 235 255
220 235 255
220 235 255
220 235 255
220 235 255
220 235 255
220 235 255
220 235 255
220 235 255
220 235 255
220 235 255
220 235 255
220 235 255
220 235 255
220 235 255
220 235 255
220 235 255
220 235 255
220 235 255
220 235 255
220 235 255
220 235 255
220 235 255
220 235 255
220 235 255
220 235 255
220 235 255
220 235 255
220 235 255
220 235 255
220 235 255
220 235 255
220 235 255
220 235 255
220 235 255
220 235 255
220 235 255
220 235 255
220 235 255
220 235 255
220 235 255
220 235 255
220 235 255
220 235 255
220 235 255
220 235 255
220 235 255
220 235 255
220 235 255
220 235 255
220 235 255
220 235 255
220 235 255
220 235 255
220 235 255
220 235 255
220 235 255
220 235 255
220 235 255
220 235 255
220 235 255
220 235 255
220 235 255
220 235 255
220 235 255
220 235 255
220 235 255
220 235 255
220 235 255
220 235 255
220 235 255
220 235 255
220 235 255
220 235 255
220 235 255
220 235 255
220 235 255
220 235 255
220 235 255
220 235 255
220 235 255
220 235 255
220 235 255
220 235 255
220 235 255
220 235 255
220 235 255
220 235 255
220 235 255
220 235 255
220 235 255
220 235 255
220 235 255
220 235 255
220 235 255
220 235 255
220 235 255
220 235 255
220 235 255
220 235 255
220 235 255
220 235 255
220 235 255
220 235 255
220 235 255
220 235 255
220 235 255
220 235 255
220 235 255
220 235 255
220 235 255
220 235 255
220 235 255
220 235 255
220 235 255
220 235 255
220 235 255
220 235 255
220 235 255
220 235 255
220 235 255
220 235 255
220 235 255
220 235 255
220 235 255
220 235 255
220 235 255
220 235 255
220 235 255
220 235 255
220 235 255
220 235 255
220 235 255
220 235 255
220 235 255
220 235 255
220 235 255
220 235 255
220 235 255
220 235 255
220 235 255
220 235 255
220 235 255
220 235 255
220 235 255
220 235 255
220 235 255
220 235 255
220 235 255
220 235 255
220 235 255
220 235 255
220 235 255
220 235 255
220 235 255
220 235 255
220 235 255
220 235 255
220 235 255
220 235 255
165 183 207
122 136 154
36 40 46
108 120 136
109 122 138
57 63 72
41 45 51
13 14 16
25 28 31
55 61 69
102 113 128
142 158 179
159 177 201
172 191 217
179 199 226
182 202 229
182 202 229
182 202 229
181 202 229
182 202 229
181 201 228
175 195 221
165 183 208
150 167 190
146 163 185
147 164 186
156 174 197
163 181 206
150 167 189
140 156 177
140 155 176
145 161 183
147 163 185
139 155 176
129 144 163
106 118 134
115 128 145
128 142 161
134 149 170
134 149 169
144 160 181
145 162 183
152 169 192
158 175 199
155 172 195
150 167 190
147 164 186
147 164 186
140 156 176
138 153 174
120 133 151
103 115 130
90 100 114
104 116 132
107 119 135
91 102 115
69 77 87
61 68 78
58 65 73
48 54 61
32 35 40
13 14 16
16 18 20
21 24 27
32 36 40
49 55 62
59 65 74
69 77 87
83 92 105
89 99 112
93 103 117
99 110 125
105 117 133
105 117 132
103 114 130
110 123 139
117 130 148
110 123 139
110 123 139
115 128 146
133 148 168
140 156 177
140 156 176
133 147 167
128 142 161
136 151 172
143 160 181
157 175 199
163 181 205
168 187 212
167 185 210
166 185 210
166 185 209
165 183 208
159 177 200
157 175 198
163 182 206
171 190 215
176 196 222
180 200 227
182 202 229
178 197 224
170 189 214
166 184 209
165 183 207
166 185 210
165 184 208
159 177 200
145 161 183
128 143 162
117 130 148
104 116 131
96 107 122
76 84 96
67 75 85
60 67 76
46 51 58
55 61 69
67 74 84
90 100 113
116 129 146
136 151 172
148 164 186
157 175 198
169 188 213
174 194 220
174 193 219
179 199 225
181 201 228
179 199 226
179 198 225
178 198 225
179 199 225
178 198 224
175 195 221
172 191 217
162 180 204
159 176 200
152 169 192
150 166 189
153 170 193
140 156 177
114 127 144
87 97 110
49 54 61
15 17 19
14 16 18
15 17 19
35 39 45
58 65 73
67 75 85
81 90 102
98 109 124
112 124 141
128 142 161
143 159 180
135 150 170
114 127 144
101 112 127
88 98 111
68 75 85
70 78 89
81 90 102
94 105 119
118 131 148
114 127 144
87 96 109
75 83 95
63 70 80
34 38 43
13 15 17
14 16 18
45 50 57
65 72 82
74 83 94
59 66 75
22 25 28
47 53 60
67 74 84
50 55 63
18 20 23
5 6 7
10 11 13
28 32 36
84 93 106
151 168 191
179 199 226
176 196 222
169 188 213
174 194 220
163 182 206
131 145 165
160 177 201
178 197 223
220 235 255
220 235 255
220 235 255
220 235 255
220 235 255
220 235 255
220 235 255
220 235 255
220 235 255
220 235 255
220 235 255
220 235 255
220 235 255
220 235